; G-Code generated by Simplify3D(R) Version 4.1.1
; Apr 28, 2021 at 7:19:39 PM
; Settings Summary
;   processName,Trideo BOX
;   applyToModels,forearmelbowjoiner left
;   profileName,Trideo BOX
;   profileVersion,2021-04-15 09:48:16
;   baseProfile,Default
;   printMaterial,PLA
;   printQuality,Fast
;   printExtruders,
;   extruderName,Primary Extruder
;   extruderToolheadNumber,0
;   extruderDiameter,0.4
;   extruderAutoWidth,1
;   extruderWidth,0.48
;   extrusionMultiplier,0.98
;   extruderUseRetract,1
;   extruderRetractionDistance,0.7
;   extruderExtraRestartDistance,0
;   extruderRetractionZLift,0
;   extruderRetractionSpeed,1500
;   extruderUseCoasting,0
;   extruderCoastingDistance,0.2
;   extruderUseWipe,0
;   extruderWipeDistance,5
;   primaryExtruder,0
;   layerHeight,0.3
;   topSolidLayers,3
;   bottomSolidLayers,3
;   perimeterOutlines,2
;   printPerimetersInsideOut,1
;   startPointOption,2
;   startPointOriginX,0
;   startPointOriginY,0
;   sequentialIslands,0
;   spiralVaseMode,0
;   firstLayerHeightPercentage,90
;   firstLayerWidthPercentage,100
;   firstLayerUnderspeed,0.5
;   useRaft,0
;   raftExtruder,0
;   raftTopLayers,3
;   raftBaseLayers,2
;   raftOffset,3
;   raftSeparationDistance,0.14
;   raftTopInfill,100
;   aboveRaftSpeedMultiplier,0.3
;   useSkirt,1
;   skirtExtruder,0
;   skirtLayers,1
;   skirtOutlines,2
;   skirtOffset,4
;   usePrimePillar,0
;   primePillarExtruder,999
;   primePillarWidth,12
;   primePillarLocation,7
;   primePillarSpeedMultiplier,1
;   useOozeShield,0
;   oozeShieldExtruder,999
;   oozeShieldOffset,2
;   oozeShieldOutlines,1
;   oozeShieldSidewallShape,1
;   oozeShieldSidewallAngle,30
;   oozeShieldSpeedMultiplier,1
;   infillExtruder,0
;   internalInfillPattern,Rectilinear
;   externalInfillPattern,Rectilinear
;   infillPercentage,15
;   outlineOverlapPercentage,15
;   infillExtrusionWidthPercentage,100
;   minInfillLength,5
;   infillLayerInterval,1
;   internalInfillAngles,45,-45
;   overlapInternalInfillAngles,0
;   externalInfillAngles,45,-45
;   generateSupport,1
;   supportExtruder,0
;   supportInfillPercentage,25
;   supportExtraInflation,0
;   supportBaseLayers,0
;   denseSupportExtruder,0
;   denseSupportLayers,0
;   denseSupportInfillPercentage,70
;   supportLayerInterval,1
;   supportHorizontalPartOffset,0.3
;   supportUpperSeparationLayers,1
;   supportLowerSeparationLayers,1
;   supportType,0
;   supportGridSpacing,4
;   maxOverhangAngle,45
;   supportAngles,0
;   temperatureName,Primary Extruder,Heated bed
;   temperatureNumber,0,0
;   temperatureSetpointCount,1,1
;   temperatureSetpointLayers,1,1
;   temperatureSetpointTemperatures,190,60
;   temperatureStabilizeAtStartup,1,1
;   temperatureHeatedBed,0,1
;   fanLayers,1,2
;   fanSpeeds,0,100
;   blipFanToFullPower,0
;   adjustSpeedForCooling,1
;   minSpeedLayerTime,15
;   minCoolingSpeedSlowdown,20
;   increaseFanForCooling,0
;   minFanLayerTime,45
;   maxCoolingFanSpeed,100
;   increaseFanForBridging,0
;   bridgingFanSpeed,100
;   use5D,1
;   relativeEdistances,0
;   allowEaxisZeroing,1
;   independentExtruderAxes,0
;   includeM10123,0
;   stickySupport,1
;   applyToolheadOffsets,0
;   gcodeXoffset,0
;   gcodeYoffset,0
;   gcodeZoffset,0
;   overrideMachineDefinition,1
;   machineTypeOverride,0
;   strokeXoverride,200
;   strokeYoverride,200
;   strokeZoverride,200
;   originOffsetXoverride,0
;   originOffsetYoverride,0
;   originOffsetZoverride,0
;   homeXdirOverride,-1
;   homeYdirOverride,-1
;   homeZdirOverride,-1
;   flipXoverride,1
;   flipYoverride,-1
;   flipZoverride,1
;   toolheadOffsets,0,0|0,0|0,0|0,0|0,0|0,0
;   overrideFirmwareConfiguration,0
;   firmwareTypeOverride,RepRap (Marlin/Repetier/Sprinter)
;   GPXconfigOverride,r2
;   baudRateOverride,115200
;   overridePrinterModels,0
;   printerModelsOverride
;   startingGcode,G28 X0 Y0; home XY,G1 X20 Y20,G28 Z0,G1 Z5 F5000; Lift NZ
;   layerChangeGcode,
;   retractionGcode,
;   toolChangeGcode,
;   endingGcode,M104 S0 ; turn off extruder,G28 X0 ; home x,M140 S0 ; turn off bed,M84 ; disable motors,M107 ;
;   exportFileFormat,gcode
;   celebration,0
;   celebrationSong,Looney Toons
;   postProcessing,
;   defaultSpeed,3600
;   outlineUnderspeed,0.5
;   solidInfillUnderspeed,0.8
;   supportUnderspeed,0.8
;   rapidXYspeed,4800
;   rapidZspeed,1002
;   minBridgingArea,50
;   bridgingExtraInflation,0
;   bridgingExtrusionMultiplier,1
;   bridgingSpeedMultiplier,1
;   useFixedBridgingAngle,0
;   fixedBridgingAngle,0
;   applyBridgingToPerimeters,0
;   filamentDiameters,1.75|1.75|1.75|1.75|1.75|1.75
;   filamentPricesPerKg,46|46|46|46|46|46
;   filamentDensities,1.25|1.25|1.25|1.25|1.25|1.25
;   useMinPrintHeight,0
;   minPrintHeight,0
;   useMaxPrintHeight,0
;   maxPrintHeight,0
;   useDiaphragm,0
;   diaphragmLayerInterval,20
;   robustSlicing,1
;   mergeAllIntoSolid,0
;   onlyRetractWhenCrossingOutline,1
;   retractBetweenLayers,1
;   useRetractionMinTravel,0
;   retractionMinTravel,3
;   retractWhileWiping,0
;   onlyWipeOutlines,1
;   avoidCrossingOutline,0
;   maxMovementDetourFactor,3
;   toolChangeRetractionDistance,12
;   toolChangeExtraRestartDistance,-0.5
;   toolChangeRetractionSpeed,600
;   externalThinWallType,0
;   internalThinWallType,2
;   thinWallAllowedOverlapPercentage,10
;   singleExtrusionMinLength,1
;   singleExtrusionMinPrintingWidthPercentage,50
;   singleExtrusionMaxPrintingWidthPercentage,200
;   singleExtrusionEndpointExtension,0.2
;   horizontalSizeCompensation,0
G90
M82
M106 S0
M140 S60
M190 S60
M104 S190 T0
M109 S190 T0
G28 X0 Y0; home XY
G1 X20 Y20
G28 Z0
G1 Z5 F5000; Lift NZ
; process Trideo BOX
; layer 1, Z = 0.270
T0
G92 E0.0000
G1 E-0.7000 F1500
; feature skirt
; tool H0.270 W0.480
G1 Z0.270 F1002
G1 X53.825 Y105.060 F4800
G1 E0.0000 F1500
G92 E0.0000
G1 X78.175 Y105.060 E1.2858 F1800
G1 X78.324 Y105.209 E1.2969
G1 X83.513 Y104.759 E1.5719
G1 X83.551 Y104.755 E1.5739
G1 X91.109 Y104.224 E1.9740
G1 X91.149 Y104.222 E1.9761
G1 X94.927 Y104.020 E2.1759
G1 X94.959 Y104.019 E2.1776
G1 X98.837 Y103.865 E2.3825
G1 X98.872 Y103.864 E2.3844
G1 X102.445 Y103.775 E2.5731
G1 X102.482 Y103.775 E2.5750
G1 X106.075 Y103.742 E2.7648
G1 X108.865 Y103.559 E2.9124
G1 X108.865 Y64.684 E4.9652
G1 X108.883 Y64.391 E4.9807
G1 X108.989 Y63.543 E5.0258
G1 X109.135 Y62.970 E5.0571
G1 X109.504 Y62.033 E5.1102
G1 X109.794 Y61.505 E5.1420
G1 X110.391 Y60.685 E5.1956
G1 X110.817 Y60.237 E5.2282
G1 X111.615 Y59.592 E5.2824
G1 X112.157 Y59.263 E5.3159
G1 X113.106 Y58.850 E5.3705
G1 X113.728 Y58.674 E5.4047
G1 X114.598 Y58.554 E5.4510
G1 X114.922 Y58.531 E5.4682
G1 X132.353 Y58.531 E6.3886
G1 X133.825 Y57.060 E6.4985
G1 X150.175 Y57.060 E7.3619
G1 X152.940 Y59.825 E7.5683
G1 X152.940 Y112.175 E10.3326
G1 X151.650 Y113.465 E10.4289
G1 X151.656 Y113.506 E10.4311
G1 X151.719 Y114.481 E10.4827
G1 X151.723 Y114.608 E10.4894
G1 X152.940 Y115.825 E10.5803
G1 X152.940 Y132.175 E11.4437
G1 X150.175 Y134.940 E11.6501
G1 X97.825 Y134.940 E14.4144
G1 X95.060 Y132.175 E14.6209
G1 X95.060 Y118.809 E15.3267
G1 X92.940 Y118.809 E15.4386
G1 X92.940 Y120.175 E15.5107
G1 X90.175 Y122.940 E15.7172
G1 X76.940 Y122.940 E16.4161
G1 X76.940 Y132.175 E16.9037
G1 X74.175 Y134.940 E17.1102
G1 X61.825 Y134.940 E17.7623
G1 X59.060 Y132.175 E17.9688
G1 X59.060 Y118.940 E18.6676
G1 X53.825 Y118.940 E18.9441
G1 X51.060 Y116.175 E19.1505
G1 X51.060 Y107.825 E19.5915
G1 X53.825 Y105.060 E19.7979
G92 E0.0000
G1 E-0.7000 F1500
G1 X54.024 Y105.540 F4800
G1 E0.0000 F1500
G92 E0.0000
G1 X77.976 Y105.540 E1.2648 F1800
G1 X78.142 Y105.706 E1.2772
G1 X83.552 Y105.237 E1.5639
G1 X83.587 Y105.234 E1.5658
G1 X91.140 Y104.703 E1.9656
G1 X91.176 Y104.701 E1.9675
G1 X94.950 Y104.500 E2.1671
G1 X94.979 Y104.498 E2.1686
G1 X98.854 Y104.345 E2.3734
G1 X98.886 Y104.344 E2.3750
G1 X102.455 Y104.255 E2.5635
G1 X102.488 Y104.255 E2.5653
G1 X106.092 Y104.222 E2.7556
G1 X109.345 Y104.009 E2.9277
G1 X109.345 Y64.699 E5.0034
G1 X109.361 Y64.436 E5.0174
G1 X109.462 Y63.632 E5.0601
G1 X109.593 Y63.117 E5.0882
G1 X109.939 Y62.237 E5.1381
G1 X110.200 Y61.763 E5.1667
G1 X110.761 Y60.993 E5.2170
G1 X111.143 Y60.591 E5.2463
G1 X111.892 Y59.986 E5.2971
G1 X112.379 Y59.690 E5.3272
G1 X113.268 Y59.303 E5.3784
G1 X113.827 Y59.145 E5.4091
G1 X114.647 Y59.032 E5.4528
G1 X114.939 Y59.011 E5.4683
G1 X132.552 Y59.011 E6.3983
G1 X134.024 Y57.540 E6.5082
G1 X149.976 Y57.540 E7.3506
G1 X152.460 Y60.024 E7.5360
G1 X152.460 Y111.976 E10.2793
G1 X151.144 Y113.292 E10.3776
G1 X151.178 Y113.553 E10.3915
G1 X151.239 Y114.504 E10.4418
G1 X151.244 Y114.640 E10.4490
G1 X151.244 Y114.808 E10.4578
G1 X152.460 Y116.024 E10.5487
G1 X152.460 Y131.976 E11.3910
G1 X149.976 Y134.460 E11.5765
G1 X110.024 Y134.460 E13.6861
G1 X110.000 Y134.436 E13.6879
G1 X109.976 Y134.460 E13.6897
G1 X98.024 Y134.460 E14.3208
G1 X95.540 Y131.976 E14.5063
G1 X95.540 Y118.329 E15.2269
G1 X92.460 Y118.329 E15.3895
G1 X92.460 Y119.976 E15.4765
G1 X89.976 Y122.460 E15.6620
G1 X76.460 Y122.460 E16.3757
G1 X76.460 Y131.976 E16.8782
G1 X73.976 Y134.460 E17.0637
G1 X62.024 Y134.460 E17.6948
G1 X59.540 Y131.976 E17.8803
G1 X59.540 Y118.460 E18.5940
G1 X54.024 Y118.460 E18.8853
G1 X51.540 Y115.976 E19.0707
G1 X51.540 Y108.024 E19.4907
G1 X54.024 Y105.540 E19.6761
G92 E0.0000
G1 E-0.7000 F1500
; feature inner perimeter
G1 X77.631 Y110.727 F4800
G1 E0.0000 F1500
G92 E0.0000
G1 X80.017 Y110.512 E0.1265 F1350
G1 X83.959 Y110.180 E0.3354
G1 X87.638 Y109.902 E0.5302
G1 X91.462 Y109.653 E0.7326
G1 X95.195 Y109.454 E0.9300
G1 X99.029 Y109.302 E1.1326
G1 X102.555 Y109.214 E1.3188
G1 X106.277 Y109.181 E1.5154
G1 X114.305 Y108.654 E1.9402
G1 X114.305 Y64.876 E4.2518
G1 X114.339 Y64.601 E4.2664
G1 X114.422 Y64.391 E4.2784
G1 X114.550 Y64.215 E4.2899
G1 X114.712 Y64.084 E4.3009
G1 X114.893 Y64.005 E4.3113
G1 X115.134 Y63.971 E4.3242
G1 X133.533 Y63.971 E5.2957
G1 X134.397 Y64.061 E5.3416
G1 X135.194 Y64.316 E5.3857
G1 X135.932 Y64.731 E5.4304
G1 X136.581 Y65.292 E5.4758
G1 X137.117 Y65.979 E5.5218
G1 X137.516 Y66.766 E5.5684
G1 X137.763 Y67.623 E5.6155
G1 X137.850 Y68.550 E5.6646
G1 X137.850 Y108.435 E7.7707
G1 X138.938 Y108.433 E7.8282
G1 X139.641 Y108.463 E7.8653
G1 X140.278 Y108.543 E7.8992
G1 X140.950 Y108.682 E7.9354
G1 X141.624 Y108.882 E7.9726
G1 X142.297 Y109.150 E8.0108
G1 X142.823 Y109.411 E8.0418
G1 X143.433 Y109.780 E8.0795
G1 X143.994 Y110.198 E8.1164
G1 X144.181 Y110.355 E8.1293
G1 X144.488 Y110.647 E8.1517
G1 X144.924 Y111.122 E8.1857
G1 X145.303 Y111.630 E8.2192
G1 X145.648 Y112.206 E8.2546
G1 X145.924 Y112.814 E8.2899
G1 X146.113 Y113.407 E8.3227
G1 X146.240 Y114.056 E8.3577
G1 X146.284 Y114.735 E8.3936
G1 X146.285 Y115.851 E8.4525
G1 X138.842 Y115.877 E8.8455
G1 X106.622 Y115.897 E10.5468
G1 X106.085 Y115.272 E10.5904
G1 X105.648 Y113.369 E10.6935
G1 X77.682 Y113.369 E12.1702
G1 X77.631 Y110.727 E12.3097
; feature outer perimeter
G1 X77.142 Y110.289 F4800
G92 E0.0000
G1 X79.975 Y110.034 E0.1502 F900
G1 X83.921 Y109.702 E0.3593
G1 X87.604 Y109.423 E0.5543
G1 X91.434 Y109.173 E0.7570
G1 X95.173 Y108.974 E0.9547
G1 X99.014 Y108.822 E1.1577
G1 X102.547 Y108.734 E1.3443
G1 X106.259 Y108.701 E1.5403
G1 X113.825 Y108.205 E1.9407
G1 X113.825 Y64.846 E4.2302
G1 X113.870 Y64.482 E4.2495
G1 X113.998 Y64.158 E4.2679
G1 X114.199 Y63.881 E4.2860
G1 X114.460 Y63.670 E4.3037
G1 X114.762 Y63.538 E4.3211
G1 X115.101 Y63.491 E4.3392
G1 X133.557 Y63.491 E5.3138
G1 X134.496 Y63.589 E5.3636
G1 X135.387 Y63.873 E5.4130
G1 X136.164 Y64.311 E5.4601
G1 X136.209 Y64.336 E5.4628
G1 X136.931 Y64.960 E5.5131
G1 X137.524 Y65.721 E5.5641
G1 X137.965 Y66.590 E5.6156
G1 X138.237 Y67.534 E5.6674
G1 X138.330 Y68.528 E5.7201
G1 X138.330 Y107.954 E7.8020
G1 X138.948 Y107.953 E7.8346
G1 X139.682 Y107.984 E7.8734
G1 X140.357 Y108.069 E7.9093
G1 X141.068 Y108.216 E7.9477
G1 X141.781 Y108.428 E7.9870
G1 X142.493 Y108.711 E8.0274
G1 X143.054 Y108.990 E8.0605
G1 X143.701 Y109.381 E8.1004
G1 X144.292 Y109.821 E8.1393
G1 X144.501 Y109.997 E8.1538
G1 X144.831 Y110.310 E8.1778
G1 X145.294 Y110.815 E8.2140
G1 X145.703 Y111.363 E8.2500
G1 X146.074 Y111.982 E8.2882
G1 X146.372 Y112.641 E8.3264
G1 X146.578 Y113.287 E8.3622
G1 X146.717 Y113.994 E8.4002
G1 X146.764 Y114.719 E8.4385
G1 X146.765 Y116.329 E8.5236
G1 X138.844 Y116.357 E8.9418
G1 X106.402 Y116.377 E10.6549
G1 X105.666 Y115.522 E10.7145
G1 X105.633 Y115.452 E10.7185
G1 X105.266 Y113.849 E10.8054
G1 X77.219 Y113.849 E12.2863
G1 X77.205 Y113.547 E12.3023
G1 X77.142 Y110.289 E12.4744
G92 E0.0000
G1 E-0.7000 F1500
; feature inner perimeter
G1 X117.980 Y91.112 F4800
G1 E0.0000 F1500
G92 E0.0000
G1 X132.420 Y91.112 E0.7625 F1350
G1 X132.420 Y82.939 E1.1940
G1 X117.980 Y82.939 E1.9565
G1 X117.980 Y91.112 E2.3881
; feature outer perimeter
G1 X118.460 Y90.632 F4800
G92 E0.0000
G1 X131.940 Y90.632 E0.7118 F900
G1 X131.940 Y83.419 E1.0927
G1 X118.460 Y83.419 E1.8044
G1 X118.460 Y90.632 E2.1853
; feature inner perimeter
G1 X117.980 Y78.742 F4800
G92 E0.0000
G1 X132.420 Y78.742 E0.7625 F1350
G1 X132.420 Y70.569 E1.1940
G1 X117.980 Y70.569 E1.9565
G1 X117.980 Y78.742 E2.3881
; feature outer perimeter
G1 X118.460 Y78.262 F4800
G92 E0.0000
G1 X131.940 Y78.262 E0.7118 F900
G1 X131.940 Y71.049 E1.0927
G1 X118.460 Y71.049 E1.8044
G1 X118.460 Y78.262 E2.1853
; feature solid layer
G1 X117.843 Y79.150 F4800
G92 E0.0000
G1 X121.224 Y82.531 E0.2525 F1440
G1 X121.903 Y82.531 E0.2883
G1 X118.522 Y79.150 E0.5408
G1 X119.201 Y79.150 E0.5766
G1 X122.581 Y82.531 E0.8291
G1 X123.260 Y82.531 E0.8649
G1 X119.879 Y79.150 E1.1174
G1 X120.558 Y79.150 E1.1532
G1 X123.939 Y82.531 E1.4057
G1 X124.618 Y82.531 E1.4415
G1 X121.237 Y79.150 E1.6940
G1 X121.916 Y79.150 E1.7299
G1 X125.297 Y82.531 E1.9823
G1 X125.975 Y82.531 E2.0182
G1 X122.595 Y79.150 E2.2706
G1 X123.273 Y79.150 E2.3065
G1 X126.654 Y82.531 E2.5589
G1 X127.333 Y82.531 E2.5948
G1 X123.952 Y79.150 E2.8472
G1 X124.631 Y79.150 E2.8831
G1 X128.012 Y82.531 E3.1356
G1 X128.691 Y82.531 E3.1714
G1 X125.310 Y79.150 E3.4239
G1 X125.989 Y79.150 E3.4597
G1 X129.370 Y82.531 E3.7122
G1 X130.048 Y82.531 E3.7480
G1 X126.668 Y79.150 E4.0005
G1 X127.346 Y79.150 E4.0363
G1 X130.727 Y82.531 E4.2888
G1 X131.406 Y82.531 E4.3246
G1 X128.025 Y79.150 E4.5771
G1 X128.704 Y79.150 E4.6129
G1 X132.085 Y82.531 E4.8654
G1 X132.764 Y82.531 E4.9013
G1 X129.383 Y79.150 E5.1537
G1 X130.062 Y79.150 E5.1896
G1 X137.442 Y86.530 E5.7407
G1 X137.442 Y85.851 E5.7765
G1 X130.741 Y79.150 E6.2770
G1 X131.419 Y79.150 E6.3128
G1 X137.442 Y85.173 E6.7625
G1 X137.442 Y84.494 E6.7984
G1 X132.098 Y79.150 E7.1974
G1 X132.777 Y79.150 E7.2333
G1 X137.442 Y83.815 E7.5816
G1 X137.442 Y83.136 E7.6175
G1 X132.828 Y78.522 E7.9620
G1 X132.828 Y77.843 E7.9978
G1 X137.442 Y82.457 E8.3424
G1 X137.442 Y81.778 E8.3782
G1 X132.828 Y77.165 E8.7228
G1 X132.828 Y76.486 E8.7586
G1 X137.442 Y81.100 E9.1032
G1 X137.442 Y80.421 E9.1390
G1 X132.828 Y75.807 E9.4835
G1 X132.828 Y75.128 E9.5194
G1 X137.442 Y79.742 E9.8639
G1 X137.442 Y79.063 E9.8998
G1 X132.828 Y74.449 E10.2443
G1 X132.828 Y73.771 E10.2801
G1 X137.442 Y78.384 E10.6247
G1 X137.442 Y77.705 E10.6605
G1 X132.828 Y73.092 E11.0051
G1 X132.828 Y72.413 E11.0409
G1 X137.442 Y77.027 E11.3855
G1 X137.442 Y76.348 E11.4213
G1 X132.828 Y71.734 E11.7658
G1 X132.828 Y71.055 E11.8017
G1 X137.442 Y75.669 E12.1462
G1 X137.442 Y74.990 E12.1821
G1 X132.828 Y70.376 E12.5266
G1 X135.622 Y65.025 F4800
G92 E0.0000
G1 X136.679 Y66.082 E0.0789 F1440
G1 X136.771 Y66.199 E0.0868
G1 X137.135 Y66.917 E0.1293
G1 X137.256 Y67.338 E0.1524
G1 X134.413 Y64.495 E0.3647
G1 X134.313 Y64.463 E0.3702
G1 X133.632 Y64.392 E0.4064
G1 X137.404 Y68.164 E0.6881
G1 X137.442 Y68.569 E0.7096
G1 X137.442 Y68.881 E0.7260
G1 X132.941 Y64.379 E1.0622
G1 X132.262 Y64.379 E1.0980
G1 X137.442 Y69.560 E1.4849
G1 X137.442 Y70.238 E1.5207
G1 X131.583 Y64.379 E1.9582
G1 X130.904 Y64.379 E1.9941
G1 X137.442 Y70.917 E2.4823
G1 X137.442 Y71.596 E2.5181
G1 X130.225 Y64.379 E3.0570
G1 X129.546 Y64.379 E3.0929
G1 X137.442 Y72.275 E3.6825
G1 X137.442 Y72.954 E3.7183
G1 X128.868 Y64.379 E4.3586
G1 X128.189 Y64.379 E4.3945
G1 X137.442 Y73.633 E5.0854
G1 X137.442 Y74.311 E5.1213
