; G-Code generated by Simplify3D(R) Version 4.1.1
; Apr 28, 2021 at 7:20:37 PM
; Settings Summary
;   processName,Trideo BOX
;   applyToModels,forearmelbowjoiner left
;   profileName,Trideo BOX
;   profileVersion,2021-04-15 09:48:16
;   baseProfile,Default
;   printMaterial,PLA
;   printQuality,Fast
;   printExtruders,
;   extruderName,Primary Extruder
;   extruderToolheadNumber,0
;   extruderDiameter,0.4
;   extruderAutoWidth,1
;   extruderWidth,0.48
;   extrusionMultiplier,0.98
;   extruderUseRetract,1
;   extruderRetractionDistance,0.7
;   extruderExtraRestartDistance,0
;   extruderRetractionZLift,0
;   extruderRetractionSpeed,1500
;   extruderUseCoasting,0
;   extruderCoastingDistance,0.2
;   extruderUseWipe,0
;   extruderWipeDistance,5
;   primaryExtruder,0
;   layerHeight,0.3
;   topSolidLayers,3
;   bottomSolidLayers,3
;   perimeterOutlines,2
;   printPerimetersInsideOut,1
;   startPointOption,2
;   startPointOriginX,0
;   startPointOriginY,0
;   sequentialIslands,0
;   spiralVaseMode,0
;   firstLayerHeightPercentage,90
;   firstLayerWidthPercentage,100
;   firstLayerUnderspeed,0.5
;   useRaft,0
;   raftExtruder,0
;   raftTopLayers,3
;   raftBaseLayers,2
;   raftOffset,3
;   raftSeparationDistance,0.14
;   raftTopInfill,100
;   aboveRaftSpeedMultiplier,0.3
;   useSkirt,1
;   skirtExtruder,0
;   skirtLayers,1
;   skirtOutlines,2
;   skirtOffset,4
;   usePrimePillar,0
;   primePillarExtruder,999
;   primePillarWidth,12
;   primePillarLocation,7
;   primePillarSpeedMultiplier,1
;   useOozeShield,0
;   oozeShieldExtruder,999
;   oozeShieldOffset,2
;   oozeShieldOutlines,1
;   oozeShieldSidewallShape,1
;   oozeShieldSidewallAngle,30
;   oozeShieldSpeedMultiplier,1
;   infillExtruder,0
;   internalInfillPattern,Rectilinear
;   externalInfillPattern,Rectilinear
;   infillPercentage,15
;   outlineOverlapPercentage,15
;   infillExtrusionWidthPercentage,100
;   minInfillLength,5
;   infillLayerInterval,1
;   internalInfillAngles,45,-45
;   overlapInternalInfillAngles,0
;   externalInfillAngles,45,-45
;   generateSupport,1
;   supportExtruder,0
;   supportInfillPercentage,25
;   supportExtraInflation,0
;   supportBaseLayers,0
;   denseSupportExtruder,0
;   denseSupportLayers,0
;   denseSupportInfillPercentage,70
;   supportLayerInterval,1
;   supportHorizontalPartOffset,0.3
;   supportUpperSeparationLayers,1
;   supportLowerSeparationLayers,1
;   supportType,0
;   supportGridSpacing,4
;   maxOverhangAngle,45
;   supportAngles,0
;   temperatureName,Primary Extruder,Heated bed
;   temperatureNumber,0,0
;   temperatureSetpointCount,1,1
;   temperatureSetpointLayers,1,1
;   temperatureSetpointTemperatures,190,60
;   temperatureStabilizeAtStartup,1,1
;   temperatureHeatedBed,0,1
;   fanLayers,1,2
;   fanSpeeds,0,100
;   blipFanToFullPower,0
;   adjustSpeedForCooling,1
;   minSpeedLayerTime,15
;   minCoolingSpeedSlowdown,20
;   increaseFanForCooling,0
;   minFanLayerTime,45
;   maxCoolingFanSpeed,100
;   increaseFanForBridging,0
;   bridgingFanSpeed,100
;   use5D,1
;   relativeEdistances,0
;   allowEaxisZeroing,1
;   independentExtruderAxes,0
;   includeM10123,0
;   stickySupport,1
;   applyToolheadOffsets,0
;   gcodeXoffset,0
;   gcodeYoffset,0
;   gcodeZoffset,0
;   overrideMachineDefinition,1
;   machineTypeOverride,0
;   strokeXoverride,200
;   strokeYoverride,200
;   strokeZoverride,200
;   originOffsetXoverride,0
;   originOffsetYoverride,0
;   originOffsetZoverride,0
;   homeXdirOverride,-1
;   homeYdirOverride,-1
;   homeZdirOverride,-1
;   flipXoverride,1
;   flipYoverride,-1
;   flipZoverride,1
;   toolheadOffsets,0,0|0,0|0,0|0,0|0,0|0,0
;   overrideFirmwareConfiguration,0
;   firmwareTypeOverride,RepRap (Marlin/Repetier/Sprinter)
;   GPXconfigOverride,r2
;   baudRateOverride,115200
;   overridePrinterModels,0
;   printerModelsOverride
;   startingGcode,G28 X0 Y0; home XY,G1 X20 Y20,G28 Z0,G1 Z5 F5000; Lift NZ
;   layerChangeGcode,
;   retractionGcode,
;   toolChangeGcode,
;   endingGcode,M104 S0 ; turn off extruder,G28 X0 ; home x,M140 S0 ; turn off bed,M84 ; disable motors,M107 ;
;   exportFileFormat,gcode
;   celebration,0
;   celebrationSong,Looney Toons
;   postProcessing,
;   defaultSpeed,3600
;   outlineUnderspeed,0.5
;   solidInfillUnderspeed,0.8
;   supportUnderspeed,0.8
;   rapidXYspeed,4800
;   rapidZspeed,1002
;   minBridgingArea,50
;   bridgingExtraInflation,0
;   bridgingExtrusionMultiplier,1
;   bridgingSpeedMultiplier,1
;   useFixedBridgingAngle,0
;   fixedBridgingAngle,0
;   applyBridgingToPerimeters,0
;   filamentDiameters,1.75|1.75|1.75|1.75|1.75|1.75
;   filamentPricesPerKg,46|46|46|46|46|46
;   filamentDensities,1.25|1.25|1.25|1.25|1.25|1.25
;   useMinPrintHeight,0
;   minPrintHeight,0
;   useMaxPrintHeight,0
;   maxPrintHeight,0
;   useDiaphragm,0
;   diaphragmLayerInterval,20
;   robustSlicing,1
;   mergeAllIntoSolid,0
;   onlyRetractWhenCrossingOutline,1
;   retractBetweenLayers,1
;   useRetractionMinTravel,0
;   retractionMinTravel,3
;   retractWhileWiping,0
;   onlyWipeOutlines,1
;   avoidCrossingOutline,0
;   maxMovementDetourFactor,3
;   toolChangeRetractionDistance,12
;   toolChangeExtraRestartDistance,-0.5
;   toolChangeRetractionSpeed,600
;   externalThinWallType,0
;   internalThinWallType,2
;   thinWallAllowedOverlapPercentage,10
;   singleExtrusionMinLength,1
;   singleExtrusionMinPrintingWidthPercentage,50
;   singleExtrusionMaxPrintingWidthPercentage,200
;   singleExtrusionEndpointExtension,0.2
;   horizontalSizeCompensation,0
G90
M82
M106 S0
M140 S60
M190 S60
M104 S190 T0
M109 S190 T0
G28 X0 Y0; home XY
G1 X20 Y20
G28 Z0
G1 Z5 F5000; Lift NZ
; process Trideo BOX
; layer 1, Z = 0.270
T0
G92 E0.0000
G1 E-0.7000 F1500
; feature skirt
; tool H0.270 W0.480
G1 Z0.270 F1002
G1 X49.825 Y107.060 F4800
G1 E0.0000 F1500
G92 E0.0000
G1 X72.042 Y107.060 E1.1732 F1800
G1 X72.552 Y106.515 E1.2126
G1 X81.902 Y105.705 E1.7081
G1 X81.928 Y105.703 E1.7095
G1 X86.007 Y105.395 E1.9255
G1 X86.031 Y105.393 E1.9268
G1 X90.273 Y105.116 E2.1512
G1 X90.301 Y105.115 E2.1527
G1 X94.448 Y104.894 E2.3720
G1 X94.481 Y104.892 E2.3737
G1 X98.743 Y104.723 E2.5990
G1 X98.778 Y104.722 E2.6008
G1 X102.706 Y104.625 E2.8083
G1 X102.743 Y104.624 E2.8103
G1 X106.695 Y104.589 E3.0189
G1 X110.223 Y104.357 E3.2057
G1 X110.223 Y61.163 E5.4865
G1 X110.241 Y60.870 E5.5020
G1 X110.353 Y59.981 E5.5493
G1 X110.499 Y59.407 E5.5805
G1 X110.882 Y58.433 E5.6358
G1 X111.172 Y57.905 E5.6676
G1 X111.794 Y57.052 E5.7234
G1 X112.220 Y56.604 E5.7560
G1 X113.048 Y55.934 E5.8123
G1 X113.591 Y55.605 E5.8457
G1 X114.576 Y55.176 E5.9025
G1 X115.198 Y55.000 E5.9366
G1 X116.106 Y54.875 E5.9850
G1 X116.431 Y54.852 E6.0022
G1 X137.049 Y54.852 E7.0909
G1 X137.292 Y54.865 E7.1038
G1 X138.729 Y55.014 E7.1801
G1 X138.950 Y55.060 E7.1920
G1 X154.175 Y55.060 E7.9959
G1 X156.940 Y57.825 E8.2024
G1 X156.940 Y110.175 E10.9667
G1 X155.457 Y111.658 E11.0775
G1 X155.606 Y111.987 E11.0965
G1 X155.706 Y112.249 E11.1113
G1 X156.040 Y113.301 E11.1696
G1 X156.108 Y113.572 E11.1843
G1 X156.308 Y114.619 E11.2406
G1 X156.345 Y114.909 E11.2561
G1 X156.412 Y115.951 E11.3112
G1 X156.417 Y116.101 E11.3192
G1 X156.418 Y117.303 E11.3826
G1 X156.940 Y117.825 E11.4216
G1 X156.940 Y127.060 E11.9092
G1 X158.175 Y127.060 E11.9745
G1 X160.940 Y129.825 E12.1809
G1 X160.940 Y138.175 E12.6218
G1 X158.175 Y140.940 E12.8283
G1 X113.825 Y140.940 E15.1702
G1 X111.060 Y138.175 E15.3767
G1 X111.060 Y136.940 E15.4419
G1 X97.825 Y136.940 E16.1407
G1 X95.060 Y134.175 E16.3472
G1 X95.060 Y120.218 E17.0842
G1 X88.940 Y120.218 E17.4073
G1 X88.940 Y122.175 E17.5107
G1 X86.175 Y124.940 E17.7171
G1 X76.055 Y124.940 E18.2515
G1 X76.940 Y125.825 E18.3176
G1 X76.940 Y134.175 E18.7585
G1 X74.175 Y136.940 E18.9650
G1 X57.825 Y136.940 E19.8283
G1 X55.060 Y134.175 E20.0348
G1 X55.060 Y120.940 E20.7337
G1 X49.825 Y120.940 E21.0101
G1 X47.060 Y118.175 E21.2166
G1 X47.060 Y109.825 E21.6575
G1 X49.825 Y107.060 E21.8640
G92 E0.0000
G1 E-0.7000 F1500
G1 X50.024 Y107.540 F4800
G1 E0.0000 F1500
G92 E0.0000
G1 X72.251 Y107.540 E1.1737 F1800
G1 X72.777 Y106.978 E1.2143
G1 X81.942 Y106.184 E1.7001
G1 X81.965 Y106.182 E1.7013
G1 X86.042 Y105.874 E1.9172
G1 X86.064 Y105.872 E1.9184
G1 X90.303 Y105.595 E2.1427
G1 X90.328 Y105.594 E2.1440
G1 X94.472 Y105.373 E2.3632
G1 X94.501 Y105.372 E2.3647
G1 X98.760 Y105.203 E2.5897
G1 X98.791 Y105.202 E2.5914
G1 X102.716 Y105.105 E2.7987
G1 X102.749 Y105.104 E2.8005
G1 X106.713 Y105.068 E3.0098
G1 X110.703 Y104.806 E3.2209
G1 X110.703 Y61.178 E5.5247
G1 X110.720 Y60.914 E5.5386
G1 X110.825 Y60.070 E5.5835
G1 X110.956 Y59.555 E5.6116
G1 X111.318 Y58.637 E5.6637
G1 X111.578 Y58.163 E5.6923
G1 X112.163 Y57.360 E5.7447
G1 X112.546 Y56.957 E5.7740
G1 X113.325 Y56.328 E5.8269
G1 X113.812 Y56.032 E5.8570
G1 X114.737 Y55.629 E5.9103
G1 X115.296 Y55.471 E5.9410
G1 X116.156 Y55.352 E5.9868
G1 X116.447 Y55.332 E6.0022
G1 X137.036 Y55.332 E7.0894
G1 X137.255 Y55.343 E7.1010
G1 X138.654 Y55.489 E7.1753
G1 X138.900 Y55.540 E7.1885
G1 X153.976 Y55.540 E7.9846
G1 X156.460 Y58.024 E8.1701
G1 X156.460 Y109.976 E10.9134
G1 X154.883 Y111.554 E11.0312
G1 X155.163 Y112.172 E11.0670
G1 X155.253 Y112.407 E11.0803
G1 X155.578 Y113.432 E11.1371
G1 X155.639 Y113.676 E11.1503
G1 X155.834 Y114.694 E11.2051
G1 X155.867 Y114.955 E11.2190
G1 X155.933 Y115.974 E11.2729
G1 X155.937 Y116.109 E11.2800
G1 X155.938 Y117.502 E11.3536
G1 X156.460 Y118.024 E11.3925
G1 X156.460 Y127.540 E11.8950
G1 X157.976 Y127.540 E11.9751
G1 X160.460 Y130.024 E12.1606
G1 X160.460 Y137.976 E12.5805
G1 X157.976 Y140.460 E12.7660
G1 X114.024 Y140.460 E15.0868
G1 X111.540 Y137.976 E15.2723
G1 X111.540 Y136.460 E15.3524
G1 X110.024 Y136.460 E15.4324
G1 X110.000 Y136.436 E15.4342
G1 X109.976 Y136.460 E15.4360
G1 X98.024 Y136.460 E16.0671
G1 X95.540 Y133.976 E16.2526
G1 X95.540 Y119.738 E17.0044
G1 X88.460 Y119.738 E17.3783
G1 X88.460 Y121.976 E17.4964
G1 X85.976 Y124.460 E17.6819
G1 X74.896 Y124.460 E18.2670
G1 X76.460 Y126.024 E18.3838
G1 X76.460 Y133.976 E18.8037
G1 X73.976 Y136.460 E18.9892
G1 X58.024 Y136.460 E19.8315
G1 X55.540 Y133.976 E20.0170
G1 X55.540 Y120.460 E20.7307
G1 X50.024 Y120.460 E21.0220
G1 X47.540 Y117.976 E21.2075
G1 X47.540 Y110.024 E21.6274
G1 X50.024 Y107.540 E21.8129
G92 E0.0000
G1 E-0.7000 F1500
; feature inner perimeter
G1 X75.469 Y111.721 F4800
G1 E0.0000 F1500
G92 E0.0000
G1 X78.018 Y111.491 E0.1351 F1350
G1 X82.354 Y111.126 E0.3649
G1 X86.402 Y110.821 E0.5792
G1 X90.609 Y110.546 E0.8019
G1 X94.717 Y110.327 E1.0191
G1 X98.935 Y110.160 E1.2420
G1 X102.816 Y110.064 E1.4470
G1 X106.898 Y110.027 E1.6625
G1 X115.663 Y109.451 E2.1264
G1 X115.663 Y61.354 E4.6661
G1 X115.703 Y61.039 E4.6828
G1 X115.800 Y60.790 E4.6970
G1 X115.953 Y60.582 E4.7106
G1 X116.145 Y60.426 E4.7237
G1 X116.363 Y60.331 E4.7362
G1 X116.643 Y60.292 E4.7511
G1 X136.890 Y60.292 E5.8202
G1 X137.852 Y60.392 E5.8713
G1 X138.743 Y60.677 E5.9207
G1 X139.566 Y61.140 E5.9706
G1 X140.292 Y61.767 E6.0212
G1 X140.889 Y62.534 E6.0726
G1 X141.335 Y63.412 E6.1246
G1 X141.611 Y64.368 E6.1771
G1 X141.707 Y65.397 E6.2317
G1 X141.707 Y109.204 E8.5448
G1 X142.825 Y109.202 E8.6039
G1 X143.603 Y109.235 E8.6450
G1 X144.313 Y109.324 E8.6828
G1 X145.057 Y109.479 E8.7229
G1 X145.803 Y109.700 E8.7640
G1 X146.544 Y109.995 E8.8061
G1 X147.137 Y110.289 E8.8410
G1 X147.810 Y110.696 E8.8826
G1 X148.430 Y111.158 E8.9234
G1 X148.642 Y111.336 E8.9380
G1 X148.949 Y111.625 E8.9603
G1 X149.465 Y112.186 E9.0005
G1 X149.912 Y112.788 E9.0401
G1 X150.270 Y113.391 E9.0771
G1 X150.576 Y114.066 E9.1163
G1 X150.799 Y114.770 E9.1553
G1 X150.929 Y115.451 E9.1919
G1 X150.977 Y116.204 E9.2317
G1 X150.978 Y117.382 E9.2939
G1 X144.865 Y117.404 E9.6167
G1 X115.808 Y117.426 E11.1511
G1 X108.171 Y117.426 E11.5543
G1 X107.224 Y117.409 E11.6043
G1 X106.648 Y116.740 E11.6509
G1 X106.185 Y114.778 E11.7574
G1 X75.510 Y114.778 E13.3771
G1 X75.457 Y112.369 E13.5044
G1 X75.469 Y111.721 E13.5386
; feature outer perimeter
G1 X74.998 Y111.281 F4800
G92 E0.0000
G1 X77.975 Y111.013 E0.1579 F900
G1 X82.316 Y110.648 E0.3879
G1 X86.368 Y110.342 E0.6024
G1 X90.581 Y110.067 E0.8254
G1 X94.695 Y109.848 E1.0429
G1 X98.919 Y109.680 E1.2661
G1 X102.809 Y109.584 E1.4716
G1 X106.880 Y109.547 E1.6866
G1 X115.183 Y109.002 E2.1260
G1 X115.183 Y61.325 E4.6435
G1 X115.234 Y60.920 E4.6650
G1 X115.376 Y60.557 E4.6856
G1 X115.602 Y60.248 E4.7058
G1 X115.894 Y60.012 E4.7256
G1 X116.232 Y59.865 E4.7451
G1 X116.610 Y59.812 E4.7652
G1 X136.914 Y59.812 E5.8374
G1 X137.950 Y59.920 E5.8924
G1 X138.935 Y60.234 E5.9470
G1 X139.799 Y60.720 E5.9993
G1 X139.844 Y60.746 E6.0021
G1 X140.641 Y61.435 E6.0577
G1 X141.296 Y62.275 E6.1140
G1 X141.784 Y63.236 E6.1708
G1 X142.084 Y64.278 E6.2282
G1 X142.187 Y65.375 E6.2863
G1 X142.187 Y108.723 E8.5752
G1 X142.835 Y108.722 E8.6095
G1 X143.643 Y108.756 E8.6522
G1 X144.392 Y108.850 E8.6920
G1 X145.175 Y109.013 E8.7342
G1 X145.960 Y109.246 E8.7775
G1 X146.740 Y109.556 E8.8218
G1 X147.368 Y109.868 E8.8588
G1 X148.078 Y110.297 E8.9027
G1 X148.728 Y110.782 E8.9454
G1 X148.961 Y110.977 E8.9615
G1 X149.290 Y111.287 E8.9854
G1 X149.835 Y111.879 E9.0279
G1 X150.312 Y112.521 E9.0701
G1 X150.696 Y113.169 E9.1099
G1 X151.025 Y113.894 E9.1519
G1 X151.265 Y114.652 E9.1939
G1 X151.406 Y115.390 E9.2336
G1 X151.457 Y116.188 E9.2758
G1 X151.458 Y117.860 E9.3641
G1 X144.867 Y117.884 E9.7122
G1 X115.808 Y117.906 E11.2466
G1 X108.167 Y117.906 E11.6500
G1 X107.001 Y117.885 E11.7116
G1 X106.207 Y116.965 E11.7758
G1 X105.805 Y115.258 E11.8683
G1 X75.040 Y115.258 E13.4928
G1 X74.976 Y112.370 E13.6454
G1 X74.998 Y111.281 E13.7029
G92 E0.0000
G1 E-0.7000 F1500
; feature inner perimeter
G1 X119.850 Y90.151 F4800
G1 E0.0000 F1500
G92 E0.0000
G1 X135.590 Y90.151 E0.8311 F1350
G1 X135.590 Y81.272 E1.3000
G1 X119.850 Y81.272 E2.1311
G1 X119.850 Y90.151 E2.5999
; feature outer perimeter
G1 X120.330 Y89.671 F4800
G92 E0.0000
G1 X135.110 Y89.671 E0.7804 F900
G1 X135.110 Y81.752 E1.1986
G1 X120.330 Y81.752 E1.9790
G1 X120.330 Y89.671 E2.3971
; feature inner perimeter
G1 X119.850 Y76.577 F4800
G92 E0.0000
G1 X135.590 Y76.577 E0.8311 F1350
G1 X135.590 Y67.698 E1.3000
G1 X119.850 Y67.698 E2.1311
G1 X119.850 Y76.577 E2.5999
; feature outer perimeter
G1 X120.330 Y76.097 F4800
G92 E0.0000
G1 X135.110 Y76.097 E0.7804 F900
G1 X135.110 Y68.178 E1.1986
G1 X120.330 Y68.178 E1.9790
G1 X120.330 Y76.097 E2.3971
; feature solid layer
G1 X119.751 Y76.985 F4800
G92 E0.0000
G1 X123.630 Y80.864 E0.2897 F1440
G1 X124.309 Y80.864 E0.3255
G1 X120.429 Y76.985 E0.6152
G1 X121.108 Y76.985 E0.6511
G1 X124.988 Y80.864 E0.9408
G1 X125.666 Y80.864 E0.9766
G1 X121.787 Y76.985 E1.2663
G1 X122.466 Y76.985 E1.3021
G1 X126.345 Y80.864 E1.5918
G1 X127.024 Y80.864 E1.6277
G1 X123.145 Y76.985 E1.9174
G1 X123.824 Y76.985 E1.9532
G1 X127.703 Y80.864 E2.2429
G1 X128.382 Y80.864 E2.2787
G1 X124.502 Y76.985 E2.5684
G1 X125.181 Y76.985 E2.6043
G1 X129.061 Y80.864 E2.8940
G1 X129.739 Y80.864 E2.9298
G1 X125.860 Y76.985 E3.2195
G1 X126.539 Y76.985 E3.2554
G1 X130.418 Y80.864 E3.5450
G1 X131.097 Y80.864 E3.5809
G1 X127.218 Y76.985 E3.8706
G1 X127.897 Y76.985 E3.9064
G1 X131.776 Y80.864 E4.1961
G1 X132.455 Y80.864 E4.2320
G1 X128.575 Y76.985 E4.5216
G1 X129.254 Y76.985 E4.5575
G1 X133.133 Y80.864 E4.8472
G1 X133.812 Y80.864 E4.8830
G1 X129.933 Y76.985 E5.1727
G1 X130.612 Y76.985 E5.2086
G1 X134.491 Y80.864 E5.4983
G1 X135.170 Y80.864 E5.5341
G1 X131.291 Y76.985 E5.8238
G1 X131.969 Y76.985 E5.8596
G1 X135.849 Y80.864 E6.1493
G1 X135.998 Y80.864 E6.1572
G1 X135.998 Y81.013 E6.1651
G1 X141.299 Y86.314 E6.5609
G1 X141.299 Y85.635 E6.5968
G1 X132.648 Y76.985 E7.2428
G1 X133.327 Y76.985 E7.2786
G1 X141.299 Y84.957 E7.8739
G1 X141.299 Y84.278 E7.9098
G1 X134.006 Y76.985 E8.4544
G1 X134.685 Y76.985 E8.4902
G1 X141.299 Y83.599 E8.9841
G1 X141.299 Y82.920 E9.0200
G1 X135.364 Y76.985 E9.4632
G1 X135.998 Y76.985 E9.4967
G1 X135.998 Y76.941 E9.4990
G1 X141.299 Y82.241 E9.8949
G1 X141.299 Y81.562 E9.9307
G1 X135.998 Y76.262 E10.3266
G1 X135.998 Y75.583 E10.3624
G1 X141.299 Y80.884 E10.7582
G1 X141.299 Y80.205 E10.7941
G1 X135.998 Y74.904 E11.1899
G1 X135.998 Y74.225 E11.2258
