; G-Code generated by Simplify3D(R) Version 4.1.1
; Apr 28, 2021 at 7:20:14 PM
; Settings Summary
;   processName,Trideo BOX
;   applyToModels,forearmelbowjoiner left
;   profileName,Trideo BOX
;   profileVersion,2021-04-15 09:48:16
;   baseProfile,Default
;   printMaterial,PLA
;   printQuality,Fast
;   printExtruders,
;   extruderName,Primary Extruder
;   extruderToolheadNumber,0
;   extruderDiameter,0.4
;   extruderAutoWidth,1
;   extruderWidth,0.48
;   extrusionMultiplier,0.98
;   extruderUseRetract,1
;   extruderRetractionDistance,0.7
;   extruderExtraRestartDistance,0
;   extruderRetractionZLift,0
;   extruderRetractionSpeed,1500
;   extruderUseCoasting,0
;   extruderCoastingDistance,0.2
;   extruderUseWipe,0
;   extruderWipeDistance,5
;   primaryExtruder,0
;   layerHeight,0.3
;   topSolidLayers,3
;   bottomSolidLayers,3
;   perimeterOutlines,2
;   printPerimetersInsideOut,1
;   startPointOption,2
;   startPointOriginX,0
;   startPointOriginY,0
;   sequentialIslands,0
;   spiralVaseMode,0
;   firstLayerHeightPercentage,90
;   firstLayerWidthPercentage,100
;   firstLayerUnderspeed,0.5
;   useRaft,0
;   raftExtruder,0
;   raftTopLayers,3
;   raftBaseLayers,2
;   raftOffset,3
;   raftSeparationDistance,0.14
;   raftTopInfill,100
;   aboveRaftSpeedMultiplier,0.3
;   useSkirt,1
;   skirtExtruder,0
;   skirtLayers,1
;   skirtOutlines,2
;   skirtOffset,4
;   usePrimePillar,0
;   primePillarExtruder,999
;   primePillarWidth,12
;   primePillarLocation,7
;   primePillarSpeedMultiplier,1
;   useOozeShield,0
;   oozeShieldExtruder,999
;   oozeShieldOffset,2
;   oozeShieldOutlines,1
;   oozeShieldSidewallShape,1
;   oozeShieldSidewallAngle,30
;   oozeShieldSpeedMultiplier,1
;   infillExtruder,0
;   internalInfillPattern,Rectilinear
;   externalInfillPattern,Rectilinear
;   infillPercentage,15
;   outlineOverlapPercentage,15
;   infillExtrusionWidthPercentage,100
;   minInfillLength,5
;   infillLayerInterval,1
;   internalInfillAngles,45,-45
;   overlapInternalInfillAngles,0
;   externalInfillAngles,45,-45
;   generateSupport,1
;   supportExtruder,0
;   supportInfillPercentage,25
;   supportExtraInflation,0
;   supportBaseLayers,0
;   denseSupportExtruder,0
;   denseSupportLayers,0
;   denseSupportInfillPercentage,70
;   supportLayerInterval,1
;   supportHorizontalPartOffset,0.3
;   supportUpperSeparationLayers,1
;   supportLowerSeparationLayers,1
;   supportType,0
;   supportGridSpacing,4
;   maxOverhangAngle,45
;   supportAngles,0
;   temperatureName,Primary Extruder,Heated bed
;   temperatureNumber,0,0
;   temperatureSetpointCount,1,1
;   temperatureSetpointLayers,1,1
;   temperatureSetpointTemperatures,190,60
;   temperatureStabilizeAtStartup,1,1
;   temperatureHeatedBed,0,1
;   fanLayers,1,2
;   fanSpeeds,0,100
;   blipFanToFullPower,0
;   adjustSpeedForCooling,1
;   minSpeedLayerTime,15
;   minCoolingSpeedSlowdown,20
;   increaseFanForCooling,0
;   minFanLayerTime,45
;   maxCoolingFanSpeed,100
;   increaseFanForBridging,0
;   bridgingFanSpeed,100
;   use5D,1
;   relativeEdistances,0
;   allowEaxisZeroing,1
;   independentExtruderAxes,0
;   includeM10123,0
;   stickySupport,1
;   applyToolheadOffsets,0
;   gcodeXoffset,0
;   gcodeYoffset,0
;   gcodeZoffset,0
;   overrideMachineDefinition,1
;   machineTypeOverride,0
;   strokeXoverride,200
;   strokeYoverride,200
;   strokeZoverride,200
;   originOffsetXoverride,0
;   originOffsetYoverride,0
;   originOffsetZoverride,0
;   homeXdirOverride,-1
;   homeYdirOverride,-1
;   homeZdirOverride,-1
;   flipXoverride,1
;   flipYoverride,-1
;   flipZoverride,1
;   toolheadOffsets,0,0|0,0|0,0|0,0|0,0|0,0
;   overrideFirmwareConfiguration,0
;   firmwareTypeOverride,RepRap (Marlin/Repetier/Sprinter)
;   GPXconfigOverride,r2
;   baudRateOverride,115200
;   overridePrinterModels,0
;   printerModelsOverride
;   startingGcode,G28 X0 Y0; home XY,G1 X20 Y20,G28 Z0,G1 Z5 F5000; Lift NZ
;   layerChangeGcode,
;   retractionGcode,
;   toolChangeGcode,
;   endingGcode,M104 S0 ; turn off extruder,G28 X0 ; home x,M140 S0 ; turn off bed,M84 ; disable motors,M107 ;
;   exportFileFormat,gcode
;   celebration,0
;   celebrationSong,Looney Toons
;   postProcessing,
;   defaultSpeed,3600
;   outlineUnderspeed,0.5
;   solidInfillUnderspeed,0.8
;   supportUnderspeed,0.8
;   rapidXYspeed,4800
;   rapidZspeed,1002
;   minBridgingArea,50
;   bridgingExtraInflation,0
;   bridgingExtrusionMultiplier,1
;   bridgingSpeedMultiplier,1
;   useFixedBridgingAngle,0
;   fixedBridgingAngle,0
;   applyBridgingToPerimeters,0
;   filamentDiameters,1.75|1.75|1.75|1.75|1.75|1.75
;   filamentPricesPerKg,46|46|46|46|46|46
;   filamentDensities,1.25|1.25|1.25|1.25|1.25|1.25
;   useMinPrintHeight,0
;   minPrintHeight,0
;   useMaxPrintHeight,0
;   maxPrintHeight,0
;   useDiaphragm,0
;   diaphragmLayerInterval,20
;   robustSlicing,1
;   mergeAllIntoSolid,0
;   onlyRetractWhenCrossingOutline,1
;   retractBetweenLayers,1
;   useRetractionMinTravel,0
;   retractionMinTravel,3
;   retractWhileWiping,0
;   onlyWipeOutlines,1
;   avoidCrossingOutline,0
;   maxMovementDetourFactor,3
;   toolChangeRetractionDistance,12
;   toolChangeExtraRestartDistance,-0.5
;   toolChangeRetractionSpeed,600
;   externalThinWallType,0
;   internalThinWallType,2
;   thinWallAllowedOverlapPercentage,10
;   singleExtrusionMinLength,1
;   singleExtrusionMinPrintingWidthPercentage,50
;   singleExtrusionMaxPrintingWidthPercentage,200
;   singleExtrusionEndpointExtension,0.2
;   horizontalSizeCompensation,0
G90
M82
M106 S0
M140 S60
M190 S60
M104 S190 T0
M109 S190 T0
G28 X0 Y0; home XY
G1 X20 Y20
G28 Z0
G1 Z5 F5000; Lift NZ
; process Trideo BOX
; layer 1, Z = 0.270
T0
G92 E0.0000
G1 E-0.7000 F1500
; feature skirt
; tool H0.270 W0.480
G1 Z0.270 F1002
G1 X55.825 Y105.060 F4800
G1 E0.0000 F1500
G92 E0.0000
G1 X76.343 Y105.060 E1.0834 F1800
G1 X76.814 Y104.533 E1.1207
G1 X85.117 Y103.812 E1.5608
G1 X85.156 Y103.809 E1.5629
G1 X91.962 Y103.331 E1.9231
G1 X92.002 Y103.328 E1.9252
G1 X95.405 Y103.147 E2.1052
G1 X95.437 Y103.145 E2.1069
G1 X98.931 Y103.007 E2.2916
G1 X98.966 Y103.006 E2.2934
G1 X102.183 Y102.926 E2.4633
G1 X102.220 Y102.925 E2.4653
G1 X105.454 Y102.896 E2.6361
G1 X107.506 Y102.762 E2.7446
G1 X107.506 Y68.205 E4.5694
G1 X107.524 Y67.912 E4.5849
G1 X107.625 Y67.105 E4.6278
G1 X107.772 Y66.532 E4.6591
G1 X108.125 Y65.633 E4.7100
G1 X108.415 Y65.105 E4.7419
G1 X108.989 Y64.318 E4.7933
G1 X109.415 Y63.870 E4.8259
G1 X110.181 Y63.251 E4.8780
G1 X110.724 Y62.922 E4.9115
G1 X111.636 Y62.524 E4.9640
G1 X112.259 Y62.348 E4.9982
G1 X113.089 Y62.233 E5.0425
G1 X113.414 Y62.211 E5.0596
G1 X130.335 Y62.211 E5.9531
G1 X130.578 Y62.223 E5.9660
G1 X130.654 Y62.231 E5.9700
G1 X131.825 Y61.060 E6.0575
G1 X144.175 Y61.060 E6.7096
G1 X146.940 Y63.825 E6.9161
G1 X146.940 Y108.175 E9.2579
G1 X146.093 Y109.022 E9.3212
G1 X146.300 Y109.478 E9.3476
G1 X146.399 Y109.735 E9.3622
G1 X146.674 Y110.596 E9.4099
G1 X146.741 Y110.858 E9.4242
G1 X146.927 Y111.805 E9.4751
G1 X146.967 Y112.108 E9.4913
G1 X147.025 Y113.011 E9.5390
G1 X147.030 Y113.162 E9.5470
G1 X147.034 Y116.987 E9.7490
G1 X146.940 Y117.081 E9.7560
G1 X146.940 Y121.060 E9.9661
G1 X148.175 Y121.060 E10.0313
G1 X150.940 Y123.825 E10.2378
G1 X150.940 Y132.175 E10.6787
G1 X148.175 Y134.940 E10.8852
G1 X127.825 Y134.940 E11.9598
G1 X125.060 Y132.175 E12.1662
G1 X125.060 Y130.940 E12.2315
G1 X95.825 Y130.940 E13.7752
G1 X93.060 Y128.175 E13.9817
G1 X93.060 Y117.400 E14.5506
G1 X90.940 Y117.400 E14.6625
G1 X90.940 Y120.175 E14.8091
G1 X88.175 Y122.940 E15.0155
G1 X78.940 Y122.940 E15.5032
G1 X78.940 Y128.175 E15.7796
G1 X76.175 Y130.940 E15.9861
G1 X63.825 Y130.940 E16.6382
G1 X61.060 Y128.175 E16.8447
G1 X61.060 Y118.940 E17.3323
G1 X55.825 Y118.940 E17.6088
G1 X53.060 Y116.175 E17.8152
G1 X53.060 Y107.825 E18.2562
G1 X55.825 Y105.060 E18.4626
G92 E0.0000
G1 E-0.7000 F1500
G1 X56.024 Y105.540 F4800
G1 E0.0000 F1500
G92 E0.0000
G1 X76.557 Y105.540 E1.0843 F1800
G1 X77.045 Y104.995 E1.1228
G1 X85.157 Y104.291 E1.5528
G1 X85.192 Y104.288 E1.5547
G1 X91.993 Y103.810 E1.9147
G1 X92.029 Y103.807 E1.9166
G1 X95.428 Y103.626 E2.0963
G1 X95.457 Y103.625 E2.0979
G1 X98.949 Y103.487 E2.2824
G1 X98.980 Y103.486 E2.2840
G1 X102.193 Y103.406 E2.4538
G1 X102.227 Y103.405 E2.4555
G1 X105.472 Y103.376 E2.6269
G1 X107.986 Y103.211 E2.7599
G1 X107.986 Y68.220 E4.6076
G1 X108.003 Y67.957 E4.6215
G1 X108.098 Y67.195 E4.6621
G1 X108.229 Y66.679 E4.6902
G1 X108.561 Y65.837 E4.7379
G1 X108.821 Y65.363 E4.7665
G1 X109.358 Y64.626 E4.8147
G1 X109.741 Y64.224 E4.8440
G1 X110.458 Y63.644 E4.8927
G1 X110.945 Y63.349 E4.9228
G1 X111.798 Y62.977 E4.9719
G1 X112.357 Y62.819 E5.0026
G1 X113.139 Y62.711 E5.0443
G1 X113.430 Y62.691 E5.0597
G1 X130.322 Y62.691 E5.9516
G1 X130.541 Y62.702 E5.9632
G1 X130.832 Y62.732 E5.9786
G1 X132.024 Y61.540 E6.0677
G1 X143.976 Y61.540 E6.6988
G1 X146.460 Y64.024 E6.8843
G1 X146.460 Y75.976 E7.5154
G1 X146.436 Y76.000 E7.5172
G1 X146.460 Y76.024 E7.5190
G1 X146.460 Y87.976 E8.1501
G1 X146.436 Y88.000 E8.1519
G1 X146.460 Y88.024 E8.1536
G1 X146.460 Y107.976 E9.2072
G1 X145.519 Y108.918 E9.2775
G1 X145.857 Y109.663 E9.3207
G1 X145.946 Y109.894 E9.3338
G1 X146.212 Y110.729 E9.3801
G1 X146.273 Y110.965 E9.3929
G1 X146.453 Y111.882 E9.4423
G1 X146.489 Y112.154 E9.4568
G1 X146.546 Y113.034 E9.5034
G1 X146.550 Y113.170 E9.5105
G1 X146.554 Y116.789 E9.7016
G1 X146.460 Y116.883 E9.7086
G1 X146.460 Y121.540 E9.9545
G1 X147.976 Y121.540 E10.0346
G1 X150.460 Y124.024 E10.2201
G1 X150.460 Y131.976 E10.6400
G1 X147.976 Y134.460 E10.8255
G1 X128.024 Y134.460 E11.8790
G1 X125.540 Y131.976 E12.0645
G1 X125.540 Y130.460 E12.1446
G1 X108.024 Y130.460 E13.0695
G1 X108.000 Y130.436 E13.0713
G1 X107.976 Y130.460 E13.0731
G1 X96.024 Y130.460 E13.7042
G1 X93.540 Y127.976 E13.8897
G1 X93.540 Y116.920 E14.4735
G1 X90.460 Y116.920 E14.6361
G1 X90.460 Y119.976 E14.7975
G1 X87.976 Y122.460 E14.9829
G1 X78.460 Y122.460 E15.4854
G1 X78.460 Y127.976 E15.7767
G1 X75.976 Y130.460 E15.9622
G1 X64.024 Y130.460 E16.5933
G1 X61.540 Y127.976 E16.7788
G1 X61.540 Y118.460 E17.2813
G1 X56.024 Y118.460 E17.5726
G1 X53.540 Y115.976 E17.7580
G1 X53.540 Y108.024 E18.1780
G1 X56.024 Y105.540 E18.3634
G92 E0.0000
G1 E-0.7000 F1500
; feature inner perimeter
G1 X79.818 Y109.733 F4800
G1 E0.0000 F1500
G92 E0.0000
G1 X85.565 Y109.234 E0.3046 F1350
G1 X88.874 Y108.984 E0.4798
G1 X92.316 Y108.759 E0.6620
G1 X95.673 Y108.580 E0.8395
G1 X99.124 Y108.444 E1.0219
G1 X102.294 Y108.365 E1.1893
G1 X105.657 Y108.334 E1.3669
G1 X112.946 Y107.858 E1.7526
G1 X112.946 Y68.397 E3.8363
G1 X112.975 Y68.164 E3.8487
G1 X113.043 Y67.991 E3.8585
G1 X113.148 Y67.848 E3.8679
G1 X113.278 Y67.742 E3.8767
G1 X113.424 Y67.679 E3.8851
G1 X113.626 Y67.651 E3.8959
G1 X130.176 Y67.651 E4.7698
G1 X130.943 Y67.730 E4.8105
G1 X131.646 Y67.955 E4.8495
G1 X132.297 Y68.321 E4.8889
G1 X132.870 Y68.817 E4.9289
G1 X133.344 Y69.424 E4.9696
G1 X133.697 Y70.121 E5.0108
G1 X133.916 Y70.879 E5.0525
G1 X133.993 Y71.703 E5.0962
G1 X133.993 Y107.666 E6.9952
G1 X135.051 Y107.664 E7.0511
G1 X135.680 Y107.691 E7.0843
G1 X136.244 Y107.762 E7.1143
G1 X136.843 Y107.885 E7.1466
G1 X137.446 Y108.064 E7.1798
G1 X138.050 Y108.305 E7.2141
G1 X138.509 Y108.533 E7.2412
G1 X139.057 Y108.863 E7.2750
G1 X139.547 Y109.229 E7.3073
G1 X140.003 Y109.643 E7.3398
G1 X140.383 Y110.058 E7.3695
G1 X140.718 Y110.507 E7.3991
G1 X141.025 Y111.019 E7.4307
G1 X141.271 Y111.561 E7.4621
G1 X141.437 Y112.082 E7.4909
G1 X141.551 Y112.659 E7.5220
G1 X141.590 Y113.265 E7.5541
G1 X141.591 Y114.320 E7.6098
G1 X132.820 Y114.350 E8.0730
G1 X117.132 Y114.362 E8.9013
G1 X105.978 Y114.339 E9.4903
G1 X105.557 Y113.845 E9.5245
G1 X105.510 Y113.746 E9.5303
G1 X105.257 Y112.667 E9.5889
G1 X105.309 Y111.960 E9.6263
G1 X79.861 Y111.960 E10.9700
G1 X79.818 Y109.733 E11.0877
; feature outer perimeter
G1 X79.329 Y109.294 F4800
G92 E0.0000
G1 X85.526 Y108.755 E0.3284 F900
G1 X88.840 Y108.505 E0.5039
G1 X92.287 Y108.280 E0.6863
G1 X95.651 Y108.101 E0.8642
G1 X99.108 Y107.964 E1.0469
G1 X102.286 Y107.885 E1.2148
G1 X105.639 Y107.855 E1.3918
G1 X112.466 Y107.408 E1.7531
G1 X112.466 Y68.367 E3.8146
G1 X112.507 Y68.044 E3.8318
G1 X112.619 Y67.758 E3.8480
G1 X112.797 Y67.514 E3.8640
G1 X113.027 Y67.328 E3.8796
G1 X113.292 Y67.212 E3.8949
G1 X113.593 Y67.171 E3.9109
G1 X130.200 Y67.171 E4.7878
G1 X131.041 Y67.258 E4.8325
G1 X131.839 Y67.513 E4.8767
G1 X132.530 Y67.902 E4.9185
G1 X132.574 Y67.927 E4.9213
G1 X133.220 Y68.485 E4.9663
G1 X133.751 Y69.166 E5.0119
G1 X134.146 Y69.944 E5.0580
G1 X134.390 Y70.789 E5.1045
G1 X134.473 Y71.680 E5.1517
G1 X134.473 Y107.185 E7.0265
G1 X135.061 Y107.184 E7.0575
G1 X135.721 Y107.212 E7.0924
G1 X136.322 Y107.288 E7.1244
G1 X136.960 Y107.420 E7.1588
G1 X137.603 Y107.610 E7.1942
G1 X138.245 Y107.866 E7.2307
G1 X138.740 Y108.112 E7.2599
G1 X139.325 Y108.464 E7.2960
G1 X139.852 Y108.858 E7.3307
G1 X140.342 Y109.303 E7.3656
G1 X140.754 Y109.751 E7.3978
G1 X141.118 Y110.239 E7.4299
G1 X141.451 Y110.796 E7.4642
G1 X141.720 Y111.388 E7.4985
G1 X141.903 Y111.962 E7.5304
G1 X142.028 Y112.597 E7.5645
G1 X142.070 Y113.250 E7.5991
G1 X142.072 Y114.798 E7.6808
G1 X132.822 Y114.830 E8.1693
G1 X117.131 Y114.842 E8.9978
G1 X105.767 Y114.818 E9.5979
G1 X105.740 Y114.798 E9.5997
G1 X105.150 Y114.108 E9.6476
G1 X105.055 Y113.905 E9.6594
G1 X104.773 Y112.705 E9.7245
G1 X104.792 Y112.440 E9.7385
G1 X79.403 Y112.440 E11.0792
G1 X79.380 Y111.946 E11.1053
G1 X79.329 Y109.294 E11.2454
G92 E0.0000
G1 E-0.7000 F1500
; feature inner perimeter
G1 X116.110 Y92.072 F4800
G1 E0.0000 F1500
G92 E0.0000
G1 X129.250 Y92.072 E0.6938 F1350
G1 X129.250 Y84.606 E1.0881
G1 X116.110 Y84.606 E1.7820
G1 X116.110 Y92.072 E2.1762
; feature outer perimeter
G1 X116.590 Y91.592 F4800
G92 E0.0000
G1 X128.770 Y91.592 E0.6431 F900
G1 X128.770 Y85.086 E0.9867
G1 X116.590 Y85.086 E1.6299
G1 X116.590 Y91.592 E1.9735
; feature inner perimeter
G1 X116.110 Y80.907 F4800
G92 E0.0000
G1 X129.250 Y80.907 E0.6938 F1350
G1 X129.250 Y73.440 E1.0881
G1 X116.110 Y73.440 E1.7820
G1 X116.110 Y80.907 E2.1762
; feature outer perimeter
G1 X116.590 Y80.427 F4800
G92 E0.0000
G1 X128.770 Y80.427 E0.6431 F900
G1 X128.770 Y73.920 E0.9867
G1 X116.590 Y73.920 E1.6299
G1 X116.590 Y80.427 E1.9735
; feature solid layer
G1 X116.614 Y81.315 F4800
G92 E0.0000
G1 X119.496 Y84.198 E0.2152 F1440
G1 X120.175 Y84.198 E0.2511
G1 X117.293 Y81.315 E0.4663
G1 X117.972 Y81.315 E0.5022
G1 X120.854 Y84.198 E0.7174
G1 X121.533 Y84.198 E0.7533
G1 X118.650 Y81.315 E0.9685
G1 X119.329 Y81.315 E1.0043
G1 X122.212 Y84.198 E1.2196
G1 X122.890 Y84.198 E1.2554
G1 X120.008 Y81.315 E1.4707
G1 X120.687 Y81.315 E1.5065
G1 X123.569 Y84.198 E1.7217
G1 X124.248 Y84.198 E1.7576
G1 X121.366 Y81.315 E1.9728
G1 X122.045 Y81.315 E2.0087
G1 X124.927 Y84.198 E2.2239
G1 X125.606 Y84.198 E2.2598
G1 X122.723 Y81.315 E2.4750
G1 X123.402 Y81.315 E2.5108
G1 X126.285 Y84.198 E2.7261
G1 X126.963 Y84.198 E2.7619
G1 X124.081 Y81.315 E2.9772
G1 X124.760 Y81.315 E3.0130
G1 X127.642 Y84.198 E3.2282
G1 X128.321 Y84.198 E3.2641
G1 X125.439 Y81.315 E3.4793
G1 X126.118 Y81.315 E3.5152
G1 X129.000 Y84.198 E3.7304
G1 X129.658 Y84.198 E3.7652
G1 X129.658 Y84.856 E3.7999
G1 X133.585 Y88.783 E4.0932
G1 X133.585 Y88.104 E4.1290
G1 X126.796 Y81.315 E4.6360
G1 X127.475 Y81.315 E4.6718
G1 X133.585 Y87.425 E5.1280
G1 X133.585 Y86.746 E5.1639
G1 X128.154 Y81.315 E5.5694
G1 X128.833 Y81.315 E5.6053
G1 X133.585 Y86.067 E5.9602
G1 X133.585 Y85.388 E5.9960
G1 X129.512 Y81.315 E6.3002
G1 X129.658 Y81.315 E6.3079
G1 X129.658 Y80.783 E6.3360
G1 X133.585 Y84.710 E6.6293
G1 X133.585 Y84.031 E6.6651
G1 X129.658 Y80.104 E6.9583
G1 X129.658 Y79.425 E6.9942
G1 X133.585 Y83.352 E7.2874
G1 X133.585 Y82.673 E7.3233
G1 X129.658 Y78.746 E7.6165
G1 X129.658 Y78.068 E7.6524
G1 X133.585 Y81.994 E7.9456
G1 X133.585 Y81.316 E7.9814
G1 X129.658 Y77.389 E8.2747
G1 X129.658 Y76.710 E8.3105
G1 X133.585 Y80.637 E8.6038
G1 X133.585 Y79.958 E8.6396
G1 X129.658 Y76.031 E8.9328
G1 X129.658 Y75.352 E8.9687
G1 X133.585 Y79.279 E9.2619
G1 X133.585 Y78.600 E9.2978
G1 X129.658 Y74.673 E9.5910
