;FLAVOR:Marlin
;TIME:1976
;Filament used: 4.54328m
;Layer height: 0.3
;MINX:24.813
;MINY:34.38
;MINZ:0.2
;MAXX:210.187
;MAXY:201.287
;MAXZ:7.9
;Generated with Cura_SteamEngine 4.5.0
M140 S50
M105
M190 S50
M104 S200
M105
M109 S200
M82 ;absolute extrusion mode
; Ender 3 Custom Start G-code
G92 E0 ; Reset Extruder
G28 ; Home all axes
G1 Z2.0 F3000 ; Move Z Axis up little to prevent scratching of Heat Bed
G1 X0.1 Y20 Z0.3 F5000.0 ; Move to start position
G1 X0.1 Y200.0 Z0.3 F1500.0 E15 ; Draw the first line
G1 X0.4 Y200.0 Z0.3 F5000.0 ; Move to side a little
G1 X0.4 Y20 Z0.3 F1500.0 E30 ; Draw the second line
G92 E0 ; Reset Extruder
G1 Z2.0 F3000 ; Move Z Axis up little to prevent scratching of Heat Bed
G1 X5 Y20 Z0.3 F5000.0 ; Move over to prevent blob squish
G92 E0
G92 E0
G1 F2700 E-5
;LAYER_COUNT:29
;LAYER:0
M107
;MESH:Object 1
G0 F6000 X122.34 Y179.508 Z0.2
;TYPE:WALL-INNER
G1 F2700 E0
G1 F1200 X122.322 Y179.494 E0.00091
G1 X122.25 Y179.437 E0.00458
G1 X106.526 Y166.979 E0.80526
G1 X106.803 Y166.609 E0.8237
G1 X107.753 Y165.27 E0.88923
G1 X108.664 Y163.911 E0.95453
G1 X109.538 Y162.531 E1.01973
G1 X110.627 Y160.688 E1.10517
G1 X111.64 Y158.827 E1.18973
G1 X112.581 Y156.955 E1.27336
G1 X113.45 Y155.076 E1.35598
G1 X114.247 Y153.199 E1.43737
G1 X114.974 Y151.326 E1.51756
G1 X115.632 Y149.463 E1.59642
G1 X116.22 Y147.618 E1.67371
G1 X116.754 Y145.763 E1.75075
G1 X117.224 Y143.936 E1.82604
G1 X117.64 Y142.145 E1.89943
G1 X118.004 Y140.395 E1.97077
G1 X118.319 Y138.694 E2.03982
G1 X118.592 Y137.051 E2.10629
G1 X118.828 Y135.474 E2.16993
G1 X119.031 Y133.965 E2.2307
G1 X119.24 Y132.238 E2.30013
G1 X119.413 Y130.651 E2.36385
G1 X119.55 Y129.215 E2.42142
G1 X119.708 Y127.351 E2.49609
G1 X119.748 Y126.792 E2.51846
G1 X119.813 Y125.79 E2.55853
G1 X119.86 Y124.879 E2.59494
G1 X119.887 Y124.018 E2.62932
G1 X119.901 Y123.144 E2.66421
G1 X119.898 Y117.479 E2.89031
G1 X119.844 Y117.459 E2.89261
G1 X119.844 Y111.574 E3.12749
G1 X119.811 Y110.938 E3.15291
G1 X119.661 Y108.835 E3.23706
G1 X119.55 Y107.56 E3.28814
G1 X119.413 Y106.126 E3.34563
G1 X119.24 Y104.539 E3.40935
G1 X119.031 Y102.812 E3.47878
G1 X118.828 Y101.303 E3.53955
G1 X118.592 Y99.726 E3.60319
G1 X118.319 Y98.083 E3.66967
G1 X118.004 Y96.382 E3.73871
G1 X117.64 Y94.632 E3.81005
G1 X117.224 Y92.841 E3.88344
G1 X116.754 Y91.014 E3.95873
G1 X116.22 Y89.159 E4.03578
G1 X115.632 Y87.314 E4.11306
G1 X114.974 Y85.451 E4.19192
G1 X114.247 Y83.578 E4.27211
G1 X113.45 Y81.701 E4.3535
G1 X112.581 Y79.822 E4.43613
G1 X111.64 Y77.95 E4.51975
G1 X110.625 Y76.089 E4.60436
G1 X109.533 Y74.239 E4.6901
G1 X107.895 Y71.717 E4.81012
G1 X106.127 Y69.256 E4.93107
G1 X104.237 Y66.877 E5.05234
G1 X103.393 Y65.91 E5.10356
G1 X103.205 Y65.695 E5.11496
G1 X103.45 Y65.549 E5.12197
G1 X120.742 Y55.23 E5.92568
G1 X121.019 Y55.471 E5.94033
G1 X121.453 Y55.918 E5.9652
G1 X121.91 Y56.471 E5.99383
G1 X122.359 Y57.1 E6.02468
G1 X122.843 Y57.879 E6.06128
G1 X123.297 Y58.71 E6.09908
G1 X123.798 Y59.741 E6.14483
G1 X124.269 Y60.819 E6.19178
G1 X124.759 Y62.049 E6.24462
G1 X125.242 Y63.367 E6.30065
G1 X125.722 Y64.791 E6.36063
G1 X126.202 Y66.311 E6.42425
G1 X126.664 Y67.869 E6.48911
G1 X127.119 Y69.501 E6.55673
G1 X127.562 Y71.169 E6.62561
G1 X128.405 Y74.588 E6.76615
G1 X129.179 Y78.001 E6.90583
G1 X129.535 Y79.662 E6.97363
G1 X129.869 Y81.279 E7.03953
G1 X130.181 Y82.842 E7.10315
G1 X130.467 Y84.324 E7.16339
G1 X130.729 Y85.736 E7.22071
G1 X130.966 Y87.054 E7.27415
G1 X131.176 Y88.282 E7.32388
G1 X131.364 Y89.419 E7.36987
G1 X131.526 Y90.45 E7.41153
G1 X131.665 Y91.392 E7.44953
G1 X131.783 Y92.257 E7.48438
G1 X131.88 Y93.021 E7.51511
G1 X131.959 Y93.722 E7.54327
G1 X132.021 Y94.362 E7.56893
G1 X132.11 Y95.531 E7.61572
G1 X132.2 Y97.797 E7.70624
G1 X132.366 Y106.473 E8.05258
G1 X132.411 Y109.784 E8.18474
G1 X132.437 Y113.318 E8.32579
G1 X132.438 Y123.063 E8.71474
G1 X132.414 Y126.434 E8.84928
G1 X132.374 Y129.585 E8.97506
G1 X132.191 Y139.128 E9.35601
G1 X132.154 Y140.202 E9.3989
G1 X132.099 Y141.244 E9.44055
G1 X132.008 Y142.379 E9.48599
G1 X131.943 Y143.008 E9.51123
G1 X131.866 Y143.684 E9.53839
G1 X131.771 Y144.43 E9.5684
G1 X131.658 Y145.246 E9.60128
G1 X131.371 Y147.124 E9.67711
G1 X131.194 Y148.196 E9.72047
G1 X130.997 Y149.344 E9.76696
G1 X130.779 Y150.579 E9.81701
G1 X130.537 Y151.893 E9.87034
G1 X129.986 Y154.735 E9.98588
G1 X129.678 Y156.245 E10.04739
G1 X129.35 Y157.796 E10.11066
G1 X128.639 Y160.997 E10.24154
G1 X127.857 Y164.256 E10.3753
G1 X127.028 Y167.423 E10.50596
G1 X126.595 Y168.956 E10.56954
G1 X126.153 Y170.435 E10.63115
G1 X125.703 Y171.855 E10.6906
G1 X125.245 Y173.211 E10.74773
G1 X124.792 Y174.456 E10.80061
G1 X124.337 Y175.606 E10.84997
G1 X123.865 Y176.7 E10.89752
G1 X123.421 Y177.634 E10.9388
G1 X122.961 Y178.502 E10.97801
G1 X122.565 Y179.166 E11.00886
G1 X122.518 Y179.245 E11.01206
G1 X122.34 Y179.508 E11.02046
G0 F6000 X122.59 Y179.992
G1 F1200 X122.446 Y180.204 E11.03069
G1 X122.245 Y180.045 E11.03717
G1 X105.862 Y167.065 E11.87141
G1 X106.415 Y166.326 E11.90824
G1 X107.358 Y164.997 E11.97328
G1 X108.262 Y163.649 E12.03806
G1 X109.128 Y162.281 E12.10268
G1 X110.209 Y160.451 E12.18751
G1 X111.215 Y158.604 E12.27146
G1 X112.149 Y156.746 E12.35446
G1 X113.011 Y154.881 E12.43646
G1 X113.802 Y153.018 E12.51724
G1 X114.524 Y151.159 E12.59684
G1 X115.177 Y149.31 E12.6751
G1 X115.761 Y147.479 E12.75181
G1 X116.291 Y145.637 E12.82831
G1 X116.758 Y143.822 E12.90311
G1 X117.171 Y142.042 E12.97604
G1 X117.533 Y140.302 E13.04697
G1 X117.846 Y138.611 E13.11561
G1 X118.118 Y136.976 E13.18176
G1 X118.353 Y135.406 E13.24512
G1 X118.555 Y133.904 E13.30561
G1 X118.763 Y132.183 E13.3748
G1 X118.935 Y130.602 E13.43827
G1 X119.072 Y129.172 E13.49561
G1 X119.229 Y127.314 E13.57003
G1 X119.269 Y126.759 E13.59224
G1 X119.334 Y125.762 E13.63212
G1 X119.38 Y124.859 E13.6682
G1 X119.407 Y124.007 E13.70223
G1 X119.421 Y123.14 E13.73684
G1 X119.418 Y117.813 E13.94945
G1 X119.364 Y117.793 E13.95175
G1 X119.364 Y111.586 E14.19948
G1 X119.332 Y110.968 E14.22418
G1 X119.182 Y108.873 E14.30801
G1 X119.072 Y107.604 E14.35885
G1 X118.935 Y106.175 E14.41614
G1 X118.763 Y104.594 E14.47962
G1 X118.555 Y102.873 E14.54881
G1 X118.353 Y101.371 E14.60929
G1 X118.118 Y99.801 E14.67265
G1 X117.846 Y98.166 E14.73881
G1 X117.533 Y96.475 E14.80744
G1 X117.171 Y94.735 E14.87838
G1 X116.758 Y92.955 E14.95131
G1 X116.291 Y91.14 E15.02611
G1 X115.761 Y89.298 E15.10261
G1 X115.177 Y87.467 E15.17932
G1 X114.524 Y85.618 E15.25758
G1 X113.802 Y83.759 E15.33718
G1 X113.011 Y81.896 E15.41796
G1 X112.149 Y80.031 E15.49996
G1 X111.215 Y78.173 E15.58296
G1 X110.208 Y76.326 E15.66692
G1 X109.125 Y74.492 E15.75193
G1 X107.499 Y71.988 E15.87109
G1 X105.744 Y69.545 E15.99115
G1 X103.868 Y67.184 E16.11151
G1 X102.653 Y65.794 E16.18519
G1 X102.465 Y65.578 E16.19662
G1 X102.711 Y65.432 E16.20366
G1 X102.712 Y65.431 E16.20372
G1 X102.959 Y65.284 E16.21519
G1 X120.496 Y54.819 E17.03028
G1 X120.787 Y54.645 E17.04381
G1 X120.879 Y54.713 E17.04838
G1 X121.352 Y55.125 E17.07341
G1 X121.811 Y55.597 E17.09969
G1 X122.288 Y56.174 E17.12957
G1 X122.761 Y56.838 E17.16211
G1 X123.251 Y57.626 E17.19914
G1 X123.729 Y58.5 E17.2389
G1 X124.23 Y59.531 E17.28465
G1 X124.715 Y60.641 E17.333
G1 X125.21 Y61.884 E17.3864
G1 X125.697 Y63.214 E17.44293
G1 X126.18 Y64.646 E17.50325
G1 X126.66 Y66.166 E17.56687
G1 X127.126 Y67.74 E17.63238
G1 X127.583 Y69.378 E17.70026
G1 X128.028 Y71.054 E17.76947
G1 X128.873 Y74.482 E17.91038
G1 X129.648 Y77.9 E18.05026
G1 X130.005 Y79.565 E18.11823
G1 X130.34 Y81.185 E18.18425
G1 X130.652 Y82.748 E18.24787
G1 X130.939 Y84.237 E18.30839
G1 X131.201 Y85.651 E18.36579
G1 X131.439 Y86.973 E18.4194
G1 X131.65 Y88.204 E18.46925
G1 X131.838 Y89.344 E18.51536
G1 X132.001 Y90.38 E18.55722
G1 X132.141 Y91.327 E18.59543
G1 X132.259 Y92.192 E18.63027
G1 X132.357 Y92.967 E18.66145
G1 X132.437 Y93.676 E18.68993
G1 X132.5 Y94.326 E18.71599
G1 X132.59 Y95.512 E18.76346
G1 X132.68 Y97.788 E18.85437
G1 X132.846 Y106.466 E19.2008
G1 X132.891 Y109.78 E19.33308
G1 X132.917 Y113.318 E19.47429
G1 X132.918 Y123.066 E19.86335
G1 X132.894 Y126.44 E19.99802
G1 X132.854 Y129.594 E20.12391
G1 X132.671 Y139.145 E20.50518
G1 X132.634 Y140.219 E20.54808
G1 X132.577 Y141.282 E20.59056
G1 X132.485 Y142.428 E20.63645
G1 X132.42 Y143.063 E20.66193
G1 X132.342 Y143.745 E20.68932
G1 X132.246 Y144.496 E20.71954
G1 X132.132 Y145.318 E20.75266
G1 X131.845 Y147.202 E20.82873
G1 X131.668 Y148.274 E20.87209
G1 X131.47 Y149.428 E20.91882
G1 X131.251 Y150.666 E20.969
G1 X131.008 Y151.984 E21.02249
G1 X130.456 Y154.831 E21.13824
G1 X130.147 Y156.344 E21.19987
G1 X129.819 Y157.9 E21.26334
G1 X129.106 Y161.109 E21.39454
G1 X128.324 Y164.368 E21.52831
G1 X127.49 Y167.553 E21.65971
G1 X127.055 Y169.093 E21.72358
G1 X126.611 Y170.58 E21.78552
G1 X126.158 Y172.009 E21.84535
G1 X125.7 Y173.365 E21.90248
G1 X125.238 Y174.633 E21.95634
G1 X124.778 Y175.796 E22.00626
G1 X124.306 Y176.89 E22.05381
G1 X123.845 Y177.859 E22.09664
G1 X123.381 Y178.735 E22.13621
G1 X122.921 Y179.507 E22.17207
G1 X122.59 Y179.992 E22.19551
G0 F6000 X122.527 Y180.88
;TYPE:WALL-OUTER
G1 F1200 X105.198 Y167.151 E23.0779
G1 X106.027 Y166.043 E23.13313
G1 X106.963 Y164.724 E23.19768
G1 X107.86 Y163.387 E23.26194
G1 X108.718 Y162.031 E23.32599
G1 X109.791 Y160.214 E23.41021
G1 X110.79 Y158.381 E23.49353
G1 X111.717 Y156.537 E23.5759
G1 X112.572 Y154.687 E23.65725
G1 X113.357 Y152.837 E23.73745
G1 X114.074 Y150.992 E23.81646
G1 X114.722 Y149.157 E23.89413
G1 X115.302 Y147.34 E23.97025
G1 X115.828 Y145.511 E24.04621
G1 X116.292 Y143.708 E24.12052
G1 X116.702 Y141.939 E24.193
G1 X117.062 Y140.209 E24.26352
G1 X117.373 Y138.528 E24.33175
G1 X117.644 Y136.901 E24.39759
G1 X117.878 Y135.338 E24.46066
G1 X118.079 Y133.843 E24.52087
G1 X118.286 Y132.128 E24.58981
G1 X118.457 Y130.553 E24.65305
G1 X118.594 Y129.129 E24.71014
G1 X118.75 Y127.276 E24.78436
G1 X118.79 Y126.726 E24.80637
G1 X118.855 Y125.734 E24.84605
G1 X118.9 Y124.839 E24.88182
G1 X118.927 Y123.995 E24.91552
G1 X118.941 Y123.136 E24.94981
G1 X118.938 Y118.147 E25.14893
G1 X118.884 Y118.127 E25.15123
G1 X118.884 Y111.598 E25.41181
G1 X118.853 Y110.998 E25.43579
G1 X118.703 Y108.911 E25.51931
G1 X118.594 Y107.648 E25.5699
G1 X118.457 Y106.224 E25.627
G1 X118.286 Y104.649 E25.69023
G1 X118.079 Y102.934 E25.75918
G1 X117.878 Y101.439 E25.81938
G1 X117.644 Y99.876 E25.88246
G1 X117.373 Y98.249 E25.94829
G1 X117.062 Y96.568 E26.01652
G1 X116.702 Y94.838 E26.08705
G1 X116.292 Y93.069 E26.15953
G1 X115.828 Y91.266 E26.23383
G1 X115.302 Y89.437 E26.30979
G1 X114.722 Y87.62 E26.38592
G1 X114.074 Y85.785 E26.46359
G1 X113.357 Y83.94 E26.54259
G1 X112.572 Y82.09 E26.6228
G1 X111.717 Y80.24 E26.70414
G1 X110.79 Y78.396 E26.78652
G1 X109.791 Y76.563 E26.86984
G1 X108.717 Y74.745 E26.95411
G1 X107.103 Y72.259 E27.07241
G1 X105.361 Y69.835 E27.19155
G1 X103.499 Y67.491 E27.31103
G1 X101.725 Y65.461 E27.41863
G1 X120.814 Y54.07 E28.30585
G1 X121.178 Y54.337 E28.32387
G1 X121.685 Y54.779 E28.35071
G1 X122.168 Y55.276 E28.37837
G1 X122.671 Y55.883 E28.40984
G1 X123.159 Y56.568 E28.44341
G1 X123.659 Y57.373 E28.48123
G1 X124.161 Y58.29 E28.52295
G1 X124.662 Y59.321 E28.5687
G1 X125.161 Y60.463 E28.61844
G1 X125.661 Y61.719 E28.6724
G1 X126.152 Y63.061 E28.72944
G1 X126.638 Y64.501 E28.79009
G1 X127.118 Y66.021 E28.85371
G1 X127.588 Y67.611 E28.91989
G1 X128.047 Y69.255 E28.98801
G1 X128.494 Y70.939 E29.05755
G1 X129.341 Y74.376 E29.19883
G1 X130.117 Y77.799 E29.33892
G1 X130.475 Y79.468 E29.40705
G1 X130.811 Y81.091 E29.4732
G1 X131.123 Y82.654 E29.53681
G1 X131.41 Y84.149 E29.59757
G1 X131.673 Y85.563 E29.65498
G1 X131.912 Y86.892 E29.70887
G1 X132.124 Y88.126 E29.75884
G1 X132.312 Y89.266 E29.80496
G1 X132.476 Y90.31 E29.84714
G1 X132.617 Y91.262 E29.88555
G1 X132.735 Y92.127 E29.92039
G1 X132.834 Y92.913 E29.95201
G1 X132.915 Y93.63 E29.98081
G1 X132.979 Y94.29 E30.00727
G1 X133.07 Y95.493 E30.05543
G1 X133.16 Y97.779 E30.14674
G1 X133.326 Y106.459 E30.49324
G1 X133.371 Y109.776 E30.62564
G1 X133.397 Y113.318 E30.76701
G1 X133.398 Y123.069 E31.15619
G1 X133.374 Y126.446 E31.29098
G1 X133.334 Y129.603 E31.41699
G1 X133.151 Y139.162 E31.79858
G1 X133.114 Y140.236 E31.84148
G1 X133.055 Y141.32 E31.8848
G1 X132.962 Y142.476 E31.93109
G1 X132.897 Y143.118 E31.95685
G1 X132.818 Y143.806 E31.98449
G1 X132.721 Y144.561 E32.01487
G1 X132.607 Y145.39 E32.04827
G1 X132.319 Y147.28 E32.12457
G1 X132.142 Y148.352 E32.16794
G1 X131.943 Y149.512 E32.21491
G1 X131.723 Y150.753 E32.26521
G1 X131.479 Y152.074 E32.31883
G1 X131.213 Y153.469 E32.37551
G1 X130.926 Y154.927 E32.43482
G1 X130.616 Y156.443 E32.49658
G1 X130.288 Y158.004 E32.56024
G1 X129.573 Y161.221 E32.69177
G1 X128.791 Y164.48 E32.82554
G1 X127.952 Y167.683 E32.95769
G1 X127.515 Y169.23 E33.02185
G1 X127.069 Y170.725 E33.08412
G1 X126.613 Y172.163 E33.14433
G1 X126.155 Y173.519 E33.20145
G1 X125.689 Y174.797 E33.25574
G1 X125.219 Y175.986 E33.30677
G1 X124.747 Y177.08 E33.35433
G1 X124.269 Y178.084 E33.39871
G1 X123.801 Y178.968 E33.43863
G1 X123.329 Y179.76 E33.47543
G1 X122.85 Y180.466 E33.50948
G1 X122.527 Y180.88 E33.53044
G0 F6000 X122.475 Y180.443
G0 X122.026 Y179.067
G0 X122.225 Y178.817
;TYPE:SKIN
G1 F1200 X107.176 Y166.895 E34.29672
G1 X107.183 Y166.885 E34.2972
G1 X108.14 Y165.537 E34.36319
G1 X109.058 Y164.168 E34.42897
G1 X109.939 Y162.776 E34.49472
G1 X111.036 Y160.92 E34.58077
G1 X112.057 Y159.045 E34.66598
G1 X113.004 Y157.159 E34.75021
G1 X113.879 Y155.266 E34.83345
G1 X114.682 Y153.376 E34.91541
G1 X115.415 Y151.489 E34.9962
G1 X116.078 Y149.612 E35.07566
G1 X116.67 Y147.755 E35.15345
G1 X117.208 Y145.886 E35.23107
G1 X117.68 Y144.048 E35.30681
G1 X118.099 Y142.246 E35.38065
G1 X118.466 Y140.485 E35.45245
G1 X118.782 Y138.776 E35.52181
G1 X119.056 Y137.124 E35.58865
G1 X119.294 Y135.54 E35.65258
G1 X119.497 Y134.024 E35.71363
G1 X119.706 Y132.291 E35.7833
G1 X119.881 Y130.698 E35.84726
G1 X120.018 Y129.258 E35.90499
G1 X120.176 Y127.388 E35.97989
G1 X120.283 Y125.817 E36.04274
G1 X120.33 Y124.898 E36.07947
G1 X120.357 Y124.029 E36.11417
G1 X120.371 Y123.148 E36.14933
G1 X120.368 Y117.152 E36.38865
G1 X120.314 Y117.132 E36.39095
G1 X120.314 Y111.562 E36.61326
G1 X120.281 Y110.909 E36.63935
G1 X120.129 Y108.798 E36.72383
G1 X120.018 Y107.517 E36.77514
G1 X119.881 Y106.079 E36.8328
G1 X119.706 Y104.486 E36.89676
G1 X119.497 Y102.753 E36.96643
G1 X119.294 Y101.237 E37.02748
G1 X119.056 Y99.653 E37.09141
G1 X118.782 Y98.001 E37.15824
G1 X118.466 Y96.292 E37.22761
G1 X118.099 Y94.531 E37.2994
G1 X117.68 Y92.729 E37.37324
G1 X117.208 Y90.891 E37.44898
G1 X116.67 Y89.022 E37.52661
G1 X116.078 Y87.165 E37.6044
G1 X115.415 Y85.288 E37.68385
G1 X114.682 Y83.401 E37.76465
G1 X113.879 Y81.511 E37.84661
G1 X113.004 Y79.618 E37.92984
G1 X112.057 Y77.732 E38.01407
G1 X111.034 Y75.857 E38.09932
G1 X109.933 Y73.992 E38.18576
G1 X108.283 Y71.452 E38.30665
G1 X106.503 Y68.972 E38.42849
G1 X104.598 Y66.576 E38.55066
G1 X103.93 Y65.811 E38.5912
G1 X120.69 Y55.808 E39.37021
G1 X120.71 Y55.826 E39.37128
G1 X121.097 Y56.226 E39.3935
G1 X121.543 Y56.765 E39.42142
G1 X121.968 Y57.361 E39.45063
G1 X122.43 Y58.104 E39.48555
G1 X122.874 Y58.916 E39.52249
G1 X123.367 Y59.929 E39.56746
G1 X123.832 Y60.993 E39.6138
G1 X124.318 Y62.211 E39.66614
G1 X124.797 Y63.517 E39.72166
G1 X125.274 Y64.932 E39.78126
G1 X125.752 Y66.444 E39.84455
G1 X126.211 Y67.995 E39.90911
G1 X126.665 Y69.625 E39.97664
G1 X127.106 Y71.281 E40.04504
G1 X127.947 Y74.692 E40.18526
G1 X128.719 Y78.099 E40.32469
G1 X129.075 Y79.758 E40.39241
G1 X129.409 Y81.371 E40.45815
G1 X129.694 Y82.801 E40.51635
G1 X130.005 Y84.41 E40.58176
G1 X130.267 Y85.819 E40.63896
G1 X130.471 Y86.954 E40.68498
G1 X130.712 Y88.359 E40.74188
G1 X130.9 Y89.492 E40.78772
G1 X131.062 Y90.519 E40.82921
G1 X131.189 Y91.383 E40.86407
G1 X131.317 Y92.316 E40.90165
G1 X131.414 Y93.074 E40.93215
G1 X131.485 Y93.713 E40.95782
G1 X131.553 Y94.397 E40.98525
G1 X131.64 Y95.55 E41.0314
G1 X131.73 Y97.806 E41.12151
G1 X131.896 Y106.479 E41.46773
G1 X131.941 Y109.788 E41.59982
