; G-Code generated by Simplify3D(R) Version 4.1.1
; Apr 27, 2021 at 7:37:17 PM
; Settings Summary
;   processName,Trideo BOX
;   applyToModels,Left Arm x2
;   profileName,Trideo BOX
;   profileVersion,2021-04-15 09:48:16
;   baseProfile,Default
;   printMaterial,PLA
;   printQuality,Fast
;   printExtruders,
;   extruderName,Primary Extruder
;   extruderToolheadNumber,0
;   extruderDiameter,0.4
;   extruderAutoWidth,1
;   extruderWidth,0.48
;   extrusionMultiplier,0.98
;   extruderUseRetract,1
;   extruderRetractionDistance,0.7
;   extruderExtraRestartDistance,0
;   extruderRetractionZLift,0
;   extruderRetractionSpeed,1500
;   extruderUseCoasting,0
;   extruderCoastingDistance,0.2
;   extruderUseWipe,0
;   extruderWipeDistance,5
;   primaryExtruder,0
;   layerHeight,0.3
;   topSolidLayers,3
;   bottomSolidLayers,3
;   perimeterOutlines,2
;   printPerimetersInsideOut,1
;   startPointOption,2
;   startPointOriginX,0
;   startPointOriginY,0
;   sequentialIslands,0
;   spiralVaseMode,0
;   firstLayerHeightPercentage,90
;   firstLayerWidthPercentage,100
;   firstLayerUnderspeed,0.5
;   useRaft,0
;   raftExtruder,0
;   raftTopLayers,3
;   raftBaseLayers,2
;   raftOffset,3
;   raftSeparationDistance,0.14
;   raftTopInfill,100
;   aboveRaftSpeedMultiplier,0.3
;   useSkirt,1
;   skirtExtruder,0
;   skirtLayers,1
;   skirtOutlines,2
;   skirtOffset,4
;   usePrimePillar,0
;   primePillarExtruder,999
;   primePillarWidth,12
;   primePillarLocation,7
;   primePillarSpeedMultiplier,1
;   useOozeShield,0
;   oozeShieldExtruder,999
;   oozeShieldOffset,2
;   oozeShieldOutlines,1
;   oozeShieldSidewallShape,1
;   oozeShieldSidewallAngle,30
;   oozeShieldSpeedMultiplier,1
;   infillExtruder,0
;   internalInfillPattern,Rectilinear
;   externalInfillPattern,Rectilinear
;   infillPercentage,15
;   outlineOverlapPercentage,15
;   infillExtrusionWidthPercentage,100
;   minInfillLength,5
;   infillLayerInterval,1
;   internalInfillAngles,45,-45
;   overlapInternalInfillAngles,0
;   externalInfillAngles,45,-45
;   generateSupport,1
;   supportExtruder,0
;   supportInfillPercentage,25
;   supportExtraInflation,0
;   supportBaseLayers,0
;   denseSupportExtruder,0
;   denseSupportLayers,0
;   denseSupportInfillPercentage,70
;   supportLayerInterval,1
;   supportHorizontalPartOffset,0.3
;   supportUpperSeparationLayers,1
;   supportLowerSeparationLayers,1
;   supportType,0
;   supportGridSpacing,4
;   maxOverhangAngle,45
;   supportAngles,0
;   temperatureName,Primary Extruder,Heated bed
;   temperatureNumber,0,0
;   temperatureSetpointCount,1,1
;   temperatureSetpointLayers,1,1
;   temperatureSetpointTemperatures,190,60
;   temperatureStabilizeAtStartup,1,1
;   temperatureHeatedBed,0,1
;   fanLayers,1,2
;   fanSpeeds,0,100
;   blipFanToFullPower,0
;   adjustSpeedForCooling,1
;   minSpeedLayerTime,15
;   minCoolingSpeedSlowdown,20
;   increaseFanForCooling,0
;   minFanLayerTime,45
;   maxCoolingFanSpeed,100
;   increaseFanForBridging,0
;   bridgingFanSpeed,100
;   use5D,1
;   relativeEdistances,0
;   allowEaxisZeroing,1
;   independentExtruderAxes,0
;   includeM10123,0
;   stickySupport,1
;   applyToolheadOffsets,0
;   gcodeXoffset,0
;   gcodeYoffset,0
;   gcodeZoffset,0
;   overrideMachineDefinition,1
;   machineTypeOverride,0
;   strokeXoverride,200
;   strokeYoverride,200
;   strokeZoverride,200
;   originOffsetXoverride,0
;   originOffsetYoverride,0
;   originOffsetZoverride,0
;   homeXdirOverride,-1
;   homeYdirOverride,-1
;   homeZdirOverride,-1
;   flipXoverride,1
;   flipYoverride,-1
;   flipZoverride,1
;   toolheadOffsets,0,0|0,0|0,0|0,0|0,0|0,0
;   overrideFirmwareConfiguration,0
;   firmwareTypeOverride,RepRap (Marlin/Repetier/Sprinter)
;   GPXconfigOverride,r2
;   baudRateOverride,115200
;   overridePrinterModels,0
;   printerModelsOverride
;   startingGcode,G28 X0 Y0; home XY,G1 X20 Y20,G28 Z0,G1 Z5 F5000; Lift NZ
;   layerChangeGcode,
;   retractionGcode,
;   toolChangeGcode,
;   endingGcode,M104 S0 ; turn off extruder,G28 X0 ; home x,M140 S0 ; turn off bed,M84 ; disable motors,M107 ;
;   exportFileFormat,gcode
;   celebration,0
;   celebrationSong,Looney Toons
;   postProcessing,
;   defaultSpeed,3600
;   outlineUnderspeed,0.5
;   solidInfillUnderspeed,0.8
;   supportUnderspeed,0.8
;   rapidXYspeed,4800
;   rapidZspeed,1002
;   minBridgingArea,50
;   bridgingExtraInflation,0
;   bridgingExtrusionMultiplier,1
;   bridgingSpeedMultiplier,1
;   useFixedBridgingAngle,0
;   fixedBridgingAngle,0
;   applyBridgingToPerimeters,0
;   filamentDiameters,1.75|1.75|1.75|1.75|1.75|1.75
;   filamentPricesPerKg,46|46|46|46|46|46
;   filamentDensities,1.25|1.25|1.25|1.25|1.25|1.25
;   useMinPrintHeight,0
;   minPrintHeight,0
;   useMaxPrintHeight,0
;   maxPrintHeight,0
;   useDiaphragm,0
;   diaphragmLayerInterval,20
;   robustSlicing,1
;   mergeAllIntoSolid,0
;   onlyRetractWhenCrossingOutline,1
;   retractBetweenLayers,1
;   useRetractionMinTravel,0
;   retractionMinTravel,3
;   retractWhileWiping,0
;   onlyWipeOutlines,1
;   avoidCrossingOutline,0
;   maxMovementDetourFactor,3
;   toolChangeRetractionDistance,12
;   toolChangeExtraRestartDistance,-0.5
;   toolChangeRetractionSpeed,600
;   externalThinWallType,0
;   internalThinWallType,2
;   thinWallAllowedOverlapPercentage,10
;   singleExtrusionMinLength,1
;   singleExtrusionMinPrintingWidthPercentage,50
;   singleExtrusionMaxPrintingWidthPercentage,200
;   singleExtrusionEndpointExtension,0.2
;   horizontalSizeCompensation,0
G90
M82
M106 S0
M140 S60
M190 S60
M104 S190 T0
M109 S190 T0
G28 X0 Y0; home XY
G1 X20 Y20
G28 Z0
G1 Z5 F5000; Lift NZ
; process Trideo BOX
; layer 1, Z = 0.270
T0
G92 E0.0000
G1 E-0.7000 F1500
; feature skirt
; tool H0.270 W0.480
G1 Z0.270 F1002
G1 X70.182 Y49.045 F4800
G1 E0.0000 F1500
G92 E0.0000
G1 X72.947 Y46.280 E0.2065 F1800
G1 X78.522 Y46.280 E0.5009
G1 X79.302 Y47.060 E0.5591
G1 X105.359 Y47.060 E1.9350
G1 X106.135 Y46.280 E1.9931
G1 X111.682 Y46.280 E2.2860
G1 X114.442 Y49.018 E2.4913
G1 X114.486 Y54.496 E2.7806
G1 X114.486 Y54.526 E2.7822
G1 X114.464 Y58.963 E3.0165
G1 X114.297 Y59.828 E3.0630
G1 X113.515 Y61.805 E3.1752
G1 X111.972 Y63.251 E3.2869
G1 X109.657 Y63.999 E3.4153
G1 X108.145 Y63.991 E3.4952
G1 X106.940 Y63.587 E3.5623
G1 X106.940 Y78.175 E4.3326
G1 X104.175 Y80.940 E4.5391
G1 X102.940 Y80.940 E4.6043
G1 X102.940 Y107.060 E5.9835
G1 X104.175 Y107.060 E6.0487
G1 X106.940 Y109.825 E6.2552
G1 X106.940 Y123.351 E6.9694
G1 X107.958 Y123.052 E7.0254
G1 X109.894 Y123.052 E7.1277
G1 X111.195 Y123.433 E7.1992
G1 X112.463 Y124.247 E7.2788
G1 X113.221 Y125.027 E7.3363
G1 X113.796 Y125.983 E7.3951
G1 X114.020 Y126.474 E7.4236
G1 X114.210 Y127.060 E7.4561
G1 X128.175 Y127.060 E8.1936
G1 X130.940 Y129.825 E8.4001
G1 X130.940 Y146.175 E9.2634
G1 X128.175 Y148.940 E9.4699
G1 X115.825 Y148.940 E10.1220
G1 X113.060 Y146.175 E10.3285
G1 X113.060 Y140.940 E10.6049
G1 X75.825 Y140.940 E12.5711
G1 X75.605 Y140.720 E12.5875
G1 X72.947 Y140.720 E12.7278
G1 X70.182 Y137.955 E12.9343
G1 X70.182 Y127.297 E13.4971
G1 X69.060 Y126.175 E13.5809
G1 X69.060 Y117.825 E14.0218
G1 X71.825 Y115.060 E14.2283
G1 X80.175 Y115.060 E14.6692
G1 X81.060 Y115.945 E14.7353
G1 X81.060 Y113.825 E14.8472
G1 X83.825 Y111.060 E15.0537
G1 X85.060 Y111.060 E15.1189
G1 X85.060 Y76.940 E16.9206
G1 X83.825 Y76.940 E16.9858
G1 X81.060 Y74.175 E17.1923
G1 X81.060 Y64.974 E17.6781
G1 X80.331 Y66.809 E17.7824
G1 X78.789 Y68.252 E17.8939
G1 X76.488 Y68.995 E18.0216
G1 X75.002 Y68.995 E18.1001
G1 X72.740 Y68.264 E18.2256
G1 X71.236 Y66.902 E18.3328
G1 X70.382 Y64.944 E18.4455
G1 X70.183 Y63.991 E18.4969
G1 X70.182 Y49.045 E19.2861
G92 E0.0000
G1 E-0.7000 F1500
G1 X70.662 Y49.244 F4800
G1 E0.0000 F1500
G92 E0.0000
G1 X73.146 Y46.760 E0.1855 F1800
G1 X78.323 Y46.760 E0.4589
G1 X79.103 Y47.540 E0.5171
G1 X105.559 Y47.540 E1.9141
G1 X106.335 Y46.760 E1.9722
G1 X111.484 Y46.760 E2.2441
G1 X113.964 Y49.220 E2.4285
G1 X114.006 Y54.498 E2.7072
G1 X114.006 Y54.526 E2.7087
G1 X113.985 Y58.916 E2.9405
G1 X113.835 Y59.693 E2.9823
G1 X113.108 Y61.528 E3.0865
G1 X111.722 Y62.827 E3.1868
G1 X109.583 Y63.518 E3.3055
G1 X108.225 Y63.511 E3.3773
G1 X106.460 Y62.920 E3.4755
G1 X106.460 Y77.976 E4.2705
G1 X103.976 Y80.460 E4.4560
G1 X102.460 Y80.460 E4.5361
G1 X102.460 Y107.540 E5.9660
G1 X103.976 Y107.540 E6.0460
G1 X106.460 Y110.024 E6.2315
G1 X106.460 Y124.130 E6.9764
G1 X106.859 Y123.875 E7.0014
G1 X108.027 Y123.532 E7.0657
G1 X109.825 Y123.532 E7.1607
G1 X110.994 Y123.875 E7.2249
G1 X112.158 Y124.621 E7.2980
G1 X112.839 Y125.322 E7.3496
G1 X113.371 Y126.207 E7.4041
G1 X113.571 Y126.648 E7.4297
G1 X113.849 Y127.504 E7.4772
G1 X113.855 Y127.540 E7.4791
G1 X127.976 Y127.540 E8.2248
G1 X130.460 Y130.024 E8.4103
G1 X130.460 Y145.976 E9.2526
G1 X127.976 Y148.460 E9.4381
G1 X116.024 Y148.460 E10.0692
G1 X113.540 Y145.976 E10.2547
G1 X113.540 Y140.460 E10.5460
G1 X108.306 Y140.460 E10.8224
G1 X108.141 Y140.296 E10.8347
G1 X107.976 Y140.460 E10.8470
G1 X76.024 Y140.460 E12.5342
G1 X75.804 Y140.240 E12.5506
G1 X73.146 Y140.240 E12.6910
G1 X70.662 Y137.756 E12.8764
G1 X70.662 Y127.098 E13.4392
G1 X69.540 Y125.976 E13.5230
G1 X69.540 Y118.024 E13.9429
G1 X72.024 Y115.540 E14.1284
G1 X79.976 Y115.540 E14.5483
G1 X81.540 Y117.104 E14.6651
G1 X81.540 Y114.024 E14.8277
G1 X84.024 Y111.540 E15.0132
G1 X85.540 Y111.540 E15.0933
G1 X85.540 Y76.460 E16.9456
G1 X84.024 Y76.460 E17.0257
G1 X81.540 Y73.976 E17.2112
G1 X81.540 Y64.460 E17.7137
G1 X80.700 Y64.460 E17.7580
G1 X80.655 Y64.692 E17.7705
G1 X79.924 Y66.532 E17.8750
G1 X78.540 Y67.828 E17.9752
G1 X76.413 Y68.515 E18.0932
G1 X75.078 Y68.515 E18.1637
G1 X72.986 Y67.839 E18.2798
G1 X71.634 Y66.615 E18.3761
G1 X70.842 Y64.798 E18.4808
G1 X70.663 Y63.941 E18.5270
G1 X70.662 Y49.244 E19.3030
G92 E0.0000
G1 E-0.7000 F1500
; feature outer perimeter
G1 X75.142 Y51.240 F4800
G1 E0.0000 F1500
G92 E0.0000
G1 X76.327 Y51.240 E0.0625 F900
G1 X76.327 Y63.454 E0.7075
G1 X76.153 Y63.891 E0.7323
G1 X75.745 Y64.022 E0.7549
G1 X75.333 Y63.889 E0.7778
G1 X75.143 Y63.454 E0.8029
G1 X75.142 Y51.240 E1.4478
; feature gap fill
G1 X75.550 Y51.791 F4800
G92 E0.0000
G1 X75.919 Y52.160 E0.0275 F1800
G1 X75.919 Y52.839 E0.0634
G1 X75.550 Y52.470 E0.0909
G1 X75.550 Y53.149 E0.1267
G1 X75.919 Y53.517 E0.1542
G1 X75.919 Y54.196 E0.1901
G1 X75.550 Y53.828 E0.2176
G1 X75.550 Y54.507 E0.2534
G1 X75.919 Y54.875 E0.2809
G1 X75.919 Y55.554 E0.3168
G1 X75.550 Y55.186 E0.3443
G1 X75.550 Y55.864 E0.3801
G1 X75.919 Y56.233 E0.4076
G1 X75.919 Y56.912 E0.4435
G1 X75.550 Y56.543 E0.4710
G1 X75.550 Y57.222 E0.5068
G1 X75.919 Y57.590 E0.5343
G1 X75.919 Y58.269 E0.5702
G1 X75.550 Y57.901 E0.5977
G1 X75.551 Y58.580 E0.6335
G1 X75.919 Y58.948 E0.6610
G1 X75.919 Y59.627 E0.6968
G1 X75.551 Y59.259 E0.7243
G1 X75.551 Y59.938 E0.7602
G1 X75.919 Y60.306 E0.7876
G1 X75.919 Y60.985 E0.8235
G1 X75.551 Y60.617 E0.8510
G1 X75.551 Y61.295 E0.8868
G1 X75.919 Y61.663 E0.9143
G1 X75.919 Y62.342 E0.9501
G1 X75.551 Y61.974 E0.9776
G1 X75.551 Y62.653 E1.0134
G1 X75.919 Y63.021 E1.0409
G1 X75.919 Y63.376 E1.0597
G1 X75.845 Y63.562 E1.0702
G1 X75.796 Y63.577 E1.0729
G1 X75.551 Y63.332 E1.0912
G92 E0.0000
G1 E-0.7000 F1500
; feature outer perimeter
G1 X108.378 Y58.461 F4800
G1 E0.0000 F1500
G92 E0.0000
G1 X108.339 Y51.240 E0.3813 F900
G1 X109.500 Y51.240 E0.4426
G1 X109.526 Y54.519 E0.6157
G1 X109.507 Y58.472 E0.8245
G1 X109.500 Y58.499 E0.8259
G1 X109.337 Y58.890 E0.8483
G1 X108.928 Y59.022 E0.8710
G1 X108.516 Y58.884 E0.8939
G1 X108.378 Y58.461 E0.9174
; feature gap fill
G1 X108.782 Y57.871 F4800
G92 E0.0000
G1 X109.100 Y58.188 E0.0237 F1800
G1 X109.103 Y57.513 E0.0594
G1 X108.779 Y57.188 E0.0836
G1 X108.775 Y56.506 E0.1197
G1 X109.107 Y56.837 E0.1444
G1 X109.110 Y56.162 E0.1801
G1 X108.772 Y55.823 E0.2054
G1 X108.768 Y55.141 E0.2414
G1 X109.113 Y55.486 E0.2672
G1 X109.117 Y54.811 E0.3029
G1 X108.764 Y54.458 E0.3292
G1 X108.761 Y53.776 E0.3652
G1 X109.115 Y54.130 E0.3917
G1 X109.109 Y53.446 E0.4278
G1 X108.757 Y53.093 E0.4541
G1 X108.753 Y52.411 E0.4902
G1 X109.104 Y52.762 E0.5163
G1 X109.098 Y52.077 E0.5525
G1 X108.750 Y51.729 E0.5785
G92 E0.0000
G1 E-0.7000 F1500
; feature outer perimeter
G1 X108.706 Y128.012 F4800
G1 E0.0000 F1500
G92 E0.0000
G1 X109.146 Y128.012 E0.0233 F900
G1 X109.280 Y128.098 E0.0317
G1 X109.393 Y128.285 E0.0432
G1 X109.475 Y128.539 E0.0573
G1 X109.525 Y134.760 E0.3858
G1 X109.520 Y135.760 E0.4386
G1 X108.346 Y135.760 E0.5006
G1 X108.326 Y132.864 E0.6535
G1 X108.346 Y128.528 E0.8824
G1 X108.366 Y128.440 E0.8872
G1 X108.572 Y128.098 E0.9083
G1 X108.706 Y128.012 E0.9167
; feature gap fill
G1 X108.809 Y128.495 F4800
G92 E0.0000
G1 X109.069 Y128.754 E0.0194 F1800
G1 X109.074 Y129.439 E0.0555
G1 X108.751 Y129.116 E0.0796
G1 X108.748 Y129.791 E0.1153
G1 X109.080 Y130.123 E0.1401
G1 X109.085 Y130.807 E0.1762
G1 X108.745 Y130.467 E0.2016
G1 X108.742 Y131.143 E0.2373
G1 X109.091 Y131.492 E0.2634
G1 X109.096 Y132.176 E0.2995
G1 X108.738 Y131.818 E0.3262
G1 X108.735 Y132.494 E0.3619
G1 X109.102 Y132.860 E0.3893
G1 X109.107 Y133.545 E0.4254
G1 X108.736 Y133.173 E0.4531
G1 X108.741 Y133.857 E0.4892
G1 X109.113 Y134.229 E0.5170
G1 X109.117 Y134.761 E0.5451
G1 X109.116 Y134.911 E0.5530
G1 X108.746 Y134.541 E0.5807
G1 X108.750 Y135.224 E0.6168
G1 X108.878 Y135.352 E0.6263
G92 E0.0000
G1 E-0.7000 F1500
; feature outer perimeter
G1 X76.327 Y135.760 F4800
G1 E0.0000 F1500
G92 E0.0000
G1 X75.142 Y135.760 E0.0625 F900
G1 X75.142 Y123.561 E0.7067
G1 X75.396 Y123.095 E0.7347
G1 X75.525 Y123.012 E0.7428
G1 X75.966 Y123.012 E0.7661
G1 X76.092 Y123.093 E0.7740
G1 X76.327 Y123.557 E0.8015
G1 X76.327 Y135.760 E1.4458
; feature gap fill
G1 X75.550 Y135.286 F4800
G92 E0.0000
G1 X75.616 Y135.352 E0.0049 F1800
G1 X75.919 Y135.352 E0.0209
G1 X75.919 Y134.976 E0.0407
G1 X75.550 Y134.608 E0.0683
G1 X75.550 Y133.929 E0.1041
G1 X75.919 Y134.297 E0.1316
G1 X75.919 Y133.619 E0.1675
G1 X75.550 Y133.250 E0.1950
G1 X75.550 Y132.571 E0.2308
G1 X75.919 Y132.940 E0.2584
G1 X75.919 Y132.261 E0.2942
G1 X75.550 Y131.892 E0.3217
G1 X75.550 Y131.213 E0.3576
G1 X75.919 Y131.582 E0.3851
G1 X75.919 Y130.903 E0.4209
G1 X75.550 Y130.535 E0.4485
G1 X75.550 Y129.856 E0.4843
G1 X75.919 Y130.224 E0.5118
G1 X75.919 Y129.546 E0.5477
G1 X75.550 Y129.177 E0.5752
G1 X75.550 Y128.498 E0.6110
G1 X75.919 Y128.867 E0.6386
G1 X75.919 Y128.188 E0.6744
G1 X75.550 Y127.819 E0.7019
G1 X75.550 Y127.141 E0.7378
G1 X75.919 Y127.509 E0.7653
G1 X75.919 Y126.830 E0.8011
G1 X75.550 Y126.462 E0.8287
G1 X75.550 Y125.783 E0.8645
G1 X75.919 Y126.151 E0.8920
G1 X75.919 Y125.473 E0.9279
G1 X75.550 Y125.104 E0.9554
G1 X75.550 Y124.425 E0.9912
G1 X75.919 Y124.794 E1.0188
G1 X75.919 Y124.115 E1.0546
G1 X75.550 Y123.746 E1.0821
G92 E0.0000
G1 E-0.7000 F1500
; feature support
G1 X77.615 Y123.040 F4800
G1 E0.0000 F1500
G92 E0.0000
G1 X77.970 Y123.040 E0.0187 F1440
G1 X77.970 Y121.120 E0.1201
G1 X74.030 Y121.120 E0.3282
G92 E0.0000
G1 E-0.7000 F1500
G1 X78.030 Y128.800 F4800
G1 E0.0000 F1500
G92 E0.0000
G1 X81.970 Y128.800 E0.2080 F1440
G1 X81.970 Y130.720 E0.3094
G1 X78.030 Y130.720 E0.5175
G1 X78.030 Y132.640 E0.6189
G1 X105.970 Y132.640 E2.0942
G1 X105.970 Y134.560 E2.1956
G1 X78.030 Y134.560 E3.6709
G92 E0.0000
G1 E-0.7000 F1500
G1 X101.970 Y126.880 F4800
G1 E0.0000 F1500
G92 E0.0000
G1 X86.030 Y126.880 E0.8417 F1440
G1 X86.030 Y124.960 E0.9431
G1 X101.970 Y124.960 E1.7848
G1 X101.970 Y123.040 E1.8862
G1 X86.030 Y123.040 E2.7278
G1 X86.030 Y121.120 E2.8292
G1 X101.970 Y121.120 E3.6709
G1 X101.970 Y119.200 E3.7723
G1 X86.030 Y119.200 E4.6140
G1 X86.030 Y117.280 E4.7154
G1 X101.970 Y117.280 E5.5571
G1 X101.970 Y115.360 E5.6585
G1 X90.030 Y115.360 E6.2889
G1 X90.030 Y113.440 E6.3903
G1 X101.970 Y113.440 E7.0208
G1 X101.970 Y112.030 E7.0952
G1 X97.970 Y112.030 E7.3065
G1 X97.970 Y111.520 E7.3334
G1 X90.030 Y111.520 E7.7527
G1 X90.030 Y109.600 E7.8540
G1 X97.970 Y109.600 E8.2733
G1 X97.970 Y107.680 E8.3747
G1 X90.030 Y107.680 E8.7939
G1 X90.030 Y105.760 E8.8953
G1 X97.970 Y105.760 E9.3146
G1 X97.970 Y103.840 E9.4160
G1 X90.030 Y103.840 E9.8352
G1 X90.030 Y101.920 E9.9366
