; G-Code generated by Simplify3D(R) Version 4.1.1
; Apr 27, 2021 at 7:37:44 PM
; Settings Summary
;   processName,Trideo BOX
;   applyToModels,Left Arm x2
;   profileName,Trideo BOX
;   profileVersion,2021-04-15 09:48:16
;   baseProfile,Default
;   printMaterial,PLA
;   printQuality,Fast
;   printExtruders,
;   extruderName,Primary Extruder
;   extruderToolheadNumber,0
;   extruderDiameter,0.4
;   extruderAutoWidth,1
;   extruderWidth,0.48
;   extrusionMultiplier,0.98
;   extruderUseRetract,1
;   extruderRetractionDistance,0.7
;   extruderExtraRestartDistance,0
;   extruderRetractionZLift,0
;   extruderRetractionSpeed,1500
;   extruderUseCoasting,0
;   extruderCoastingDistance,0.2
;   extruderUseWipe,0
;   extruderWipeDistance,5
;   primaryExtruder,0
;   layerHeight,0.3
;   topSolidLayers,3
;   bottomSolidLayers,3
;   perimeterOutlines,2
;   printPerimetersInsideOut,1
;   startPointOption,2
;   startPointOriginX,0
;   startPointOriginY,0
;   sequentialIslands,0
;   spiralVaseMode,0
;   firstLayerHeightPercentage,90
;   firstLayerWidthPercentage,100
;   firstLayerUnderspeed,0.5
;   useRaft,0
;   raftExtruder,0
;   raftTopLayers,3
;   raftBaseLayers,2
;   raftOffset,3
;   raftSeparationDistance,0.14
;   raftTopInfill,100
;   aboveRaftSpeedMultiplier,0.3
;   useSkirt,1
;   skirtExtruder,0
;   skirtLayers,1
;   skirtOutlines,2
;   skirtOffset,4
;   usePrimePillar,0
;   primePillarExtruder,999
;   primePillarWidth,12
;   primePillarLocation,7
;   primePillarSpeedMultiplier,1
;   useOozeShield,0
;   oozeShieldExtruder,999
;   oozeShieldOffset,2
;   oozeShieldOutlines,1
;   oozeShieldSidewallShape,1
;   oozeShieldSidewallAngle,30
;   oozeShieldSpeedMultiplier,1
;   infillExtruder,0
;   internalInfillPattern,Rectilinear
;   externalInfillPattern,Rectilinear
;   infillPercentage,15
;   outlineOverlapPercentage,15
;   infillExtrusionWidthPercentage,100
;   minInfillLength,5
;   infillLayerInterval,1
;   internalInfillAngles,45,-45
;   overlapInternalInfillAngles,0
;   externalInfillAngles,45,-45
;   generateSupport,1
;   supportExtruder,0
;   supportInfillPercentage,25
;   supportExtraInflation,0
;   supportBaseLayers,0
;   denseSupportExtruder,0
;   denseSupportLayers,0
;   denseSupportInfillPercentage,70
;   supportLayerInterval,1
;   supportHorizontalPartOffset,0.3
;   supportUpperSeparationLayers,1
;   supportLowerSeparationLayers,1
;   supportType,0
;   supportGridSpacing,4
;   maxOverhangAngle,45
;   supportAngles,0
;   temperatureName,Primary Extruder,Heated bed
;   temperatureNumber,0,0
;   temperatureSetpointCount,1,1
;   temperatureSetpointLayers,1,1
;   temperatureSetpointTemperatures,190,60
;   temperatureStabilizeAtStartup,1,1
;   temperatureHeatedBed,0,1
;   fanLayers,1,2
;   fanSpeeds,0,100
;   blipFanToFullPower,0
;   adjustSpeedForCooling,1
;   minSpeedLayerTime,15
;   minCoolingSpeedSlowdown,20
;   increaseFanForCooling,0
;   minFanLayerTime,45
;   maxCoolingFanSpeed,100
;   increaseFanForBridging,0
;   bridgingFanSpeed,100
;   use5D,1
;   relativeEdistances,0
;   allowEaxisZeroing,1
;   independentExtruderAxes,0
;   includeM10123,0
;   stickySupport,1
;   applyToolheadOffsets,0
;   gcodeXoffset,0
;   gcodeYoffset,0
;   gcodeZoffset,0
;   overrideMachineDefinition,1
;   machineTypeOverride,0
;   strokeXoverride,200
;   strokeYoverride,200
;   strokeZoverride,200
;   originOffsetXoverride,0
;   originOffsetYoverride,0
;   originOffsetZoverride,0
;   homeXdirOverride,-1
;   homeYdirOverride,-1
;   homeZdirOverride,-1
;   flipXoverride,1
;   flipYoverride,-1
;   flipZoverride,1
;   toolheadOffsets,0,0|0,0|0,0|0,0|0,0|0,0
;   overrideFirmwareConfiguration,0
;   firmwareTypeOverride,RepRap (Marlin/Repetier/Sprinter)
;   GPXconfigOverride,r2
;   baudRateOverride,115200
;   overridePrinterModels,0
;   printerModelsOverride
;   startingGcode,G28 X0 Y0; home XY,G1 X20 Y20,G28 Z0,G1 Z5 F5000; Lift NZ
;   layerChangeGcode,
;   retractionGcode,
;   toolChangeGcode,
;   endingGcode,M104 S0 ; turn off extruder,G28 X0 ; home x,M140 S0 ; turn off bed,M84 ; disable motors,M107 ;
;   exportFileFormat,gcode
;   celebration,0
;   celebrationSong,Looney Toons
;   postProcessing,
;   defaultSpeed,3600
;   outlineUnderspeed,0.5
;   solidInfillUnderspeed,0.8
;   supportUnderspeed,0.8
;   rapidXYspeed,4800
;   rapidZspeed,1002
;   minBridgingArea,50
;   bridgingExtraInflation,0
;   bridgingExtrusionMultiplier,1
;   bridgingSpeedMultiplier,1
;   useFixedBridgingAngle,0
;   fixedBridgingAngle,0
;   applyBridgingToPerimeters,0
;   filamentDiameters,1.75|1.75|1.75|1.75|1.75|1.75
;   filamentPricesPerKg,46|46|46|46|46|46
;   filamentDensities,1.25|1.25|1.25|1.25|1.25|1.25
;   useMinPrintHeight,0
;   minPrintHeight,0
;   useMaxPrintHeight,0
;   maxPrintHeight,0
;   useDiaphragm,0
;   diaphragmLayerInterval,20
;   robustSlicing,1
;   mergeAllIntoSolid,0
;   onlyRetractWhenCrossingOutline,1
;   retractBetweenLayers,1
;   useRetractionMinTravel,0
;   retractionMinTravel,3
;   retractWhileWiping,0
;   onlyWipeOutlines,1
;   avoidCrossingOutline,0
;   maxMovementDetourFactor,3
;   toolChangeRetractionDistance,12
;   toolChangeExtraRestartDistance,-0.5
;   toolChangeRetractionSpeed,600
;   externalThinWallType,0
;   internalThinWallType,2
;   thinWallAllowedOverlapPercentage,10
;   singleExtrusionMinLength,1
;   singleExtrusionMinPrintingWidthPercentage,50
;   singleExtrusionMaxPrintingWidthPercentage,200
;   singleExtrusionEndpointExtension,0.2
;   horizontalSizeCompensation,0
G90
M82
M106 S0
M140 S60
M190 S60
M104 S190 T0
M109 S190 T0
G28 X0 Y0; home XY
G1 X20 Y20
G28 Z0
G1 Z5 F5000; Lift NZ
; process Trideo BOX
; layer 1, Z = 0.270
T0
G92 E0.0000
G1 E-0.7000 F1500
; feature skirt
; tool H0.270 W0.480
G1 Z0.270 F1002
G1 X67.731 Y44.145 F4800
G1 E0.0000 F1500
G92 E0.0000
G1 X70.496 Y41.380 E0.2065 F1800
G1 X76.122 Y41.380 E0.5035
G1 X77.802 Y43.060 E0.6290
G1 X105.329 Y43.060 E2.0825
G1 X107.024 Y41.380 E2.2085
G1 X112.600 Y41.380 E2.5030
G1 X115.361 Y44.118 E2.7083
G1 X115.422 Y51.791 E3.1135
G1 X115.422 Y51.821 E3.1151
G1 X115.408 Y54.804 E3.2726
G1 X115.248 Y55.650 E3.3180
G1 X114.838 Y56.710 E3.3780
G1 X114.604 Y57.164 E3.4050
G1 X113.879 Y58.257 E3.4743
G1 X112.601 Y59.226 E3.5590
G1 X110.562 Y59.885 E3.6721
G1 X109.076 Y59.885 E3.7506
G1 X107.366 Y59.333 E3.8455
G1 X106.569 Y58.893 E3.8935
G1 X105.643 Y58.117 E3.9573
G1 X104.940 Y57.076 E4.0237
G1 X104.940 Y123.060 E7.5079
G1 X106.175 Y123.060 E7.5731
G1 X108.940 Y125.825 E7.7796
G1 X108.940 Y125.867 E7.7818
G1 X110.818 Y125.867 E7.8810
G1 X112.118 Y126.248 E7.9525
G1 X113.352 Y127.040 E8.0299
G1 X114.110 Y127.820 E8.0874
G1 X114.726 Y128.844 E8.1505
G1 X114.950 Y129.335 E8.1790
G1 X115.243 Y130.239 E8.2292
G1 X115.358 Y130.953 E8.2673
G1 X115.359 Y131.060 E8.2730
G1 X130.175 Y131.060 E9.0553
G1 X132.940 Y133.825 E9.2618
G1 X132.940 Y150.175 E10.1252
G1 X130.175 Y152.940 E10.3316
G1 X117.825 Y152.940 E10.9838
G1 X115.060 Y150.175 E11.1902
G1 X115.060 Y144.940 E11.4667
G1 X73.825 Y144.940 E13.6440
G1 X73.205 Y144.320 E13.6903
G1 X70.496 Y144.320 E13.8334
G1 X67.731 Y141.555 E14.0399
G1 X67.731 Y125.261 E14.9002
G1 X68.020 Y124.120 E14.9624
G1 X68.927 Y122.446 E15.0629
G1 X69.741 Y121.569 E15.1261
G1 X71.021 Y120.748 E15.2064
G1 X72.321 Y120.367 E15.2780
G1 X74.317 Y120.367 E15.3833
G1 X75.614 Y120.746 E15.4547
G1 X76.923 Y121.583 E15.5368
G1 X77.773 Y122.522 E15.6036
G1 X78.629 Y124.214 E15.7037
G1 X78.887 Y125.295 E15.7624
G1 X78.887 Y127.060 E15.8556
G1 X79.060 Y127.060 E15.8648
G1 X79.060 Y117.825 E16.3524
G1 X81.825 Y115.060 E16.5589
G1 X83.060 Y115.060 E16.6241
G1 X83.060 Y97.825 E17.5342
G1 X85.825 Y95.060 E17.7407
G1 X87.060 Y95.060 E17.8059
G1 X87.060 Y92.940 E17.9178
G1 X85.825 Y92.940 E17.9830
G1 X83.060 Y90.175 E18.1895
G1 X83.060 Y68.940 E19.3108
G1 X81.825 Y68.940 E19.3760
G1 X79.060 Y66.175 E19.5825
G1 X79.060 Y60.940 E19.8589
G1 X78.766 Y60.940 E19.8744
G1 X78.735 Y61.112 E19.8837
G1 X78.139 Y62.696 E19.9730
G1 X77.383 Y63.734 E20.0408
G1 X76.490 Y64.442 E20.1010
G1 X75.742 Y64.842 E20.1458
G1 X74.063 Y65.385 E20.2390
G1 X72.577 Y65.385 E20.3175
G1 X70.895 Y64.842 E20.4108
G1 X70.145 Y64.440 E20.4557
G1 X69.289 Y63.758 E20.5135
G1 X68.568 Y62.804 E20.5767
G1 X67.914 Y61.233 E20.6665
G1 X67.731 Y60.317 E20.7158
G1 X67.731 Y44.145 E21.5698
G92 E0.0000
G1 E-0.7000 F1500
G1 X68.211 Y44.344 F4800
G1 E0.0000 F1500
G92 E0.0000
G1 X70.695 Y41.860 E0.1855 F1800
G1 X75.923 Y41.860 E0.4616
G1 X77.603 Y43.540 E0.5870
G1 X105.527 Y43.540 E2.0615
G1 X107.222 Y41.860 E2.1875
G1 X112.403 Y41.860 E2.4611
G1 X114.882 Y44.320 E2.6455
G1 X114.942 Y51.793 E3.0401
G1 X114.942 Y51.820 E3.0416
G1 X114.928 Y54.757 E3.1967
G1 X114.784 Y55.518 E3.2375
G1 X114.400 Y56.512 E3.2938
G1 X114.189 Y56.920 E3.3181
G1 X113.524 Y57.924 E3.3816
G1 X112.376 Y58.795 E3.4577
G1 X110.486 Y59.405 E3.5626
G1 X109.151 Y59.405 E3.6331
G1 X107.558 Y58.890 E3.7215
G1 X106.842 Y58.495 E3.7647
G1 X106.003 Y57.792 E3.8225
G1 X105.334 Y56.801 E3.8857
G1 X105.223 Y56.460 E3.9046
G1 X104.460 Y56.460 E3.9449
G1 X104.460 Y123.540 E7.4869
G1 X105.976 Y123.540 E7.5670
G1 X108.460 Y126.024 E7.7525
G1 X108.460 Y126.473 E7.7762
G1 X108.889 Y126.347 E7.7998
G1 X110.749 Y126.347 E7.8980
G1 X111.917 Y126.689 E7.9623
G1 X113.046 Y127.414 E8.0331
G1 X113.727 Y128.115 E8.0847
G1 X114.301 Y129.068 E8.1435
G1 X114.501 Y129.509 E8.1690
G1 X114.775 Y130.352 E8.2159
G1 X114.878 Y130.993 E8.2501
G1 X114.883 Y131.540 E8.2790
G1 X129.976 Y131.540 E9.0760
G1 X132.460 Y134.024 E9.2615
G1 X132.460 Y149.976 E10.1039
G1 X129.976 Y152.460 E10.2893
G1 X118.024 Y152.460 E10.9205
G1 X115.540 Y149.976 E11.1059
G1 X115.540 Y144.460 E11.3972
G1 X110.024 Y144.460 E11.6885
G1 X110.000 Y144.436 E11.6903
G1 X109.976 Y144.460 E11.6920
G1 X74.024 Y144.460 E13.5905
G1 X73.404 Y143.840 E13.6368
G1 X70.695 Y143.840 E13.7798
G1 X68.211 Y141.356 E13.9653
G1 X68.211 Y125.321 E14.8120
G1 X68.471 Y124.296 E14.8678
G1 X69.320 Y122.728 E14.9620
G1 X70.051 Y121.940 E15.0188
G1 X71.222 Y121.189 E15.0922
G1 X72.390 Y120.847 E15.1565
G1 X74.248 Y120.847 E15.2546
G1 X75.413 Y121.188 E15.3187
G1 X76.610 Y121.953 E15.3937
G1 X77.374 Y122.797 E15.4538
G1 X78.175 Y124.380 E15.5475
G1 X78.407 Y125.351 E15.6002
G1 X78.407 Y127.540 E15.7158
G1 X79.540 Y127.540 E15.7756
G1 X79.540 Y118.024 E16.2781
G1 X82.024 Y115.540 E16.4636
G1 X83.540 Y115.540 E16.5437
G1 X83.540 Y98.024 E17.4686
G1 X86.024 Y95.540 E17.6541
G1 X87.540 Y95.540 E17.7341
G1 X87.540 Y92.460 E17.8968
G1 X86.024 Y92.460 E17.9768
G1 X83.540 Y89.976 E18.1623
G1 X83.540 Y68.460 E19.2985
G1 X82.024 Y68.460 E19.3785
G1 X79.540 Y65.976 E19.5640
G1 X79.540 Y60.460 E19.8553
G1 X78.365 Y60.460 E19.9173
G1 X78.270 Y60.984 E19.9454
G1 X77.713 Y62.466 E20.0290
G1 X77.034 Y63.398 E20.0899
G1 X76.225 Y64.039 E20.1444
G1 X75.554 Y64.399 E20.1846
G1 X73.987 Y64.905 E20.2716
G1 X72.652 Y64.905 E20.3421
G1 X71.084 Y64.398 E20.4291
G1 X70.410 Y64.037 E20.4695
G1 X69.635 Y63.421 E20.5217
G1 X68.988 Y62.563 E20.5785
G1 X68.376 Y61.093 E20.6626
G1 X68.211 Y60.270 E20.7069
G1 X68.211 Y44.344 E21.5479
G92 E0.0000
G1 E-0.7000 F1500
; feature outer perimeter
G1 X72.691 Y46.340 F4800
G1 E0.0000 F1500
G92 E0.0000
G1 X73.927 Y46.340 E0.0653 F900
G1 X73.927 Y59.806 E0.7763
G1 X73.751 Y60.273 E0.8027
G1 X73.320 Y60.413 E0.8266
G1 X72.887 Y60.273 E0.8506
G1 X72.691 Y59.802 E0.8776
G1 X72.691 Y46.340 E1.5884
; feature gap fill
G1 X73.222 Y46.748 F4800
G92 E0.0000
G1 X73.519 Y47.045 E0.0222 F1800
G1 X73.519 Y47.724 E0.0580
G1 X73.099 Y47.304 E0.0894
G1 X73.099 Y47.983 E0.1252
G1 X73.519 Y48.402 E0.1566
G1 X73.519 Y49.081 E0.1924
G1 X73.099 Y48.661 E0.2238
G1 X73.099 Y49.340 E0.2596
G1 X73.519 Y49.760 E0.2910
G1 X73.519 Y50.439 E0.3268
G1 X73.099 Y50.019 E0.3582
G1 X73.099 Y50.698 E0.3940
G1 X73.519 Y51.118 E0.4254
G1 X73.519 Y51.797 E0.4612
G1 X73.099 Y51.377 E0.4925
G1 X73.099 Y52.056 E0.5284
G1 X73.519 Y52.475 E0.5597
G1 X73.519 Y53.154 E0.5956
G1 X73.099 Y52.734 E0.6269
G1 X73.099 Y53.413 E0.6628
G1 X73.519 Y53.833 E0.6941
G1 X73.519 Y54.512 E0.7300
G1 X73.099 Y54.092 E0.7613
G1 X73.099 Y54.771 E0.7972
G1 X73.519 Y55.191 E0.8285
G1 X73.519 Y55.870 E0.8644
G1 X73.099 Y55.450 E0.8957
G1 X73.099 Y56.128 E0.9316
G1 X73.519 Y56.548 E0.9629
G1 X73.519 Y57.227 E0.9988
G1 X73.099 Y56.807 E1.0301
G1 X73.099 Y57.486 E1.0660
G1 X73.519 Y57.906 E1.0973
G1 X73.519 Y58.585 E1.1332
G1 X73.099 Y58.165 E1.1645
G1 X73.099 Y58.844 E1.2004
G1 X73.519 Y59.264 E1.2317
G1 X73.519 Y59.732 E1.2565
G1 X73.461 Y59.885 E1.2651
G1 X73.099 Y59.523 E1.2922
G92 E0.0000
G1 E-0.7000 F1500
; feature outer perimeter
G1 X109.236 Y54.311 F4800
G1 E0.0000 F1500
G92 E0.0000
G1 X109.192 Y47.803 E0.3437 F900
G1 X109.205 Y46.340 E0.4209
G1 X110.418 Y46.340 E0.4850
G1 X110.462 Y51.814 E0.7740
G1 X110.450 Y54.305 E0.9056
G1 X110.309 Y54.669 E0.9262
G1 X110.254 Y54.772 E0.9324
G1 X109.819 Y54.913 E0.9565
G1 X109.386 Y54.773 E0.9806
G1 X109.236 Y54.311 E1.0062
; feature gap fill
G1 X109.642 Y53.979 F4800
G92 E0.0000
G1 X110.000 Y54.337 E0.0267 F1800
G1 X110.043 Y54.228 E0.0329
G1 X110.045 Y53.703 E0.0606
G1 X109.637 Y53.295 E0.0911
G1 X109.633 Y52.612 E0.1272
G1 X110.048 Y53.027 E0.1582
G1 X110.052 Y52.352 E0.1939
G1 X109.628 Y51.928 E0.2255
G1 X109.624 Y51.245 E0.2616
G1 X110.053 Y51.674 E0.2937
G1 X110.048 Y50.990 E0.3298
G1 X109.619 Y50.561 E0.3618
G1 X109.614 Y49.878 E0.3979
G1 X110.042 Y50.306 E0.4299
G1 X110.037 Y49.621 E0.4660
G1 X109.610 Y49.194 E0.4979
G1 X109.605 Y48.511 E0.5340
G1 X110.031 Y48.937 E0.5658
G1 X110.026 Y48.253 E0.6020
G1 X109.600 Y47.827 E0.6337
G1 X109.600 Y47.803 E0.6350
G1 X109.606 Y47.154 E0.6693
G1 X110.020 Y47.569 E0.7003
G1 X110.015 Y46.884 E0.7364
G1 X109.878 Y46.748 E0.7466
G92 E0.0000
G1 E-0.7000 F1500
; feature outer perimeter
G1 X110.070 Y130.827 F4800
G1 E0.0000 F1500
G92 E0.0000
G1 X110.169 Y130.891 E0.0062 F900
G1 X110.323 Y131.146 E0.0220
G1 X110.401 Y131.389 E0.0354
G1 X110.462 Y139.360 E0.4564
G1 X109.212 Y139.360 E0.5224
G1 X109.175 Y134.131 E0.7985
G1 X109.187 Y131.378 E0.9439
G1 X109.195 Y131.345 E0.9457
G1 X109.469 Y130.891 E0.9737
G1 X109.568 Y130.827 E0.9799
G1 X110.070 Y130.827 E1.0064
; feature gap fill
G1 X109.653 Y131.375 F4800
G92 E0.0000
G1 X109.996 Y131.718 E0.0256 F1800
G1 X110.001 Y132.402 E0.0617
G1 X109.593 Y131.994 E0.0922
G1 X109.590 Y132.669 E0.1279
G1 X110.006 Y133.086 E0.1590
G1 X110.011 Y133.770 E0.1951
G1 X109.586 Y133.345 E0.2269
G1 X109.583 Y134.021 E0.2625
G1 X110.017 Y134.454 E0.2949
G1 X110.022 Y135.138 E0.3310
G1 X109.587 Y134.703 E0.3635
G1 X109.592 Y135.387 E0.3996
G1 X110.027 Y135.822 E0.4321
G1 X110.032 Y136.506 E0.4683
G1 X109.597 Y136.071 E0.5008
G1 X109.601 Y136.754 E0.5369
G1 X110.038 Y137.191 E0.5695
G1 X110.043 Y137.875 E0.6056
G1 X109.606 Y137.438 E0.6382
G1 X109.611 Y138.122 E0.6743
G1 X110.048 Y138.559 E0.7070
G1 X110.051 Y138.952 E0.7277
G1 X109.763 Y138.952 E0.7430
G1 X109.616 Y138.805 E0.7539
G92 E0.0000
G1 E-0.7000 F1500
; feature outer perimeter
G1 X73.927 Y139.360 F4800
G1 E0.0000 F1500
G92 E0.0000
G1 X72.691 Y139.360 E0.0653 F900
G1 X72.691 Y125.911 E0.7754
G1 X72.974 Y125.388 E0.8068
G1 X73.069 Y125.327 E0.8128
G1 X73.571 Y125.327 E0.8393
G1 X73.663 Y125.386 E0.8451
G1 X73.927 Y125.907 E0.8759
G1 X73.927 Y139.360 E1.5863
; feature gap fill
G1 X73.099 Y138.945 F4800
G92 E0.0000
G1 X73.106 Y138.952 E0.0005 F1800
G1 X73.519 Y138.952 E0.0223
G1 X73.519 Y138.686 E0.0364
G1 X73.099 Y138.266 E0.0677
G1 X73.099 Y137.587 E0.1036
G1 X73.519 Y138.007 E0.1349
G1 X73.519 Y137.328 E0.1708
G1 X73.099 Y136.908 E0.2021
G1 X73.099 Y136.230 E0.2380
G1 X73.519 Y136.649 E0.2693
G1 X73.519 Y135.971 E0.3052
G1 X73.099 Y135.551 E0.3365
G1 X73.099 Y134.872 E0.3724
G1 X73.519 Y135.292 E0.4037
G1 X73.519 Y134.613 E0.4396
G1 X73.099 Y134.193 E0.4709
G1 X73.099 Y133.514 E0.5068
G1 X73.519 Y133.934 E0.5381
G1 X73.519 Y133.255 E0.5740
G1 X73.099 Y132.835 E0.6053
G1 X73.099 Y132.157 E0.6412
G1 X73.519 Y132.576 E0.6725
G1 X73.519 Y131.898 E0.7084
G1 X73.099 Y131.478 E0.7397
G1 X73.099 Y130.799 E0.7756
G1 X73.519 Y131.219 E0.8069
G1 X73.519 Y130.540 E0.8428
G1 X73.099 Y130.120 E0.8741
G1 X73.099 Y129.441 E0.9100
