; G-Code generated by Simplify3D(R) Version 4.1.1
; Apr 27, 2021 at 7:38:04 PM
; Settings Summary
;   processName,Trideo BOX
;   applyToModels,Left Arm x2
;   profileName,Trideo BOX
;   profileVersion,2021-04-15 09:48:16
;   baseProfile,Default
;   printMaterial,PLA
;   printQuality,Fast
;   printExtruders,
;   extruderName,Primary Extruder
;   extruderToolheadNumber,0
;   extruderDiameter,0.4
;   extruderAutoWidth,1
;   extruderWidth,0.48
;   extrusionMultiplier,0.98
;   extruderUseRetract,1
;   extruderRetractionDistance,0.7
;   extruderExtraRestartDistance,0
;   extruderRetractionZLift,0
;   extruderRetractionSpeed,1500
;   extruderUseCoasting,0
;   extruderCoastingDistance,0.2
;   extruderUseWipe,0
;   extruderWipeDistance,5
;   primaryExtruder,0
;   layerHeight,0.3
;   topSolidLayers,3
;   bottomSolidLayers,3
;   perimeterOutlines,2
;   printPerimetersInsideOut,1
;   startPointOption,2
;   startPointOriginX,0
;   startPointOriginY,0
;   sequentialIslands,0
;   spiralVaseMode,0
;   firstLayerHeightPercentage,90
;   firstLayerWidthPercentage,100
;   firstLayerUnderspeed,0.5
;   useRaft,0
;   raftExtruder,0
;   raftTopLayers,3
;   raftBaseLayers,2
;   raftOffset,3
;   raftSeparationDistance,0.14
;   raftTopInfill,100
;   aboveRaftSpeedMultiplier,0.3
;   useSkirt,1
;   skirtExtruder,0
;   skirtLayers,1
;   skirtOutlines,2
;   skirtOffset,4
;   usePrimePillar,0
;   primePillarExtruder,999
;   primePillarWidth,12
;   primePillarLocation,7
;   primePillarSpeedMultiplier,1
;   useOozeShield,0
;   oozeShieldExtruder,999
;   oozeShieldOffset,2
;   oozeShieldOutlines,1
;   oozeShieldSidewallShape,1
;   oozeShieldSidewallAngle,30
;   oozeShieldSpeedMultiplier,1
;   infillExtruder,0
;   internalInfillPattern,Rectilinear
;   externalInfillPattern,Rectilinear
;   infillPercentage,15
;   outlineOverlapPercentage,15
;   infillExtrusionWidthPercentage,100
;   minInfillLength,5
;   infillLayerInterval,1
;   internalInfillAngles,45,-45
;   overlapInternalInfillAngles,0
;   externalInfillAngles,45,-45
;   generateSupport,1
;   supportExtruder,0
;   supportInfillPercentage,25
;   supportExtraInflation,0
;   supportBaseLayers,0
;   denseSupportExtruder,0
;   denseSupportLayers,0
;   denseSupportInfillPercentage,70
;   supportLayerInterval,1
;   supportHorizontalPartOffset,0.3
;   supportUpperSeparationLayers,1
;   supportLowerSeparationLayers,1
;   supportType,0
;   supportGridSpacing,4
;   maxOverhangAngle,45
;   supportAngles,0
;   temperatureName,Primary Extruder,Heated bed
;   temperatureNumber,0,0
;   temperatureSetpointCount,1,1
;   temperatureSetpointLayers,1,1
;   temperatureSetpointTemperatures,190,60
;   temperatureStabilizeAtStartup,1,1
;   temperatureHeatedBed,0,1
;   fanLayers,1,2
;   fanSpeeds,0,100
;   blipFanToFullPower,0
;   adjustSpeedForCooling,1
;   minSpeedLayerTime,15
;   minCoolingSpeedSlowdown,20
;   increaseFanForCooling,0
;   minFanLayerTime,45
;   maxCoolingFanSpeed,100
;   increaseFanForBridging,0
;   bridgingFanSpeed,100
;   use5D,1
;   relativeEdistances,0
;   allowEaxisZeroing,1
;   independentExtruderAxes,0
;   includeM10123,0
;   stickySupport,1
;   applyToolheadOffsets,0
;   gcodeXoffset,0
;   gcodeYoffset,0
;   gcodeZoffset,0
;   overrideMachineDefinition,1
;   machineTypeOverride,0
;   strokeXoverride,200
;   strokeYoverride,200
;   strokeZoverride,200
;   originOffsetXoverride,0
;   originOffsetYoverride,0
;   originOffsetZoverride,0
;   homeXdirOverride,-1
;   homeYdirOverride,-1
;   homeZdirOverride,-1
;   flipXoverride,1
;   flipYoverride,-1
;   flipZoverride,1
;   toolheadOffsets,0,0|0,0|0,0|0,0|0,0|0,0
;   overrideFirmwareConfiguration,0
;   firmwareTypeOverride,RepRap (Marlin/Repetier/Sprinter)
;   GPXconfigOverride,r2
;   baudRateOverride,115200
;   overridePrinterModels,0
;   printerModelsOverride
;   startingGcode,G28 X0 Y0; home XY,G1 X20 Y20,G28 Z0,G1 Z5 F5000; Lift NZ
;   layerChangeGcode,
;   retractionGcode,
;   toolChangeGcode,
;   endingGcode,M104 S0 ; turn off extruder,G28 X0 ; home x,M140 S0 ; turn off bed,M84 ; disable motors,M107 ;
;   exportFileFormat,gcode
;   celebration,0
;   celebrationSong,Looney Toons
;   postProcessing,
;   defaultSpeed,3600
;   outlineUnderspeed,0.5
;   solidInfillUnderspeed,0.8
;   supportUnderspeed,0.8
;   rapidXYspeed,4800
;   rapidZspeed,1002
;   minBridgingArea,50
;   bridgingExtraInflation,0
;   bridgingExtrusionMultiplier,1
;   bridgingSpeedMultiplier,1
;   useFixedBridgingAngle,0
;   fixedBridgingAngle,0
;   applyBridgingToPerimeters,0
;   filamentDiameters,1.75|1.75|1.75|1.75|1.75|1.75
;   filamentPricesPerKg,46|46|46|46|46|46
;   filamentDensities,1.25|1.25|1.25|1.25|1.25|1.25
;   useMinPrintHeight,0
;   minPrintHeight,0
;   useMaxPrintHeight,0
;   maxPrintHeight,0
;   useDiaphragm,0
;   diaphragmLayerInterval,20
;   robustSlicing,1
;   mergeAllIntoSolid,0
;   onlyRetractWhenCrossingOutline,1
;   retractBetweenLayers,1
;   useRetractionMinTravel,0
;   retractionMinTravel,3
;   retractWhileWiping,0
;   onlyWipeOutlines,1
;   avoidCrossingOutline,0
;   maxMovementDetourFactor,3
;   toolChangeRetractionDistance,12
;   toolChangeExtraRestartDistance,-0.5
;   toolChangeRetractionSpeed,600
;   externalThinWallType,0
;   internalThinWallType,2
;   thinWallAllowedOverlapPercentage,10
;   singleExtrusionMinLength,1
;   singleExtrusionMinPrintingWidthPercentage,50
;   singleExtrusionMaxPrintingWidthPercentage,200
;   singleExtrusionEndpointExtension,0.2
;   horizontalSizeCompensation,0
G90
M82
M106 S0
M140 S60
M190 S60
M104 S190 T0
M109 S190 T0
G28 X0 Y0; home XY
G1 X20 Y20
G28 Z0
G1 Z5 F5000; Lift NZ
; process Trideo BOX
; layer 1, Z = 0.270
T0
G92 E0.0000
G1 E-0.7000 F1500
; feature skirt
; tool H0.270 W0.480
G1 Z0.270 F1002
G1 X65.283 Y39.245 F4800
G1 E0.0000 F1500
G92 E0.0000
G1 X68.048 Y36.480 E0.2065 F1800
G1 X73.722 Y36.480 E0.5061
G1 X74.302 Y37.060 E0.5494
G1 X107.308 Y37.060 E2.2922
G1 X107.893 Y36.480 E2.3357
G1 X113.521 Y36.480 E2.6329
G1 X116.283 Y39.223 E2.8385
G1 X116.334 Y47.219 E3.2607
G1 X116.940 Y47.825 E3.3059
G1 X116.940 Y56.175 E3.7468
G1 X114.175 Y58.940 E3.9533
G1 X104.940 Y58.940 E4.4410
G1 X104.940 Y125.060 E7.9323
G1 X106.175 Y125.060 E7.9976
G1 X108.940 Y127.825 E8.2040
G1 X108.940 Y128.899 E8.2608
G1 X109.682 Y128.682 E8.3016
G1 X111.741 Y128.682 E8.4103
G1 X113.041 Y129.063 E8.4819
G1 X114.241 Y129.832 E8.5571
G1 X114.999 Y130.613 E8.6146
G1 X115.656 Y131.705 E8.6819
G1 X115.880 Y132.196 E8.7104
G1 X116.159 Y133.060 E8.7583
G1 X130.175 Y133.060 E9.4984
G1 X132.940 Y135.825 E9.7049
G1 X132.940 Y149.060 E10.4037
G1 X134.175 Y149.060 E10.4689
G1 X136.940 Y151.825 E10.6754
G1 X136.940 Y160.175 E11.1163
G1 X134.175 Y162.940 E11.3228
G1 X117.825 Y162.940 E12.1862
G1 X115.060 Y160.175 E12.3926
G1 X115.060 Y146.940 E13.0915
G1 X114.563 Y146.940 E13.1178
G1 X113.589 Y147.920 E13.1907
G1 X107.894 Y147.920 E13.4914
G1 X106.907 Y146.940 E13.5649
G1 X74.702 Y146.940 E15.2654
G1 X73.722 Y147.920 E15.3386
G1 X68.048 Y147.920 E15.6382
G1 X65.283 Y145.155 E15.8447
G1 X65.283 Y127.618 E16.7707
G1 X65.566 Y126.488 E16.8322
G1 X66.493 Y124.753 E16.9361
G1 X67.314 Y123.865 E16.9999
G1 X68.564 Y123.063 E17.0784
G1 X69.865 Y122.682 E17.1499
G1 X71.922 Y122.682 E17.2585
G1 X73.219 Y123.061 E17.3299
G1 X74.493 Y123.875 E17.4098
G1 X75.342 Y124.813 E17.4765
G1 X75.467 Y125.060 E17.4912
G1 X79.060 Y125.060 E17.6809
G1 X79.060 Y115.825 E18.1685
G1 X81.825 Y113.060 E18.3750
G1 X83.060 Y113.060 E18.4402
G1 X83.060 Y70.940 E20.6643
G1 X81.825 Y70.940 E20.7295
G1 X79.060 Y68.175 E20.9360
G1 X79.060 Y58.940 E21.4237
G1 X75.780 Y58.940 E21.5969
G1 X75.743 Y59.039 E21.6024
G1 X74.986 Y60.076 E21.6702
G1 X74.011 Y60.850 E21.7360
G1 X73.264 Y61.250 E21.7807
G1 X71.637 Y61.775 E21.8710
G1 X70.151 Y61.775 E21.9494
G1 X68.523 Y61.249 E22.0398
G1 X67.773 Y60.847 E22.0847
G1 X66.839 Y60.104 E22.1477
G1 X66.119 Y59.150 E22.2109
G1 X65.466 Y57.583 E22.3005
G1 X65.283 Y56.667 E22.3498
G1 X65.283 Y39.245 E23.2698
G92 E0.0000
G1 E-0.7000 F1500
G1 X65.763 Y39.444 F4800
G1 E0.0000 F1500
G92 E0.0000
G1 X68.247 Y36.960 E0.1855 F1800
G1 X73.523 Y36.960 E0.4641
G1 X74.103 Y37.540 E0.5074
G1 X107.506 Y37.540 E2.2712
G1 X108.091 Y36.960 E2.3147
G1 X113.323 Y36.960 E2.5910
G1 X115.804 Y39.424 E2.7756
G1 X115.856 Y47.419 E3.1978
G1 X116.460 Y48.024 E3.2429
G1 X116.460 Y55.976 E3.6628
G1 X113.976 Y58.460 E3.8483
G1 X106.024 Y58.460 E4.2682
G1 X106.000 Y58.436 E4.2700
G1 X105.976 Y58.460 E4.2718
G1 X104.460 Y58.460 E4.3519
G1 X104.460 Y125.540 E7.8939
G1 X105.976 Y125.540 E7.9740
G1 X108.460 Y128.024 E8.1595
G1 X108.460 Y129.583 E8.2418
G1 X108.583 Y129.504 E8.2495
G1 X109.751 Y129.162 E8.3138
G1 X111.672 Y129.162 E8.4152
G1 X112.840 Y129.504 E8.4795
G1 X113.935 Y130.206 E8.5482
G1 X114.616 Y130.907 E8.5998
G1 X115.231 Y131.929 E8.6628
G1 X115.431 Y132.370 E8.6883
G1 X115.701 Y133.203 E8.7346
G1 X115.756 Y133.540 E8.7526
G1 X129.976 Y133.540 E9.5035
G1 X132.460 Y136.024 E9.6890
G1 X132.460 Y149.540 E10.4027
G1 X133.976 Y149.540 E10.4827
G1 X136.460 Y152.024 E10.6682
G1 X136.460 Y159.976 E11.0881
G1 X133.976 Y162.460 E11.2736
G1 X118.024 Y162.460 E12.1160
G1 X115.540 Y159.976 E12.3014
G1 X115.540 Y146.460 E13.0152
G1 X114.363 Y146.460 E13.0773
G1 X113.389 Y147.440 E13.1503
G1 X108.092 Y147.440 E13.4300
G1 X107.105 Y146.460 E13.5034
G1 X74.503 Y146.460 E15.2249
G1 X73.523 Y147.440 E15.2981
G1 X68.247 Y147.440 E15.5767
G1 X65.763 Y144.956 E15.7622
G1 X65.763 Y127.677 E16.6746
G1 X66.017 Y126.662 E16.7298
G1 X66.888 Y125.034 E16.8273
G1 X67.625 Y124.236 E16.8847
G1 X68.766 Y123.504 E16.9563
G1 X69.934 Y123.162 E17.0205
G1 X71.853 Y123.162 E17.1219
G1 X73.018 Y123.502 E17.1860
G1 X74.180 Y124.245 E17.2588
G1 X74.943 Y125.087 E17.3188
G1 X75.172 Y125.540 E17.3456
G1 X77.976 Y125.540 E17.4937
G1 X78.000 Y125.564 E17.4954
G1 X78.024 Y125.540 E17.4972
G1 X79.540 Y125.540 E17.5773
G1 X79.540 Y116.024 E18.0798
G1 X82.024 Y113.540 E18.2652
G1 X83.540 Y113.540 E18.3453
G1 X83.540 Y70.460 E20.6201
G1 X82.024 Y70.460 E20.7002
G1 X79.540 Y67.976 E20.8856
G1 X79.540 Y58.460 E21.3881
G1 X78.024 Y58.460 E21.4682
G1 X78.000 Y58.436 E21.4700
G1 X77.976 Y58.460 E21.4717
G1 X75.447 Y58.460 E21.6053
G1 X75.316 Y58.809 E21.6249
G1 X74.637 Y59.741 E21.6858
G1 X73.747 Y60.447 E21.7458
G1 X73.075 Y60.806 E21.7861
G1 X71.562 Y61.295 E21.8700
G1 X70.227 Y61.295 E21.9405
G1 X68.712 Y60.806 E22.0246
G1 X68.038 Y60.445 E22.0650
G1 X67.186 Y59.767 E22.1225
G1 X66.538 Y58.909 E22.1792
G1 X65.928 Y57.443 E22.2631
G1 X65.763 Y56.620 E22.3074
G1 X65.763 Y39.444 E23.2144
G92 E0.0000
G1 E-0.7000 F1500
; feature outer perimeter
G1 X70.243 Y41.440 F4800
G1 E0.0000 F1500
G92 E0.0000
G1 X71.527 Y41.440 E0.0678 F900
G1 X71.527 Y56.156 E0.8449
G1 X71.349 Y56.631 E0.8716
G1 X71.295 Y56.673 E0.8753
G1 X70.894 Y56.803 E0.8975
G1 X70.494 Y56.673 E0.9197
G1 X70.444 Y56.634 E0.9231
G1 X70.243 Y56.152 E0.9507
G1 X70.243 Y41.440 E1.7275
; feature gap fill
G1 X71.037 Y41.848 F4800
G92 E0.0000
G1 X71.119 Y41.930 E0.0061 F1800
G1 X71.119 Y42.609 E0.0420
G1 X70.651 Y42.141 E0.0769
G1 X70.651 Y42.819 E0.1128
G1 X71.119 Y43.287 E0.1477
G1 X71.119 Y43.966 E0.1835
G1 X70.651 Y43.498 E0.2185
G1 X70.651 Y44.177 E0.2543
G1 X71.119 Y44.645 E0.2893
G1 X71.119 Y45.324 E0.3251
G1 X70.651 Y44.856 E0.3601
G1 X70.651 Y45.535 E0.3959
G1 X71.119 Y46.003 E0.4309
G1 X71.119 Y46.682 E0.4667
G1 X70.651 Y46.214 E0.5017
G1 X70.651 Y46.892 E0.5375
G1 X71.119 Y47.360 E0.5725
G1 X71.119 Y48.039 E0.6083
G1 X70.651 Y47.571 E0.6433
G1 X70.651 Y48.250 E0.6791
G1 X71.119 Y48.718 E0.7141
G1 X71.119 Y49.397 E0.7499
G1 X70.651 Y48.929 E0.7849
G1 X70.651 Y49.608 E0.8207
G1 X71.119 Y50.076 E0.8557
G1 X71.119 Y50.754 E0.8915
G1 X70.651 Y50.286 E0.9265
G1 X70.651 Y50.965 E0.9623
G1 X71.119 Y51.433 E0.9973
G1 X71.119 Y52.112 E1.0331
G1 X70.651 Y51.644 E1.0681
G1 X70.651 Y52.323 E1.1039
G1 X71.119 Y52.791 E1.1389
G1 X71.119 Y53.470 E1.1747
G1 X70.651 Y53.002 E1.2096
G1 X70.651 Y53.681 E1.2455
G1 X71.119 Y54.149 E1.2804
G1 X71.119 Y54.827 E1.3163
G1 X70.651 Y54.359 E1.3512
G1 X70.651 Y55.038 E1.3871
G1 X71.119 Y55.506 E1.4220
G1 X71.119 Y56.082 E1.4525
G1 X71.091 Y56.157 E1.4567
G1 X70.651 Y55.717 E1.4895
G92 E0.0000
G1 E-0.7000 F1500
; feature outer perimeter
G1 X110.095 Y50.161 F4800
G1 E0.0000 F1500
G92 E0.0000
G1 X110.053 Y43.895 E0.3309 F900
G1 X110.074 Y41.440 E0.4605
G1 X111.337 Y41.440 E0.5272
G1 X111.399 Y49.108 E0.9322
G1 X111.394 Y50.155 E0.9874
G1 X111.345 Y50.280 E0.9945
G1 X111.155 Y50.636 E1.0158
G1 X111.109 Y50.674 E1.0190
G1 X110.711 Y50.803 E1.0410
G1 X110.314 Y50.674 E1.0631
G1 X110.242 Y50.614 E1.0680
G1 X110.095 Y50.161 E1.0932
; feature gap fill
G1 X110.770 Y50.355 F4800
G92 E0.0000
G1 X110.503 Y50.088 E0.0200 F1800
G1 X110.498 Y49.404 E0.0561
G1 X110.987 Y49.893 E0.0926
G1 X110.990 Y49.217 E0.1282
G1 X110.493 Y48.721 E0.1653
G1 X110.489 Y48.037 E0.2014
G1 X110.986 Y48.534 E0.2385
G1 X110.981 Y47.850 E0.2747
G1 X110.484 Y47.354 E0.3117
G1 X110.480 Y46.670 E0.3478
G1 X110.975 Y47.166 E0.3848
G1 X110.970 Y46.481 E0.4210
G1 X110.475 Y45.987 E0.4579
G1 X110.470 Y45.303 E0.4940
G1 X110.964 Y45.797 E0.5309
G1 X110.959 Y45.113 E0.5670
G1 X110.466 Y44.620 E0.6038
G1 X110.461 Y43.936 E0.6399
G1 X110.953 Y44.428 E0.6767
G1 X110.948 Y43.744 E0.7128
G1 X110.466 Y43.263 E0.7488
G1 X110.472 Y42.590 E0.7843
G1 X110.942 Y43.060 E0.8194
G1 X110.937 Y42.376 E0.8556
G1 X110.478 Y41.917 E0.8898
G92 E0.0000
G1 E-0.7000 F1500
; feature outer perimeter
G1 X110.430 Y133.642 F4800
G1 E0.0000 F1500
G92 E0.0000
G1 X110.993 Y133.642 E0.0297 F900
G1 X111.058 Y133.683 E0.0338
G1 X111.253 Y134.007 E0.0538
G1 X111.328 Y134.239 E0.0666
G1 X111.393 Y142.392 E0.4971
G1 X111.387 Y142.960 E0.5271
G1 X110.077 Y142.960 E0.5963
G1 X110.024 Y135.397 E0.9956
G1 X110.038 Y134.227 E1.0575
G1 X110.365 Y133.683 E1.0910
G1 X110.430 Y133.642 E1.0950
; feature gap fill
G1 X110.497 Y134.256 F4800
G92 E0.0000
G1 X110.923 Y134.682 E0.0318 F1800
G1 X110.929 Y135.366 E0.0680
G1 X110.438 Y134.876 E0.1046
G1 X110.432 Y135.399 E0.1322
G1 X110.433 Y135.549 E0.1401
G1 X110.934 Y136.051 E0.1776
G1 X110.940 Y136.735 E0.2137
G1 X110.438 Y136.233 E0.2512
G1 X110.443 Y136.917 E0.2873
G1 X110.945 Y137.419 E0.3248
G1 X110.951 Y138.104 E0.3609
G1 X110.448 Y137.600 E0.3985
G1 X110.452 Y138.284 E0.4346
G1 X110.956 Y138.788 E0.4722
G1 X110.962 Y139.472 E0.5084
G1 X110.457 Y138.968 E0.5460
G1 X110.462 Y139.651 E0.5821
G1 X110.967 Y140.157 E0.6199
G1 X110.973 Y140.841 E0.6560
G1 X110.467 Y140.335 E0.6938
G1 X110.472 Y141.019 E0.7299
G1 X110.978 Y141.525 E0.7677
G1 X110.984 Y142.210 E0.8038
G1 X110.477 Y141.702 E0.8417
G1 X110.481 Y142.386 E0.8778
G1 X110.647 Y142.552 E0.8902
G92 E0.0000
G1 E-0.7000 F1500
; feature outer perimeter
G1 X71.527 Y142.960 F4800
G1 E0.0000 F1500
G92 E0.0000
G1 X70.243 Y142.960 E0.0678 F900
G1 X70.243 Y128.260 E0.8440
G1 X70.553 Y127.680 E0.8788
G1 X70.613 Y127.642 E0.8825
G1 X71.176 Y127.642 E0.9122
G1 X71.234 Y127.679 E0.9158
G1 X71.527 Y128.257 E0.9501
G1 X71.527 Y142.960 E1.7265
; feature gap fill
G1 X71.119 Y142.396 F4800
G92 E0.0000
G1 X70.651 Y141.927 E0.0350 F1800
G1 X70.651 Y141.249 E0.0708
G1 X71.119 Y141.717 E0.1057
G1 X71.119 Y141.038 E0.1416
G1 X70.651 Y140.570 E0.1765
G1 X70.651 Y139.891 E0.2124
G1 X71.119 Y140.359 E0.2473
G1 X71.119 Y139.680 E0.2832
G1 X70.651 Y139.212 E0.3181
G1 X70.651 Y138.533 E0.3540
G1 X71.119 Y139.001 E0.3889
G1 X71.119 Y138.323 E0.4248
G1 X70.651 Y137.855 E0.4597
G1 X70.651 Y137.176 E0.4956
G1 X71.119 Y137.644 E0.5305
G1 X71.119 Y136.965 E0.5664
G1 X70.651 Y136.497 E0.6013
G1 X70.651 Y135.818 E0.6372
G1 X71.119 Y136.286 E0.6721
G1 X71.119 Y135.607 E0.7080
G1 X70.651 Y135.139 E0.7429
G1 X70.651 Y134.460 E0.7788
G1 X71.119 Y134.928 E0.8137
G1 X71.119 Y134.250 E0.8496
G1 X70.651 Y133.782 E0.8845
G1 X70.651 Y133.103 E0.9204
G1 X71.119 Y133.571 E0.9553
G1 X71.119 Y132.892 E0.9912
G1 X70.651 Y132.424 E1.0261
G1 X70.651 Y131.745 E1.0619
G1 X71.119 Y132.213 E1.0969
G1 X71.119 Y131.534 E1.1327
G1 X70.651 Y131.066 E1.1677
G1 X70.651 Y130.388 E1.2035
G1 X71.119 Y130.856 E1.2385
G1 X71.119 Y130.177 E1.2743
G1 X70.651 Y129.709 E1.3093
