; G-Code generated by Simplify3D(R) Version 4.1.1
; Apr 27, 2021 at 7:35:48 PM
; Settings Summary
;   processName,Trideo BOX
;   applyToModels,Left Arm x2
;   profileName,Trideo BOX
;   profileVersion,2021-04-15 09:48:16
;   baseProfile,Default
;   printMaterial,PLA
;   printQuality,Fast
;   printExtruders,
;   extruderName,Primary Extruder
;   extruderToolheadNumber,0
;   extruderDiameter,0.4
;   extruderAutoWidth,1
;   extruderWidth,0.48
;   extrusionMultiplier,0.98
;   extruderUseRetract,1
;   extruderRetractionDistance,0.7
;   extruderExtraRestartDistance,0
;   extruderRetractionZLift,0
;   extruderRetractionSpeed,1500
;   extruderUseCoasting,0
;   extruderCoastingDistance,0.2
;   extruderUseWipe,0
;   extruderWipeDistance,5
;   primaryExtruder,0
;   layerHeight,0.3
;   topSolidLayers,3
;   bottomSolidLayers,3
;   perimeterOutlines,2
;   printPerimetersInsideOut,1
;   startPointOption,2
;   startPointOriginX,0
;   startPointOriginY,0
;   sequentialIslands,0
;   spiralVaseMode,0
;   firstLayerHeightPercentage,90
;   firstLayerWidthPercentage,100
;   firstLayerUnderspeed,0.5
;   useRaft,0
;   raftExtruder,0
;   raftTopLayers,3
;   raftBaseLayers,2
;   raftOffset,3
;   raftSeparationDistance,0.14
;   raftTopInfill,100
;   aboveRaftSpeedMultiplier,0.3
;   useSkirt,1
;   skirtExtruder,0
;   skirtLayers,1
;   skirtOutlines,2
;   skirtOffset,4
;   usePrimePillar,0
;   primePillarExtruder,999
;   primePillarWidth,12
;   primePillarLocation,7
;   primePillarSpeedMultiplier,1
;   useOozeShield,0
;   oozeShieldExtruder,999
;   oozeShieldOffset,2
;   oozeShieldOutlines,1
;   oozeShieldSidewallShape,1
;   oozeShieldSidewallAngle,30
;   oozeShieldSpeedMultiplier,1
;   infillExtruder,0
;   internalInfillPattern,Rectilinear
;   externalInfillPattern,Rectilinear
;   infillPercentage,15
;   outlineOverlapPercentage,15
;   infillExtrusionWidthPercentage,100
;   minInfillLength,5
;   infillLayerInterval,1
;   internalInfillAngles,45,-45
;   overlapInternalInfillAngles,0
;   externalInfillAngles,45,-45
;   generateSupport,1
;   supportExtruder,0
;   supportInfillPercentage,25
;   supportExtraInflation,0
;   supportBaseLayers,0
;   denseSupportExtruder,0
;   denseSupportLayers,0
;   denseSupportInfillPercentage,70
;   supportLayerInterval,1
;   supportHorizontalPartOffset,0.3
;   supportUpperSeparationLayers,1
;   supportLowerSeparationLayers,1
;   supportType,0
;   supportGridSpacing,4
;   maxOverhangAngle,45
;   supportAngles,0
;   temperatureName,Primary Extruder,Heated bed
;   temperatureNumber,0,0
;   temperatureSetpointCount,1,1
;   temperatureSetpointLayers,1,1
;   temperatureSetpointTemperatures,190,60
;   temperatureStabilizeAtStartup,1,1
;   temperatureHeatedBed,0,1
;   fanLayers,1,2
;   fanSpeeds,0,100
;   blipFanToFullPower,0
;   adjustSpeedForCooling,1
;   minSpeedLayerTime,15
;   minCoolingSpeedSlowdown,20
;   increaseFanForCooling,0
;   minFanLayerTime,45
;   maxCoolingFanSpeed,100
;   increaseFanForBridging,0
;   bridgingFanSpeed,100
;   use5D,1
;   relativeEdistances,0
;   allowEaxisZeroing,1
;   independentExtruderAxes,0
;   includeM10123,0
;   stickySupport,1
;   applyToolheadOffsets,0
;   gcodeXoffset,0
;   gcodeYoffset,0
;   gcodeZoffset,0
;   overrideMachineDefinition,1
;   machineTypeOverride,0
;   strokeXoverride,200
;   strokeYoverride,200
;   strokeZoverride,200
;   originOffsetXoverride,0
;   originOffsetYoverride,0
;   originOffsetZoverride,0
;   homeXdirOverride,-1
;   homeYdirOverride,-1
;   homeZdirOverride,-1
;   flipXoverride,1
;   flipYoverride,-1
;   flipZoverride,1
;   toolheadOffsets,0,0|0,0|0,0|0,0|0,0|0,0
;   overrideFirmwareConfiguration,0
;   firmwareTypeOverride,RepRap (Marlin/Repetier/Sprinter)
;   GPXconfigOverride,r2
;   baudRateOverride,115200
;   overridePrinterModels,0
;   printerModelsOverride
;   startingGcode,G28 X0 Y0; home XY,G1 X20 Y20,G28 Z0,G1 Z5 F5000; Lift NZ
;   layerChangeGcode,
;   retractionGcode,
;   toolChangeGcode,
;   endingGcode,M104 S0 ; turn off extruder,G28 X0 ; home x,M140 S0 ; turn off bed,M84 ; disable motors,M107 ;
;   exportFileFormat,gcode
;   celebration,0
;   celebrationSong,Looney Toons
;   postProcessing,
;   defaultSpeed,3600
;   outlineUnderspeed,0.5
;   solidInfillUnderspeed,0.8
;   supportUnderspeed,0.8
;   rapidXYspeed,4800
;   rapidZspeed,1002
;   minBridgingArea,50
;   bridgingExtraInflation,0
;   bridgingExtrusionMultiplier,1
;   bridgingSpeedMultiplier,1
;   useFixedBridgingAngle,0
;   fixedBridgingAngle,0
;   applyBridgingToPerimeters,0
;   filamentDiameters,1.75|1.75|1.75|1.75|1.75|1.75
;   filamentPricesPerKg,46|46|46|46|46|46
;   filamentDensities,1.25|1.25|1.25|1.25|1.25|1.25
;   useMinPrintHeight,0
;   minPrintHeight,0
;   useMaxPrintHeight,0
;   maxPrintHeight,0
;   useDiaphragm,0
;   diaphragmLayerInterval,20
;   robustSlicing,1
;   mergeAllIntoSolid,0
;   onlyRetractWhenCrossingOutline,1
;   retractBetweenLayers,1
;   useRetractionMinTravel,0
;   retractionMinTravel,3
;   retractWhileWiping,0
;   onlyWipeOutlines,1
;   avoidCrossingOutline,0
;   maxMovementDetourFactor,3
;   toolChangeRetractionDistance,12
;   toolChangeExtraRestartDistance,-0.5
;   toolChangeRetractionSpeed,600
;   externalThinWallType,0
;   internalThinWallType,2
;   thinWallAllowedOverlapPercentage,10
;   singleExtrusionMinLength,1
;   singleExtrusionMinPrintingWidthPercentage,50
;   singleExtrusionMaxPrintingWidthPercentage,200
;   singleExtrusionEndpointExtension,0.2
;   horizontalSizeCompensation,0
G90
M82
M106 S0
M140 S60
M190 S60
M104 S190 T0
M109 S190 T0
G28 X0 Y0; home XY
G1 X20 Y20
G28 Z0
G1 Z5 F5000; Lift NZ
; process Trideo BOX
; layer 1, Z = 0.270
T0
G92 E0.0000
G1 E-0.7000 F1500
; feature skirt
; tool H0.270 W0.480
G1 Z0.270 F1002
G1 X72.663 Y53.945 F4800
G1 E0.0000 F1500
G92 E0.0000
G1 X75.428 Y51.180 E0.2065 F1800
G1 X77.705 Y51.180 E0.3267
G1 X77.825 Y51.060 E0.3357
G1 X108.884 Y51.060 E1.9757
G1 X109.005 Y51.180 E1.9847
G1 X110.777 Y51.180 E2.0783
G1 X113.543 Y53.953 E2.2851
G1 X113.522 Y63.080 E2.7671
G1 X113.373 Y63.905 E2.8113
G1 X112.846 Y65.318 E2.8909
G1 X112.254 Y66.215 E2.9477
G1 X111.429 Y67.000 E3.0078
G1 X110.516 Y67.543 E3.0639
G1 X108.777 Y68.104 E3.1604
G1 X107.290 Y68.104 E3.2389
G1 X105.551 Y67.543 E3.3354
G1 X104.940 Y67.180 E3.3730
G1 X104.940 Y121.167 E6.2237
G1 X105.796 Y120.619 E6.2774
G1 X107.096 Y120.237 E6.3490
G1 X108.971 Y120.237 E6.4480
G1 X110.271 Y120.619 E6.5195
G1 X111.575 Y121.454 E6.6013
G1 X112.333 Y122.235 E6.6587
G1 X112.829 Y123.060 E6.7096
G1 X122.175 Y123.060 E7.2031
G1 X124.940 Y125.825 E7.4096
G1 X124.940 Y135.060 E7.8972
G1 X126.175 Y135.060 E7.9624
G1 X128.940 Y137.825 E8.1689
G1 X128.940 Y146.175 E8.6098
G1 X126.175 Y148.940 E8.8163
G1 X113.825 Y148.940 E9.4684
G1 X111.060 Y146.175 E9.6749
G1 X111.060 Y136.940 E10.1625
G1 X110.952 Y136.940 E10.1682
G1 X110.773 Y137.120 E10.1816
G1 X105.283 Y137.120 E10.4716
G1 X105.103 Y136.940 E10.4850
G1 X81.101 Y136.940 E11.7524
G1 X80.921 Y137.120 E11.7658
G1 X75.428 Y137.120 E12.0559
G1 X72.663 Y134.355 E12.2624
G1 X72.663 Y120.863 E12.9748
G1 X72.733 Y120.292 E13.0052
G1 X72.901 Y119.615 E13.0420
G1 X73.123 Y119.046 E13.0743
G1 X73.783 Y117.844 E13.1466
G1 X74.590 Y116.980 E13.2091
G1 X75.933 Y116.119 E13.2933
G1 X77.233 Y115.737 E13.3649
G1 X79.106 Y115.737 E13.4638
G1 X80.404 Y116.117 E13.5352
G1 X81.784 Y116.999 E13.6217
G1 X82.636 Y117.943 E13.6889
G1 X83.060 Y118.785 E13.7386
G1 X83.060 Y109.825 E14.2117
G1 X85.825 Y107.060 E14.4182
G1 X87.060 Y107.060 E14.4834
G1 X87.060 Y80.940 E15.8626
G1 X85.825 Y80.940 E15.9279
G1 X83.060 Y78.175 E16.1343
G1 X83.060 Y69.588 E16.5877
G1 X82.907 Y69.952 E16.6086
G1 X82.353 Y70.751 E16.6599
G1 X81.566 Y71.500 E16.7173
G1 X80.653 Y72.043 E16.7734
G1 X78.914 Y72.604 E16.8699
G1 X77.428 Y72.604 E16.9484
G1 X75.688 Y72.043 E17.0449
G1 X74.775 Y71.500 E17.1009
G1 X73.977 Y70.740 E17.1592
G1 X73.411 Y69.911 E17.2121
G1 X72.839 Y68.506 E17.2923
G1 X72.663 Y67.608 E17.3406
G1 X72.663 Y53.945 E18.0620
G92 E0.0000
G1 E-0.7000 F1500
G1 X73.143 Y54.144 F4800
G1 E0.0000 F1500
G92 E0.0000
G1 X75.627 Y51.660 E0.1855 F1800
G1 X77.904 Y51.660 E0.3057
G1 X78.024 Y51.540 E0.3147
G1 X108.686 Y51.540 E1.9338
G1 X108.807 Y51.660 E1.9428
G1 X110.578 Y51.660 E2.0363
G1 X113.063 Y54.151 E2.2221
G1 X113.042 Y63.036 E2.6913
G1 X112.908 Y63.777 E2.7310
G1 X112.416 Y65.099 E2.8055
G1 X111.883 Y65.905 E2.8565
G1 X111.137 Y66.615 E2.9109
G1 X110.317 Y67.103 E2.9613
G1 X108.701 Y67.624 E3.0509
G1 X107.366 Y67.624 E3.1214
G1 X105.750 Y67.103 E3.2111
G1 X104.930 Y66.615 E3.2615
G1 X104.460 Y66.168 E3.2957
G1 X104.460 Y122.177 E6.2532
G1 X104.798 Y121.829 E6.2788
G1 X105.997 Y121.060 E6.3540
G1 X107.165 Y120.717 E6.4183
G1 X108.902 Y120.717 E6.5100
G1 X110.070 Y121.060 E6.5743
G1 X111.269 Y121.829 E6.6495
G1 X111.950 Y122.530 E6.7011
G1 X112.441 Y123.346 E6.7514
G1 X112.529 Y123.540 E6.7627
G1 X121.976 Y123.540 E7.2615
G1 X124.460 Y126.024 E7.4470
G1 X124.460 Y135.540 E7.9495
G1 X125.976 Y135.540 E8.0295
G1 X128.460 Y138.024 E8.2150
G1 X128.460 Y145.976 E8.6349
G1 X125.976 Y148.460 E8.8204
G1 X114.024 Y148.460 E9.4515
G1 X111.540 Y145.976 E9.6370
G1 X111.540 Y136.460 E10.1395
G1 X110.753 Y136.460 E10.1811
G1 X110.574 Y136.640 E10.1945
G1 X105.482 Y136.640 E10.4634
G1 X105.302 Y136.460 E10.4768
G1 X80.903 Y136.460 E11.7652
G1 X80.723 Y136.640 E11.7786
G1 X75.627 Y136.640 E12.0477
G1 X73.143 Y134.156 E12.2332
G1 X73.143 Y120.892 E12.9336
G1 X73.206 Y120.379 E12.9608
G1 X73.359 Y119.761 E12.9945
G1 X73.559 Y119.249 E13.0235
G1 X74.175 Y118.128 E13.0911
G1 X74.900 Y117.351 E13.1471
G1 X76.134 Y116.560 E13.2246
G1 X77.302 Y116.217 E13.2889
G1 X79.038 Y116.217 E13.3805
G1 X80.203 Y116.558 E13.4446
G1 X81.471 Y117.369 E13.5241
G1 X82.237 Y118.217 E13.5844
G1 X82.903 Y119.540 E13.6626
G1 X83.540 Y119.540 E13.6963
G1 X83.540 Y110.024 E14.1988
G1 X86.024 Y107.540 E14.3843
G1 X87.540 Y107.540 E14.4643
G1 X87.540 Y80.460 E15.8942
G1 X86.024 Y80.460 E15.9743
G1 X83.540 Y77.976 E16.1598
G1 X83.540 Y68.460 E16.6623
G1 X83.016 Y68.460 E16.6900
G1 X82.484 Y69.719 E16.7621
G1 X81.987 Y70.437 E16.8083
G1 X81.274 Y71.115 E16.8602
G1 X80.454 Y71.603 E16.9106
G1 X78.838 Y72.124 E17.0002
G1 X77.503 Y72.124 E17.0707
G1 X75.887 Y71.603 E17.1604
G1 X75.067 Y71.115 E17.2108
G1 X74.344 Y70.428 E17.2634
G1 X73.836 Y69.683 E17.3110
G1 X73.301 Y68.368 E17.3860
G1 X73.143 Y67.561 E17.4294
G1 X73.143 Y54.144 E18.1379
G92 E0.0000
G1 E-0.7000 F1500
; feature outer perimeter
G1 X77.623 Y56.140 F4800
G1 E0.0000 F1500
G92 E0.0000
G1 X78.726 Y56.140 E0.0583 F900
G1 X78.726 Y67.101 E0.6371
G1 X78.554 Y67.508 E0.6604
G1 X78.171 Y67.632 E0.6817
G1 X77.788 Y67.509 E0.7029
G1 X77.623 Y67.103 E0.7260
G1 X77.623 Y56.140 E1.3049
; feature gap fill
G1 X78.270 Y56.548 F4800
G92 E0.0000
G1 X78.318 Y56.596 E0.0036 F1800
G1 X78.318 Y57.275 E0.0394
G1 X78.031 Y56.988 E0.0609
G1 X78.031 Y57.666 E0.0967
G1 X78.318 Y57.954 E0.1182
G1 X78.318 Y58.632 E0.1540
G1 X78.031 Y58.345 E0.1755
G1 X78.031 Y59.024 E0.2113
G1 X78.318 Y59.311 E0.2328
G1 X78.318 Y59.990 E0.2686
G1 X78.031 Y59.703 E0.2901
G1 X78.031 Y60.382 E0.3259
G1 X78.318 Y60.669 E0.3474
G1 X78.318 Y61.348 E0.3832
G1 X78.031 Y61.060 E0.4047
G1 X78.031 Y61.739 E0.4405
G1 X78.318 Y62.027 E0.4620
G1 X78.318 Y62.705 E0.4978
G1 X78.031 Y62.418 E0.5193
G1 X78.031 Y63.097 E0.5551
G1 X78.318 Y63.384 E0.5766
G1 X78.318 Y64.063 E0.6124
G1 X78.031 Y63.776 E0.6339
G1 X78.031 Y64.455 E0.6697
G1 X78.318 Y64.742 E0.6912
G1 X78.318 Y65.421 E0.7270
G1 X78.031 Y65.133 E0.7485
G1 X78.031 Y65.812 E0.7843
G1 X78.318 Y66.100 E0.8058
G1 X78.318 Y66.778 E0.8416
G1 X78.031 Y66.491 E0.8631
G92 E0.0000
G1 E-0.7000 F1500
; feature outer perimeter
G1 X107.519 Y62.609 F4800
G1 E0.0000 F1500
G92 E0.0000
G1 X107.480 Y56.140 E0.3416 F900
G1 X108.581 Y56.140 E0.3997
G1 X108.590 Y57.224 E0.4570
G1 X108.563 Y62.622 E0.7420
G1 X108.550 Y62.677 E0.7450
G1 X108.416 Y63.009 E0.7639
G1 X108.034 Y63.132 E0.7851
G1 X107.656 Y63.010 E0.8061
G1 X107.519 Y62.609 E0.8285
; feature gap fill
G1 X107.926 Y62.445 F4800
G92 E0.0000
G1 X108.124 Y62.643 E0.0148 F1800
G1 X108.156 Y62.565 E0.0193
G1 X108.158 Y61.998 E0.0492
G1 X107.922 Y61.762 E0.0668
G1 X107.917 Y61.079 E0.1029
G1 X108.162 Y61.323 E0.1211
G1 X108.165 Y60.647 E0.1568
G1 X107.913 Y60.396 E0.1756
G1 X107.909 Y59.713 E0.2117
G1 X108.168 Y59.972 E0.2310
G1 X108.172 Y59.296 E0.2667
G1 X107.905 Y59.030 E0.2866
G1 X107.901 Y58.347 E0.3226
G1 X108.175 Y58.621 E0.3431
G1 X108.178 Y57.945 E0.3787
G1 X107.897 Y57.664 E0.3997
G1 X107.893 Y56.981 E0.4358
G1 X108.181 Y57.270 E0.4573
G1 X108.182 Y57.225 E0.4597
G1 X108.176 Y56.586 E0.4934
G1 X108.139 Y56.548 E0.4963
G92 E0.0000
G1 E-0.7000 F1500
; feature outer perimeter
G1 X108.223 Y125.197 F4800
G1 E0.0000 F1500
G92 E0.0000
G1 X108.392 Y125.305 E0.0106 F900
G1 X108.463 Y125.424 E0.0178
G1 X108.549 Y125.689 E0.0326
G1 X108.584 Y130.161 E0.2687
G1 X108.574 Y132.160 E0.3743
G1 X107.483 Y132.160 E0.4319
G1 X107.504 Y125.678 E0.7742
G1 X107.537 Y125.535 E0.7819
G1 X107.676 Y125.305 E0.7961
G1 X107.844 Y125.197 E0.8067
G1 X108.223 Y125.197 E0.8267
; feature gap fill
G1 X107.966 Y125.615 F4800
G92 E0.0000
G1 X108.141 Y125.791 E0.0131 F1800
G1 X108.147 Y126.475 E0.0493
G1 X107.910 Y126.238 E0.0670
G1 X107.908 Y126.915 E0.1027
G1 X108.152 Y127.159 E0.1209
G1 X108.158 Y127.844 E0.1571
G1 X107.906 Y127.591 E0.1759
G1 X107.903 Y128.268 E0.2116
G1 X108.163 Y128.528 E0.2310
G1 X108.169 Y129.212 E0.2672
G1 X107.901 Y128.945 E0.2872
G1 X107.899 Y129.621 E0.3229
G1 X108.174 Y129.897 E0.3434
G1 X108.176 Y130.162 E0.3575
G1 X108.174 Y130.575 E0.3793
G1 X107.897 Y130.298 E0.4000
G1 X107.895 Y130.975 E0.4357
G1 X108.171 Y131.251 E0.4564
G1 X108.168 Y131.752 E0.4828
G1 X107.993 Y131.752 E0.4921
G1 X107.893 Y131.651 E0.4996
G92 E0.0000
G1 E-0.7000 F1500
; feature outer perimeter
G1 X78.726 Y132.160 F4800
G1 E0.0000 F1500
G92 E0.0000
G1 X77.623 Y132.160 E0.0583 F900
G1 X77.623 Y121.179 E0.6381
G1 X77.634 Y121.137 E0.6404
G1 X77.817 Y120.803 E0.6605
G1 X77.981 Y120.697 E0.6708
G1 X78.360 Y120.697 E0.6908
G1 X78.522 Y120.800 E0.7009
G1 X78.726 Y121.207 E0.7250
G1 X78.726 Y132.160 E1.3033
; feature gap fill
G1 X78.031 Y131.658 F4800
G92 E0.0000
G1 X78.125 Y131.752 E0.0070 F1800
G1 X78.318 Y131.752 E0.0172
G1 X78.318 Y131.266 E0.0429
G1 X78.031 Y130.979 E0.0643
G1 X78.031 Y130.300 E0.1002
G1 X78.318 Y130.588 E0.1216
G1 X78.318 Y129.909 E0.1575
G1 X78.031 Y129.622 E0.1789
G1 X78.031 Y128.943 E0.2148
G1 X78.318 Y129.230 E0.2362
G1 X78.318 Y128.551 E0.2721
G1 X78.031 Y128.264 E0.2935
G1 X78.031 Y127.585 E0.3294
G1 X78.318 Y127.872 E0.3508
G1 X78.318 Y127.194 E0.3867
G1 X78.031 Y126.906 E0.4081
G1 X78.031 Y126.227 E0.4440
G1 X78.318 Y126.515 E0.4654
G1 X78.318 Y125.836 E0.5013
G1 X78.031 Y125.549 E0.5227
G1 X78.031 Y124.870 E0.5586
G1 X78.318 Y125.157 E0.5800
G1 X78.318 Y124.478 E0.6159
G1 X78.031 Y124.191 E0.6373
G1 X78.031 Y123.512 E0.6732
G1 X78.318 Y123.799 E0.6946
G1 X78.318 Y123.121 E0.7304
G1 X78.031 Y122.833 E0.7519
G1 X78.031 Y122.154 E0.7877
G1 X78.318 Y122.442 E0.8092
G1 X78.318 Y121.763 E0.8450
G1 X78.031 Y121.476 E0.8665
G92 E0.0000
G1 E-0.7000 F1500
; feature support
G1 X106.024 Y130.720 F4800
G1 E0.0000 F1500
G92 E0.0000
G1 X80.178 Y130.720 E1.3648 F1440
G1 X80.174 Y128.800 E1.4662
G1 X106.024 Y128.800 E2.8312
G1 X106.025 Y128.030 E2.8718
G1 X99.970 Y128.030 E3.1915
G1 X99.970 Y126.880 E3.2523
G1 X80.171 Y126.880 E4.2977
G1 X80.168 Y124.960 E4.3991
G1 X99.970 Y124.960 E5.4447
G1 X99.970 Y123.040 E5.5461
G1 X88.030 Y123.040 E6.1765
G1 X88.030 Y121.120 E6.2779
G1 X99.970 Y121.120 E6.9084
G1 X99.970 Y119.200 E7.0098
G1 X88.030 Y119.200 E7.6403
G1 X88.030 Y117.280 E7.7416
G1 X99.970 Y117.280 E8.3721
G1 X99.970 Y115.360 E8.4735
G1 X88.030 Y115.360 E9.1040
G1 X88.030 Y113.440 E9.2054
G1 X99.970 Y113.440 E9.8358
G1 X99.970 Y111.520 E9.9372
G1 X92.030 Y111.520 E10.3565
G1 X92.030 Y109.600 E10.4579
G1 X99.970 Y109.600 E10.8771
G1 X99.970 Y107.680 E10.9785
G1 X92.030 Y107.680 E11.3978
G1 X92.030 Y105.760 E11.4992
G1 X99.970 Y105.760 E11.9184
G1 X99.970 Y103.840 E12.0198
G1 X92.030 Y103.840 E12.4391
