; G-Code generated by Simplify3D(R) Version 4.1.1
; Apr 28, 2021 at 6:47:03 PM
; Settings Summary
;   processName,Trideo BOX
;   applyToModels,forearmjoinerB left,bicepholderA left
;   profileName,Trideo BOX
;   profileVersion,2021-04-15 09:48:16
;   baseProfile,Default
;   printMaterial,PLA
;   printQuality,Fast
;   printExtruders,
;   extruderName,Primary Extruder
;   extruderToolheadNumber,0
;   extruderDiameter,0.4
;   extruderAutoWidth,1
;   extruderWidth,0.48
;   extrusionMultiplier,0.98
;   extruderUseRetract,1
;   extruderRetractionDistance,0.7
;   extruderExtraRestartDistance,0
;   extruderRetractionZLift,0
;   extruderRetractionSpeed,1500
;   extruderUseCoasting,0
;   extruderCoastingDistance,0.2
;   extruderUseWipe,0
;   extruderWipeDistance,5
;   primaryExtruder,0
;   layerHeight,0.3
;   topSolidLayers,3
;   bottomSolidLayers,3
;   perimeterOutlines,2
;   printPerimetersInsideOut,1
;   startPointOption,2
;   startPointOriginX,0
;   startPointOriginY,0
;   sequentialIslands,0
;   spiralVaseMode,0
;   firstLayerHeightPercentage,90
;   firstLayerWidthPercentage,100
;   firstLayerUnderspeed,0.5
;   useRaft,0
;   raftExtruder,0
;   raftTopLayers,3
;   raftBaseLayers,2
;   raftOffset,3
;   raftSeparationDistance,0.14
;   raftTopInfill,100
;   aboveRaftSpeedMultiplier,0.3
;   useSkirt,1
;   skirtExtruder,0
;   skirtLayers,1
;   skirtOutlines,2
;   skirtOffset,4
;   usePrimePillar,0
;   primePillarExtruder,999
;   primePillarWidth,12
;   primePillarLocation,7
;   primePillarSpeedMultiplier,1
;   useOozeShield,0
;   oozeShieldExtruder,999
;   oozeShieldOffset,2
;   oozeShieldOutlines,1
;   oozeShieldSidewallShape,1
;   oozeShieldSidewallAngle,30
;   oozeShieldSpeedMultiplier,1
;   infillExtruder,0
;   internalInfillPattern,Rectilinear
;   externalInfillPattern,Rectilinear
;   infillPercentage,15
;   outlineOverlapPercentage,15
;   infillExtrusionWidthPercentage,100
;   minInfillLength,5
;   infillLayerInterval,1
;   internalInfillAngles,45,-45
;   overlapInternalInfillAngles,0
;   externalInfillAngles,45,-45
;   generateSupport,1
;   supportExtruder,0
;   supportInfillPercentage,25
;   supportExtraInflation,0
;   supportBaseLayers,0
;   denseSupportExtruder,0
;   denseSupportLayers,0
;   denseSupportInfillPercentage,70
;   supportLayerInterval,1
;   supportHorizontalPartOffset,0.3
;   supportUpperSeparationLayers,1
;   supportLowerSeparationLayers,1
;   supportType,0
;   supportGridSpacing,4
;   maxOverhangAngle,45
;   supportAngles,0
;   temperatureName,Primary Extruder,Heated bed
;   temperatureNumber,0,0
;   temperatureSetpointCount,1,1
;   temperatureSetpointLayers,1,1
;   temperatureSetpointTemperatures,190,60
;   temperatureStabilizeAtStartup,1,1
;   temperatureHeatedBed,0,1
;   fanLayers,1,2
;   fanSpeeds,0,100
;   blipFanToFullPower,0
;   adjustSpeedForCooling,1
;   minSpeedLayerTime,15
;   minCoolingSpeedSlowdown,20
;   increaseFanForCooling,0
;   minFanLayerTime,45
;   maxCoolingFanSpeed,100
;   increaseFanForBridging,0
;   bridgingFanSpeed,100
;   use5D,1
;   relativeEdistances,0
;   allowEaxisZeroing,1
;   independentExtruderAxes,0
;   includeM10123,0
;   stickySupport,1
;   applyToolheadOffsets,0
;   gcodeXoffset,0
;   gcodeYoffset,0
;   gcodeZoffset,0
;   overrideMachineDefinition,1
;   machineTypeOverride,0
;   strokeXoverride,200
;   strokeYoverride,200
;   strokeZoverride,200
;   originOffsetXoverride,0
;   originOffsetYoverride,0
;   originOffsetZoverride,0
;   homeXdirOverride,-1
;   homeYdirOverride,-1
;   homeZdirOverride,-1
;   flipXoverride,1
;   flipYoverride,-1
;   flipZoverride,1
;   toolheadOffsets,0,0|0,0|0,0|0,0|0,0|0,0
;   overrideFirmwareConfiguration,0
;   firmwareTypeOverride,RepRap (Marlin/Repetier/Sprinter)
;   GPXconfigOverride,r2
;   baudRateOverride,115200
;   overridePrinterModels,0
;   printerModelsOverride
;   startingGcode,G28 X0 Y0; home XY,G1 X20 Y20,G28 Z0,G1 Z5 F5000; Lift NZ
;   layerChangeGcode,
;   retractionGcode,
;   toolChangeGcode,
;   endingGcode,M104 S0 ; turn off extruder,G28 X0 ; home x,M140 S0 ; turn off bed,M84 ; disable motors,M107 ;
;   exportFileFormat,gcode
;   celebration,0
;   celebrationSong,Looney Toons
;   postProcessing,
;   defaultSpeed,3600
;   outlineUnderspeed,0.5
;   solidInfillUnderspeed,0.8
;   supportUnderspeed,0.8
;   rapidXYspeed,4800
;   rapidZspeed,1002
;   minBridgingArea,50
;   bridgingExtraInflation,0
;   bridgingExtrusionMultiplier,1
;   bridgingSpeedMultiplier,1
;   useFixedBridgingAngle,0
;   fixedBridgingAngle,0
;   applyBridgingToPerimeters,0
;   filamentDiameters,1.75|1.75|1.75|1.75|1.75|1.75
;   filamentPricesPerKg,46|46|46|46|46|46
;   filamentDensities,1.25|1.25|1.25|1.25|1.25|1.25
;   useMinPrintHeight,0
;   minPrintHeight,0
;   useMaxPrintHeight,0
;   maxPrintHeight,0
;   useDiaphragm,0
;   diaphragmLayerInterval,20
;   robustSlicing,1
;   mergeAllIntoSolid,0
;   onlyRetractWhenCrossingOutline,1
;   retractBetweenLayers,1
;   useRetractionMinTravel,0
;   retractionMinTravel,3
;   retractWhileWiping,0
;   onlyWipeOutlines,1
;   avoidCrossingOutline,0
;   maxMovementDetourFactor,3
;   toolChangeRetractionDistance,12
;   toolChangeExtraRestartDistance,-0.5
;   toolChangeRetractionSpeed,600
;   externalThinWallType,0
;   internalThinWallType,2
;   thinWallAllowedOverlapPercentage,10
;   singleExtrusionMinLength,1
;   singleExtrusionMinPrintingWidthPercentage,50
;   singleExtrusionMaxPrintingWidthPercentage,200
;   singleExtrusionEndpointExtension,0.2
;   horizontalSizeCompensation,0
G90
M82
M106 S0
M140 S60
M190 S60
M104 S190 T0
M109 S190 T0
G28 X0 Y0; home XY
G1 X20 Y20
G28 Z0
G1 Z5 F5000; Lift NZ
; process Trideo BOX
; layer 1, Z = 0.270
T0
G92 E0.0000
G1 E-0.7000 F1500
; feature skirt
; tool H0.270 W0.480
G1 Z0.270 F1002
G1 X21.900 Y51.420 F4800
G1 E0.0000 F1500
G92 E0.0000
G1 X34.250 Y51.420 E0.6521 F1800
G1 X37.015 Y54.185 E0.8586
G1 X37.015 Y55.420 E0.9238
G1 X38.250 Y55.420 E0.9890
G1 X41.015 Y58.185 E1.1955
G1 X41.015 Y59.420 E1.2607
G1 X42.250 Y59.420 E1.3260
G1 X45.015 Y62.185 E1.5324
G1 X45.015 Y67.093 E1.7916
G1 X47.952 Y67.146 E1.9467
G1 X59.475 Y78.669 E2.8072
G1 X59.491 Y79.420 E2.8468
G1 X62.250 Y79.420 E2.9925
G1 X65.015 Y82.185 E3.1990
G1 X65.015 Y83.420 E3.2642
G1 X66.250 Y83.420 E3.3294
G1 X69.015 Y86.185 E3.5359
G1 X69.015 Y87.420 E3.6011
G1 X70.250 Y87.420 E3.6663
G1 X72.075 Y89.245 E3.8026
G1 X73.900 Y87.420 E3.9389
G1 X75.135 Y87.420 E4.0041
G1 X75.135 Y86.185 E4.0693
G1 X77.900 Y83.420 E4.2758
G1 X79.135 Y83.420 E4.3410
G1 X79.135 Y82.185 E4.4062
G1 X81.900 Y79.420 E4.6127
G1 X83.135 Y79.420 E4.6779
G1 X83.135 Y78.185 E4.7432
G1 X85.900 Y75.420 E4.9496
G1 X87.135 Y75.420 E5.0148
G1 X87.135 Y74.185 E5.0801
G1 X89.900 Y71.420 E5.2865
G1 X91.135 Y71.420 E5.3517
G1 X91.135 Y70.185 E5.4170
G1 X93.900 Y67.420 E5.6234
G1 X95.135 Y67.420 E5.6887
G1 X95.135 Y66.185 E5.7539
G1 X97.900 Y63.420 E5.9603
G1 X99.135 Y63.420 E6.0256
G1 X99.135 Y62.185 E6.0908
G1 X101.900 Y59.420 E6.2972
G1 X103.135 Y59.420 E6.3625
G1 X103.135 Y58.185 E6.4277
G1 X105.900 Y55.420 E6.6342
G1 X107.135 Y55.420 E6.6994
G1 X107.135 Y54.185 E6.7646
G1 X109.900 Y51.420 E6.9711
G1 X111.135 Y51.420 E7.0363
G1 X111.135 Y50.185 E7.1015
G1 X113.900 Y47.420 E7.3080
G1 X115.135 Y47.420 E7.3732
G1 X115.135 Y46.185 E7.4384
G1 X117.900 Y43.420 E7.6449
G1 X119.135 Y43.420 E7.7101
G1 X119.135 Y42.185 E7.7753
G1 X121.900 Y39.420 E7.9818
G1 X123.135 Y39.420 E8.0470
G1 X123.135 Y38.185 E8.1122
G1 X125.900 Y35.420 E8.3187
G1 X127.135 Y35.420 E8.3839
G1 X127.135 Y34.185 E8.4491
G1 X129.900 Y31.420 E8.6556
G1 X131.135 Y31.420 E8.7208
G1 X131.135 Y30.185 E8.7860
G1 X133.900 Y27.420 E8.9925
G1 X135.135 Y27.420 E9.0577
G1 X135.135 Y26.185 E9.1229
G1 X137.900 Y23.420 E9.3294
G1 X139.135 Y23.420 E9.3946
G1 X139.135 Y22.185 E9.4598
G1 X141.900 Y19.420 E9.6663
G1 X143.135 Y19.420 E9.7315
G1 X143.135 Y18.185 E9.7968
G1 X145.900 Y15.420 E10.0032
G1 X147.135 Y15.420 E10.0684
G1 X147.135 Y14.185 E10.1337
G1 X149.900 Y11.420 E10.3401
G1 X151.135 Y11.420 E10.4053
G1 X151.135 Y10.185 E10.4706
G1 X153.900 Y7.420 E10.6770
G1 X155.135 Y7.420 E10.7423
G1 X155.135 Y6.185 E10.8075
G1 X157.900 Y3.420 E11.0139
G1 X174.250 Y3.420 E11.8773
G1 X177.015 Y6.185 E12.0838
G1 X177.015 Y22.535 E12.9471
G1 X175.038 Y24.512 E13.0948
G1 X187.323 Y24.512 E13.7435
G1 X190.088 Y27.277 E13.9500
G1 X190.088 Y43.627 E14.8133
G1 X187.323 Y46.392 E15.0198
G1 X186.088 Y46.392 E15.0850
G1 X186.088 Y47.627 E15.1502
G1 X183.323 Y50.392 E15.3567
G1 X182.088 Y50.392 E15.4219
G1 X182.088 Y51.627 E15.4871
G1 X179.323 Y54.392 E15.6936
G1 X178.088 Y54.392 E15.7588
G1 X178.088 Y55.627 E15.8240
G1 X175.323 Y58.392 E16.0305
G1 X174.088 Y58.392 E16.0957
G1 X174.088 Y59.627 E16.1610
G1 X171.323 Y62.392 E16.3674
G1 X170.088 Y62.392 E16.4326
G1 X170.088 Y63.627 E16.4979
G1 X167.323 Y66.392 E16.7043
G1 X166.088 Y66.392 E16.7696
G1 X166.088 Y67.627 E16.8348
G1 X163.323 Y70.392 E17.0412
G1 X162.088 Y70.392 E17.1065
G1 X162.088 Y71.627 E17.1717
G1 X159.323 Y74.392 E17.3781
G1 X158.088 Y74.392 E17.4434
G1 X158.088 Y75.627 E17.5086
G1 X155.323 Y78.392 E17.7151
G1 X154.088 Y78.392 E17.7803
G1 X154.088 Y79.627 E17.8455
G1 X151.323 Y82.392 E18.0520
G1 X150.088 Y82.392 E18.1172
G1 X150.088 Y83.627 E18.1824
G1 X147.323 Y86.392 E18.3889
G1 X146.088 Y86.392 E18.4541
G1 X146.088 Y87.627 E18.5193
G1 X143.323 Y90.392 E18.7258
G1 X142.088 Y90.392 E18.7910
G1 X142.088 Y91.627 E18.8562
G1 X139.323 Y94.392 E19.0627
G1 X138.088 Y94.392 E19.1279
G1 X138.088 Y95.627 E19.1931
G1 X135.323 Y98.392 E19.3996
G1 X134.088 Y98.392 E19.4648
G1 X134.088 Y99.627 E19.5300
G1 X131.323 Y102.392 E19.7365
G1 X130.088 Y102.392 E19.8017
G1 X130.088 Y103.627 E19.8669
G1 X127.323 Y106.392 E20.0734
G1 X126.088 Y106.392 E20.1386
G1 X126.088 Y107.627 E20.2038
G1 X123.323 Y110.392 E20.4103
G1 X122.088 Y110.392 E20.4755
G1 X122.088 Y111.627 E20.5407
G1 X119.323 Y114.392 E20.7472
G1 X118.088 Y114.392 E20.8124
G1 X118.088 Y115.627 E20.8776
G1 X115.323 Y118.392 E21.0841
G1 X114.088 Y118.392 E21.1493
G1 X114.088 Y119.627 E21.2146
G1 X111.323 Y122.392 E21.4210
G1 X110.088 Y122.392 E21.4862
G1 X110.088 Y123.627 E21.5515
G1 X107.323 Y126.392 E21.7579
G1 X106.088 Y126.392 E21.8232
G1 X106.088 Y127.627 E21.8884
G1 X104.263 Y129.452 E22.0246
G1 X106.088 Y131.277 E22.1609
G1 X106.088 Y132.512 E22.2261
G1 X107.323 Y132.512 E22.2914
G1 X110.088 Y135.277 E22.4978
G1 X110.088 Y136.512 E22.5630
G1 X111.323 Y136.512 E22.6283
G1 X114.088 Y139.277 E22.8347
G1 X114.088 Y140.512 E22.9000
G1 X115.323 Y140.512 E22.9652
G1 X118.088 Y143.277 E23.1716
G1 X118.088 Y147.215 E23.3796
G1 X118.435 Y147.214 E23.3979
G1 X127.607 Y156.385 E24.0828
G1 X127.610 Y156.512 E24.0895
G1 X131.323 Y156.512 E24.2856
G1 X134.088 Y159.277 E24.4920
G1 X134.088 Y160.512 E24.5573
G1 X135.323 Y160.512 E24.6225
G1 X138.088 Y163.277 E24.8290
G1 X138.088 Y179.627 E25.6923
G1 X135.323 Y182.392 E25.8988
G1 X134.088 Y182.392 E25.9640
G1 X134.088 Y183.627 E26.0292
G1 X131.323 Y186.392 E26.2357
G1 X130.088 Y186.392 E26.3009
G1 X130.088 Y187.627 E26.3661
G1 X127.323 Y190.392 E26.5726
G1 X126.088 Y190.392 E26.6378
G1 X126.088 Y191.627 E26.7030
G1 X123.323 Y194.392 E26.9095
G1 X110.973 Y194.392 E27.5616
G1 X108.208 Y191.627 E27.7681
G1 X108.208 Y190.392 E27.8333
G1 X106.973 Y190.392 E27.8985
G1 X104.208 Y187.627 E28.1050
G1 X104.208 Y182.454 E28.3782
G1 X101.318 Y182.338 E28.5309
G1 X92.533 Y173.553 E29.1870
G1 X92.492 Y170.392 E29.3539
G1 X86.973 Y170.392 E29.6453
G1 X84.208 Y167.627 E29.8517
G1 X84.208 Y166.392 E29.9170
G1 X82.973 Y166.392 E29.9822
G1 X80.208 Y163.627 E30.1886
G1 X80.208 Y162.392 E30.2539
G1 X78.973 Y162.392 E30.3191
G1 X77.148 Y160.567 E30.4554
G1 X75.323 Y162.392 E30.5916
G1 X74.088 Y162.392 E30.6569
G1 X74.088 Y163.627 E30.7221
G1 X71.323 Y166.392 E30.9285
G1 X66.088 Y166.392 E31.2050
G1 X66.088 Y167.627 E31.2702
G1 X63.323 Y170.392 E31.4767
G1 X62.088 Y170.392 E31.5419
G1 X62.088 Y171.627 E31.6071
G1 X59.323 Y174.392 E31.8136
G1 X46.973 Y174.392 E32.4657
G1 X44.208 Y171.627 E32.6722
G1 X44.208 Y170.392 E32.7374
G1 X42.973 Y170.392 E32.8026
G1 X40.208 Y167.627 E33.0091
G1 X40.208 Y155.277 E33.6612
G1 X42.186 Y153.300 E33.8089
G1 X37.900 Y153.300 E34.0352
G1 X35.135 Y150.535 E34.2417
G1 X35.135 Y149.300 E34.3069
G1 X33.900 Y149.300 E34.3721
G1 X31.135 Y146.535 E34.5786
G1 X31.135 Y145.300 E34.6438
G1 X29.900 Y145.300 E34.7090
G1 X27.135 Y142.535 E34.9155
G1 X27.135 Y134.185 E35.3564
G1 X29.900 Y131.420 E35.5629
G1 X31.135 Y131.420 E35.6281
G1 X31.135 Y130.185 E35.6933
G1 X33.900 Y127.420 E35.8998
G1 X35.135 Y127.420 E35.9650
G1 X35.135 Y122.185 E36.2414
G1 X37.900 Y119.420 E36.4479
G1 X39.135 Y119.420 E36.5131
G1 X39.135 Y118.185 E36.5783
G1 X40.960 Y116.360 E36.7146
G1 X39.135 Y114.535 E36.8509
G1 X39.135 Y113.300 E36.9161
G1 X37.900 Y113.300 E36.9813
G1 X35.135 Y110.535 E37.1878
G1 X35.135 Y104.827 E37.4892
G1 X33.355 Y104.790 E37.5832
G1 X21.865 Y93.300 E38.4412
G1 X17.900 Y93.300 E38.6506
G1 X15.135 Y90.535 E38.8571
G1 X15.135 Y89.300 E38.9223
G1 X13.900 Y89.300 E38.9875
G1 X11.135 Y86.535 E39.1940
G1 X11.135 Y85.300 E39.2592
G1 X9.900 Y85.300 E39.3244
G1 X7.135 Y82.535 E39.5309
G1 X7.135 Y66.185 E40.3942
G1 X9.900 Y63.420 E40.6007
G1 X11.135 Y63.420 E40.6659
G1 X11.135 Y62.185 E40.7311
G1 X13.900 Y59.420 E40.9376
G1 X15.135 Y59.420 E41.0028
G1 X15.135 Y58.185 E41.0680
G1 X17.900 Y55.420 E41.2745
G1 X19.135 Y55.420 E41.3397
G1 X19.135 Y54.185 E41.4049
G1 X21.900 Y51.420 E41.6114
G92 E0.0000
G1 E-0.7000 F1500
G1 X22.099 Y51.900 F4800
G1 E0.0000 F1500
G92 E0.0000
G1 X34.052 Y51.900 E0.6311 F1800
G1 X36.535 Y54.384 E0.8166
G1 X36.535 Y55.900 E0.8967
G1 X38.052 Y55.900 E0.9767
G1 X40.535 Y58.384 E1.1622
G1 X40.535 Y59.900 E1.2423
G1 X42.052 Y59.900 E1.3223
G1 X44.535 Y62.384 E1.5078
G1 X44.535 Y67.564 E1.7814
G1 X47.750 Y67.623 E1.9511
G1 X58.999 Y78.872 E2.7912
G1 X59.021 Y79.900 E2.8455
G1 X62.052 Y79.900 E3.0055
G1 X64.535 Y82.384 E3.1910
G1 X64.535 Y83.900 E3.2711
G1 X66.052 Y83.900 E3.3511
G1 X68.535 Y86.384 E3.5366
G1 X68.535 Y87.900 E3.6167
G1 X70.052 Y87.900 E3.6967
G1 X72.075 Y89.924 E3.8479
G1 X74.099 Y87.900 E3.9990
G1 X75.615 Y87.900 E4.0790
G1 X75.615 Y86.384 E4.1591
G1 X78.099 Y83.900 E4.3446
G1 X79.615 Y83.900 E4.4246
G1 X79.615 Y82.384 E4.5047
G1 X82.099 Y79.900 E4.6902
G1 X83.615 Y79.900 E4.7702
G1 X83.615 Y78.384 E4.8503
G1 X86.099 Y75.900 E5.0358
G1 X87.615 Y75.900 E5.1159
G1 X87.615 Y74.384 E5.1959
G1 X90.099 Y71.900 E5.3814
G1 X91.615 Y71.900 E5.4615
G1 X91.615 Y70.384 E5.5415
G1 X94.099 Y67.900 E5.7270
G1 X95.615 Y67.900 E5.8071
G1 X95.615 Y66.384 E5.8871
G1 X98.099 Y63.900 E6.0726
G1 X99.615 Y63.900 E6.1527
G1 X99.615 Y62.384 E6.2327
G1 X102.099 Y59.900 E6.4182
G1 X103.615 Y59.900 E6.4983
G1 X103.615 Y58.384 E6.5783
G1 X106.099 Y55.900 E6.7638
G1 X107.615 Y55.900 E6.8439
G1 X107.615 Y54.384 E6.9239
G1 X110.099 Y51.900 E7.1094
G1 X111.615 Y51.900 E7.1895
G1 X111.615 Y50.384 E7.2695
G1 X114.099 Y47.900 E7.4550
G1 X115.615 Y47.900 E7.5351
G1 X115.615 Y46.384 E7.6151
G1 X118.099 Y43.900 E7.8006
G1 X119.615 Y43.900 E7.8807
G1 X119.615 Y42.384 E7.9608
G1 X122.099 Y39.900 E8.1462
G1 X123.615 Y39.900 E8.2263
G1 X123.615 Y38.384 E8.3064
G1 X126.099 Y35.900 E8.4918
G1 X127.615 Y35.900 E8.5719
G1 X127.615 Y34.384 E8.6520
G1 X130.099 Y31.900 E8.8374
G1 X131.615 Y31.900 E8.9175
G1 X131.615 Y30.384 E8.9976
G1 X134.099 Y27.900 E9.1830
G1 X135.615 Y27.900 E9.2631
G1 X135.615 Y26.384 E9.3432
G1 X138.099 Y23.900 E9.5286
G1 X139.615 Y23.900 E9.6087
G1 X139.615 Y22.384 E9.6888
G1 X142.099 Y19.900 E9.8742
G1 X143.615 Y19.900 E9.9543
G1 X143.615 Y18.384 E10.0344
G1 X146.099 Y15.900 E10.2199
G1 X147.615 Y15.900 E10.2999
G1 X147.615 Y14.384 E10.3800
G1 X150.099 Y11.900 E10.5655
G1 X151.615 Y11.900 E10.6455
G1 X151.615 Y10.384 E10.7256
G1 X154.099 Y7.900 E10.9111
G1 X155.615 Y7.900 E10.9911
G1 X155.615 Y6.384 E11.0712
G1 X158.099 Y3.900 E11.2567
G1 X166.052 Y3.900 E11.6766
G1 X166.075 Y3.924 E11.6784
G1 X166.099 Y3.900 E11.6801
G1 X174.052 Y3.900 E12.1001
G1 X176.535 Y6.384 E12.2855
G1 X176.535 Y14.336 E12.7055
G1 X176.512 Y14.360 E12.7072
G1 X176.535 Y14.384 E12.7090
