; G-Code generated by Simplify3D(R) Version 4.1.1
; Apr 28, 2021 at 6:42:55 PM
; Settings Summary
;   processName,Trideo BOX
;   applyToModels,forearmjoinerB left,bicepholderA left
;   profileName,Trideo BOX
;   profileVersion,2021-04-15 09:48:16
;   baseProfile,Default
;   printMaterial,PLA
;   printQuality,Fast
;   printExtruders,
;   extruderName,Primary Extruder
;   extruderToolheadNumber,0
;   extruderDiameter,0.4
;   extruderAutoWidth,1
;   extruderWidth,0.48
;   extrusionMultiplier,0.98
;   extruderUseRetract,1
;   extruderRetractionDistance,0.7
;   extruderExtraRestartDistance,0
;   extruderRetractionZLift,0
;   extruderRetractionSpeed,1500
;   extruderUseCoasting,0
;   extruderCoastingDistance,0.2
;   extruderUseWipe,0
;   extruderWipeDistance,5
;   primaryExtruder,0
;   layerHeight,0.3
;   topSolidLayers,3
;   bottomSolidLayers,3
;   perimeterOutlines,2
;   printPerimetersInsideOut,1
;   startPointOption,2
;   startPointOriginX,0
;   startPointOriginY,0
;   sequentialIslands,0
;   spiralVaseMode,0
;   firstLayerHeightPercentage,90
;   firstLayerWidthPercentage,100
;   firstLayerUnderspeed,0.5
;   useRaft,0
;   raftExtruder,0
;   raftTopLayers,3
;   raftBaseLayers,2
;   raftOffset,3
;   raftSeparationDistance,0.14
;   raftTopInfill,100
;   aboveRaftSpeedMultiplier,0.3
;   useSkirt,1
;   skirtExtruder,0
;   skirtLayers,1
;   skirtOutlines,2
;   skirtOffset,4
;   usePrimePillar,0
;   primePillarExtruder,999
;   primePillarWidth,12
;   primePillarLocation,7
;   primePillarSpeedMultiplier,1
;   useOozeShield,0
;   oozeShieldExtruder,999
;   oozeShieldOffset,2
;   oozeShieldOutlines,1
;   oozeShieldSidewallShape,1
;   oozeShieldSidewallAngle,30
;   oozeShieldSpeedMultiplier,1
;   infillExtruder,0
;   internalInfillPattern,Rectilinear
;   externalInfillPattern,Rectilinear
;   infillPercentage,15
;   outlineOverlapPercentage,15
;   infillExtrusionWidthPercentage,100
;   minInfillLength,5
;   infillLayerInterval,1
;   internalInfillAngles,45,-45
;   overlapInternalInfillAngles,0
;   externalInfillAngles,45,-45
;   generateSupport,1
;   supportExtruder,0
;   supportInfillPercentage,25
;   supportExtraInflation,0
;   supportBaseLayers,0
;   denseSupportExtruder,0
;   denseSupportLayers,0
;   denseSupportInfillPercentage,70
;   supportLayerInterval,1
;   supportHorizontalPartOffset,0.3
;   supportUpperSeparationLayers,1
;   supportLowerSeparationLayers,1
;   supportType,0
;   supportGridSpacing,4
;   maxOverhangAngle,45
;   supportAngles,0
;   temperatureName,Primary Extruder,Heated bed
;   temperatureNumber,0,0
;   temperatureSetpointCount,1,1
;   temperatureSetpointLayers,1,1
;   temperatureSetpointTemperatures,190,60
;   temperatureStabilizeAtStartup,1,1
;   temperatureHeatedBed,0,1
;   fanLayers,1,2
;   fanSpeeds,0,100
;   blipFanToFullPower,0
;   adjustSpeedForCooling,1
;   minSpeedLayerTime,15
;   minCoolingSpeedSlowdown,20
;   increaseFanForCooling,0
;   minFanLayerTime,45
;   maxCoolingFanSpeed,100
;   increaseFanForBridging,0
;   bridgingFanSpeed,100
;   use5D,1
;   relativeEdistances,0
;   allowEaxisZeroing,1
;   independentExtruderAxes,0
;   includeM10123,0
;   stickySupport,1
;   applyToolheadOffsets,0
;   gcodeXoffset,0
;   gcodeYoffset,0
;   gcodeZoffset,0
;   overrideMachineDefinition,1
;   machineTypeOverride,0
;   strokeXoverride,200
;   strokeYoverride,200
;   strokeZoverride,200
;   originOffsetXoverride,0
;   originOffsetYoverride,0
;   originOffsetZoverride,0
;   homeXdirOverride,-1
;   homeYdirOverride,-1
;   homeZdirOverride,-1
;   flipXoverride,1
;   flipYoverride,-1
;   flipZoverride,1
;   toolheadOffsets,0,0|0,0|0,0|0,0|0,0|0,0
;   overrideFirmwareConfiguration,0
;   firmwareTypeOverride,RepRap (Marlin/Repetier/Sprinter)
;   GPXconfigOverride,r2
;   baudRateOverride,115200
;   overridePrinterModels,0
;   printerModelsOverride
;   startingGcode,G28 X0 Y0; home XY,G1 X20 Y20,G28 Z0,G1 Z5 F5000; Lift NZ
;   layerChangeGcode,
;   retractionGcode,
;   toolChangeGcode,
;   endingGcode,M104 S0 ; turn off extruder,G28 X0 ; home x,M140 S0 ; turn off bed,M84 ; disable motors,M107 ;
;   exportFileFormat,gcode
;   celebration,0
;   celebrationSong,Looney Toons
;   postProcessing,
;   defaultSpeed,3600
;   outlineUnderspeed,0.5
;   solidInfillUnderspeed,0.8
;   supportUnderspeed,0.8
;   rapidXYspeed,4800
;   rapidZspeed,1002
;   minBridgingArea,50
;   bridgingExtraInflation,0
;   bridgingExtrusionMultiplier,1
;   bridgingSpeedMultiplier,1
;   useFixedBridgingAngle,0
;   fixedBridgingAngle,0
;   applyBridgingToPerimeters,0
;   filamentDiameters,1.75|1.75|1.75|1.75|1.75|1.75
;   filamentPricesPerKg,46|46|46|46|46|46
;   filamentDensities,1.25|1.25|1.25|1.25|1.25|1.25
;   useMinPrintHeight,0
;   minPrintHeight,0
;   useMaxPrintHeight,0
;   maxPrintHeight,0
;   useDiaphragm,0
;   diaphragmLayerInterval,20
;   robustSlicing,1
;   mergeAllIntoSolid,0
;   onlyRetractWhenCrossingOutline,1
;   retractBetweenLayers,1
;   useRetractionMinTravel,0
;   retractionMinTravel,3
;   retractWhileWiping,0
;   onlyWipeOutlines,1
;   avoidCrossingOutline,0
;   maxMovementDetourFactor,3
;   toolChangeRetractionDistance,12
;   toolChangeExtraRestartDistance,-0.5
;   toolChangeRetractionSpeed,600
;   externalThinWallType,0
;   internalThinWallType,2
;   thinWallAllowedOverlapPercentage,10
;   singleExtrusionMinLength,1
;   singleExtrusionMinPrintingWidthPercentage,50
;   singleExtrusionMaxPrintingWidthPercentage,200
;   singleExtrusionEndpointExtension,0.2
;   horizontalSizeCompensation,0
G90
M82
M106 S0
M140 S60
M190 S60
M104 S190 T0
M109 S190 T0
G28 X0 Y0; home XY
G1 X20 Y20
G28 Z0
G1 Z5 F5000; Lift NZ
; process Trideo BOX
; layer 1, Z = 0.270
T0
G92 E0.0000
G1 E-0.7000 F1500
; feature skirt
; tool H0.270 W0.480
G1 Z0.270 F1002
G1 X41.015 Y32.356 F4800
G1 E0.0000 F1500
G92 E0.0000
G1 X43.780 Y29.591 E0.2065 F1800
G1 X72.130 Y29.591 E1.7035
G1 X74.895 Y32.356 E1.9099
G1 X74.895 Y48.706 E2.7733
G1 X72.902 Y50.699 E2.9221
G1 X73.972 Y51.809 E3.0035
G1 X73.972 Y67.189 E3.8157
G1 X73.853 Y67.314 E3.8248
G1 X74.895 Y68.356 E3.9026
G1 X74.895 Y81.591 E4.6015
G1 X180.130 Y81.591 E10.1583
G1 X182.895 Y84.356 E10.3648
G1 X182.895 Y96.706 E11.0169
G1 X180.130 Y99.471 E11.2234
G1 X46.895 Y99.471 E18.2587
G1 X46.895 Y100.253 E18.3000
G1 X176.175 Y100.253 E25.1264
G1 X178.940 Y103.017 E25.3329
G1 X178.940 Y108.253 E25.6093
G1 X180.175 Y108.253 E25.6746
G1 X182.940 Y111.017 E25.8810
G1 X182.940 Y119.368 E26.3219
G1 X180.175 Y122.133 E26.5284
G1 X74.940 Y122.133 E32.0852
G1 X74.940 Y139.368 E32.9953
G1 X73.733 Y140.574 E33.0854
G1 X73.972 Y140.812 E33.1032
G1 X73.972 Y150.050 E33.5910
G1 X74.940 Y151.017 E33.6633
G1 X74.940 Y167.368 E34.5266
G1 X72.175 Y170.133 E34.7331
G1 X43.825 Y170.133 E36.2301
G1 X41.060 Y167.368 E36.4366
G1 X41.060 Y151.017 E37.2999
G1 X42.032 Y150.045 E37.3725
G1 X42.032 Y140.835 E37.8589
G1 X42.276 Y140.584 E37.8773
G1 X41.060 Y139.368 E37.9682
G1 X41.060 Y126.133 E38.6671
G1 X31.825 Y126.133 E39.1547
G1 X29.060 Y123.368 E39.3612
G1 X29.060 Y122.133 E39.4264
G1 X19.825 Y122.133 E39.9140
G1 X17.060 Y119.368 E40.1205
G1 X17.060 Y103.017 E40.9839
G1 X18.193 Y101.884 E41.0685
G1 X17.015 Y100.706 E41.1565
G1 X17.015 Y84.356 E42.0198
G1 X19.780 Y81.591 E42.2263
G1 X29.015 Y81.591 E42.7139
G1 X29.015 Y80.356 E42.7792
G1 X31.780 Y77.591 E42.9856
G1 X41.015 Y77.591 E43.4733
G1 X41.015 Y68.356 E43.9609
G1 X42.105 Y67.265 E44.0423
G1 X42.032 Y67.189 E44.0479
G1 X42.032 Y51.809 E44.8601
G1 X43.056 Y50.747 E44.9379
G1 X41.015 Y48.706 E45.0904
G1 X41.015 Y32.356 E45.9537
G92 E0.0000
G1 E-0.7000 F1500
G1 X41.495 Y32.555 F4800
G1 E0.0000 F1500
G92 E0.0000
G1 X43.979 Y30.071 E0.1855 F1800
G1 X71.931 Y30.071 E1.6615
G1 X74.415 Y32.555 E1.8469
G1 X74.415 Y48.507 E2.6893
G1 X72.229 Y50.693 E2.8525
G1 X73.492 Y52.003 E2.9486
G1 X73.492 Y66.996 E3.7403
G1 X73.181 Y67.321 E3.7641
G1 X74.415 Y68.555 E3.8562
G1 X74.415 Y82.071 E4.5699
G1 X171.931 Y82.071 E9.7191
G1 X171.955 Y82.095 E9.7209
G1 X171.979 Y82.071 E9.7227
G1 X179.931 Y82.071 E10.1426
G1 X182.415 Y84.555 E10.3281
G1 X182.415 Y96.507 E10.9592
G1 X179.931 Y98.991 E11.1447
G1 X171.979 Y98.991 E11.5646
G1 X171.955 Y98.967 E11.5664
G1 X171.931 Y98.991 E11.5682
G1 X46.415 Y98.991 E18.1959
G1 X46.415 Y100.507 E18.2760
G1 X46.190 Y100.733 E18.2928
G1 X175.976 Y100.733 E25.1460
G1 X178.460 Y103.216 E25.3315
G1 X178.460 Y108.733 E25.6228
G1 X179.976 Y108.733 E25.7028
G1 X182.460 Y111.216 E25.8883
G1 X182.460 Y119.169 E26.3082
G1 X179.976 Y121.653 E26.4937
G1 X172.024 Y121.653 E26.9136
G1 X172.000 Y121.629 E26.9154
G1 X171.976 Y121.653 E26.9172
G1 X74.460 Y121.653 E32.0664
G1 X74.460 Y139.169 E32.9913
G1 X73.053 Y140.575 E33.0964
G1 X73.492 Y141.012 E33.1291
G1 X73.492 Y150.249 E33.6168
G1 X74.460 Y151.216 E33.6891
G1 X74.460 Y167.169 E34.5314
G1 X71.976 Y169.653 E34.7169
G1 X44.024 Y169.653 E36.1929
G1 X41.540 Y167.169 E36.3784
G1 X41.540 Y151.216 E37.2207
G1 X42.512 Y150.244 E37.2933
G1 X42.512 Y141.030 E37.7799
G1 X42.951 Y140.580 E37.8131
G1 X41.540 Y139.169 E37.9184
G1 X41.540 Y125.653 E38.6321
G1 X32.024 Y125.653 E39.1346
G1 X29.540 Y123.169 E39.3201
G1 X29.540 Y121.653 E39.4002
G1 X20.024 Y121.653 E39.9027
G1 X17.540 Y119.169 E40.0881
G1 X17.540 Y103.216 E40.9305
G1 X18.872 Y101.884 E41.0300
G1 X17.495 Y100.507 E41.1328
G1 X17.495 Y84.555 E41.9752
G1 X19.979 Y82.071 E42.1606
G1 X29.495 Y82.071 E42.6631
G1 X29.495 Y80.555 E42.7432
G1 X31.979 Y78.071 E42.9287
G1 X41.495 Y78.071 E43.4312
G1 X41.495 Y68.555 E43.9337
G1 X42.777 Y67.272 E44.0294
G1 X42.512 Y66.996 E44.0496
G1 X42.512 Y52.003 E44.8413
G1 X43.729 Y50.741 E44.9339
G1 X41.495 Y48.507 E45.1007
G1 X41.495 Y32.555 E45.9430
G92 E0.0000
G1 E-0.7000 F1500
; feature inner perimeter
G1 X47.472 Y54.410 F4800
G1 E0.0000 F1500
G92 E0.0000
G1 X50.532 Y54.493 E0.1616 F1350
G1 X50.532 Y55.652 E0.2228
G1 X65.472 Y55.652 E1.0117
G1 X65.472 Y54.493 E1.0729
G1 X68.532 Y54.410 E1.2345
G1 X68.532 Y64.583 E1.7717
G1 X65.472 Y64.486 E1.9334
G1 X65.472 Y63.324 E1.9948
G1 X63.894 Y63.324 E2.0781
G1 X50.532 Y63.325 E2.7836
G1 X50.532 Y64.486 E2.8450
G1 X47.472 Y64.583 E3.0066
G1 X47.472 Y54.410 E3.5439
; feature outer perimeter
G1 X47.449 Y53.929 F4800
G92 E0.0000
G1 X51.012 Y54.026 E0.1883 F900
G1 X51.012 Y55.172 E0.2488
G1 X64.992 Y55.172 E0.9870
G1 X64.992 Y54.026 E1.0475
G1 X68.556 Y53.929 E1.2357
G1 X69.012 Y53.945 E1.2598
G1 X69.012 Y65.062 E1.8468
G1 X68.780 Y65.072 E1.8591
G1 X64.992 Y64.951 E2.0592
G1 X64.992 Y63.804 E2.1197
G1 X63.894 Y63.804 E2.1777
G1 X51.012 Y63.805 E2.8579
G1 X51.012 Y64.951 E2.9185
G1 X47.225 Y65.072 E3.1186
G1 X46.992 Y65.062 E3.1309
G1 X46.992 Y53.945 E3.7178
G1 X47.449 Y53.929 E3.7420
; feature solid layer
G1 X48.529 Y64.142 F4800
G92 E0.0000
G1 X47.880 Y63.493 E0.0484 F1440
G1 X47.880 Y62.815 E0.0843
G1 X49.187 Y64.121 E0.1818
G1 X49.845 Y64.100 E0.2166
G1 X47.880 Y62.136 E0.3632
G1 X47.880 Y61.457 E0.3991
G1 X50.124 Y63.701 E0.5666
G1 X50.124 Y63.022 E0.6025
G1 X47.880 Y60.778 E0.7701
G1 X47.880 Y60.099 E0.8059
G1 X50.698 Y62.917 E1.0163
G1 X51.377 Y62.917 E1.0521
G1 X47.880 Y59.420 E1.3132
G1 X47.880 Y58.742 E1.3491
G1 X52.055 Y62.917 E1.6608
G1 X52.734 Y62.916 E1.6967
G1 X47.880 Y58.063 E2.0591
G1 X47.880 Y57.384 E2.0950
G1 X53.413 Y62.916 E2.5081
G1 X54.092 Y62.916 E2.5440
G1 X47.880 Y56.705 E3.0078
G1 X47.880 Y56.026 E3.0437
G1 X54.771 Y62.916 E3.5582
G1 X55.449 Y62.916 E3.5940
G1 X47.880 Y55.347 E4.1592
G1 X47.880 Y54.829 E4.1866
G1 X48.045 Y54.834 E4.1953
G1 X56.128 Y62.916 E4.7989
G1 X56.807 Y62.916 E4.8348
G1 X48.743 Y54.853 E5.4369
G1 X49.441 Y54.872 E5.4738
G1 X50.124 Y55.555 E5.5248
G1 X50.124 Y56.060 E5.5515
G1 X50.630 Y56.060 E5.5782
G1 X57.486 Y62.916 E6.0902
G1 X58.165 Y62.916 E6.1260
G1 X51.308 Y56.060 E6.6380
G1 X51.987 Y56.060 E6.6739
G1 X58.844 Y62.916 E7.1859
G1 X59.522 Y62.916 E7.2217
G1 X52.666 Y56.060 E7.7337
G1 X53.345 Y56.060 E7.7695
G1 X60.201 Y62.916 E8.2815
G1 X60.880 Y62.916 E8.3174
G1 X54.024 Y56.060 E8.8294
G1 X54.703 Y56.060 E8.8652
G1 X61.559 Y62.916 E9.3772
G1 X62.238 Y62.916 E9.4131
G1 X55.381 Y56.060 E9.9250
G1 X56.060 Y56.060 E9.9609
G1 X62.916 Y62.916 E10.4729
G1 X63.595 Y62.916 E10.5087
G1 X56.739 Y56.060 E11.0207
G1 X57.418 Y56.060 E11.0566
G1 X64.274 Y62.916 E11.5686
G1 X64.953 Y62.916 E11.6044
G1 X58.097 Y56.060 E12.1164
G1 X58.775 Y56.060 E12.1522
G1 X65.632 Y62.916 E12.6642
G1 X65.880 Y62.916 E12.6774
G1 X65.880 Y63.165 E12.6905
G1 X66.837 Y64.121 E12.7619
G1 X67.538 Y64.144 E12.7989
G1 X59.454 Y56.060 E13.4026
G1 X60.133 Y56.060 E13.4384
G1 X68.124 Y64.051 E14.0352
G1 X68.124 Y63.373 E14.0710
G1 X60.812 Y56.060 E14.6171
G1 X61.491 Y56.060 E14.6529
G1 X68.124 Y62.694 E15.1483
G1 X68.124 Y62.015 E15.1842
G1 X62.170 Y56.060 E15.6289
G1 X62.848 Y56.060 E15.6647
G1 X68.124 Y61.336 E16.0587
G1 X68.124 Y60.657 E16.0945
G1 X63.527 Y56.060 E16.4378
G1 X64.206 Y56.060 E16.4737
G1 X68.124 Y59.979 E16.7663
G1 X68.124 Y59.300 E16.8021
G1 X64.885 Y56.060 E17.0441
G1 X65.564 Y56.060 E17.0799
G1 X68.124 Y58.621 E17.2711
G1 X68.124 Y57.942 E17.3070
G1 X65.880 Y55.698 E17.4746
G1 X65.880 Y55.019 E17.5104
G1 X68.124 Y57.263 E17.6780
G1 X68.124 Y56.584 E17.7138
G1 X66.416 Y54.876 E17.8414
G1 X67.077 Y54.858 E17.8763
G1 X68.124 Y55.906 E17.9546
G1 X68.124 Y55.227 E17.9904
G1 X67.737 Y54.840 E18.0193
G1 X65.880 Y63.844 F4800
G92 E0.0000
G1 X66.136 Y64.099 E0.0191 F1440
G92 E0.0000
G1 E-0.7000 F1500
; feature inner perimeter
G1 X67.737 Y143.489 F4800
G1 E0.0000 F1500
G92 E0.0000
G1 X68.532 Y143.492 E0.0420 F1350
G1 X68.532 Y150.379 E0.4056
G1 X65.472 Y150.356 E0.5672
G1 X65.472 Y148.071 E0.6879
G1 X50.532 Y148.071 E1.4768
G1 X50.532 Y150.357 E1.5975
G1 X49.285 Y150.367 E1.6633
G1 X47.472 Y150.222 E1.7594
G1 X47.472 Y143.455 E2.1166
G1 X48.889 Y143.419 E2.1915
G1 X59.367 Y143.554 E2.7448
G1 X67.737 Y143.489 E3.1868
; feature outer perimeter
G1 X67.736 Y143.009 F4800
G92 E0.0000
G1 X69.012 Y143.014 E0.0674 F900
G1 X69.012 Y150.862 E0.4818
G1 X64.992 Y150.833 E0.6941
G1 X64.992 Y148.551 E0.8146
G1 X51.012 Y148.551 E1.5528
G1 X51.012 Y150.833 E1.6732
G1 X49.268 Y150.848 E1.7654
G1 X46.992 Y150.664 E1.8859
G1 X46.992 Y142.988 E2.2913
G1 X48.886 Y142.939 E2.3913
G1 X59.368 Y143.074 E2.9448
G1 X67.736 Y143.009 E3.3867
; feature solid layer
G1 X67.869 Y143.897 F4800
G92 E0.0000
G1 X68.124 Y144.153 E0.0191 F1440
G1 X68.124 Y144.831 E0.0549
G1 X67.194 Y143.901 E0.1244
G1 X66.520 Y143.906 E0.1600
G1 X68.124 Y145.510 E0.2797
G1 X68.124 Y146.189 E0.3156
G1 X65.847 Y143.912 E0.4856
G1 X65.173 Y143.917 E0.5212
G1 X68.124 Y146.868 E0.7416
G1 X68.124 Y147.547 E0.7774
G1 X64.500 Y143.922 E1.0481
G1 X63.826 Y143.927 E1.0837
G1 X68.124 Y148.225 E1.4046
G1 X68.124 Y148.904 E1.4405
G1 X63.153 Y143.933 E1.8117
G1 X62.479 Y143.938 E1.8473
G1 X68.124 Y149.583 E2.2689
G1 X68.124 Y149.968 E2.2892
G1 X67.828 Y149.966 E2.3048
G1 X65.880 Y148.018 E2.4503
G1 X65.880 Y147.663 E2.4690
G1 X65.526 Y147.663 E2.4877
G1 X61.806 Y143.943 E2.7655
G1 X61.132 Y143.949 E2.8011
G1 X64.847 Y147.663 E3.0785
G1 X64.168 Y147.663 E3.1143
G1 X60.459 Y143.954 E3.3913
G1 X59.785 Y143.959 E3.4269
G1 X63.489 Y147.663 E3.7035
G1 X62.810 Y147.663 E3.7394
G1 X59.106 Y143.959 E4.0160
G1 X58.418 Y143.950 E4.0523
G1 X62.132 Y147.663 E4.3296
G1 X61.453 Y147.663 E4.3654
G1 X57.731 Y143.941 E4.6434
G1 X57.043 Y143.932 E4.6797
G1 X60.774 Y147.663 E4.9583
G1 X60.095 Y147.663 E4.9942
G1 X56.355 Y143.923 E5.2734
G1 X55.668 Y143.914 E5.3097
G1 X59.416 Y147.663 E5.5897
G1 X58.738 Y147.663 E5.6255
G1 X54.980 Y143.906 E5.9061
G1 X54.292 Y143.897 E5.9425
G1 X58.059 Y147.663 E6.2237
G1 X57.380 Y147.663 E6.2596
G1 X53.604 Y143.888 E6.5415
G1 X52.917 Y143.879 E6.5778
G1 X56.701 Y147.663 E6.8604
G1 X56.022 Y147.663 E6.8963
G1 X52.229 Y143.870 E7.1796
G1 X51.541 Y143.861 E7.2159
G1 X55.343 Y147.663 E7.4998
G1 X54.665 Y147.663 E7.5357
G1 X50.853 Y143.852 E7.8203
G1 X50.166 Y143.843 E7.8566
G1 X53.986 Y147.663 E8.1418
G1 X53.307 Y147.663 E8.1777
G1 X49.478 Y143.834 E8.4636
G1 X48.892 Y143.827 E8.4946
G1 X48.794 Y143.829 E8.4997
G1 X52.628 Y147.663 E8.7860
G1 X51.949 Y147.663 E8.8219
G1 X48.132 Y143.846 E9.1069
G1 X47.880 Y143.853 E9.1202
