; G-Code generated by Simplify3D(R) Version 4.1.1
; Apr 28, 2021 at 6:45:00 PM
; Settings Summary
;   processName,Trideo BOX
;   applyToModels,forearmjoinerB left,bicepholderA left
;   profileName,Trideo BOX
;   profileVersion,2021-04-15 09:48:16
;   baseProfile,Default
;   printMaterial,PLA
;   printQuality,Fast
;   printExtruders,
;   extruderName,Primary Extruder
;   extruderToolheadNumber,0
;   extruderDiameter,0.4
;   extruderAutoWidth,1
;   extruderWidth,0.48
;   extrusionMultiplier,0.98
;   extruderUseRetract,1
;   extruderRetractionDistance,0.7
;   extruderExtraRestartDistance,0
;   extruderRetractionZLift,0
;   extruderRetractionSpeed,1500
;   extruderUseCoasting,0
;   extruderCoastingDistance,0.2
;   extruderUseWipe,0
;   extruderWipeDistance,5
;   primaryExtruder,0
;   layerHeight,0.3
;   topSolidLayers,3
;   bottomSolidLayers,3
;   perimeterOutlines,2
;   printPerimetersInsideOut,1
;   startPointOption,2
;   startPointOriginX,0
;   startPointOriginY,0
;   sequentialIslands,0
;   spiralVaseMode,0
;   firstLayerHeightPercentage,90
;   firstLayerWidthPercentage,100
;   firstLayerUnderspeed,0.5
;   useRaft,0
;   raftExtruder,0
;   raftTopLayers,3
;   raftBaseLayers,2
;   raftOffset,3
;   raftSeparationDistance,0.14
;   raftTopInfill,100
;   aboveRaftSpeedMultiplier,0.3
;   useSkirt,1
;   skirtExtruder,0
;   skirtLayers,1
;   skirtOutlines,2
;   skirtOffset,4
;   usePrimePillar,0
;   primePillarExtruder,999
;   primePillarWidth,12
;   primePillarLocation,7
;   primePillarSpeedMultiplier,1
;   useOozeShield,0
;   oozeShieldExtruder,999
;   oozeShieldOffset,2
;   oozeShieldOutlines,1
;   oozeShieldSidewallShape,1
;   oozeShieldSidewallAngle,30
;   oozeShieldSpeedMultiplier,1
;   infillExtruder,0
;   internalInfillPattern,Rectilinear
;   externalInfillPattern,Rectilinear
;   infillPercentage,15
;   outlineOverlapPercentage,15
;   infillExtrusionWidthPercentage,100
;   minInfillLength,5
;   infillLayerInterval,1
;   internalInfillAngles,45,-45
;   overlapInternalInfillAngles,0
;   externalInfillAngles,45,-45
;   generateSupport,1
;   supportExtruder,0
;   supportInfillPercentage,25
;   supportExtraInflation,0
;   supportBaseLayers,0
;   denseSupportExtruder,0
;   denseSupportLayers,0
;   denseSupportInfillPercentage,70
;   supportLayerInterval,1
;   supportHorizontalPartOffset,0.3
;   supportUpperSeparationLayers,1
;   supportLowerSeparationLayers,1
;   supportType,0
;   supportGridSpacing,4
;   maxOverhangAngle,45
;   supportAngles,0
;   temperatureName,Primary Extruder,Heated bed
;   temperatureNumber,0,0
;   temperatureSetpointCount,1,1
;   temperatureSetpointLayers,1,1
;   temperatureSetpointTemperatures,190,60
;   temperatureStabilizeAtStartup,1,1
;   temperatureHeatedBed,0,1
;   fanLayers,1,2
;   fanSpeeds,0,100
;   blipFanToFullPower,0
;   adjustSpeedForCooling,1
;   minSpeedLayerTime,15
;   minCoolingSpeedSlowdown,20
;   increaseFanForCooling,0
;   minFanLayerTime,45
;   maxCoolingFanSpeed,100
;   increaseFanForBridging,0
;   bridgingFanSpeed,100
;   use5D,1
;   relativeEdistances,0
;   allowEaxisZeroing,1
;   independentExtruderAxes,0
;   includeM10123,0
;   stickySupport,1
;   applyToolheadOffsets,0
;   gcodeXoffset,0
;   gcodeYoffset,0
;   gcodeZoffset,0
;   overrideMachineDefinition,1
;   machineTypeOverride,0
;   strokeXoverride,200
;   strokeYoverride,200
;   strokeZoverride,200
;   originOffsetXoverride,0
;   originOffsetYoverride,0
;   originOffsetZoverride,0
;   homeXdirOverride,-1
;   homeYdirOverride,-1
;   homeZdirOverride,-1
;   flipXoverride,1
;   flipYoverride,-1
;   flipZoverride,1
;   toolheadOffsets,0,0|0,0|0,0|0,0|0,0|0,0
;   overrideFirmwareConfiguration,0
;   firmwareTypeOverride,RepRap (Marlin/Repetier/Sprinter)
;   GPXconfigOverride,r2
;   baudRateOverride,115200
;   overridePrinterModels,0
;   printerModelsOverride
;   startingGcode,G28 X0 Y0; home XY,G1 X20 Y20,G28 Z0,G1 Z5 F5000; Lift NZ
;   layerChangeGcode,
;   retractionGcode,
;   toolChangeGcode,
;   endingGcode,M104 S0 ; turn off extruder,G28 X0 ; home x,M140 S0 ; turn off bed,M84 ; disable motors,M107 ;
;   exportFileFormat,gcode
;   celebration,0
;   celebrationSong,Looney Toons
;   postProcessing,
;   defaultSpeed,3600
;   outlineUnderspeed,0.5
;   solidInfillUnderspeed,0.8
;   supportUnderspeed,0.8
;   rapidXYspeed,4800
;   rapidZspeed,1002
;   minBridgingArea,50
;   bridgingExtraInflation,0
;   bridgingExtrusionMultiplier,1
;   bridgingSpeedMultiplier,1
;   useFixedBridgingAngle,0
;   fixedBridgingAngle,0
;   applyBridgingToPerimeters,0
;   filamentDiameters,1.75|1.75|1.75|1.75|1.75|1.75
;   filamentPricesPerKg,46|46|46|46|46|46
;   filamentDensities,1.25|1.25|1.25|1.25|1.25|1.25
;   useMinPrintHeight,0
;   minPrintHeight,0
;   useMaxPrintHeight,0
;   maxPrintHeight,0
;   useDiaphragm,0
;   diaphragmLayerInterval,20
;   robustSlicing,1
;   mergeAllIntoSolid,0
;   onlyRetractWhenCrossingOutline,1
;   retractBetweenLayers,1
;   useRetractionMinTravel,0
;   retractionMinTravel,3
;   retractWhileWiping,0
;   onlyWipeOutlines,1
;   avoidCrossingOutline,0
;   maxMovementDetourFactor,3
;   toolChangeRetractionDistance,12
;   toolChangeExtraRestartDistance,-0.5
;   toolChangeRetractionSpeed,600
;   externalThinWallType,0
;   internalThinWallType,2
;   thinWallAllowedOverlapPercentage,10
;   singleExtrusionMinLength,1
;   singleExtrusionMinPrintingWidthPercentage,50
;   singleExtrusionMaxPrintingWidthPercentage,200
;   singleExtrusionEndpointExtension,0.2
;   horizontalSizeCompensation,0
G90
M82
M106 S0
M140 S60
M190 S60
M104 S190 T0
M109 S190 T0
G28 X0 Y0; home XY
G1 X20 Y20
G28 Z0
G1 Z5 F5000; Lift NZ
; process Trideo BOX
; layer 1, Z = 0.270
T0
G92 E0.0000
G1 E-0.7000 F1500
; feature skirt
; tool H0.270 W0.480
G1 Z0.270 F1002
G1 X37.010 Y24.637 F4800
G1 E0.0000 F1500
G92 E0.0000
G1 X39.775 Y21.872 E0.2065 F1800
G1 X68.125 Y21.872 E1.7035
G1 X70.890 Y24.637 E1.9099
G1 X70.890 Y44.987 E2.9845
G1 X69.695 Y46.182 E3.0738
G1 X70.556 Y47.075 E3.1393
G1 X70.556 Y62.914 E3.9756
G1 X69.876 Y63.623 E4.0275
G1 X70.890 Y64.637 E4.1032
G1 X70.890 Y77.872 E4.8021
G1 X184.125 Y77.872 E10.7813
G1 X186.890 Y80.637 E10.9878
G1 X186.890 Y85.872 E11.2642
G1 X188.125 Y85.872 E11.3294
G1 X190.890 Y88.637 E11.5359
G1 X190.890 Y96.987 E11.9768
G1 X188.125 Y99.752 E12.1833
G1 X38.890 Y99.752 E20.0635
G1 X38.890 Y100.987 E20.1287
G1 X37.945 Y101.932 E20.1993
G1 X38.940 Y102.928 E20.2736
G1 X38.940 Y104.163 E20.3388
G1 X188.175 Y104.163 E28.2190
G1 X190.940 Y106.928 E28.4255
G1 X190.940 Y115.278 E28.8664
G1 X188.175 Y118.043 E29.0729
G1 X186.940 Y118.043 E29.1381
G1 X186.940 Y123.278 E29.4145
G1 X184.175 Y126.043 E29.6210
G1 X70.940 Y126.043 E35.6002
G1 X70.940 Y147.278 E36.7215
G1 X70.556 Y147.662 E36.7502
G1 X70.556 Y158.346 E37.3144
G1 X70.460 Y158.448 E37.3218
G1 X70.940 Y158.928 E37.3576
G1 X70.940 Y175.278 E38.2210
G1 X68.175 Y178.043 E38.4274
G1 X39.825 Y178.043 E39.9244
G1 X37.060 Y175.278 E40.1309
G1 X37.060 Y159.117 E40.9843
G1 X36.116 Y158.094 E41.0578
G1 X36.116 Y145.934 E41.6999
G1 X37.060 Y144.965 E41.7713
G1 X37.060 Y126.043 E42.7705
G1 X11.825 Y126.043 E44.1030
G1 X9.060 Y123.278 E44.3094
G1 X9.060 Y106.928 E45.1728
G1 X11.825 Y104.163 E45.3793
G1 X21.060 Y104.163 E45.8669
G1 X21.060 Y102.928 E45.9321
G1 X22.005 Y101.982 E46.0027
G1 X21.010 Y100.987 E46.0770
G1 X21.010 Y99.752 E46.1423
G1 X11.775 Y99.752 E46.6299
G1 X9.010 Y96.987 E46.8364
G1 X9.010 Y80.637 E47.6997
G1 X11.775 Y77.872 E47.9062
G1 X37.010 Y77.872 E49.2387
G1 X37.010 Y64.637 E49.9376
G1 X37.397 Y64.250 E49.9665
G1 X36.116 Y62.914 E50.0642
G1 X36.116 Y47.075 E50.9006
G1 X37.580 Y45.557 E51.0119
G1 X37.010 Y44.987 E51.0545
G1 X37.010 Y24.637 E52.1291
G92 E0.0000
G1 E-0.7000 F1500
G1 X37.490 Y24.836 F4800
G1 E0.0000 F1500
G92 E0.0000
G1 X39.974 Y22.352 E0.1855 F1800
G1 X67.926 Y22.352 E1.6615
G1 X70.410 Y24.836 E1.8469
G1 X70.410 Y44.788 E2.9005
G1 X69.022 Y46.176 E3.0042
G1 X70.076 Y47.269 E3.0843
G1 X70.076 Y62.721 E3.9002
G1 X69.204 Y63.630 E3.9667
G1 X70.410 Y64.836 E4.0568
G1 X70.410 Y78.352 E4.7705
G1 X183.926 Y78.352 E10.7646
G1 X186.410 Y80.836 E10.9501
G1 X186.410 Y86.352 E11.2414
G1 X187.926 Y86.352 E11.3214
G1 X190.410 Y88.836 E11.5069
G1 X190.410 Y96.788 E11.9268
G1 X187.926 Y99.272 E12.1123
G1 X179.974 Y99.272 E12.5322
G1 X179.950 Y99.248 E12.5340
G1 X179.926 Y99.272 E12.5358
G1 X38.410 Y99.272 E20.0084
G1 X38.410 Y100.788 E20.0884
G1 X37.266 Y101.932 E20.1739
G1 X38.460 Y103.127 E20.2630
G1 X38.460 Y104.643 E20.3431
G1 X179.976 Y104.643 E27.8157
G1 X180.000 Y104.667 E27.8175
G1 X180.024 Y104.643 E27.8192
G1 X187.976 Y104.643 E28.2392
G1 X190.460 Y107.127 E28.4246
G1 X190.460 Y115.079 E28.8446
G1 X187.976 Y117.563 E29.0300
G1 X186.460 Y117.563 E29.1101
G1 X186.460 Y123.079 E29.4014
G1 X183.976 Y125.563 E29.5869
G1 X70.460 Y125.563 E35.5809
G1 X70.460 Y147.079 E36.7171
G1 X70.076 Y147.463 E36.7458
G1 X70.076 Y158.155 E37.3103
G1 X69.789 Y158.456 E37.3323
G1 X70.460 Y159.127 E37.3824
G1 X70.460 Y175.079 E38.2247
G1 X67.976 Y177.563 E38.4102
G1 X40.024 Y177.563 E39.8862
G1 X37.540 Y175.079 E40.0717
G1 X37.540 Y159.127 E40.9140
G1 X37.635 Y159.032 E40.9211
G1 X36.596 Y157.906 E41.0019
G1 X36.596 Y146.129 E41.6238
G1 X37.540 Y145.160 E41.6953
G1 X37.540 Y125.563 E42.7301
G1 X12.024 Y125.563 E44.0774
G1 X9.540 Y123.079 E44.2629
G1 X9.540 Y107.127 E45.1053
G1 X12.024 Y104.643 E45.2907
G1 X21.540 Y104.643 E45.7932
G1 X21.540 Y103.127 E45.8733
G1 X22.684 Y101.982 E45.9587
G1 X21.490 Y100.788 E46.0479
G1 X21.490 Y99.272 E46.1280
G1 X11.974 Y99.272 E46.6305
G1 X9.490 Y96.788 E46.8160
G1 X9.490 Y80.836 E47.6583
G1 X11.974 Y78.352 E47.8438
G1 X37.490 Y78.352 E49.1911
G1 X37.490 Y64.836 E49.9048
G1 X38.069 Y64.257 E49.9481
G1 X36.596 Y62.721 E50.0605
G1 X36.596 Y47.269 E50.8764
G1 X38.253 Y45.551 E51.0024
G1 X37.490 Y44.788 E51.0594
G1 X37.490 Y24.836 E52.1129
G92 E0.0000
G1 E-0.7000 F1500
; feature inner perimeter
G1 X41.556 Y49.675 F4800
G1 E0.0000 F1500
G92 E0.0000
G1 X42.321 Y49.647 E0.0404 F1350
G1 X45.116 Y49.723 E0.1881
G1 X45.116 Y50.796 E0.2447
G1 X61.556 Y50.796 E1.1128
G1 X61.556 Y49.723 E1.1695
G1 X64.351 Y49.647 E1.3171
G1 X65.116 Y49.675 E1.3575
G1 X65.116 Y60.326 E1.9199
G1 X64.558 Y60.349 E1.9494
G1 X61.556 Y60.254 E2.1080
G1 X61.556 Y59.178 E2.1648
G1 X58.784 Y59.178 E2.3112
G1 X45.116 Y59.178 E3.0329
G1 X45.116 Y60.254 E3.0897
G1 X42.114 Y60.349 E3.2483
G1 X41.556 Y60.326 E3.2778
G1 X41.556 Y49.675 E3.8403
; feature outer perimeter
G1 X41.076 Y49.212 F4800
G92 E0.0000
G1 X42.319 Y49.167 E0.0657 F900
G1 X45.596 Y49.256 E0.2388
G1 X45.596 Y50.316 E0.2948
G1 X61.076 Y50.316 E1.1122
G1 X61.076 Y49.256 E1.1681
G1 X64.353 Y49.167 E1.3412
G1 X65.596 Y49.212 E1.4069
G1 X65.596 Y60.786 E2.0181
G1 X64.560 Y60.829 E2.0728
G1 X61.076 Y60.719 E2.2569
G1 X61.076 Y59.658 E2.3129
G1 X58.784 Y59.658 E2.4339
G1 X45.596 Y59.658 E3.1303
G1 X45.596 Y60.719 E3.1863
G1 X42.112 Y60.829 E3.3704
G1 X41.076 Y60.786 E3.4251
G1 X41.076 Y49.212 E4.0363
; feature solid layer
G1 X42.595 Y50.062 F4800
G92 E0.0000
G1 X51.303 Y58.770 E0.6502 F1440
G1 X50.624 Y58.770 E0.6861
G1 X41.964 Y50.110 E1.3328
G1 X41.964 Y50.789 E1.3686
G1 X49.945 Y58.770 E1.9646
G1 X49.266 Y58.770 E2.0004
G1 X41.964 Y51.468 E2.5458
G1 X41.964 Y52.146 E2.5816
G1 X48.588 Y58.770 E3.0762
G1 X47.909 Y58.770 E3.1121
G1 X41.964 Y52.825 E3.5560
G1 X41.964 Y53.504 E3.5918
G1 X47.230 Y58.770 E3.9851
G1 X46.551 Y58.770 E4.0209
G1 X41.964 Y54.183 E4.3634
G1 X41.964 Y54.862 E4.3993
G1 X45.872 Y58.770 E4.6911
G1 X45.193 Y58.770 E4.7270
G1 X41.964 Y55.540 E4.9681
G1 X41.964 Y56.219 E5.0040
G1 X44.708 Y58.963 E5.2089
G1 X44.708 Y59.642 E5.2447
G1 X41.964 Y56.898 E5.4496
G1 X41.964 Y57.577 E5.4855
G1 X44.260 Y59.873 E5.6569
G1 X43.602 Y59.894 E5.6917
G1 X41.964 Y58.256 E5.8140
G1 X41.964 Y58.935 E5.8498
G1 X42.944 Y59.915 E5.9230
G1 X42.286 Y59.935 E5.9578
G1 X41.964 Y59.613 E5.9818
G1 X44.689 Y50.120 F4800
G92 E0.0000
G1 X44.708 Y50.139 E0.0014 F1440
G1 X44.708 Y50.817 E0.0373
G1 X43.991 Y50.101 E0.0908
G1 X43.293 Y50.082 E0.1276
G1 X51.982 Y58.770 E0.7764
G1 X52.660 Y58.770 E0.8123
G1 X45.095 Y51.204 E1.3773
G1 X45.774 Y51.204 E1.4131
G1 X53.339 Y58.770 E1.9781
G1 X54.018 Y58.770 E2.0139
G1 X46.452 Y51.204 E2.5789
G1 X47.131 Y51.204 E2.6147
G1 X54.697 Y58.770 E3.1797
G1 X55.376 Y58.770 E3.2155
G1 X47.810 Y51.204 E3.7805
G1 X48.489 Y51.204 E3.8163
G1 X56.054 Y58.770 E4.3813
G1 X56.733 Y58.770 E4.4171
G1 X49.168 Y51.204 E4.9821
G1 X49.847 Y51.204 E5.0179
G1 X57.412 Y58.770 E5.5829
G1 X58.091 Y58.770 E5.6188
G1 X50.525 Y51.204 E6.1837
G1 X51.204 Y51.204 E6.2196
G1 X58.770 Y58.770 E6.7845
G1 X58.784 Y58.770 E6.7853
G1 X59.449 Y58.770 E6.8204
G1 X51.883 Y51.204 E7.3853
G1 X52.562 Y51.204 E7.4212
G1 X60.127 Y58.770 E7.9861
G1 X60.806 Y58.770 E8.0220
G1 X53.241 Y51.204 E8.5870
G1 X53.919 Y51.204 E8.6228
G1 X61.485 Y58.770 E9.1878
G1 X61.964 Y58.770 E9.2131
G1 X61.964 Y59.249 E9.2383
G1 X62.594 Y59.879 E9.2854
G1 X63.295 Y59.901 E9.3224
G1 X54.598 Y51.204 E9.9718
G1 X55.277 Y51.204 E10.0077
G1 X63.996 Y59.923 E10.6588
G1 X64.556 Y59.941 E10.6883
G1 X64.687 Y59.935 E10.6953
G1 X55.956 Y51.204 E11.3473
G1 X56.635 Y51.204 E11.3831
G1 X64.708 Y59.277 E11.9860
G1 X64.708 Y58.599 E12.0219
G1 X57.314 Y51.204 E12.5740
G1 X57.992 Y51.204 E12.6099
G1 X64.708 Y57.920 E13.1114
G1 X64.708 Y57.241 E13.1472
G1 X58.671 Y51.204 E13.5980
G1 X59.350 Y51.204 E13.6339
G1 X64.708 Y56.562 E14.0340
G1 X64.708 Y55.883 E14.0698
G1 X60.029 Y51.204 E14.4193
G1 X60.708 Y51.204 E14.4551
G1 X64.708 Y55.205 E14.7538
G1 X64.708 Y54.526 E14.7897
G1 X61.386 Y51.204 E15.0377
G1 X61.964 Y51.204 E15.0682
G1 X61.964 Y51.103 E15.0736
G1 X64.708 Y53.847 E15.2785
G1 X64.708 Y53.168 E15.3143
G1 X61.964 Y50.424 E15.5192
G1 X61.964 Y50.120 E15.5353
G1 X62.329 Y50.110 E15.5546
G1 X64.708 Y52.489 E15.7322
G1 X64.708 Y51.810 E15.7681
G1 X62.990 Y50.092 E15.8964
G1 X63.651 Y50.074 E15.9313
G1 X64.708 Y51.132 E16.0102
G1 X64.708 Y50.453 E16.0461
G1 X64.311 Y50.056 E16.0757
G92 E0.0000
G1 E-0.7000 F1500
; feature inner perimeter
G1 X65.116 Y148.457 F4800
G1 E0.0000 F1500
G92 E0.0000
G1 X65.116 Y155.774 E0.3863 F1350
G1 X63.759 Y155.841 E0.4581
G1 X61.556 Y155.824 E0.5744
G1 X61.556 Y153.425 E0.7010
G1 X45.116 Y153.425 E1.5691
G1 X45.116 Y155.824 E1.6958
G1 X44.586 Y155.828 E1.7238
G1 X41.556 Y155.585 E1.8843
G1 X41.556 Y148.555 E2.2555
G1 X46.662 Y148.422 E2.5252
G1 X54.852 Y148.528 E2.9577
G1 X65.116 Y148.457 E3.4997
; feature outer perimeter
G1 X65.596 Y147.974 F4800
G92 E0.0000
G1 X65.596 Y156.231 E0.4360 F900
G1 X63.769 Y156.321 E0.5326
G1 X61.076 Y156.300 E0.6748
G1 X61.076 Y153.905 E0.8012
G1 X45.596 Y153.905 E1.6186
G1 X45.596 Y156.300 E1.7451
G1 X44.569 Y156.309 E1.7993
G1 X41.076 Y156.028 E1.9843
G1 X41.076 Y148.087 E2.4036
G1 X46.658 Y147.942 E2.6985
G1 X54.853 Y148.048 E3.1312
G1 X65.596 Y147.974 E3.6985
; feature solid layer
G1 X64.694 Y148.868 F4800
G92 E0.0000
G1 X64.708 Y148.882 E0.0010 F1440
G1 X64.708 Y149.561 E0.0369
G1 X64.020 Y148.873 E0.0882
G1 X63.346 Y148.878 E0.1238
G1 X64.708 Y150.240 E0.2255
G1 X64.708 Y150.919 E0.2614
G1 X62.672 Y148.882 E0.4134
G1 X61.998 Y148.887 E0.4490
G1 X64.708 Y151.597 E0.6515
G1 X64.708 Y152.276 E0.6873
G1 X61.323 Y148.892 E0.9400
G1 X60.649 Y148.896 E0.9756
G1 X64.708 Y152.955 E1.2787
G1 X64.708 Y153.634 E1.3146
G1 X59.975 Y148.901 E1.6680
G1 X59.301 Y148.905 E1.7036
G1 X64.708 Y154.313 E2.1074
G1 X64.708 Y154.991 E2.1432
G1 X58.627 Y148.910 E2.5974
G1 X57.953 Y148.915 E2.6330
G1 X64.437 Y155.399 E3.1172
G1 X63.790 Y155.431 E3.1514
G1 X61.964 Y153.605 E3.2877
G1 X61.964 Y153.017 E3.3187
G1 X61.376 Y153.017 E3.3498
G1 X57.278 Y148.919 E3.6558
G1 X56.604 Y148.924 E3.6914
G1 X60.698 Y153.017 E3.9971
G1 X60.019 Y153.017 E4.0329
G1 X55.930 Y148.929 E4.3382
G1 X55.256 Y148.933 E4.3738
G1 X59.340 Y153.017 E4.6788
G1 X58.661 Y153.017 E4.7147
G1 X54.576 Y148.933 E5.0197
G1 X53.889 Y148.924 E5.0560
G1 X57.982 Y153.017 E5.3617
G1 X57.303 Y153.017 E5.3976
G1 X53.201 Y148.915 E5.7039
G1 X52.513 Y148.906 E5.7402
G1 X56.625 Y153.017 E6.0473
G1 X55.946 Y153.017 E6.0831
G1 X51.825 Y148.897 E6.3908
G1 X51.138 Y148.888 E6.4271
