; G-Code generated by Simplify3D(R) Version 4.1.2
; Mar 7, 2023 at 7:29:42 PM
; Settings Summary
;   processName,Box
;   applyToModels,FingerMechanismHolder(4),FingerMechanismHolder(4)(2),FingerMechanismHolder(4)(3),FingerMechanismHolder(4)(4),FingerMechanismHolder(4)(5)
;   profileName,Default (modified)
;   profileVersion,2021-04-15 09:48:16
;   baseProfile,Default
;   printMaterial,PLA
;   printQuality,Fast
;   printExtruders,
;   extruderName,Primary Extruder
;   extruderToolheadNumber,0
;   extruderDiameter,0.4
;   extruderAutoWidth,1
;   extruderWidth,0.48
;   extrusionMultiplier,0.98
;   extruderUseRetract,1
;   extruderRetractionDistance,0.7
;   extruderExtraRestartDistance,0
;   extruderRetractionZLift,0
;   extruderRetractionSpeed,1500
;   extruderUseCoasting,0
;   extruderCoastingDistance,0.2
;   extruderUseWipe,0
;   extruderWipeDistance,5
;   primaryExtruder,0
;   layerHeight,0.3
;   topSolidLayers,3
;   bottomSolidLayers,3
;   perimeterOutlines,4
;   printPerimetersInsideOut,0
;   startPointOption,2
;   startPointOriginX,0
;   startPointOriginY,0
;   sequentialIslands,0
;   spiralVaseMode,0
;   firstLayerHeightPercentage,90
;   firstLayerWidthPercentage,100
;   firstLayerUnderspeed,0.5
;   useRaft,0
;   raftExtruder,0
;   raftTopLayers,3
;   raftBaseLayers,2
;   raftOffset,3
;   raftSeparationDistance,0.14
;   raftTopInfill,100
;   aboveRaftSpeedMultiplier,0.3
;   useSkirt,1
;   skirtExtruder,0
;   skirtLayers,1
;   skirtOutlines,2
;   skirtOffset,4
;   usePrimePillar,0
;   primePillarExtruder,999
;   primePillarWidth,12
;   primePillarLocation,7
;   primePillarSpeedMultiplier,1
;   useOozeShield,0
;   oozeShieldExtruder,999
;   oozeShieldOffset,2
;   oozeShieldOutlines,1
;   oozeShieldSidewallShape,1
;   oozeShieldSidewallAngle,30
;   oozeShieldSpeedMultiplier,1
;   infillExtruder,0
;   internalInfillPattern,Rectilinear
;   externalInfillPattern,Rectilinear
;   infillPercentage,11
;   outlineOverlapPercentage,15
;   infillExtrusionWidthPercentage,100
;   minInfillLength,5
;   infillLayerInterval,1
;   internalInfillAngles,45,-45
;   overlapInternalInfillAngles,0
;   externalInfillAngles,45,-45
;   generateSupport,1
;   supportExtruder,0
;   supportInfillPercentage,25
;   supportExtraInflation,0
;   supportBaseLayers,0
;   denseSupportExtruder,0
;   denseSupportLayers,0
;   denseSupportInfillPercentage,70
;   supportLayerInterval,1
;   supportHorizontalPartOffset,0.3
;   supportUpperSeparationLayers,1
;   supportLowerSeparationLayers,1
;   supportType,0
;   supportGridSpacing,4
;   maxOverhangAngle,45
;   supportAngles,0
;   temperatureName,Primary Extruder,Heated bed
;   temperatureNumber,0,0
;   temperatureSetpointCount,1,1
;   temperatureSetpointLayers,1,1
;   temperatureSetpointTemperatures,200,60
;   temperatureStabilizeAtStartup,1,1
;   temperatureHeatedBed,0,1
;   fanLayers,1,2
;   fanSpeeds,0,100
;   blipFanToFullPower,0
;   adjustSpeedForCooling,1
;   minSpeedLayerTime,15
;   minCoolingSpeedSlowdown,20
;   increaseFanForCooling,0
;   minFanLayerTime,45
;   maxCoolingFanSpeed,100
;   increaseFanForBridging,0
;   bridgingFanSpeed,100
;   use5D,1
;   relativeEdistances,0
;   allowEaxisZeroing,1
;   independentExtruderAxes,0
;   includeM10123,0
;   stickySupport,1
;   applyToolheadOffsets,0
;   gcodeXoffset,0
;   gcodeYoffset,0
;   gcodeZoffset,0
;   overrideMachineDefinition,1
;   machineTypeOverride,0
;   strokeXoverride,200
;   strokeYoverride,200
;   strokeZoverride,200
;   originOffsetXoverride,0
;   originOffsetYoverride,0
;   originOffsetZoverride,0
;   homeXdirOverride,-1
;   homeYdirOverride,-1
;   homeZdirOverride,-1
;   flipXoverride,1
;   flipYoverride,-1
;   flipZoverride,1
;   toolheadOffsets,0,0|0,0|0,0|0,0|0,0|0,0
;   overrideFirmwareConfiguration,0
;   firmwareTypeOverride,RepRap (Marlin/Repetier/Sprinter)
;   GPXconfigOverride,r2
;   baudRateOverride,115200
;   overridePrinterModels,0
;   printerModelsOverride
;   startingGcode,G28 X0 Y0; home XY,G1 X20 Y20,G28 Z0,G1 Z5 F5000; Lift NZ
;   layerChangeGcode,
;   retractionGcode,
;   toolChangeGcode,
;   endingGcode,M104 S0 ; turn off extruder,G28 X0 ; home x,M140 S0 ; turn off bed,M84 ; disable motors,M107 ;
;   exportFileFormat,gcode
;   celebration,0
;   celebrationSong,Looney Toons
;   postProcessing,
;   defaultSpeed,3600
;   outlineUnderspeed,0.5
;   solidInfillUnderspeed,0.8
;   supportUnderspeed,0.8
;   rapidXYspeed,4800
;   rapidZspeed,1002
;   minBridgingArea,50
;   bridgingExtraInflation,0
;   bridgingExtrusionMultiplier,1
;   bridgingSpeedMultiplier,1
;   useFixedBridgingAngle,0
;   fixedBridgingAngle,0
;   applyBridgingToPerimeters,0
;   filamentDiameters,1.75|1.75|1.75|1.75|1.75|1.75
;   filamentPricesPerKg,46|46|46|46|46|46
;   filamentDensities,1.25|1.25|1.25|1.25|1.25|1.25
;   useMinPrintHeight,0
;   minPrintHeight,0
;   useMaxPrintHeight,0
;   maxPrintHeight,0
;   useDiaphragm,0
;   diaphragmLayerInterval,20
;   robustSlicing,1
;   mergeAllIntoSolid,0
;   onlyRetractWhenCrossingOutline,1
;   retractBetweenLayers,1
;   useRetractionMinTravel,0
;   retractionMinTravel,3
;   retractWhileWiping,0
;   onlyWipeOutlines,1
;   avoidCrossingOutline,0
;   maxMovementDetourFactor,3
;   toolChangeRetractionDistance,12
;   toolChangeExtraRestartDistance,-0.5
;   toolChangeRetractionSpeed,600
;   externalThinWallType,0
;   internalThinWallType,2
;   thinWallAllowedOverlapPercentage,10
;   singleExtrusionMinLength,1
;   singleExtrusionMinPrintingWidthPercentage,50
;   singleExtrusionMaxPrintingWidthPercentage,200
;   singleExtrusionEndpointExtension,0.2
;   horizontalSizeCompensation,0
G90
M82
M107
M140 S60
M190 S60
M104 S200 T0
M109 S200 T0
G28 X0 Y0; home XY
G1 X20 Y20
G28 Z0
G1 Z5 F5000; Lift NZ
; process Box
; layer 1, Z = 0.270
M108 T0
G92 E0.0000
G1 E-0.7000 F1500
; feature skirt
; tool H0.270 W0.480
G1 Z0.270 F1002
G1 X57.838 Y26.602 F4800
G1 E0.0000 F1500
G92 E0.0000
G1 X60.603 Y23.837 E0.2065 F1800
G1 X139.397 Y23.837 E4.3671
G1 X142.162 Y26.602 E4.5736
G1 X142.162 Y55.397 E6.0941
G1 X141.809 Y55.750 E6.1204
G1 X142.162 Y56.103 E6.1468
G1 X142.162 Y84.897 E7.6672
G1 X141.809 Y85.250 E7.6936
G1 X142.162 Y85.603 E7.7199
G1 X142.162 Y114.397 E9.2404
G1 X141.809 Y114.750 E9.2667
G1 X142.162 Y115.103 E9.2931
G1 X142.162 Y143.897 E10.8135
G1 X141.809 Y144.250 E10.8399
G1 X142.162 Y144.603 E10.8662
G1 X142.162 Y173.398 E12.3867
G1 X139.397 Y176.163 E12.5931
G1 X129.492 Y176.163 E13.1162
G1 X126.727 Y173.398 E13.3227
G1 X126.727 Y170.607 E13.4700
G1 X73.273 Y170.607 E16.2926
G1 X73.273 Y173.398 E16.4399
G1 X70.508 Y176.163 E16.6464
G1 X60.603 Y176.163 E17.1695
G1 X57.838 Y173.398 E17.3759
G1 X57.838 Y144.603 E18.8964
G1 X58.191 Y144.250 E18.9227
G1 X57.838 Y143.897 E18.9491
G1 X57.838 Y115.103 E20.4695
G1 X58.191 Y114.750 E20.4959
G1 X57.838 Y114.397 E20.5222
G1 X57.838 Y85.603 E22.0427
G1 X58.191 Y85.250 E22.0690
G1 X57.838 Y84.897 E22.0954
G1 X57.838 Y56.103 E23.6159
G1 X58.191 Y55.750 E23.6422
G1 X57.838 Y55.397 E23.6685
G1 X57.838 Y26.602 E25.1890
G92 E0.0000
G1 E-0.7000 F1500
G1 X58.318 Y26.801 F4800
G1 E0.0000 F1500
G92 E0.0000
G1 X60.802 Y24.317 E0.1855 F1800
G1 X139.198 Y24.317 E4.3251
G1 X141.682 Y26.801 E4.5106
G1 X141.682 Y55.198 E6.0101
G1 X141.131 Y55.750 E6.0513
G1 X141.682 Y56.301 E6.0925
G1 X141.682 Y84.698 E7.5919
G1 X141.131 Y85.250 E7.6331
G1 X141.682 Y85.802 E7.6743
G1 X141.682 Y114.198 E9.1738
G1 X141.131 Y114.750 E9.2150
G1 X141.682 Y115.302 E9.2562
G1 X141.682 Y143.699 E10.7556
G1 X141.131 Y144.250 E10.7968
G1 X141.682 Y144.802 E10.8380
G1 X141.682 Y173.199 E12.3375
G1 X139.198 Y175.683 E12.5229
G1 X129.690 Y175.683 E13.0250
G1 X127.207 Y173.199 E13.2105
G1 X127.207 Y170.127 E13.3727
G1 X72.793 Y170.127 E16.2459
G1 X72.793 Y173.199 E16.4081
G1 X70.310 Y175.683 E16.5936
G1 X60.802 Y175.683 E17.0957
G1 X58.318 Y173.199 E17.2811
G1 X58.318 Y144.802 E18.7806
G1 X58.869 Y144.250 E18.8218
G1 X58.318 Y143.699 E18.8630
G1 X58.318 Y115.302 E20.3625
G1 X58.869 Y114.750 E20.4036
G1 X58.318 Y114.198 E20.4448
G1 X58.318 Y85.802 E21.9443
G1 X58.869 Y85.250 E21.9855
G1 X58.318 Y84.698 E22.0267
G1 X58.318 Y56.301 E23.5261
G1 X58.869 Y55.750 E23.5673
G1 X58.318 Y55.198 E23.6085
G1 X58.318 Y26.801 E25.1080
G92 E0.0000
G1 E-0.7000 F1500
; feature outer perimeter
G1 X65.678 Y35.490 F4800
G1 E0.0000 F1500
G92 E0.0000
G1 X134.300 Y35.490 E3.6235 F900
G1 X134.302 Y36.057 E3.6534
G1 X130.580 Y36.062 E3.8499
G1 X97.082 Y35.989 E5.6188
G1 X80.321 Y35.989 E6.5038
G1 X69.402 Y36.062 E7.0804
G1 X65.677 Y36.057 E7.2771
G1 X65.678 Y35.490 E7.3070
G92 E0.0000
G1 E-0.7000 F1500
G1 X65.678 Y64.990 F4800
G1 E0.0000 F1500
G92 E0.0000
G1 X134.300 Y64.990 E3.6235 F900
G1 X134.302 Y65.557 E3.6534
G1 X130.580 Y65.563 E3.8499
G1 X97.082 Y65.490 E5.6188
G1 X80.321 Y65.490 E6.5038
G1 X69.402 Y65.563 E7.0804
G1 X65.677 Y65.557 E7.2771
G1 X65.678 Y64.990 E7.3070
G92 E0.0000
G1 E-0.7000 F1500
G1 X65.678 Y94.490 F4800
G1 E0.0000 F1500
G92 E0.0000
G1 X134.300 Y94.490 E3.6235 F900
G1 X134.302 Y95.057 E3.6534
G1 X130.580 Y95.063 E3.8499
G1 X97.082 Y94.990 E5.6188
G1 X80.321 Y94.990 E6.5038
G1 X69.402 Y95.063 E7.0804
G1 X65.677 Y95.057 E7.2771
G1 X65.678 Y94.490 E7.3070
G92 E0.0000
G1 E-0.7000 F1500
G1 X65.678 Y123.990 F4800
G1 E0.0000 F1500
G92 E0.0000
G1 X134.300 Y123.990 E3.6235 F900
G1 X134.302 Y124.557 E3.6534
G1 X130.580 Y124.563 E3.8499
G1 X97.082 Y124.490 E5.6188
G1 X80.321 Y124.490 E6.5038
G1 X69.402 Y124.563 E7.0804
G1 X65.677 Y124.557 E7.2771
G1 X65.678 Y123.990 E7.3070
G92 E0.0000
G1 E-0.7000 F1500
G1 X65.678 Y153.490 F4800
G1 E0.0000 F1500
G92 E0.0000
G1 X134.300 Y153.490 E3.6235 F900
G1 X134.302 Y154.057 E3.6534
G1 X130.580 Y154.063 E3.8499
G1 X97.082 Y153.990 E5.6188
G1 X80.321 Y153.990 E6.5038
G1 X69.402 Y154.063 E7.0804
G1 X65.677 Y154.057 E7.2771
G1 X65.678 Y153.490 E7.3070
G92 E0.0000
G1 E-0.7000 F1500
; feature support
G1 X62.808 Y148.000 F4800
G1 E0.0000 F1500
G92 E0.0000
G1 X137.192 Y148.000 E3.9278 F1440
G1 X137.192 Y149.920 E4.0292
G1 X62.808 Y149.920 E7.9569
G1 X62.808 Y151.840 E8.0583
G1 X137.192 Y151.840 E11.9861
G1 X137.192 Y153.760 E12.0875
G1 X135.188 Y153.760 E12.1933
G1 X135.185 Y152.710 E12.2488
G1 X135.088 Y152.710 E12.2539
G1 X135.088 Y152.700 E12.2544
G1 X64.890 Y152.700 E15.9611
G1 X64.890 Y152.710 E15.9616
G1 X64.794 Y152.710 E15.9667
G1 X64.791 Y153.760 E16.0221
G1 X62.808 Y153.760 E16.1269
G1 X62.808 Y155.680 E16.2282
G1 X64.786 Y155.680 E16.3327
G1 X64.784 Y156.298 E16.3653
G1 X64.970 Y156.298 E16.3751
G1 X64.970 Y156.808 E16.4021
G1 X135.030 Y156.808 E20.1015
G1 X135.030 Y156.298 E20.1284
G1 X135.195 Y156.298 E20.1371
G1 X135.193 Y155.680 E20.1698
G1 X137.192 Y155.680 E20.2754
G1 X137.192 Y157.600 E20.3767
G1 X62.808 Y157.600 E24.3045
G1 X62.808 Y159.520 E24.4059
G1 X137.192 Y159.520 E28.3337
G1 X137.192 Y161.440 E28.4351
G1 X62.808 Y161.440 E32.3628
G1 X62.808 Y163.360 E32.4642
G1 X137.192 Y163.360 E36.3920
G1 X137.192 Y165.280 E36.4934
G1 X62.808 Y165.280 E40.4212
G1 X62.808 Y167.200 E40.5226
G1 X68.303 Y167.200 E40.8127
G1 X68.303 Y169.120 E40.9141
G1 X62.808 Y169.120 E41.2043
G1 X62.808 Y171.040 E41.3057
G1 X68.303 Y171.040 E41.5959
G92 E0.0000
G1 E-0.7000 F1500
G1 X62.808 Y140.320 F4800
G1 E0.0000 F1500
G92 E0.0000
G1 X68.303 Y140.320 E0.2902 F1440
G1 X68.303 Y138.400 E0.3916
G1 X62.808 Y138.400 E0.6818
G1 X62.808 Y136.480 E0.7831
G1 X68.303 Y136.480 E1.0733
G1 X68.303 Y136.137 E1.0914
G1 X131.697 Y136.137 E4.4389
G1 X131.697 Y136.480 E4.4570
G1 X137.192 Y136.480 E4.7472
G1 X137.192 Y134.560 E4.8485
G1 X62.808 Y134.560 E8.7763
G1 X62.808 Y132.640 E8.8777
G1 X137.192 Y132.640 E12.8055
G1 X137.192 Y130.720 E12.9069
G1 X62.808 Y130.720 E16.8347
G1 X62.808 Y128.800 E16.9360
G1 X137.192 Y128.800 E20.8638
G1 X137.192 Y126.880 E20.9652
G1 X135.030 Y126.880 E21.0794
G1 X135.030 Y127.308 E21.1020
G1 X64.970 Y127.308 E24.8014
G1 X64.970 Y126.880 E24.8240
G1 X62.808 Y126.880 E24.9382
G1 X62.808 Y124.960 E25.0396
G1 X64.789 Y124.960 E25.1442
G1 X64.794 Y123.210 E25.2366
G1 X64.890 Y123.210 E25.2416
G1 X64.890 Y123.200 E25.2422
G1 X135.088 Y123.200 E28.9489
G1 X135.088 Y123.210 E28.9494
G1 X135.185 Y123.210 E28.9545
G1 X135.190 Y124.960 E29.0469
G1 X137.192 Y124.960 E29.1527
G1 X137.192 Y123.040 E29.2540
G1 X62.808 Y123.040 E33.1818
G1 X62.808 Y121.120 E33.2832
G1 X137.192 Y121.120 E37.2110
G1 X137.192 Y119.200 E37.3124
G1 X62.808 Y119.200 E41.2402
G92 E0.0000
G1 E-0.7000 F1500
G1 X68.303 Y111.520 F4800
G1 E0.0000 F1500
G92 E0.0000
G1 X62.808 Y111.520 E0.2902 F1440
G1 X62.808 Y109.600 E0.3916
G1 X68.303 Y109.600 E0.6818
G1 X68.303 Y107.680 E0.7831
G1 X62.808 Y107.680 E1.0733
G1 X62.808 Y105.760 E1.1747
G1 X137.192 Y105.760 E5.1025
G1 X137.192 Y103.840 E5.2039
G1 X62.808 Y103.840 E9.1317
G1 X62.808 Y101.920 E9.2330
G1 X137.192 Y101.920 E13.1608
G1 X137.192 Y100.000 E13.2622
G1 X62.808 Y100.000 E17.1900
G1 X62.808 Y98.080 E17.2914
G1 X137.192 Y98.080 E21.2191
G1 X137.192 Y96.160 E21.3205
G1 X135.192 Y96.160 E21.4262
G1 X135.195 Y97.298 E21.4863
G1 X135.030 Y97.298 E21.4950
G1 X135.030 Y97.808 E21.5219
G1 X64.970 Y97.808 E25.2213
G1 X64.970 Y97.298 E25.2483
G1 X64.784 Y97.298 E25.2581
G1 X64.788 Y96.160 E25.3181
G1 X62.808 Y96.160 E25.4227
G1 X62.808 Y94.240 E25.5241
G1 X64.793 Y94.240 E25.6289
G1 X64.794 Y93.710 E25.6569
G1 X64.890 Y93.710 E25.6619
G1 X64.890 Y93.700 E25.6624
G1 X135.088 Y93.700 E29.3692
G1 X135.088 Y93.710 E29.3697
G1 X135.185 Y93.710 E29.3748
G1 X135.186 Y94.240 E29.4028
G1 X137.192 Y94.240 E29.5087
G1 X137.192 Y92.320 E29.6101
G1 X62.808 Y92.320 E33.5379
G1 X62.808 Y90.400 E33.6392
G1 X137.192 Y90.400 E37.5670
G1 X137.192 Y88.480 E37.6684
G1 X100.586 Y88.480 E39.6014
G1 X100.586 Y88.919 E39.6245
G1 X99.414 Y88.919 E39.6864
G1 X99.414 Y88.480 E39.7096
G1 X62.808 Y88.480 E41.6425
G92 E0.0000
G1 E-0.7000 F1500
G1 X62.808 Y80.800 F4800
G1 E0.0000 F1500
G92 E0.0000
G1 X68.303 Y80.800 E0.2902 F1440
G1 X68.303 Y78.880 E0.3916
G1 X62.808 Y78.880 E0.6818
G1 X62.808 Y76.960 E0.7831
G1 X137.192 Y76.960 E4.7109
G1 X137.192 Y75.040 E4.8123
G1 X62.808 Y75.040 E8.7401
G1 X62.808 Y73.120 E8.8415
G1 X137.192 Y73.120 E12.7692
G1 X137.192 Y71.200 E12.8706
G1 X62.808 Y71.200 E16.7984
G1 X62.808 Y69.280 E16.8998
G1 X137.192 Y69.280 E20.8276
G1 X137.192 Y67.360 E20.9290
G1 X135.194 Y67.360 E21.0345
G1 X135.195 Y67.798 E21.0576
G1 X135.030 Y67.798 E21.0663
G1 X135.030 Y68.308 E21.0932
G1 X64.970 Y68.308 E24.7927
G1 X64.970 Y67.798 E24.8196
G1 X64.784 Y67.798 E24.8294
G1 X64.786 Y67.360 E24.8525
G1 X62.808 Y67.360 E24.9569
G1 X62.808 Y65.440 E25.0583
G1 X64.791 Y65.440 E25.1630
G1 X64.794 Y64.210 E25.2280
G1 X64.890 Y64.210 E25.2331
G1 X64.890 Y64.200 E25.2336
G1 X135.088 Y64.200 E28.9403
G1 X135.088 Y64.210 E28.9408
G1 X135.185 Y64.210 E28.9459
G1 X135.188 Y65.440 E29.0109
G1 X137.192 Y65.440 E29.1167
G1 X137.192 Y63.520 E29.2181
G1 X62.808 Y63.520 E33.1459
G1 X62.808 Y61.600 E33.2473
G1 X137.192 Y61.600 E37.1750
G1 X137.192 Y59.680 E37.2764
G1 X62.808 Y59.680 E41.2042
G92 E0.0000
G1 E-0.7000 F1500
G1 X68.303 Y52.000 F4800
G1 E0.0000 F1500
G92 E0.0000
G1 X62.808 Y52.000 E0.2902 F1440
G1 X62.808 Y50.080 E0.3916
G1 X68.303 Y50.080 E0.6818
G1 X68.303 Y48.160 E0.7831
G1 X62.808 Y48.160 E1.0733
G1 X62.808 Y46.240 E1.1747
G1 X137.192 Y46.240 E5.1025
G1 X137.192 Y44.320 E5.2039
G1 X62.808 Y44.320 E9.1317
G1 X62.808 Y42.400 E9.2330
G1 X137.192 Y42.400 E13.1608
G1 X137.192 Y40.480 E13.2622
G1 X62.808 Y40.480 E17.1900
G1 X62.808 Y38.560 E17.2914
G1 X64.970 Y38.560 E17.4055
G1 X64.970 Y38.297 E17.4194
G1 X64.784 Y38.297 E17.4292
G1 X64.789 Y36.640 E17.5167
G1 X62.808 Y36.640 E17.6213
G1 X62.808 Y34.720 E17.7227
G1 X64.794 Y34.720 E17.8276
G1 X64.794 Y34.710 E17.8282
G1 X64.890 Y34.710 E17.8332
G1 X64.890 Y34.700 E17.8337
G1 X135.088 Y34.700 E21.5405
G1 X135.088 Y34.710 E21.5410
G1 X135.185 Y34.710 E21.5461
G1 X135.185 Y34.720 E21.5466
G1 X137.192 Y34.720 E21.6526
G1 X137.192 Y32.800 E21.7540
G1 X62.808 Y32.800 E25.6818
G1 X62.808 Y30.880 E25.7832
G1 X137.192 Y30.880 E29.7110
G1 X137.192 Y28.960 E29.8123
G1 X100.586 Y28.960 E31.7453
G1 X100.586 Y29.919 E31.7959
G1 X99.414 Y29.919 E31.8578
