; G-Code generated by Simplify3D(R) Version 4.1.2
; Mar 7, 2023 at 7:30:19 PM
; Settings Summary
;   processName,Box
;   applyToModels,FingerMechanismHolder(4),FingerMechanismHolder(4)(2),FingerMechanismHolder(4)(3),FingerMechanismHolder(4)(4),FingerMechanismHolder(4)(5)
;   profileName,Default (modified)
;   profileVersion,2021-04-15 09:48:16
;   baseProfile,Default
;   printMaterial,PLA
;   printQuality,Fast
;   printExtruders,
;   extruderName,Primary Extruder
;   extruderToolheadNumber,0
;   extruderDiameter,0.4
;   extruderAutoWidth,1
;   extruderWidth,0.48
;   extrusionMultiplier,0.98
;   extruderUseRetract,1
;   extruderRetractionDistance,0.7
;   extruderExtraRestartDistance,0
;   extruderRetractionZLift,0
;   extruderRetractionSpeed,1500
;   extruderUseCoasting,0
;   extruderCoastingDistance,0.2
;   extruderUseWipe,0
;   extruderWipeDistance,5
;   primaryExtruder,0
;   layerHeight,0.3
;   topSolidLayers,3
;   bottomSolidLayers,3
;   perimeterOutlines,4
;   printPerimetersInsideOut,0
;   startPointOption,2
;   startPointOriginX,0
;   startPointOriginY,0
;   sequentialIslands,0
;   spiralVaseMode,0
;   firstLayerHeightPercentage,90
;   firstLayerWidthPercentage,100
;   firstLayerUnderspeed,0.5
;   useRaft,0
;   raftExtruder,0
;   raftTopLayers,3
;   raftBaseLayers,2
;   raftOffset,3
;   raftSeparationDistance,0.14
;   raftTopInfill,100
;   aboveRaftSpeedMultiplier,0.3
;   useSkirt,1
;   skirtExtruder,0
;   skirtLayers,1
;   skirtOutlines,2
;   skirtOffset,4
;   usePrimePillar,0
;   primePillarExtruder,999
;   primePillarWidth,12
;   primePillarLocation,7
;   primePillarSpeedMultiplier,1
;   useOozeShield,0
;   oozeShieldExtruder,999
;   oozeShieldOffset,2
;   oozeShieldOutlines,1
;   oozeShieldSidewallShape,1
;   oozeShieldSidewallAngle,30
;   oozeShieldSpeedMultiplier,1
;   infillExtruder,0
;   internalInfillPattern,Rectilinear
;   externalInfillPattern,Rectilinear
;   infillPercentage,11
;   outlineOverlapPercentage,15
;   infillExtrusionWidthPercentage,100
;   minInfillLength,5
;   infillLayerInterval,1
;   internalInfillAngles,45,-45
;   overlapInternalInfillAngles,0
;   externalInfillAngles,45,-45
;   generateSupport,1
;   supportExtruder,0
;   supportInfillPercentage,25
;   supportExtraInflation,0
;   supportBaseLayers,0
;   denseSupportExtruder,0
;   denseSupportLayers,0
;   denseSupportInfillPercentage,70
;   supportLayerInterval,1
;   supportHorizontalPartOffset,0.3
;   supportUpperSeparationLayers,1
;   supportLowerSeparationLayers,1
;   supportType,0
;   supportGridSpacing,4
;   maxOverhangAngle,45
;   supportAngles,0
;   temperatureName,Primary Extruder,Heated bed
;   temperatureNumber,0,0
;   temperatureSetpointCount,1,1
;   temperatureSetpointLayers,1,1
;   temperatureSetpointTemperatures,200,60
;   temperatureStabilizeAtStartup,1,1
;   temperatureHeatedBed,0,1
;   fanLayers,1,2
;   fanSpeeds,0,100
;   blipFanToFullPower,0
;   adjustSpeedForCooling,1
;   minSpeedLayerTime,15
;   minCoolingSpeedSlowdown,20
;   increaseFanForCooling,0
;   minFanLayerTime,45
;   maxCoolingFanSpeed,100
;   increaseFanForBridging,0
;   bridgingFanSpeed,100
;   use5D,1
;   relativeEdistances,0
;   allowEaxisZeroing,1
;   independentExtruderAxes,0
;   includeM10123,0
;   stickySupport,1
;   applyToolheadOffsets,0
;   gcodeXoffset,0
;   gcodeYoffset,0
;   gcodeZoffset,0
;   overrideMachineDefinition,1
;   machineTypeOverride,0
;   strokeXoverride,200
;   strokeYoverride,200
;   strokeZoverride,200
;   originOffsetXoverride,0
;   originOffsetYoverride,0
;   originOffsetZoverride,0
;   homeXdirOverride,-1
;   homeYdirOverride,-1
;   homeZdirOverride,-1
;   flipXoverride,1
;   flipYoverride,-1
;   flipZoverride,1
;   toolheadOffsets,0,0|0,0|0,0|0,0|0,0|0,0
;   overrideFirmwareConfiguration,0
;   firmwareTypeOverride,RepRap (Marlin/Repetier/Sprinter)
;   GPXconfigOverride,r2
;   baudRateOverride,115200
;   overridePrinterModels,0
;   printerModelsOverride
;   startingGcode,G28 X0 Y0; home XY,G1 X20 Y20,G28 Z0,G1 Z5 F5000; Lift NZ
;   layerChangeGcode,
;   retractionGcode,
;   toolChangeGcode,
;   endingGcode,M104 S0 ; turn off extruder,G28 X0 ; home x,M140 S0 ; turn off bed,M84 ; disable motors,M107 ;
;   exportFileFormat,gcode
;   celebration,0
;   celebrationSong,Looney Toons
;   postProcessing,
;   defaultSpeed,3600
;   outlineUnderspeed,0.5
;   solidInfillUnderspeed,0.8
;   supportUnderspeed,0.8
;   rapidXYspeed,4800
;   rapidZspeed,1002
;   minBridgingArea,50
;   bridgingExtraInflation,0
;   bridgingExtrusionMultiplier,1
;   bridgingSpeedMultiplier,1
;   useFixedBridgingAngle,0
;   fixedBridgingAngle,0
;   applyBridgingToPerimeters,0
;   filamentDiameters,1.75|1.75|1.75|1.75|1.75|1.75
;   filamentPricesPerKg,46|46|46|46|46|46
;   filamentDensities,1.25|1.25|1.25|1.25|1.25|1.25
;   useMinPrintHeight,0
;   minPrintHeight,0
;   useMaxPrintHeight,0
;   maxPrintHeight,0
;   useDiaphragm,0
;   diaphragmLayerInterval,20
;   robustSlicing,1
;   mergeAllIntoSolid,0
;   onlyRetractWhenCrossingOutline,1
;   retractBetweenLayers,1
;   useRetractionMinTravel,0
;   retractionMinTravel,3
;   retractWhileWiping,0
;   onlyWipeOutlines,1
;   avoidCrossingOutline,0
;   maxMovementDetourFactor,3
;   toolChangeRetractionDistance,12
;   toolChangeExtraRestartDistance,-0.5
;   toolChangeRetractionSpeed,600
;   externalThinWallType,0
;   internalThinWallType,2
;   thinWallAllowedOverlapPercentage,10
;   singleExtrusionMinLength,1
;   singleExtrusionMinPrintingWidthPercentage,50
;   singleExtrusionMaxPrintingWidthPercentage,200
;   singleExtrusionEndpointExtension,0.2
;   horizontalSizeCompensation,0
G90
M82
M107
M140 S60
M190 S60
M104 S200 T0
M109 S200 T0
G28 X0 Y0; home XY
G1 X20 Y20
G28 Z0
G1 Z5 F5000; Lift NZ
; process Box
; layer 1, Z = 0.270
M108 T0
G92 E0.0000
G1 E-0.7000 F1500
; feature skirt
; tool H0.270 W0.480
G1 Z0.270 F1002
G1 X54.116 Y20.480 F4800
G1 E0.0000 F1500
G92 E0.0000
G1 X56.880 Y17.715 E0.2065 F1800
G1 X143.120 Y17.715 E4.7602
G1 X145.884 Y20.480 E4.9667
G1 X145.884 Y51.719 E6.6162
G1 X145.529 Y52.075 E6.6428
G1 X145.884 Y52.430 E6.6693
G1 X145.884 Y83.669 E8.3189
G1 X145.529 Y84.025 E8.3454
G1 X145.884 Y84.380 E8.3720
G1 X145.884 Y115.620 E10.0215
G1 X145.529 Y115.975 E10.0481
G1 X145.884 Y116.331 E10.0746
G1 X145.884 Y147.570 E11.7242
G1 X145.529 Y147.925 E11.7507
G1 X145.884 Y148.281 E11.7773
G1 X145.884 Y179.520 E13.4268
G1 X143.120 Y182.285 E13.6333
G1 X132.658 Y182.285 E14.1857
G1 X129.893 Y179.520 E14.3921
G1 X129.893 Y176.174 E14.5688
G1 X70.107 Y176.174 E17.7258
G1 X70.107 Y179.520 E17.9025
G1 X67.342 Y182.285 E18.1090
G1 X56.880 Y182.285 E18.6614
G1 X54.116 Y179.520 E18.8678
G1 X54.116 Y148.281 E20.5174
G1 X54.471 Y147.925 E20.5439
G1 X54.116 Y147.570 E20.5705
G1 X54.116 Y116.331 E22.2200
G1 X54.471 Y115.975 E22.2466
G1 X54.116 Y115.620 E22.2731
G1 X54.116 Y84.380 E23.9227
G1 X54.471 Y84.025 E23.9492
G1 X54.116 Y83.669 E23.9758
G1 X54.116 Y52.430 E25.6253
G1 X54.471 Y52.075 E25.6519
G1 X54.116 Y51.719 E25.6784
G1 X54.116 Y20.480 E27.3279
G92 E0.0000
G1 E-0.7000 F1500
G1 X54.596 Y20.679 F4800
G1 E0.0000 F1500
G92 E0.0000
G1 X57.079 Y18.195 E0.1855 F1800
G1 X142.921 Y18.195 E4.7182
G1 X145.404 Y20.679 E4.9037
G1 X145.404 Y51.520 E6.5322
G1 X144.850 Y52.075 E6.5736
G1 X145.404 Y52.629 E6.6150
G1 X145.404 Y83.471 E8.2436
G1 X144.850 Y84.025 E8.2850
G1 X145.404 Y84.579 E8.3264
G1 X145.404 Y115.421 E9.9549
G1 X144.850 Y115.975 E9.9963
G1 X145.404 Y116.529 E10.0377
G1 X145.404 Y147.371 E11.6663
G1 X144.850 Y147.925 E11.7077
G1 X145.404 Y148.480 E11.7491
G1 X145.404 Y179.321 E13.3776
G1 X142.921 Y181.805 E13.5631
G1 X132.857 Y181.805 E14.0945
G1 X130.373 Y179.321 E14.2800
G1 X130.373 Y175.694 E14.4715
G1 X69.627 Y175.694 E17.6792
G1 X69.627 Y179.321 E17.8707
G1 X67.143 Y181.805 E18.0562
G1 X57.079 Y181.805 E18.5876
G1 X54.596 Y179.321 E18.7730
G1 X54.596 Y148.480 E20.4016
G1 X55.150 Y147.925 E20.4430
G1 X54.596 Y147.371 E20.4844
G1 X54.596 Y116.529 E22.1129
G1 X55.150 Y115.975 E22.1543
G1 X54.596 Y115.421 E22.1957
G1 X54.596 Y84.579 E23.8243
G1 X55.150 Y84.025 E23.8657
G1 X54.596 Y83.471 E23.9071
G1 X54.596 Y52.629 E25.5356
G1 X55.150 Y52.075 E25.5770
G1 X54.596 Y51.520 E25.6184
G1 X54.596 Y20.679 E27.2469
G92 E0.0000
G1 E-0.7000 F1500
; feature outer perimeter
G1 X62.227 Y30.015 F4800
G1 E0.0000 F1500
G92 E0.0000
G1 X137.749 Y30.015 E3.9878 F900
G1 X137.751 Y30.608 E4.0192
G1 X93.631 Y30.514 E6.3489
G1 X76.870 Y30.514 E7.2339
G1 X62.225 Y30.607 E8.0072
G1 X62.227 Y30.015 E8.0385
G92 E0.0000
G1 E-0.7000 F1500
G1 X62.227 Y61.965 F4800
G1 E0.0000 F1500
G92 E0.0000
G1 X137.749 Y61.965 E3.9878 F900
G1 X137.751 Y62.558 E4.0192
G1 X93.631 Y62.465 E6.3489
G1 X76.870 Y62.465 E7.2339
G1 X62.225 Y62.557 E8.0072
G1 X62.227 Y61.965 E8.0385
G92 E0.0000
G1 E-0.7000 F1500
G1 X62.227 Y93.915 F4800
G1 E0.0000 F1500
G92 E0.0000
G1 X137.749 Y93.915 E3.9878 F900
G1 X137.751 Y94.509 E4.0192
G1 X93.631 Y94.415 E6.3489
G1 X76.870 Y94.415 E7.2339
G1 X62.225 Y94.507 E8.0072
G1 X62.227 Y93.915 E8.0385
G92 E0.0000
G1 E-0.7000 F1500
G1 X62.227 Y125.865 F4800
G1 E0.0000 F1500
G92 E0.0000
G1 X137.749 Y125.865 E3.9878 F900
G1 X137.751 Y126.459 E4.0192
G1 X93.631 Y126.365 E6.3489
G1 X76.870 Y126.365 E7.2339
G1 X62.225 Y126.458 E8.0072
G1 X62.227 Y125.865 E8.0385
G92 E0.0000
G1 E-0.7000 F1500
G1 X62.227 Y157.815 F4800
G1 E0.0000 F1500
G92 E0.0000
G1 X137.749 Y157.815 E3.9878 F900
G1 X137.751 Y158.409 E4.0192
G1 X93.631 Y158.315 E6.3489
G1 X76.870 Y158.315 E7.2339
G1 X62.225 Y158.408 E8.0072
G1 X62.227 Y157.815 E8.0385
G92 E0.0000
G1 E-0.7000 F1500
; feature support
G1 X59.086 Y151.840 F4800
G1 E0.0000 F1500
G92 E0.0000
G1 X140.914 Y151.840 E4.3209 F1440
G1 X140.914 Y153.760 E4.4223
G1 X59.086 Y153.760 E8.7431
G1 X59.086 Y155.680 E8.8445
G1 X140.914 Y155.680 E13.1654
G1 X140.914 Y157.600 E13.2668
G1 X138.635 Y157.600 E13.3871
G1 X138.634 Y157.035 E13.4169
G1 X138.537 Y157.035 E13.4220
G1 X138.537 Y157.025 E13.4226
G1 X61.439 Y157.025 E17.4936
G1 X61.439 Y157.035 E17.4942
G1 X61.343 Y157.035 E17.4992
G1 X61.342 Y157.600 E17.5290
G1 X59.086 Y157.600 E17.6482
G1 X59.086 Y159.520 E17.7495
G1 X61.336 Y159.520 E17.8684
G1 X61.333 Y160.687 E17.9300
G1 X61.470 Y160.687 E17.9373
G1 X61.470 Y161.440 E17.9770
G1 X59.086 Y161.440 E18.1029
G1 X59.086 Y163.360 E18.2043
G1 X140.914 Y163.360 E22.5252
G1 X140.914 Y165.280 E22.6266
G1 X59.086 Y165.280 E26.9474
G1 X59.086 Y167.200 E27.0488
G1 X140.914 Y167.200 E31.3697
G1 X140.914 Y169.120 E31.4711
G1 X59.086 Y169.120 E35.7920
G1 X59.086 Y171.040 E35.8933
G1 X140.914 Y171.040 E40.2142
G1 X140.914 Y172.960 E40.3156
G1 X134.863 Y172.960 E40.6351
G1 X134.863 Y171.204 E40.7279
G1 X65.137 Y171.204 E44.4097
G1 X65.137 Y172.960 E44.5024
G1 X59.086 Y172.960 E44.8220
G1 X59.086 Y174.880 E44.9233
G1 X65.137 Y174.880 E45.2429
G1 X65.137 Y176.800 E45.3442
G1 X59.086 Y176.800 E45.6638
G92 E0.0000
G1 E-0.7000 F1500
G1 X59.086 Y144.160 F4800
G1 E0.0000 F1500
G92 E0.0000
G1 X65.137 Y144.160 E0.3195 F1440
G1 X65.137 Y142.240 E0.4209
G1 X59.086 Y142.240 E0.7404
G1 X59.086 Y140.320 E0.8418
G1 X65.137 Y140.320 E1.1613
G1 X65.137 Y139.254 E1.2176
G1 X134.863 Y139.254 E4.8995
G1 X134.863 Y140.320 E4.9558
G1 X140.914 Y140.320 E5.2753
G1 X140.914 Y138.400 E5.3767
G1 X59.086 Y138.400 E9.6976
G1 X59.086 Y136.480 E9.7990
G1 X140.914 Y136.480 E14.1198
G1 X140.914 Y134.560 E14.2212
G1 X59.086 Y134.560 E18.5421
G1 X59.086 Y132.640 E18.6435
G1 X140.914 Y132.640 E22.9644
G1 X140.914 Y130.720 E23.0657
G1 X59.086 Y130.720 E27.3866
G1 X59.086 Y128.800 E27.4880
G1 X61.470 Y128.800 E27.6139
G1 X61.470 Y128.737 E27.6172
G1 X61.333 Y128.737 E27.6245
G1 X61.338 Y126.880 E27.7225
G1 X59.086 Y126.880 E27.8415
G1 X59.086 Y124.960 E27.9429
G1 X140.914 Y124.960 E32.2637
G1 X140.914 Y123.040 E32.3651
G1 X59.086 Y123.040 E36.6860
G1 X59.086 Y121.120 E36.7874
G1 X140.914 Y121.120 E41.1082
G1 X140.914 Y119.200 E41.2096
G1 X100.641 Y119.200 E43.3362
G1 X100.641 Y119.758 E43.3657
G1 X99.359 Y119.758 E43.4334
G1 X99.359 Y119.200 E43.4628
G1 X59.086 Y119.200 E45.5894
G92 E0.0000
G1 E-0.7000 F1500
G1 X65.137 Y111.520 F4800
G1 E0.0000 F1500
G92 E0.0000
G1 X59.086 Y111.520 E0.3195 F1440
G1 X59.086 Y109.600 E0.4209
G1 X65.137 Y109.600 E0.7404
G1 X65.137 Y107.680 E0.8418
G1 X59.086 Y107.680 E1.1613
G1 X59.086 Y105.760 E1.2627
G1 X140.914 Y105.760 E5.5836
G1 X140.914 Y103.840 E5.6850
G1 X59.086 Y103.840 E10.0059
G1 X59.086 Y101.920 E10.1072
G1 X140.914 Y101.920 E14.4281
G1 X140.914 Y100.000 E14.5295
G1 X59.086 Y100.000 E18.8504
G1 X59.086 Y98.080 E18.9518
G1 X140.914 Y98.080 E23.2726
G1 X140.914 Y96.160 E23.3740
G1 X138.642 Y96.160 E23.4940
G1 X138.644 Y96.787 E23.5271
G1 X138.530 Y96.787 E23.5331
G1 X138.530 Y97.586 E23.5753
G1 X61.470 Y97.586 E27.6444
G1 X61.470 Y96.787 E27.6865
G1 X61.333 Y96.787 E27.6937
G1 X61.335 Y96.160 E27.7269
G1 X59.086 Y96.160 E27.8456
G1 X59.086 Y94.240 E27.9470
G1 X61.340 Y94.240 E28.0661
G1 X61.343 Y93.135 E28.1244
G1 X61.439 Y93.135 E28.1295
G1 X61.439 Y93.125 E28.1300
G1 X138.537 Y93.125 E32.2010
G1 X138.537 Y93.135 E32.2016
G1 X138.634 Y93.135 E32.2067
G1 X138.637 Y94.240 E32.2650
G1 X140.914 Y94.240 E32.3853
G1 X140.914 Y92.320 E32.4867
G1 X59.086 Y92.320 E36.8076
G1 X59.086 Y90.400 E36.9089
G1 X140.914 Y90.400 E41.2298
G1 X140.914 Y88.480 E41.3312
G1 X59.086 Y88.480 E45.6521
G92 E0.0000
G1 E-0.7000 F1500
G1 X59.086 Y80.800 F4800
G1 E0.0000 F1500
G92 E0.0000
G1 X65.137 Y80.800 E0.3195 F1440
G1 X65.137 Y78.880 E0.4209
G1 X59.086 Y78.880 E0.7404
G1 X59.086 Y76.960 E0.8418
G1 X65.137 Y76.960 E1.1613
G1 X65.137 Y75.353 E1.2462
G1 X134.863 Y75.353 E4.9280
G1 X134.863 Y76.960 E5.0129
G1 X140.914 Y76.960 E5.3324
G1 X140.914 Y75.040 E5.4338
G1 X59.086 Y75.040 E9.7546
G1 X59.086 Y73.120 E9.8560
G1 X140.914 Y73.120 E14.1769
G1 X140.914 Y71.200 E14.2783
G1 X59.086 Y71.200 E18.5992
G1 X59.086 Y69.280 E18.7005
G1 X140.914 Y69.280 E23.0214
G1 X140.914 Y67.360 E23.1228
G1 X59.086 Y67.360 E27.4437
G1 X59.086 Y65.440 E27.5451
G1 X61.470 Y65.440 E27.6710
G1 X61.470 Y64.837 E27.7028
G1 X61.333 Y64.837 E27.7100
G1 X61.337 Y63.520 E27.7796
G1 X59.086 Y63.520 E27.8985
G1 X59.086 Y61.600 E27.9998
G1 X61.342 Y61.600 E28.1190
G1 X61.343 Y61.185 E28.1409
G1 X61.439 Y61.185 E28.1460
G1 X61.439 Y61.175 E28.1465
G1 X138.537 Y61.175 E32.2176
G1 X138.537 Y61.185 E32.2181
G1 X138.634 Y61.185 E32.2232
G1 X138.635 Y61.600 E32.2451
G1 X140.914 Y61.600 E32.3655
G1 X140.914 Y59.680 E32.4669
G1 X59.086 Y59.680 E36.7877
G1 X59.086 Y57.760 E36.8891
G1 X140.914 Y57.760 E41.2100
G1 X140.914 Y55.840 E41.3114
G1 X100.641 Y55.840 E43.4380
G1 X100.641 Y55.858 E43.4389
G1 X99.359 Y55.858 E43.5066
G1 X99.359 Y55.840 E43.5075
G1 X59.086 Y55.840 E45.6341
G92 E0.0000
G1 E-0.7000 F1500
G1 X59.086 Y48.160 F4800
G1 E0.0000 F1500
G92 E0.0000
G1 X65.137 Y48.160 E0.3195 F1440
G1 X65.137 Y46.240 E0.4209
G1 X59.086 Y46.240 E0.7404
G1 X59.086 Y44.320 E0.8418
G1 X65.137 Y44.320 E1.1613
G1 X65.137 Y43.403 E1.2098
G1 X134.863 Y43.403 E4.8916
G1 X134.863 Y44.320 E4.9400
G1 X140.914 Y44.320 E5.2595
G1 X140.914 Y42.400 E5.3609
G1 X59.086 Y42.400 E9.6818
G1 X59.086 Y40.480 E9.7832
G1 X140.914 Y40.480 E14.1040
G1 X140.914 Y38.560 E14.2054
G1 X59.086 Y38.560 E18.5263
G1 X59.086 Y36.640 E18.6277
G1 X140.914 Y36.640 E22.9486
G1 X140.914 Y34.720 E23.0499
G1 X59.086 Y34.720 E27.3708
G1 X59.086 Y32.800 E27.4722
G1 X61.333 Y32.800 E27.5909
G1 X61.339 Y30.880 E27.6923
G1 X59.086 Y30.880 E27.8113
G1 X59.086 Y28.960 E27.9126
G1 X140.914 Y28.960 E32.2335
G1 X140.914 Y27.040 E32.3349
G1 X59.086 Y27.040 E36.6558
G1 X59.086 Y25.120 E36.7572
G1 X140.914 Y25.120 E41.0780
G1 X140.914 Y23.200 E41.1794
G1 X100.641 Y23.200 E43.3060
G1 X100.641 Y23.907 E43.3434
G1 X99.359 Y23.907 E43.4111
G1 X99.359 Y23.200 E43.4484
G1 X59.086 Y23.200 E45.5750
G92 E0.0000
G1 E-0.7000 F1500
G1 X134.863 Y46.240 F4800
G1 E0.0000 F1500
G92 E0.0000
G1 X140.914 Y46.240 E0.3195 F1440
G1 X140.914 Y48.160 E0.4209
G1 X134.863 Y48.160 E0.7404
G92 E0.0000
G1 E-0.7000 F1500
G1 X138.640 Y63.520 F4800
G1 E0.0000 F1500
G92 E0.0000
G1 X140.914 Y63.520 E0.1201 F1440
G1 X140.914 Y65.440 E0.2215
G1 X138.530 Y65.440 E0.3474
G92 E0.0000
