; G-Code generated by Simplify3D(R) Version 4.1.2
; Mar 7, 2023 at 7:28:34 PM
; Settings Summary
;   processName,Box
;   applyToModels,FingerMechanismHolder(4),FingerMechanismHolder(4)(2),FingerMechanismHolder(4)(3),FingerMechanismHolder(4)(4),FingerMechanismHolder(4)(5)
;   profileName,Default (modified)
;   profileVersion,2021-04-15 09:48:16
;   baseProfile,Default
;   printMaterial,PLA
;   printQuality,Fast
;   printExtruders,
;   extruderName,Primary Extruder
;   extruderToolheadNumber,0
;   extruderDiameter,0.4
;   extruderAutoWidth,1
;   extruderWidth,0.48
;   extrusionMultiplier,0.98
;   extruderUseRetract,1
;   extruderRetractionDistance,0.7
;   extruderExtraRestartDistance,0
;   extruderRetractionZLift,0
;   extruderRetractionSpeed,1500
;   extruderUseCoasting,0
;   extruderCoastingDistance,0.2
;   extruderUseWipe,0
;   extruderWipeDistance,5
;   primaryExtruder,0
;   layerHeight,0.3
;   topSolidLayers,3
;   bottomSolidLayers,3
;   perimeterOutlines,4
;   printPerimetersInsideOut,0
;   startPointOption,2
;   startPointOriginX,0
;   startPointOriginY,0
;   sequentialIslands,0
;   spiralVaseMode,0
;   firstLayerHeightPercentage,90
;   firstLayerWidthPercentage,100
;   firstLayerUnderspeed,0.5
;   useRaft,0
;   raftExtruder,0
;   raftTopLayers,3
;   raftBaseLayers,2
;   raftOffset,3
;   raftSeparationDistance,0.14
;   raftTopInfill,100
;   aboveRaftSpeedMultiplier,0.3
;   useSkirt,1
;   skirtExtruder,0
;   skirtLayers,1
;   skirtOutlines,2
;   skirtOffset,4
;   usePrimePillar,0
;   primePillarExtruder,999
;   primePillarWidth,12
;   primePillarLocation,7
;   primePillarSpeedMultiplier,1
;   useOozeShield,0
;   oozeShieldExtruder,999
;   oozeShieldOffset,2
;   oozeShieldOutlines,1
;   oozeShieldSidewallShape,1
;   oozeShieldSidewallAngle,30
;   oozeShieldSpeedMultiplier,1
;   infillExtruder,0
;   internalInfillPattern,Rectilinear
;   externalInfillPattern,Rectilinear
;   infillPercentage,11
;   outlineOverlapPercentage,15
;   infillExtrusionWidthPercentage,100
;   minInfillLength,5
;   infillLayerInterval,1
;   internalInfillAngles,45,-45
;   overlapInternalInfillAngles,0
;   externalInfillAngles,45,-45
;   generateSupport,1
;   supportExtruder,0
;   supportInfillPercentage,25
;   supportExtraInflation,0
;   supportBaseLayers,0
;   denseSupportExtruder,0
;   denseSupportLayers,0
;   denseSupportInfillPercentage,70
;   supportLayerInterval,1
;   supportHorizontalPartOffset,0.3
;   supportUpperSeparationLayers,1
;   supportLowerSeparationLayers,1
;   supportType,0
;   supportGridSpacing,4
;   maxOverhangAngle,45
;   supportAngles,0
;   temperatureName,Primary Extruder,Heated bed
;   temperatureNumber,0,0
;   temperatureSetpointCount,1,1
;   temperatureSetpointLayers,1,1
;   temperatureSetpointTemperatures,200,60
;   temperatureStabilizeAtStartup,1,1
;   temperatureHeatedBed,0,1
;   fanLayers,1,2
;   fanSpeeds,0,100
;   blipFanToFullPower,0
;   adjustSpeedForCooling,1
;   minSpeedLayerTime,15
;   minCoolingSpeedSlowdown,20
;   increaseFanForCooling,0
;   minFanLayerTime,45
;   maxCoolingFanSpeed,100
;   increaseFanForBridging,0
;   bridgingFanSpeed,100
;   use5D,1
;   relativeEdistances,0
;   allowEaxisZeroing,1
;   independentExtruderAxes,0
;   includeM10123,0
;   stickySupport,1
;   applyToolheadOffsets,0
;   gcodeXoffset,0
;   gcodeYoffset,0
;   gcodeZoffset,0
;   overrideMachineDefinition,1
;   machineTypeOverride,0
;   strokeXoverride,200
;   strokeYoverride,200
;   strokeZoverride,200
;   originOffsetXoverride,0
;   originOffsetYoverride,0
;   originOffsetZoverride,0
;   homeXdirOverride,-1
;   homeYdirOverride,-1
;   homeZdirOverride,-1
;   flipXoverride,1
;   flipYoverride,-1
;   flipZoverride,1
;   toolheadOffsets,0,0|0,0|0,0|0,0|0,0|0,0
;   overrideFirmwareConfiguration,0
;   firmwareTypeOverride,RepRap (Marlin/Repetier/Sprinter)
;   GPXconfigOverride,r2
;   baudRateOverride,115200
;   overridePrinterModels,0
;   printerModelsOverride
;   startingGcode,G28 X0 Y0; home XY,G1 X20 Y20,G28 Z0,G1 Z5 F5000; Lift NZ
;   layerChangeGcode,
;   retractionGcode,
;   toolChangeGcode,
;   endingGcode,M104 S0 ; turn off extruder,G28 X0 ; home x,M140 S0 ; turn off bed,M84 ; disable motors,M107 ;
;   exportFileFormat,gcode
;   celebration,0
;   celebrationSong,Looney Toons
;   postProcessing,
;   defaultSpeed,3600
;   outlineUnderspeed,0.5
;   solidInfillUnderspeed,0.8
;   supportUnderspeed,0.8
;   rapidXYspeed,4800
;   rapidZspeed,1002
;   minBridgingArea,50
;   bridgingExtraInflation,0
;   bridgingExtrusionMultiplier,1
;   bridgingSpeedMultiplier,1
;   useFixedBridgingAngle,0
;   fixedBridgingAngle,0
;   applyBridgingToPerimeters,0
;   filamentDiameters,1.75|1.75|1.75|1.75|1.75|1.75
;   filamentPricesPerKg,46|46|46|46|46|46
;   filamentDensities,1.25|1.25|1.25|1.25|1.25|1.25
;   useMinPrintHeight,0
;   minPrintHeight,0
;   useMaxPrintHeight,0
;   maxPrintHeight,0
;   useDiaphragm,0
;   diaphragmLayerInterval,20
;   robustSlicing,1
;   mergeAllIntoSolid,0
;   onlyRetractWhenCrossingOutline,1
;   retractBetweenLayers,1
;   useRetractionMinTravel,0
;   retractionMinTravel,3
;   retractWhileWiping,0
;   onlyWipeOutlines,1
;   avoidCrossingOutline,0
;   maxMovementDetourFactor,3
;   toolChangeRetractionDistance,12
;   toolChangeExtraRestartDistance,-0.5
;   toolChangeRetractionSpeed,600
;   externalThinWallType,0
;   internalThinWallType,2
;   thinWallAllowedOverlapPercentage,10
;   singleExtrusionMinLength,1
;   singleExtrusionMinPrintingWidthPercentage,50
;   singleExtrusionMaxPrintingWidthPercentage,200
;   singleExtrusionEndpointExtension,0.2
;   horizontalSizeCompensation,0
G90
M82
M107
M140 S60
M190 S60
M104 S200 T0
M109 S200 T0
G28 X0 Y0; home XY
G1 X20 Y20
G28 Z0
G1 Z5 F5000; Lift NZ
; process Box
; layer 1, Z = 0.270
M108 T0
G92 E0.0000
G1 E-0.7000 F1500
; feature skirt
; tool H0.270 W0.480
G1 Z0.270 F1002
G1 X61.560 Y32.725 F4800
G1 E0.0000 F1500
G92 E0.0000
G1 X64.325 Y29.960 E0.2065 F1800
G1 X135.675 Y29.960 E3.9740
G1 X138.440 Y32.725 E4.1805
G1 X138.440 Y59.075 E5.5719
G1 X138.090 Y59.425 E5.5980
G1 X138.440 Y59.775 E5.6242
G1 X138.440 Y86.125 E7.0156
G1 X138.090 Y86.475 E7.0417
G1 X138.440 Y86.825 E7.0678
G1 X138.440 Y113.175 E8.4592
G1 X138.090 Y113.525 E8.4853
G1 X138.440 Y113.875 E8.5115
G1 X138.440 Y140.225 E9.9029
G1 X138.090 Y140.575 E9.9290
G1 X138.440 Y140.925 E9.9551
G1 X138.440 Y167.275 E11.3465
G1 X135.675 Y170.040 E11.5530
G1 X126.325 Y170.040 E12.0467
G1 X123.560 Y167.275 E12.2532
G1 X123.560 Y165.040 E12.3712
G1 X76.440 Y165.040 E14.8593
G1 X76.440 Y167.275 E14.9774
G1 X73.675 Y170.040 E15.1838
G1 X64.325 Y170.040 E15.6776
G1 X61.560 Y167.275 E15.8840
G1 X61.560 Y140.925 E17.2754
G1 X61.910 Y140.575 E17.3015
G1 X61.560 Y140.225 E17.3277
G1 X61.560 Y113.875 E18.7191
G1 X61.910 Y113.525 E18.7452
G1 X61.560 Y113.175 E18.7713
G1 X61.560 Y86.825 E20.1627
G1 X61.910 Y86.475 E20.1889
G1 X61.560 Y86.125 E20.2150
G1 X61.560 Y59.775 E21.6064
G1 X61.910 Y59.425 E21.6325
G1 X61.560 Y59.075 E21.6587
G1 X61.560 Y32.725 E23.0500
G92 E0.0000
G1 E-0.7000 F1500
G1 X62.040 Y32.923 F4800
G1 E0.0000 F1500
G92 E0.0000
G1 X64.524 Y30.440 E0.1855 F1800
G1 X135.476 Y30.440 E3.9320
G1 X137.960 Y32.923 E4.1175
G1 X137.960 Y58.876 E5.4879
G1 X137.411 Y59.425 E5.5289
G1 X137.960 Y59.974 E5.5699
G1 X137.960 Y85.926 E6.9403
G1 X137.411 Y86.475 E6.9812
G1 X137.960 Y87.024 E7.0222
G1 X137.960 Y112.976 E8.3926
G1 X137.411 Y113.525 E8.4336
G1 X137.960 Y114.074 E8.4746
G1 X137.960 Y140.026 E9.8450
G1 X137.411 Y140.575 E9.8860
G1 X137.960 Y141.124 E9.9269
G1 X137.960 Y167.077 E11.2973
G1 X135.476 Y169.560 E11.4828
G1 X126.524 Y169.560 E11.9555
G1 X124.040 Y167.077 E12.1410
G1 X124.040 Y164.560 E12.2739
G1 X75.960 Y164.560 E14.8127
G1 X75.960 Y167.077 E14.9455
G1 X73.476 Y169.560 E15.1310
G1 X64.524 Y169.560 E15.6038
G1 X62.040 Y167.077 E15.7892
G1 X62.040 Y141.124 E17.1596
G1 X62.589 Y140.575 E17.2006
G1 X62.040 Y140.026 E17.2416
G1 X62.040 Y114.074 E18.6120
G1 X62.589 Y113.525 E18.6530
G1 X62.040 Y112.976 E18.6939
G1 X62.040 Y87.024 E20.0643
G1 X62.589 Y86.475 E20.1053
G1 X62.040 Y85.926 E20.1463
G1 X62.040 Y59.974 E21.5167
G1 X62.589 Y59.425 E21.5577
G1 X62.040 Y58.876 E21.5986
G1 X62.040 Y32.923 E22.9690
G92 E0.0000
G1 E-0.7000 F1500
; feature outer perimeter
G1 X69.129 Y40.965 F4800
G1 E0.0000 F1500
G92 E0.0000
G1 X130.851 Y40.965 E3.2592 F900
G1 X130.853 Y41.504 E3.2876
G1 X123.799 Y41.515 E3.6601
G1 X100.533 Y41.465 E4.8887
G1 X83.772 Y41.465 E5.7737
G1 X76.189 Y41.515 E6.1741
G1 X69.128 Y41.504 E6.5470
G1 X69.129 Y40.965 E6.5755
G92 E0.0000
G1 E-0.7000 F1500
G1 X69.129 Y68.015 F4800
G1 E0.0000 F1500
G92 E0.0000
G1 X130.851 Y68.015 E3.2592 F900
G1 X130.853 Y68.554 E3.2876
G1 X123.799 Y68.565 E3.6601
G1 X100.533 Y68.515 E4.8887
G1 X83.772 Y68.515 E5.7737
G1 X76.189 Y68.565 E6.1741
G1 X69.128 Y68.554 E6.5470
G1 X69.129 Y68.015 E6.5755
G92 E0.0000
G1 E-0.7000 F1500
G1 X69.129 Y95.065 F4800
G1 E0.0000 F1500
G92 E0.0000
G1 X130.851 Y95.065 E3.2592 F900
G1 X130.853 Y95.605 E3.2876
G1 X123.799 Y95.615 E3.6601
G1 X100.533 Y95.565 E4.8887
G1 X83.772 Y95.565 E5.7737
G1 X76.189 Y95.615 E6.1741
G1 X69.128 Y95.604 E6.5470
G1 X69.129 Y95.065 E6.5755
G92 E0.0000
G1 E-0.7000 F1500
G1 X69.129 Y122.115 F4800
G1 E0.0000 F1500
G92 E0.0000
G1 X130.851 Y122.115 E3.2592 F900
G1 X130.853 Y122.655 E3.2876
G1 X123.799 Y122.666 E3.6601
G1 X100.533 Y122.615 E4.8887
G1 X83.772 Y122.615 E5.7737
G1 X76.189 Y122.666 E6.1741
G1 X69.128 Y122.655 E6.5470
G1 X69.129 Y122.115 E6.5755
G92 E0.0000
G1 E-0.7000 F1500
G1 X69.129 Y149.165 F4800
G1 E0.0000 F1500
G92 E0.0000
G1 X130.851 Y149.165 E3.2592 F900
G1 X130.853 Y149.705 E3.2876
G1 X123.799 Y149.716 E3.6601
G1 X100.533 Y149.665 E4.8887
G1 X83.772 Y149.665 E5.7737
G1 X76.189 Y149.716 E6.1741
G1 X69.128 Y149.705 E6.5470
G1 X69.129 Y149.165 E6.5755
G92 E0.0000
G1 E-0.7000 F1500
; feature support
G1 X66.530 Y144.160 F4800
G1 E0.0000 F1500
G92 E0.0000
G1 X133.470 Y144.160 E3.5347 F1440
G1 X133.470 Y146.080 E3.6361
G1 X66.530 Y146.080 E7.1708
G1 X66.530 Y148.000 E7.2721
G1 X133.470 Y148.000 E10.8068
G1 X133.470 Y149.920 E10.9082
G1 X131.740 Y149.920 E10.9995
G1 X131.736 Y148.385 E11.0806
G1 X131.639 Y148.385 E11.0857
G1 X131.639 Y148.375 E11.0862
G1 X68.341 Y148.375 E14.4286
G1 X68.341 Y148.385 E14.4291
G1 X68.245 Y148.385 E14.4342
G1 X68.241 Y149.920 E14.5152
G1 X66.530 Y149.920 E14.6056
G1 X66.530 Y151.840 E14.7070
G1 X68.236 Y151.840 E14.7970
G1 X68.236 Y151.909 E14.8007
G1 X68.470 Y151.909 E14.8130
G1 X68.470 Y152.130 E14.8247
G1 X131.530 Y152.130 E18.1545
G1 X131.530 Y151.909 E18.1662
G1 X131.746 Y151.909 E18.1776
G1 X131.746 Y151.840 E18.1813
G1 X133.470 Y151.840 E18.2723
G1 X133.470 Y153.760 E18.3737
G1 X66.530 Y153.760 E21.9084
G1 X66.530 Y155.680 E22.0098
G1 X133.470 Y155.680 E25.5445
G1 X133.470 Y157.600 E25.6458
G1 X66.530 Y157.600 E29.1805
G1 X66.530 Y159.520 E29.2819
G1 X133.470 Y159.520 E32.8166
G1 X133.470 Y161.440 E32.9180
G1 X128.530 Y161.440 E33.1788
G1 X128.530 Y160.070 E33.2512
G1 X71.470 Y160.070 E36.2641
G1 X71.470 Y161.440 E36.3365
G1 X66.530 Y161.440 E36.5973
G1 X66.530 Y163.360 E36.6987
G1 X71.470 Y163.360 E36.9596
G92 E0.0000
G1 E-0.7000 F1500
G1 X71.470 Y136.480 F4800
G1 E0.0000 F1500
G92 E0.0000
G1 X66.530 Y136.480 E0.2609 F1440
G1 X66.530 Y134.560 E0.3622
G1 X71.470 Y134.560 E0.6231
G1 X71.470 Y133.020 E0.7044
G1 X128.530 Y133.020 E3.7174
G1 X128.530 Y134.560 E3.7987
G1 X133.470 Y134.560 E4.0595
G1 X133.470 Y132.640 E4.1609
G1 X66.530 Y132.640 E7.6956
G1 X66.530 Y130.720 E7.7970
G1 X133.470 Y130.720 E11.3317
G1 X133.470 Y128.800 E11.4331
G1 X66.530 Y128.800 E14.9678
G1 X66.530 Y126.880 E15.0691
G1 X133.470 Y126.880 E18.6038
G1 X133.470 Y124.960 E18.7052
G1 X131.530 Y124.960 E18.8076
G1 X131.530 Y125.080 E18.8140
G1 X68.470 Y125.080 E22.1438
G1 X68.470 Y124.960 E22.1501
G1 X66.530 Y124.960 E22.2526
G1 X66.530 Y123.040 E22.3540
G1 X68.241 Y123.040 E22.4443
G1 X68.245 Y121.335 E22.5343
G1 X68.341 Y121.335 E22.5394
G1 X68.341 Y121.325 E22.5399
G1 X131.639 Y121.325 E25.8823
G1 X131.639 Y121.335 E25.8828
G1 X131.736 Y121.335 E25.8879
G1 X131.741 Y123.040 E25.9779
G1 X133.470 Y123.040 E26.0692
G1 X133.470 Y121.120 E26.1706
G1 X66.530 Y121.120 E29.7053
G1 X66.530 Y119.200 E29.8067
G1 X133.470 Y119.200 E33.3414
G1 X133.470 Y117.280 E33.4428
G1 X66.530 Y117.280 E36.9774
G92 E0.0000
G1 E-0.7000 F1500
G1 X71.470 Y109.600 F4800
G1 E0.0000 F1500
G92 E0.0000
G1 X66.530 Y109.600 E0.2609 F1440
G1 X66.530 Y107.680 E0.3622
G1 X71.470 Y107.680 E0.6231
G1 X71.470 Y105.970 E0.7134
G1 X128.530 Y105.970 E3.7264
G1 X128.530 Y107.680 E3.8167
G1 X133.470 Y107.680 E4.0775
G1 X133.470 Y105.760 E4.1789
G1 X66.530 Y105.760 E7.7136
G1 X66.530 Y103.840 E7.8150
G1 X133.470 Y103.840 E11.3496
G1 X133.470 Y101.920 E11.4510
G1 X66.530 Y101.920 E14.9857
G1 X66.530 Y100.000 E15.0871
G1 X133.470 Y100.000 E18.6218
G1 X133.470 Y98.080 E18.7232
G1 X66.530 Y98.080 E22.2579
G1 X66.530 Y96.160 E22.3592
G1 X68.240 Y96.160 E22.4495
G1 X68.245 Y94.285 E22.5486
G1 X68.341 Y94.285 E22.5536
G1 X68.341 Y94.275 E22.5541
G1 X131.639 Y94.275 E25.8965
G1 X131.639 Y94.285 E25.8970
G1 X131.736 Y94.285 E25.9021
G1 X131.741 Y96.160 E26.0011
G1 X133.470 Y96.160 E26.0924
G1 X133.470 Y94.240 E26.1938
G1 X66.530 Y94.240 E29.7285
G1 X66.530 Y92.320 E29.8299
G1 X133.470 Y92.320 E33.3646
G1 X133.470 Y90.400 E33.4660
G1 X66.530 Y90.400 E37.0006
G92 E0.0000
G1 E-0.7000 F1500
G1 X71.470 Y82.720 F4800
G1 E0.0000 F1500
G92 E0.0000
G1 X66.530 Y82.720 E0.2609 F1440
G1 X66.530 Y80.800 E0.3622
G1 X71.470 Y80.800 E0.6231
G1 X71.470 Y78.920 E0.7224
G1 X128.530 Y78.920 E3.7353
G1 X128.530 Y80.800 E3.8346
G1 X133.470 Y80.800 E4.0955
G1 X133.470 Y78.880 E4.1969
G1 X66.530 Y78.880 E7.7315
G1 X66.530 Y76.960 E7.8329
G1 X133.470 Y76.960 E11.3676
G1 X133.470 Y75.040 E11.4690
G1 X66.530 Y75.040 E15.0037
G1 X66.530 Y73.120 E15.1051
G1 X133.470 Y73.120 E18.6398
G1 X133.470 Y71.200 E18.7411
G1 X66.530 Y71.200 E22.2758
G1 X66.530 Y69.280 E22.3772
G1 X68.240 Y69.280 E22.4675
G1 X68.245 Y67.360 E22.5689
G1 X66.530 Y67.360 E22.6594
G1 X66.530 Y65.440 E22.7608
G1 X133.470 Y65.440 E26.2955
G1 X133.470 Y63.520 E26.3969
G1 X66.530 Y63.520 E29.9316
G92 E0.0000
G1 E-0.7000 F1500
G1 X71.470 Y55.840 F4800
G1 E0.0000 F1500
G92 E0.0000
G1 X66.530 Y55.840 E0.2609 F1440
G1 X66.530 Y53.920 E0.3622
G1 X71.470 Y53.920 E0.6231
G1 X71.470 Y52.000 E0.7245
G1 X66.530 Y52.000 E0.9853
G1 X66.530 Y50.080 E1.0867
G1 X133.470 Y50.080 E4.6214
G1 X133.470 Y48.160 E4.7228
G1 X66.530 Y48.160 E8.2575
G1 X66.530 Y46.240 E8.3588
G1 X133.470 Y46.240 E11.8935
G1 X133.470 Y44.320 E11.9949
G1 X66.530 Y44.320 E15.5296
G1 X66.530 Y42.400 E15.6310
G1 X68.239 Y42.400 E15.7212
G1 X68.245 Y40.480 E15.8226
G1 X66.530 Y40.480 E15.9132
G1 X66.530 Y38.560 E16.0145
G1 X133.470 Y38.560 E19.5492
G1 X133.470 Y36.640 E19.6506
G1 X66.530 Y36.640 E23.1853
G92 E0.0000
G1 E-0.7000 F1500
G1 X128.530 Y52.000 F4800
G1 E0.0000 F1500
G92 E0.0000
G1 X133.470 Y52.000 E0.2609 F1440
G1 X133.470 Y53.920 E0.3622
G1 X128.530 Y53.920 E0.6231
G1 X128.530 Y55.840 E0.7245
G1 X133.470 Y55.840 E0.9853
G92 E0.0000
G1 E-0.7000 F1500
G1 X131.736 Y67.360 F4800
G1 E0.0000 F1500
G92 E0.0000
G1 X133.470 Y67.360 E0.0916 F1440
G1 X133.470 Y69.280 E0.1929
G1 X131.742 Y69.280 E0.2842
G92 E0.0000
G1 E-0.7000 F1500
G1 X133.470 Y82.720 F4800
G1 E0.0000 F1500
G92 E0.0000
G1 X128.530 Y82.720 E0.2609 F1440
G92 E0.0000
G1 E-0.7000 F1500
G1 X128.530 Y109.600 F4800
G1 E0.0000 F1500
G92 E0.0000
G1 X133.470 Y109.600 E0.2609 F1440
G92 E0.0000
G1 E-0.7000 F1500
G1 X133.470 Y136.480 F4800
G1 E0.0000 F1500
G92 E0.0000
G1 X128.530 Y136.480 E0.2609 F1440
G92 E0.0000
G1 E-0.7000 F1500
G1 X128.530 Y163.360 F4800
G1 E0.0000 F1500
G92 E0.0000
G1 X133.470 Y163.360 E0.2609 F1440
G92 E0.0000
G1 E-0.7000 F1500
G1 X131.742 Y42.400 F4800
G1 E0.0000 F1500
G92 E0.0000
G1 X133.470 Y42.400 E0.0912 F1440
G1 X133.470 Y40.480 E0.1926
G1 X131.737 Y40.480 E0.2841
G92 E0.0000
G1 E-0.7000 F1500
; layer 2, Z = 0.570
M106 S255
; feature outer perimeter
; tool H0.300 W0.480
G1 Z0.570 F1002
G1 X130.958 Y40.965 F4800
G1 E0.0000 F1500
G92 E0.0000
G1 X130.964 Y42.928 E0.1152 F1800
