; G-Code generated by Simplify3D(R) Version 4.1.1
; Apr 28, 2021 at 3:53:55 PM
; Settings Summary
;   processName,Trideo BOX
;   applyToModels,bicep holder for A and B_upper arm tighter v4,clip,forearmholder,thread,FingerStopper,ThumbClip,thumbscrew,UpperArm - Palm connector x2,UpperArm - Palm connector x2(2)
;   profileName,Trideo BOX
;   profileVersion,2021-04-15 09:48:16
;   baseProfile,Default
;   printMaterial,PLA
;   printQuality,Fast
;   printExtruders,
;   extruderName,Primary Extruder
;   extruderToolheadNumber,0
;   extruderDiameter,0.4
;   extruderAutoWidth,1
;   extruderWidth,0.48
;   extrusionMultiplier,0.98
;   extruderUseRetract,1
;   extruderRetractionDistance,0.7
;   extruderExtraRestartDistance,0
;   extruderRetractionZLift,0
;   extruderRetractionSpeed,1500
;   extruderUseCoasting,0
;   extruderCoastingDistance,0.2
;   extruderUseWipe,0
;   extruderWipeDistance,5
;   primaryExtruder,0
;   layerHeight,0.3
;   topSolidLayers,3
;   bottomSolidLayers,3
;   perimeterOutlines,2
;   printPerimetersInsideOut,1
;   startPointOption,2
;   startPointOriginX,0
;   startPointOriginY,0
;   sequentialIslands,0
;   spiralVaseMode,0
;   firstLayerHeightPercentage,90
;   firstLayerWidthPercentage,100
;   firstLayerUnderspeed,0.5
;   useRaft,0
;   raftExtruder,0
;   raftTopLayers,3
;   raftBaseLayers,2
;   raftOffset,3
;   raftSeparationDistance,0.14
;   raftTopInfill,100
;   aboveRaftSpeedMultiplier,0.3
;   useSkirt,1
;   skirtExtruder,0
;   skirtLayers,1
;   skirtOutlines,2
;   skirtOffset,4
;   usePrimePillar,0
;   primePillarExtruder,999
;   primePillarWidth,12
;   primePillarLocation,7
;   primePillarSpeedMultiplier,1
;   useOozeShield,0
;   oozeShieldExtruder,999
;   oozeShieldOffset,2
;   oozeShieldOutlines,1
;   oozeShieldSidewallShape,1
;   oozeShieldSidewallAngle,30
;   oozeShieldSpeedMultiplier,1
;   infillExtruder,0
;   internalInfillPattern,Rectilinear
;   externalInfillPattern,Rectilinear
;   infillPercentage,15
;   outlineOverlapPercentage,15
;   infillExtrusionWidthPercentage,100
;   minInfillLength,5
;   infillLayerInterval,1
;   internalInfillAngles,45,-45
;   overlapInternalInfillAngles,0
;   externalInfillAngles,45,-45
;   generateSupport,1
;   supportExtruder,0
;   supportInfillPercentage,25
;   supportExtraInflation,0
;   supportBaseLayers,0
;   denseSupportExtruder,0
;   denseSupportLayers,0
;   denseSupportInfillPercentage,70
;   supportLayerInterval,1
;   supportHorizontalPartOffset,0.3
;   supportUpperSeparationLayers,1
;   supportLowerSeparationLayers,1
;   supportType,0
;   supportGridSpacing,4
;   maxOverhangAngle,45
;   supportAngles,0
;   temperatureName,Primary Extruder,Heated bed
;   temperatureNumber,0,0
;   temperatureSetpointCount,1,1
;   temperatureSetpointLayers,1,1
;   temperatureSetpointTemperatures,190,60
;   temperatureStabilizeAtStartup,1,1
;   temperatureHeatedBed,0,1
;   fanLayers,1,2
;   fanSpeeds,0,100
;   blipFanToFullPower,0
;   adjustSpeedForCooling,1
;   minSpeedLayerTime,15
;   minCoolingSpeedSlowdown,20
;   increaseFanForCooling,0
;   minFanLayerTime,45
;   maxCoolingFanSpeed,100
;   increaseFanForBridging,0
;   bridgingFanSpeed,100
;   use5D,1
;   relativeEdistances,0
;   allowEaxisZeroing,1
;   independentExtruderAxes,0
;   includeM10123,0
;   stickySupport,1
;   applyToolheadOffsets,0
;   gcodeXoffset,0
;   gcodeYoffset,0
;   gcodeZoffset,0
;   overrideMachineDefinition,1
;   machineTypeOverride,0
;   strokeXoverride,200
;   strokeYoverride,200
;   strokeZoverride,200
;   originOffsetXoverride,0
;   originOffsetYoverride,0
;   originOffsetZoverride,0
;   homeXdirOverride,-1
;   homeYdirOverride,-1
;   homeZdirOverride,-1
;   flipXoverride,1
;   flipYoverride,-1
;   flipZoverride,1
;   toolheadOffsets,0,0|0,0|0,0|0,0|0,0|0,0
;   overrideFirmwareConfiguration,0
;   firmwareTypeOverride,RepRap (Marlin/Repetier/Sprinter)
;   GPXconfigOverride,r2
;   baudRateOverride,115200
;   overridePrinterModels,0
;   printerModelsOverride
;   startingGcode,G28 X0 Y0; home XY,G1 X20 Y20,G28 Z0,G1 Z5 F5000; Lift NZ
;   layerChangeGcode,
;   retractionGcode,
;   toolChangeGcode,
;   endingGcode,M104 S0 ; turn off extruder,G28 X0 ; home x,M140 S0 ; turn off bed,M84 ; disable motors,M107 ;
;   exportFileFormat,gcode
;   celebration,0
;   celebrationSong,Looney Toons
;   postProcessing,
;   defaultSpeed,3600
;   outlineUnderspeed,0.5
;   solidInfillUnderspeed,0.8
;   supportUnderspeed,0.8
;   rapidXYspeed,4800
;   rapidZspeed,1002
;   minBridgingArea,50
;   bridgingExtraInflation,0
;   bridgingExtrusionMultiplier,1
;   bridgingSpeedMultiplier,1
;   useFixedBridgingAngle,0
;   fixedBridgingAngle,0
;   applyBridgingToPerimeters,0
;   filamentDiameters,1.75|1.75|1.75|1.75|1.75|1.75
;   filamentPricesPerKg,46|46|46|46|46|46
;   filamentDensities,1.25|1.25|1.25|1.25|1.25|1.25
;   useMinPrintHeight,0
;   minPrintHeight,0
;   useMaxPrintHeight,0
;   maxPrintHeight,0
;   useDiaphragm,0
;   diaphragmLayerInterval,20
;   robustSlicing,1
;   mergeAllIntoSolid,0
;   onlyRetractWhenCrossingOutline,1
;   retractBetweenLayers,1
;   useRetractionMinTravel,0
;   retractionMinTravel,3
;   retractWhileWiping,0
;   onlyWipeOutlines,1
;   avoidCrossingOutline,0
;   maxMovementDetourFactor,3
;   toolChangeRetractionDistance,12
;   toolChangeExtraRestartDistance,-0.5
;   toolChangeRetractionSpeed,600
;   externalThinWallType,0
;   internalThinWallType,2
;   thinWallAllowedOverlapPercentage,10
;   singleExtrusionMinLength,1
;   singleExtrusionMinPrintingWidthPercentage,50
;   singleExtrusionMaxPrintingWidthPercentage,200
;   singleExtrusionEndpointExtension,0.2
;   horizontalSizeCompensation,0
G90
M82
M106 S0
M140 S60
M190 S60
M104 S190 T0
M109 S190 T0
G28 X0 Y0; home XY
G1 X20 Y20
G28 Z0
G1 Z5 F5000; Lift NZ
; process Trideo BOX
; layer 1, Z = 0.270
T0
G92 E0.0000
G1 E-0.7000 F1500
; feature skirt
; tool H0.270 W0.480
G1 Z0.270 F1002
G1 X68.370 Y61.541 F4800
G1 E0.0000 F1500
G92 E0.0000
G1 X75.660 Y61.541 E0.3849 F1800
G1 X78.425 Y64.306 E0.5914
G1 X78.425 Y67.659 E0.7684
G1 X78.496 Y67.566 E0.7746
G1 X78.587 Y67.454 E0.7822
G1 X79.148 Y66.807 E0.8274
G1 X79.247 Y66.700 E0.8351
G1 X79.849 Y66.087 E0.8805
G1 X79.958 Y65.983 E0.8885
G1 X80.640 Y65.371 E0.9368
G1 X80.755 Y65.274 E0.9448
G1 X81.430 Y64.743 E0.9901
G1 X81.545 Y64.658 E0.9976
G1 X82.200 Y64.203 E1.0398
G1 X82.317 Y64.127 E1.0472
G1 X83.096 Y63.653 E1.0953
G1 X83.237 Y63.573 E1.1039
G1 X84.050 Y63.151 E1.1522
G1 X84.175 Y63.090 E1.1596
G1 X84.904 Y62.765 E1.2017
G1 X85.037 Y62.711 E1.2093
G1 X85.838 Y62.410 E1.2545
G1 X85.976 Y62.363 E1.2622
G1 X86.795 Y62.112 E1.3074
G1 X86.936 Y62.073 E1.3151
G1 X87.772 Y61.872 E1.3605
G1 X87.920 Y61.842 E1.3685
G1 X88.843 Y61.682 E1.4180
G1 X88.994 Y61.661 E1.4260
G1 X89.850 Y61.569 E1.4715
G1 X89.995 Y61.558 E1.4792
G1 X90.851 Y61.519 E1.5244
G1 X90.996 Y61.517 E1.5321
G1 X91.853 Y61.531 E1.5773
G1 X91.997 Y61.538 E1.5850
G1 X92.793 Y61.600 E1.6271
G1 X92.930 Y61.615 E1.6344
G1 X93.844 Y61.740 E1.6831
G1 X93.997 Y61.766 E1.6913
G1 X94.845 Y61.940 E1.7370
G1 X94.986 Y61.974 E1.7447
G1 X95.798 Y62.193 E1.7891
G1 X95.940 Y62.236 E1.7969
G1 X96.807 Y62.529 E1.8452
G1 X96.948 Y62.582 E1.8532
G1 X97.742 Y62.909 E1.8986
G1 X97.875 Y62.969 E1.9062
G1 X98.646 Y63.343 E1.9515
G1 X98.775 Y63.411 E1.9592
G1 X99.521 Y63.832 E2.0044
G1 X99.646 Y63.907 E2.0121
G1 X100.365 Y64.374 E2.0574
G1 X100.486 Y64.457 E2.0651
G1 X101.187 Y64.977 E2.1112
G1 X101.302 Y65.067 E2.1189
G1 X101.955 Y65.617 E2.1640
G1 X102.063 Y65.714 E2.1717
G1 X102.682 Y66.303 E2.2168
G1 X102.787 Y66.410 E2.2247
G1 X103.403 Y67.076 E2.2726
G1 X103.500 Y67.188 E2.2804
G1 X104.035 Y67.844 E2.3251
G1 X104.123 Y67.959 E2.3328
G1 X104.252 Y68.140 E2.3445
G1 X104.252 Y65.081 E2.5060
G1 X107.017 Y62.316 E2.7125
G1 X109.057 Y62.316 E2.8202
G1 X110.077 Y61.296 E2.8964
G1 X115.447 Y61.296 E3.1800
G1 X118.072 Y63.921 E3.3759
G1 X118.379 Y64.228 E3.3989
G1 X120.072 Y62.535 E3.5253
G1 X121.052 Y62.535 E3.5771
G1 X122.032 Y61.555 E3.6502
G1 X130.302 Y61.555 E4.0869
G1 X131.282 Y62.535 E4.1601
G1 X132.262 Y62.535 E4.2119
G1 X135.027 Y65.300 E4.4183
G1 X135.027 Y70.631 E4.6998
G1 X134.047 Y71.611 E4.7730
G1 X134.047 Y79.020 E5.1642
G1 X135.027 Y80.000 E5.2374
G1 X135.027 Y86.311 E5.5706
G1 X132.262 Y89.075 E5.7771
G1 X120.072 Y89.075 E6.4208
G1 X120.030 Y89.034 E6.4239
G1 X117.487 Y91.576 E6.6138
G1 X105.997 Y91.576 E7.2205
G1 X103.232 Y88.811 E7.4270
G1 X103.232 Y88.683 E7.4338
G1 X102.836 Y89.112 E7.4646
G1 X102.738 Y89.211 E7.4719
G1 X102.080 Y89.843 E7.5201
G1 X101.966 Y89.946 E7.5283
G1 X101.307 Y90.501 E7.5737
G1 X101.193 Y90.591 E7.5814
G1 X100.502 Y91.104 E7.6268
G1 X100.378 Y91.190 E7.6348
G1 X99.613 Y91.685 E7.6829
G1 X99.485 Y91.762 E7.6908
G1 X98.738 Y92.181 E7.7361
G1 X98.612 Y92.247 E7.7436
G1 X97.893 Y92.595 E7.7857
G1 X97.764 Y92.653 E7.7932
G1 X96.920 Y93.001 E7.8414
G1 X96.776 Y93.055 E7.8495
G1 X95.961 Y93.331 E7.8949
G1 X95.822 Y93.373 E7.9026
G1 X94.994 Y93.597 E7.9479
G1 X94.852 Y93.631 E7.9557
G1 X93.999 Y93.806 E8.0016
G1 X93.854 Y93.831 E8.0094
G1 X93.054 Y93.944 E8.0521
G1 X92.909 Y93.960 E8.0597
G1 X91.945 Y94.036 E8.1108
G1 X91.796 Y94.043 E8.1187
G1 X90.993 Y94.056 E8.1611
G1 X90.850 Y94.053 E8.1687
G1 X89.992 Y94.015 E8.2140
G1 X89.842 Y94.003 E8.2220
G1 X88.932 Y93.903 E8.2703
G1 X88.786 Y93.883 E8.2781
G1 X87.958 Y93.739 E8.3224
G1 X87.816 Y93.710 E8.3301
G1 X86.969 Y93.509 E8.3761
G1 X86.818 Y93.468 E8.3843
G1 X85.941 Y93.197 E8.4328
G1 X85.811 Y93.152 E8.4401
G1 X85.064 Y92.873 E8.4822
G1 X84.930 Y92.818 E8.4898
G1 X84.144 Y92.468 E8.5352
G1 X84.007 Y92.402 E8.5433
G1 X83.196 Y91.976 E8.5916
G1 X83.066 Y91.903 E8.5995
G1 X82.334 Y91.457 E8.6448
G1 X82.216 Y91.380 E8.6522
G1 X81.542 Y90.912 E8.6956
G1 X81.422 Y90.824 E8.7034
G1 X80.705 Y90.256 E8.7517
G1 X80.591 Y90.159 E8.7596
G1 X79.952 Y89.585 E8.8050
G1 X79.847 Y89.484 E8.8127
G1 X79.247 Y88.872 E8.8579
G1 X79.148 Y88.765 E8.8656
G1 X78.587 Y88.118 E8.9108
G1 X78.496 Y88.006 E8.9184
G1 X78.009 Y87.370 E8.9608
G1 X77.924 Y87.252 E8.9684
G1 X77.441 Y86.534 E9.0141
G1 X77.445 Y100.365 E9.7445
G1 X77.968 Y100.365 E9.7721
G1 X78.948 Y101.345 E9.8453
G1 X79.928 Y101.345 E9.8971
G1 X82.401 Y103.819 E10.0817
G1 X82.401 Y102.873 E10.1317
G1 X85.166 Y100.108 E10.3381
G1 X93.676 Y100.108 E10.7875
G1 X96.441 Y102.873 E10.9940
G1 X96.441 Y103.913 E11.0489
G1 X97.180 Y104.652 E11.1041
G1 X97.180 Y102.871 E11.1981
G1 X99.945 Y100.106 E11.4046
G1 X106.295 Y100.106 E11.7399
G1 X106.515 Y100.326 E11.7563
G1 X107.725 Y100.326 E11.8202
G1 X107.945 Y100.106 E11.8366
G1 X114.295 Y100.106 E12.1719
G1 X116.319 Y102.131 E12.3231
G1 X117.844 Y100.606 E12.4369
G1 X123.194 Y100.606 E12.7194
G1 X124.194 Y101.606 E12.7941
G1 X125.844 Y101.606 E12.8812
G1 X126.844 Y100.606 E12.9559
G1 X132.194 Y100.606 E13.2384
G1 X134.959 Y103.371 E13.4449
G1 X134.959 Y105.024 E13.5321
G1 X135.139 Y105.204 E13.5456
G1 X135.139 Y110.890 E13.8458
G1 X134.959 Y111.070 E13.8593
G1 X134.959 Y112.721 E13.9465
G1 X132.194 Y115.486 E14.1529
G1 X126.844 Y115.486 E14.4355
G1 X125.844 Y114.486 E14.5101
G1 X124.194 Y114.486 E14.5972
G1 X123.194 Y115.486 E14.6719
G1 X117.844 Y115.486 E14.9544
G1 X116.060 Y113.702 E15.0876
G1 X116.060 Y115.221 E15.1678
G1 X114.060 Y117.221 E15.3172
G1 X114.060 Y120.221 E15.4756
G1 X111.295 Y122.986 E15.6821
G1 X102.945 Y122.986 E16.1230
G1 X100.180 Y120.221 E16.3295
G1 X100.180 Y117.221 E16.4879
G1 X98.180 Y115.221 E16.6372
G1 X98.180 Y110.221 E16.9012
G1 X97.481 Y109.523 E16.9534
G1 X97.481 Y112.423 E17.1066
G1 X96.441 Y113.463 E17.1843
G1 X96.441 Y117.433 E17.3939
G1 X97.481 Y118.473 E17.4715
G1 X97.481 Y124.903 E17.8111
G1 X95.695 Y126.690 E17.9445
G1 X95.695 Y134.945 E18.3804
G1 X92.930 Y137.710 E18.5869
G1 X85.670 Y137.710 E18.9702
G1 X84.700 Y136.740 E19.0427
G1 X82.760 Y136.740 E19.1451
G1 X81.790 Y135.770 E19.2175
G1 X66.270 Y135.770 E20.0371
G1 X63.505 Y133.005 E20.2435
G1 X63.505 Y123.805 E20.7293
G1 X64.973 Y122.337 E20.8390
G1 X64.973 Y118.810 E21.0252
G1 X65.953 Y117.830 E21.0984
G1 X65.953 Y110.421 E21.4896
G1 X64.973 Y109.441 E21.5628
G1 X64.973 Y104.110 E21.8443
G1 X66.356 Y102.727 E21.9476
G1 X65.605 Y101.975 E22.0037
G1 X65.613 Y78.507 E23.2429
G1 X65.589 Y78.483 E23.2447
G1 X65.599 Y77.470 E23.2982
G1 X64.625 Y76.496 E23.3709
G1 X64.625 Y68.226 E23.8076
G1 X65.605 Y67.246 E23.8808
G1 X65.605 Y64.306 E24.0360
G1 X68.370 Y61.541 E24.2425
G92 E0.0000
G1 E-0.7000 F1500
G1 X66.085 Y64.505 F4800
G1 E0.0000 F1500
G92 E0.0000
G1 X68.569 Y62.021 E0.1855 F1800
G1 X75.462 Y62.021 E0.5494
G1 X77.945 Y64.505 E0.7349
G1 X77.945 Y69.147 E0.9800
G1 X78.323 Y68.588 E1.0156
G1 X78.396 Y68.487 E1.0222
G1 X78.873 Y67.864 E1.0637
G1 X78.955 Y67.763 E1.0705
G1 X79.506 Y67.127 E1.1150
G1 X79.595 Y67.031 E1.1219
G1 X80.186 Y66.429 E1.1665
G1 X80.284 Y66.335 E1.1736
G1 X80.955 Y65.734 E1.2212
G1 X81.058 Y65.647 E1.2283
G1 X81.721 Y65.125 E1.2728
G1 X81.824 Y65.049 E1.2796
G1 X82.468 Y64.602 E1.3210
G1 X82.573 Y64.534 E1.3276
G1 X83.339 Y64.067 E1.3750
G1 X83.465 Y63.995 E1.3826
G1 X84.265 Y63.580 E1.4302
G1 X84.378 Y63.526 E1.4368
G1 X85.093 Y63.206 E1.4782
G1 X85.212 Y63.157 E1.4850
G1 X86.000 Y62.862 E1.5294
G1 X86.124 Y62.820 E1.5363
G1 X86.929 Y62.573 E1.5808
G1 X87.055 Y62.538 E1.5877
G1 X87.876 Y62.341 E1.6323
G1 X88.010 Y62.313 E1.6395
G1 X88.917 Y62.156 E1.6881
G1 X89.053 Y62.137 E1.6954
G1 X89.894 Y62.047 E1.7400
G1 X90.024 Y62.037 E1.7469
G1 X90.865 Y61.999 E1.7914
G1 X90.996 Y61.997 E1.7983
G1 X91.837 Y62.011 E1.8427
G1 X91.967 Y62.017 E1.8496
G1 X92.749 Y62.078 E1.8910
G1 X92.872 Y62.091 E1.8975
G1 X93.770 Y62.214 E1.9454
G1 X93.909 Y62.238 E1.9528
G1 X94.742 Y62.409 E1.9977
G1 X94.868 Y62.439 E2.0046
G1 X95.665 Y62.654 E2.0482
G1 X95.793 Y62.693 E2.0552
G1 X96.645 Y62.982 E2.1027
G1 X96.772 Y63.029 E2.1099
G1 X97.553 Y63.350 E2.1545
G1 X97.672 Y63.404 E2.1614
G1 X98.430 Y63.772 E2.2058
G1 X98.546 Y63.832 E2.2128
G1 X99.279 Y64.246 E2.2572
G1 X99.391 Y64.314 E2.2641
G1 X100.098 Y64.772 E2.3086
G1 X100.206 Y64.847 E2.3156
G1 X100.895 Y65.358 E2.3609
G1 X100.999 Y65.439 E2.3678
G1 X101.640 Y65.979 E2.4121
G1 X101.737 Y66.066 E2.4190
G1 X102.345 Y66.646 E2.4633
G1 X102.439 Y66.741 E2.4704
G1 X103.045 Y67.396 E2.5175
G1 X103.133 Y67.497 E2.5245
G1 X103.658 Y68.141 E2.5685
G1 X103.737 Y68.245 E2.5753
G1 X104.228 Y68.930 E2.6198
G1 X104.302 Y69.040 E2.6268
G1 X104.732 Y69.727 E2.6697
G1 X104.732 Y65.280 E2.9045
G1 X107.216 Y62.796 E3.0899
G1 X109.256 Y62.796 E3.1977
G1 X110.276 Y61.776 E3.2738
G1 X115.249 Y61.776 E3.5364
G1 X117.732 Y64.260 E3.7219
G1 X118.379 Y64.907 E3.7702
G1 X120.271 Y63.015 E3.9114
G1 X121.251 Y63.015 E3.9632
G1 X122.231 Y62.035 E4.0364
G1 X130.103 Y62.035 E4.4521
G1 X131.083 Y63.015 E4.5253
G1 X132.063 Y63.015 E4.5770
G1 X134.547 Y65.499 E4.7625
G1 X134.547 Y70.432 E5.0229
G1 X133.567 Y71.412 E5.0961
G1 X133.567 Y79.219 E5.5084
G1 X134.547 Y80.199 E5.5816
G1 X134.547 Y86.112 E5.8938
G1 X132.063 Y88.595 E6.0792
G1 X120.271 Y88.595 E6.7019
G1 X119.772 Y88.097 E6.7392
G1 X119.772 Y88.613 E6.7664
G1 X117.288 Y91.096 E6.9519
G1 X106.196 Y91.096 E7.5376
G1 X103.712 Y88.613 E7.7231
G1 X103.712 Y87.360 E7.7892
G1 X103.640 Y87.454 E7.7955
G1 X103.105 Y88.108 E7.8401
G1 X103.020 Y88.205 E7.8469
G1 X102.488 Y88.781 E7.8883
G1 X102.401 Y88.870 E7.8949
G1 X101.753 Y89.492 E7.9423
G1 X101.650 Y89.584 E7.9496
G1 X101.003 Y90.129 E7.9943
G1 X100.901 Y90.210 E8.0012
G1 X100.223 Y90.714 E8.0458
G1 X100.111 Y90.791 E8.0530
G1 X99.358 Y91.278 E8.1003
G1 X99.244 Y91.347 E8.1074
G1 X98.509 Y91.759 E8.1518
G1 X98.396 Y91.818 E8.1586
G1 X97.690 Y92.160 E8.2000
G1 X97.574 Y92.212 E8.2067
G1 X96.744 Y92.554 E8.2541
G1 X96.615 Y92.603 E8.2614
G1 X95.814 Y92.873 E8.3060
G1 X95.689 Y92.912 E8.3129
G1 X94.876 Y93.132 E8.3574
G1 X94.748 Y93.162 E8.3644
G1 X93.910 Y93.334 E8.4095
G1 X93.780 Y93.357 E8.4165
G1 X92.994 Y93.468 E8.4584
G1 X92.864 Y93.482 E8.4653
G1 X91.915 Y93.557 E8.5156
G1 X91.781 Y93.563 E8.5227
G1 X90.993 Y93.576 E8.5643
G1 X90.864 Y93.574 E8.5711
G1 X90.022 Y93.535 E8.6156
G1 X89.886 Y93.525 E8.6228
G1 X88.992 Y93.427 E8.6703
G1 X88.860 Y93.408 E8.6773
