; G-Code generated by Simplify3D(R) Version 4.1.1
; Apr 28, 2021 at 3:54:59 PM
; Settings Summary
;   processName,Trideo BOX
;   applyToModels,bicep holder for A and B_upper arm tighter v4,clip,forearmholder,thread,FingerStopper,ThumbClip,thumbscrew,UpperArm - Palm connector x2,UpperArm - Palm connector x2(2)
;   profileName,Trideo BOX
;   profileVersion,2021-04-15 09:48:16
;   baseProfile,Default
;   printMaterial,PLA
;   printQuality,Fast
;   printExtruders,
;   extruderName,Primary Extruder
;   extruderToolheadNumber,0
;   extruderDiameter,0.4
;   extruderAutoWidth,1
;   extruderWidth,0.48
;   extrusionMultiplier,0.98
;   extruderUseRetract,1
;   extruderRetractionDistance,0.7
;   extruderExtraRestartDistance,0
;   extruderRetractionZLift,0
;   extruderRetractionSpeed,1500
;   extruderUseCoasting,0
;   extruderCoastingDistance,0.2
;   extruderUseWipe,0
;   extruderWipeDistance,5
;   primaryExtruder,0
;   layerHeight,0.3
;   topSolidLayers,3
;   bottomSolidLayers,3
;   perimeterOutlines,2
;   printPerimetersInsideOut,1
;   startPointOption,2
;   startPointOriginX,0
;   startPointOriginY,0
;   sequentialIslands,0
;   spiralVaseMode,0
;   firstLayerHeightPercentage,90
;   firstLayerWidthPercentage,100
;   firstLayerUnderspeed,0.5
;   useRaft,0
;   raftExtruder,0
;   raftTopLayers,3
;   raftBaseLayers,2
;   raftOffset,3
;   raftSeparationDistance,0.14
;   raftTopInfill,100
;   aboveRaftSpeedMultiplier,0.3
;   useSkirt,1
;   skirtExtruder,0
;   skirtLayers,1
;   skirtOutlines,2
;   skirtOffset,4
;   usePrimePillar,0
;   primePillarExtruder,999
;   primePillarWidth,12
;   primePillarLocation,7
;   primePillarSpeedMultiplier,1
;   useOozeShield,0
;   oozeShieldExtruder,999
;   oozeShieldOffset,2
;   oozeShieldOutlines,1
;   oozeShieldSidewallShape,1
;   oozeShieldSidewallAngle,30
;   oozeShieldSpeedMultiplier,1
;   infillExtruder,0
;   internalInfillPattern,Rectilinear
;   externalInfillPattern,Rectilinear
;   infillPercentage,15
;   outlineOverlapPercentage,15
;   infillExtrusionWidthPercentage,100
;   minInfillLength,5
;   infillLayerInterval,1
;   internalInfillAngles,45,-45
;   overlapInternalInfillAngles,0
;   externalInfillAngles,45,-45
;   generateSupport,1
;   supportExtruder,0
;   supportInfillPercentage,25
;   supportExtraInflation,0
;   supportBaseLayers,0
;   denseSupportExtruder,0
;   denseSupportLayers,0
;   denseSupportInfillPercentage,70
;   supportLayerInterval,1
;   supportHorizontalPartOffset,0.3
;   supportUpperSeparationLayers,1
;   supportLowerSeparationLayers,1
;   supportType,0
;   supportGridSpacing,4
;   maxOverhangAngle,45
;   supportAngles,0
;   temperatureName,Primary Extruder,Heated bed
;   temperatureNumber,0,0
;   temperatureSetpointCount,1,1
;   temperatureSetpointLayers,1,1
;   temperatureSetpointTemperatures,190,60
;   temperatureStabilizeAtStartup,1,1
;   temperatureHeatedBed,0,1
;   fanLayers,1,2
;   fanSpeeds,0,100
;   blipFanToFullPower,0
;   adjustSpeedForCooling,1
;   minSpeedLayerTime,15
;   minCoolingSpeedSlowdown,20
;   increaseFanForCooling,0
;   minFanLayerTime,45
;   maxCoolingFanSpeed,100
;   increaseFanForBridging,0
;   bridgingFanSpeed,100
;   use5D,1
;   relativeEdistances,0
;   allowEaxisZeroing,1
;   independentExtruderAxes,0
;   includeM10123,0
;   stickySupport,1
;   applyToolheadOffsets,0
;   gcodeXoffset,0
;   gcodeYoffset,0
;   gcodeZoffset,0
;   overrideMachineDefinition,1
;   machineTypeOverride,0
;   strokeXoverride,200
;   strokeYoverride,200
;   strokeZoverride,200
;   originOffsetXoverride,0
;   originOffsetYoverride,0
;   originOffsetZoverride,0
;   homeXdirOverride,-1
;   homeYdirOverride,-1
;   homeZdirOverride,-1
;   flipXoverride,1
;   flipYoverride,-1
;   flipZoverride,1
;   toolheadOffsets,0,0|0,0|0,0|0,0|0,0|0,0
;   overrideFirmwareConfiguration,0
;   firmwareTypeOverride,RepRap (Marlin/Repetier/Sprinter)
;   GPXconfigOverride,r2
;   baudRateOverride,115200
;   overridePrinterModels,0
;   printerModelsOverride
;   startingGcode,G28 X0 Y0; home XY,G1 X20 Y20,G28 Z0,G1 Z5 F5000; Lift NZ
;   layerChangeGcode,
;   retractionGcode,
;   toolChangeGcode,
;   endingGcode,M104 S0 ; turn off extruder,G28 X0 ; home x,M140 S0 ; turn off bed,M84 ; disable motors,M107 ;
;   exportFileFormat,gcode
;   celebration,0
;   celebrationSong,Looney Toons
;   postProcessing,
;   defaultSpeed,3600
;   outlineUnderspeed,0.5
;   solidInfillUnderspeed,0.8
;   supportUnderspeed,0.8
;   rapidXYspeed,4800
;   rapidZspeed,1002
;   minBridgingArea,50
;   bridgingExtraInflation,0
;   bridgingExtrusionMultiplier,1
;   bridgingSpeedMultiplier,1
;   useFixedBridgingAngle,0
;   fixedBridgingAngle,0
;   applyBridgingToPerimeters,0
;   filamentDiameters,1.75|1.75|1.75|1.75|1.75|1.75
;   filamentPricesPerKg,46|46|46|46|46|46
;   filamentDensities,1.25|1.25|1.25|1.25|1.25|1.25
;   useMinPrintHeight,0
;   minPrintHeight,0
;   useMaxPrintHeight,0
;   maxPrintHeight,0
;   useDiaphragm,0
;   diaphragmLayerInterval,20
;   robustSlicing,1
;   mergeAllIntoSolid,0
;   onlyRetractWhenCrossingOutline,1
;   retractBetweenLayers,1
;   useRetractionMinTravel,0
;   retractionMinTravel,3
;   retractWhileWiping,0
;   onlyWipeOutlines,1
;   avoidCrossingOutline,0
;   maxMovementDetourFactor,3
;   toolChangeRetractionDistance,12
;   toolChangeExtraRestartDistance,-0.5
;   toolChangeRetractionSpeed,600
;   externalThinWallType,0
;   internalThinWallType,2
;   thinWallAllowedOverlapPercentage,10
;   singleExtrusionMinLength,1
;   singleExtrusionMinPrintingWidthPercentage,50
;   singleExtrusionMaxPrintingWidthPercentage,200
;   singleExtrusionEndpointExtension,0.2
;   horizontalSizeCompensation,0
G90
M82
M106 S0
M140 S60
M190 S60
M104 S190 T0
M109 S190 T0
G28 X0 Y0; home XY
G1 X20 Y20
G28 Z0
G1 Z5 F5000; Lift NZ
; process Trideo BOX
; layer 1, Z = 0.270
T0
G92 E0.0000
G1 E-0.7000 F1500
; feature skirt
; tool H0.270 W0.480
G1 Z0.270 F1002
G1 X63.410 Y58.878 F4800
G1 E0.0000 F1500
G92 E0.0000
G1 X66.175 Y56.113 E0.2065 F1800
G1 X73.759 Y56.113 E0.6069
G1 X76.524 Y58.878 E0.8134
G1 X76.524 Y63.118 E1.0373
G1 X76.966 Y62.540 E1.0757
G1 X77.058 Y62.427 E1.0834
G1 X77.668 Y61.723 E1.1326
G1 X77.771 Y61.612 E1.1406
G1 X78.465 Y60.909 E1.1927
G1 X78.573 Y60.806 E1.2006
G1 X79.267 Y60.186 E1.2497
G1 X79.378 Y60.092 E1.2574
G1 X80.108 Y59.518 E1.3064
G1 X80.224 Y59.432 E1.3141
G1 X80.977 Y58.910 E1.3625
G1 X81.099 Y58.831 E1.3702
G1 X81.903 Y58.344 E1.4198
G1 X82.038 Y58.268 E1.4279
G1 X82.911 Y57.814 E1.4799
G1 X83.037 Y57.754 E1.4873
G1 X83.832 Y57.399 E1.5333
G1 X83.965 Y57.344 E1.5409
G1 X84.836 Y57.017 E1.5900
G1 X84.978 Y56.969 E1.5979
G1 X85.924 Y56.682 E1.6501
G1 X86.068 Y56.642 E1.6580
G1 X86.973 Y56.429 E1.7071
G1 X87.113 Y56.400 E1.7147
G1 X87.992 Y56.248 E1.7617
G1 X88.137 Y56.228 E1.7695
G1 X89.118 Y56.121 E1.8216
G1 X89.268 Y56.109 E1.8295
G1 X90.198 Y56.067 E1.8787
G1 X90.343 Y56.065 E1.8864
G1 X91.272 Y56.080 E1.9354
G1 X91.418 Y56.087 E1.9431
G1 X92.344 Y56.159 E1.9922
G1 X92.489 Y56.175 E1.9998
G1 X93.409 Y56.305 E2.0489
G1 X93.553 Y56.330 E2.0567
G1 X94.477 Y56.519 E2.1064
G1 X94.619 Y56.552 E2.1141
G1 X95.498 Y56.790 E2.1622
G1 X95.635 Y56.831 E2.1698
G1 X96.516 Y57.128 E2.2189
G1 X96.656 Y57.180 E2.2268
G1 X97.571 Y57.554 E2.2789
G1 X97.709 Y57.615 E2.2869
G1 X98.546 Y58.022 E2.3361
G1 X98.675 Y58.089 E2.3437
G1 X99.433 Y58.517 E2.3897
G1 X99.553 Y58.589 E2.3971
G1 X100.396 Y59.132 E2.4501
G1 X100.524 Y59.221 E2.4583
G1 X101.270 Y59.774 E2.5073
G1 X101.384 Y59.864 E2.5150
G1 X102.092 Y60.460 E2.5638
G1 X102.200 Y60.557 E2.5715
G1 X102.869 Y61.194 E2.6203
G1 X102.971 Y61.298 E2.6280
G1 X103.601 Y61.976 E2.6768
G1 X103.697 Y62.087 E2.6846
G1 X104.312 Y62.838 E2.7359
G1 X104.404 Y62.958 E2.7439
G1 X104.921 Y63.680 E2.7907
G1 X104.921 Y59.731 E2.9993
G1 X107.686 Y56.966 E3.2057
G1 X109.930 Y56.966 E3.3242
G1 X111.052 Y55.844 E3.4080
G1 X116.525 Y55.844 E3.6970
G1 X119.717 Y59.036 E3.9354
G1 X121.547 Y57.207 E4.0720
G1 X122.625 Y57.207 E4.1289
G1 X123.703 Y56.129 E4.2094
G1 X132.365 Y56.129 E4.6668
G1 X133.443 Y57.207 E4.7473
G1 X134.521 Y57.207 E4.8042
G1 X137.286 Y59.972 E5.0107
G1 X137.286 Y65.400 E5.2973
G1 X136.208 Y66.478 E5.3778
G1 X136.208 Y75.064 E5.8312
G1 X137.286 Y76.142 E5.9117
G1 X137.286 Y82.648 E6.2552
G1 X134.521 Y85.413 E6.4617
G1 X121.547 Y85.413 E7.1468
G1 X121.533 Y85.399 E7.1478
G1 X118.769 Y88.164 E7.3543
G1 X106.564 Y88.164 E7.9987
G1 X103.799 Y85.399 E8.2052
G1 X103.799 Y84.769 E8.2384
G1 X103.749 Y84.830 E8.2426
G1 X103.656 Y84.938 E8.2501
G1 X102.989 Y85.662 E8.3021
G1 X102.882 Y85.771 E8.3102
G1 X102.207 Y86.414 E8.3594
G1 X102.099 Y86.512 E8.3671
G1 X101.388 Y87.110 E8.4162
G1 X101.273 Y87.202 E8.4239
G1 X100.513 Y87.765 E8.4739
G1 X100.392 Y87.849 E8.4817
G1 X99.607 Y88.358 E8.5311
G1 X99.479 Y88.435 E8.5390
G1 X98.640 Y88.907 E8.5898
G1 X98.510 Y88.975 E8.5975
G1 X97.673 Y89.378 E8.6466
G1 X97.542 Y89.437 E8.6542
G1 X96.737 Y89.767 E8.7001
G1 X96.606 Y89.816 E8.7075
G1 X95.674 Y90.135 E8.7595
G1 X95.528 Y90.179 E8.7676
G1 X94.627 Y90.423 E8.8169
G1 X94.484 Y90.457 E8.8246
G1 X94.196 Y90.516 E8.8401
G1 X94.196 Y91.386 E8.8861
G1 X94.416 Y91.606 E8.9025
G1 X94.416 Y97.377 E9.2072
G1 X94.196 Y97.597 E9.2236
G1 X94.196 Y99.157 E9.3060
G1 X95.841 Y100.802 E9.4288
G1 X95.841 Y101.946 E9.4893
G1 X96.985 Y103.090 E9.5747
G1 X96.985 Y110.872 E9.9856
G1 X95.841 Y112.016 E10.0710
G1 X95.841 Y116.818 E10.3246
G1 X96.985 Y117.962 E10.4100
G1 X96.985 Y124.600 E10.7605
G1 X95.520 Y126.065 E10.8699
G1 X95.520 Y140.298 E11.6215
G1 X92.755 Y143.063 E11.8280
G1 X85.204 Y143.063 E12.2267
G1 X84.137 Y141.996 E12.3064
G1 X82.003 Y141.996 E12.4191
G1 X80.936 Y140.929 E12.4988
G1 X63.864 Y140.929 E13.4002
G1 X61.099 Y138.164 E13.6067
G1 X61.099 Y128.479 E14.1181
G1 X63.727 Y125.852 E14.3143
G1 X62.714 Y124.839 E14.3899
G1 X62.714 Y118.333 E14.7335
G1 X63.792 Y117.255 E14.8140
G1 X63.792 Y108.669 E15.2673
G1 X62.714 Y107.591 E15.3478
G1 X62.714 Y102.163 E15.6345
G1 X64.203 Y100.674 E15.7456
G1 X63.410 Y99.880 E15.8049
G1 X63.410 Y72.930 E17.2280
G1 X62.332 Y71.852 E17.3085
G1 X62.332 Y63.190 E17.7659
G1 X63.410 Y62.112 E17.8464
G1 X63.410 Y58.878 E18.0171
G92 E0.0000
G1 E-0.7000 F1500
G1 X63.890 Y59.077 F4800
G1 E0.0000 F1500
G92 E0.0000
G1 X66.373 Y56.593 E0.1855 F1800
G1 X73.560 Y56.593 E0.5650
G1 X76.044 Y59.077 E0.7504
G1 X76.044 Y64.108 E1.0161
G1 X75.864 Y64.287 E1.0295
G1 X76.044 Y64.467 E1.0429
G1 X76.044 Y64.690 E1.0546
G1 X76.121 Y64.557 E1.0627
G1 X76.190 Y64.447 E1.0696
G1 X76.710 Y63.672 E1.1189
G1 X76.787 Y63.564 E1.1259
G1 X77.342 Y62.837 E1.1742
G1 X77.425 Y62.736 E1.1811
G1 X78.026 Y62.043 E1.2295
G1 X78.118 Y61.944 E1.2367
G1 X78.801 Y61.251 E1.2880
G1 X78.898 Y61.159 E1.2951
G1 X79.581 Y60.549 E1.3435
G1 X79.681 Y60.465 E1.3504
G1 X80.399 Y59.900 E1.3986
G1 X80.503 Y59.822 E1.4055
G1 X81.244 Y59.309 E1.4531
G1 X81.354 Y59.237 E1.4600
G1 X82.145 Y58.758 E1.5088
G1 X82.266 Y58.691 E1.5161
G1 X83.126 Y58.244 E1.5673
G1 X83.239 Y58.189 E1.5740
G1 X84.021 Y57.840 E1.6192
G1 X84.141 Y57.791 E1.6260
G1 X84.998 Y57.469 E1.6743
G1 X85.126 Y57.426 E1.6814
G1 X86.056 Y57.143 E1.7328
G1 X86.186 Y57.108 E1.7399
G1 X87.076 Y56.898 E1.7882
G1 X87.202 Y56.872 E1.7950
G1 X88.067 Y56.723 E1.8413
G1 X88.197 Y56.704 E1.8483
G1 X89.162 Y56.599 E1.8996
G1 X89.297 Y56.588 E1.9067
G1 X90.212 Y56.547 E1.9551
G1 X90.343 Y56.545 E1.9620
G1 X91.257 Y56.560 E2.0102
G1 X91.388 Y56.566 E2.0171
G1 X92.299 Y56.637 E2.0654
G1 X92.429 Y56.651 E2.0723
G1 X93.335 Y56.779 E2.1206
G1 X93.464 Y56.801 E2.1276
G1 X94.373 Y56.987 E2.1766
G1 X94.501 Y57.018 E2.1835
G1 X95.366 Y57.251 E2.2308
G1 X95.489 Y57.289 E2.2376
G1 X96.356 Y57.580 E2.2859
G1 X96.481 Y57.627 E2.2930
G1 X97.382 Y57.995 E2.3443
G1 X97.506 Y58.050 E2.3515
G1 X98.330 Y58.450 E2.3999
G1 X98.445 Y58.511 E2.4067
G1 X99.192 Y58.931 E2.4520
G1 X99.299 Y58.996 E2.4586
G1 X100.130 Y59.532 E2.5108
G1 X100.244 Y59.611 E2.5181
G1 X100.979 Y60.155 E2.5664
G1 X101.081 Y60.236 E2.5733
G1 X101.777 Y60.822 E2.6213
G1 X101.874 Y60.909 E2.6282
G1 X102.533 Y61.537 E2.6763
G1 X102.624 Y61.630 E2.6831
G1 X103.244 Y62.297 E2.7312
G1 X103.331 Y62.396 E2.7382
G1 X103.936 Y63.136 E2.7887
G1 X104.019 Y63.244 E2.7959
G1 X104.557 Y63.995 E2.8446
G1 X104.630 Y64.104 E2.8516
G1 X105.120 Y64.886 E2.9003
G1 X105.187 Y65.000 E2.9073
G1 X105.401 Y65.396 E2.9310
G1 X105.401 Y59.930 E3.2197
G1 X107.885 Y57.446 E3.4052
G1 X110.129 Y57.446 E3.5237
G1 X111.251 Y56.324 E3.6074
G1 X116.326 Y56.324 E3.8754
G1 X119.717 Y59.715 E4.1287
G1 X121.745 Y57.687 E4.2801
G1 X122.823 Y57.687 E4.3370
G1 X123.901 Y56.609 E4.4175
G1 X132.166 Y56.609 E4.8539
G1 X133.244 Y57.687 E4.9344
G1 X134.322 Y57.687 E4.9914
G1 X136.806 Y60.171 E5.1768
G1 X136.806 Y65.201 E5.4425
G1 X135.728 Y66.279 E5.5230
G1 X135.728 Y75.263 E5.9973
G1 X136.806 Y76.341 E6.0778
G1 X136.806 Y82.449 E6.4004
G1 X134.322 Y84.933 E6.5859
G1 X128.213 Y84.933 E6.9084
G1 X128.034 Y84.753 E6.9218
G1 X127.854 Y84.933 E6.9353
G1 X121.745 Y84.933 E7.2578
G1 X121.053 Y84.241 E7.3095
G1 X121.053 Y85.200 E7.3601
G1 X118.570 Y87.684 E7.5456
G1 X112.628 Y87.684 E7.8594
G1 X112.621 Y87.676 E7.8599
G1 X112.613 Y87.684 E7.8605
G1 X106.763 Y87.684 E8.1694
G1 X104.279 Y85.200 E8.3548
G1 X104.279 Y83.369 E8.4515
G1 X104.002 Y83.755 E8.4766
G1 X103.923 Y83.858 E8.4834
G1 X103.382 Y84.521 E8.5287
G1 X103.298 Y84.618 E8.5354
G1 X102.641 Y85.331 E8.5866
G1 X102.545 Y85.429 E8.5938
G1 X101.881 Y86.062 E8.6423
G1 X101.784 Y86.149 E8.6492
G1 X101.085 Y86.738 E8.6975
G1 X100.981 Y86.820 E8.7044
G1 X100.233 Y87.375 E8.7536
G1 X100.124 Y87.450 E8.7606
G1 X99.352 Y87.951 E8.8092
G1 X99.237 Y88.021 E8.8163
G1 X98.412 Y88.484 E8.8663
G1 X98.294 Y88.546 E8.8733
G1 X97.471 Y88.943 E8.9215
G1 X97.353 Y88.995 E8.9283
G1 X96.561 Y89.320 E8.9735
G1 X96.444 Y89.364 E8.9802
G1 X95.526 Y89.678 E9.0314
G1 X95.395 Y89.718 E9.0387
G1 X94.509 Y89.958 E9.0871
G1 X94.380 Y89.989 E9.0941
G1 X93.716 Y90.125 E9.1299
G1 X93.716 Y91.585 E9.2070
G1 X93.936 Y91.805 E9.2234
G1 X93.936 Y97.178 E9.5071
G1 X93.716 Y97.398 E9.5236
G1 X93.716 Y99.220 E9.6198
G1 X93.648 Y99.288 E9.6248
G1 X95.361 Y101.001 E9.7527
G1 X95.361 Y102.145 E9.8131
G1 X96.505 Y103.289 E9.8986
G1 X96.505 Y110.673 E10.2885
G1 X95.361 Y111.817 E10.3739
G1 X95.361 Y117.017 E10.6485
G1 X96.505 Y118.161 E10.7339
G1 X96.505 Y124.401 E11.0634
G1 X95.040 Y125.866 E11.1728
G1 X95.040 Y140.099 E11.9244
G1 X92.557 Y142.583 E12.1099
G1 X85.403 Y142.583 E12.4876
G1 X84.336 Y141.516 E12.5673
G1 X82.202 Y141.516 E12.6800
G1 X81.135 Y140.449 E12.7596
G1 X64.063 Y140.449 E13.6611
G1 X61.579 Y137.965 E13.8466
G1 X61.579 Y128.678 E14.3370
G1 X64.063 Y126.194 E14.5225
G1 X64.748 Y126.194 E14.5586
G1 X63.194 Y124.640 E14.6747
G1 X63.194 Y118.532 E14.9972
G1 X64.272 Y117.454 E15.0777
G1 X64.272 Y108.470 E15.5521
G1 X63.194 Y107.392 E15.6326
G1 X63.194 Y102.362 E15.8982
G1 X64.882 Y100.674 E16.0243
G1 X63.890 Y99.682 E16.0984
G1 X63.890 Y72.732 E17.5214
G1 X62.812 Y71.654 E17.6019
G1 X62.812 Y63.389 E18.0383
G1 X63.890 Y62.311 E18.1188
G1 X63.890 Y59.077 E18.2896
G92 E0.0000
G1 E-0.7000 F1500
G1 X99.907 Y98.035 F4800
G1 E0.0000 F1500
G92 E0.0000
G1 X106.457 Y98.035 E0.3459 F1800
G1 X106.677 Y98.255 E0.3623
G1 X108.487 Y98.255 E0.4579
G1 X108.707 Y98.035 E0.4743
G1 X115.257 Y98.035 E0.8202
G1 X118.022 Y100.800 E1.0266
G1 X118.022 Y107.350 E1.3725
G1 X116.922 Y108.450 E1.4547
G1 X116.922 Y113.950 E1.7451
G1 X114.722 Y116.150 E1.9094
G1 X114.722 Y119.450 E2.0836
G1 X111.957 Y122.215 E2.2901
G1 X103.207 Y122.215 E2.7521
G1 X100.442 Y119.450 E2.9586
G1 X100.442 Y116.150 E3.1329
G1 X98.242 Y113.950 E3.2971
G1 X98.242 Y108.450 E3.5876
G1 X97.142 Y107.350 E3.6697
G1 X97.142 Y100.800 E4.0156
G1 X99.907 Y98.035 E4.2221
G92 E0.0000
G1 E-0.7000 F1500
G1 X100.106 Y98.515 F4800
G1 E0.0000 F1500
G92 E0.0000
G1 X106.258 Y98.515 E0.3249 F1800
G1 X106.478 Y98.735 E0.3413
G1 X108.686 Y98.735 E0.4579
G1 X108.906 Y98.515 E0.4743
G1 X115.058 Y98.515 E0.7992
G1 X117.542 Y100.999 E0.9846
G1 X117.542 Y107.151 E1.3095
G1 X116.442 Y108.251 E1.3917
G1 X116.442 Y113.751 E1.6821
G1 X114.242 Y115.951 E1.8464
G1 X114.242 Y119.251 E2.0206
