; G-Code generated by Simplify3D(R) Version 4.1.1
; Apr 28, 2021 at 3:56:08 PM
; Settings Summary
;   processName,Trideo BOX
;   applyToModels,bicep holder for A and B_upper arm tighter v4,clip,forearmholder,thread,FingerStopper,ThumbClip,thumbscrew,UpperArm - Palm connector x2,UpperArm - Palm connector x2(2)
;   profileName,Trideo BOX
;   profileVersion,2021-04-15 09:48:16
;   baseProfile,Default
;   printMaterial,PLA
;   printQuality,Fast
;   printExtruders,
;   extruderName,Primary Extruder
;   extruderToolheadNumber,0
;   extruderDiameter,0.4
;   extruderAutoWidth,1
;   extruderWidth,0.48
;   extrusionMultiplier,0.98
;   extruderUseRetract,1
;   extruderRetractionDistance,0.7
;   extruderExtraRestartDistance,0
;   extruderRetractionZLift,0
;   extruderRetractionSpeed,1500
;   extruderUseCoasting,0
;   extruderCoastingDistance,0.2
;   extruderUseWipe,0
;   extruderWipeDistance,5
;   primaryExtruder,0
;   layerHeight,0.3
;   topSolidLayers,3
;   bottomSolidLayers,3
;   perimeterOutlines,2
;   printPerimetersInsideOut,1
;   startPointOption,2
;   startPointOriginX,0
;   startPointOriginY,0
;   sequentialIslands,0
;   spiralVaseMode,0
;   firstLayerHeightPercentage,90
;   firstLayerWidthPercentage,100
;   firstLayerUnderspeed,0.5
;   useRaft,0
;   raftExtruder,0
;   raftTopLayers,3
;   raftBaseLayers,2
;   raftOffset,3
;   raftSeparationDistance,0.14
;   raftTopInfill,100
;   aboveRaftSpeedMultiplier,0.3
;   useSkirt,1
;   skirtExtruder,0
;   skirtLayers,1
;   skirtOutlines,2
;   skirtOffset,4
;   usePrimePillar,0
;   primePillarExtruder,999
;   primePillarWidth,12
;   primePillarLocation,7
;   primePillarSpeedMultiplier,1
;   useOozeShield,0
;   oozeShieldExtruder,999
;   oozeShieldOffset,2
;   oozeShieldOutlines,1
;   oozeShieldSidewallShape,1
;   oozeShieldSidewallAngle,30
;   oozeShieldSpeedMultiplier,1
;   infillExtruder,0
;   internalInfillPattern,Rectilinear
;   externalInfillPattern,Rectilinear
;   infillPercentage,15
;   outlineOverlapPercentage,15
;   infillExtrusionWidthPercentage,100
;   minInfillLength,5
;   infillLayerInterval,1
;   internalInfillAngles,45,-45
;   overlapInternalInfillAngles,0
;   externalInfillAngles,45,-45
;   generateSupport,1
;   supportExtruder,0
;   supportInfillPercentage,25
;   supportExtraInflation,0
;   supportBaseLayers,0
;   denseSupportExtruder,0
;   denseSupportLayers,0
;   denseSupportInfillPercentage,70
;   supportLayerInterval,1
;   supportHorizontalPartOffset,0.3
;   supportUpperSeparationLayers,1
;   supportLowerSeparationLayers,1
;   supportType,0
;   supportGridSpacing,4
;   maxOverhangAngle,45
;   supportAngles,0
;   temperatureName,Primary Extruder,Heated bed
;   temperatureNumber,0,0
;   temperatureSetpointCount,1,1
;   temperatureSetpointLayers,1,1
;   temperatureSetpointTemperatures,190,60
;   temperatureStabilizeAtStartup,1,1
;   temperatureHeatedBed,0,1
;   fanLayers,1,2
;   fanSpeeds,0,100
;   blipFanToFullPower,0
;   adjustSpeedForCooling,1
;   minSpeedLayerTime,15
;   minCoolingSpeedSlowdown,20
;   increaseFanForCooling,0
;   minFanLayerTime,45
;   maxCoolingFanSpeed,100
;   increaseFanForBridging,0
;   bridgingFanSpeed,100
;   use5D,1
;   relativeEdistances,0
;   allowEaxisZeroing,1
;   independentExtruderAxes,0
;   includeM10123,0
;   stickySupport,1
;   applyToolheadOffsets,0
;   gcodeXoffset,0
;   gcodeYoffset,0
;   gcodeZoffset,0
;   overrideMachineDefinition,1
;   machineTypeOverride,0
;   strokeXoverride,200
;   strokeYoverride,200
;   strokeZoverride,200
;   originOffsetXoverride,0
;   originOffsetYoverride,0
;   originOffsetZoverride,0
;   homeXdirOverride,-1
;   homeYdirOverride,-1
;   homeZdirOverride,-1
;   flipXoverride,1
;   flipYoverride,-1
;   flipZoverride,1
;   toolheadOffsets,0,0|0,0|0,0|0,0|0,0|0,0
;   overrideFirmwareConfiguration,0
;   firmwareTypeOverride,RepRap (Marlin/Repetier/Sprinter)
;   GPXconfigOverride,r2
;   baudRateOverride,115200
;   overridePrinterModels,0
;   printerModelsOverride
;   startingGcode,G28 X0 Y0; home XY,G1 X20 Y20,G28 Z0,G1 Z5 F5000; Lift NZ
;   layerChangeGcode,
;   retractionGcode,
;   toolChangeGcode,
;   endingGcode,M104 S0 ; turn off extruder,G28 X0 ; home x,M140 S0 ; turn off bed,M84 ; disable motors,M107 ;
;   exportFileFormat,gcode
;   celebration,0
;   celebrationSong,Looney Toons
;   postProcessing,
;   defaultSpeed,3600
;   outlineUnderspeed,0.5
;   solidInfillUnderspeed,0.8
;   supportUnderspeed,0.8
;   rapidXYspeed,4800
;   rapidZspeed,1002
;   minBridgingArea,50
;   bridgingExtraInflation,0
;   bridgingExtrusionMultiplier,1
;   bridgingSpeedMultiplier,1
;   useFixedBridgingAngle,0
;   fixedBridgingAngle,0
;   applyBridgingToPerimeters,0
;   filamentDiameters,1.75|1.75|1.75|1.75|1.75|1.75
;   filamentPricesPerKg,46|46|46|46|46|46
;   filamentDensities,1.25|1.25|1.25|1.25|1.25|1.25
;   useMinPrintHeight,0
;   minPrintHeight,0
;   useMaxPrintHeight,0
;   maxPrintHeight,0
;   useDiaphragm,0
;   diaphragmLayerInterval,20
;   robustSlicing,1
;   mergeAllIntoSolid,0
;   onlyRetractWhenCrossingOutline,1
;   retractBetweenLayers,1
;   useRetractionMinTravel,0
;   retractionMinTravel,3
;   retractWhileWiping,0
;   onlyWipeOutlines,1
;   avoidCrossingOutline,0
;   maxMovementDetourFactor,3
;   toolChangeRetractionDistance,12
;   toolChangeExtraRestartDistance,-0.5
;   toolChangeRetractionSpeed,600
;   externalThinWallType,0
;   internalThinWallType,2
;   thinWallAllowedOverlapPercentage,10
;   singleExtrusionMinLength,1
;   singleExtrusionMinPrintingWidthPercentage,50
;   singleExtrusionMaxPrintingWidthPercentage,200
;   singleExtrusionEndpointExtension,0.2
;   horizontalSizeCompensation,0
G90
M82
M106 S0
M140 S60
M190 S60
M104 S190 T0
M109 S190 T0
G28 X0 Y0; home XY
G1 X20 Y20
G28 Z0
G1 Z5 F5000; Lift NZ
; process Trideo BOX
; layer 1, Z = 0.270
T0
G92 E0.0000
G1 E-0.7000 F1500
; feature skirt
; tool H0.270 W0.480
G1 Z0.270 F1002
G1 X61.214 Y55.792 F4800
G1 E0.0000 F1500
G92 E0.0000
G1 X63.979 Y53.027 E0.2065 F1800
G1 X71.857 Y53.027 E0.6225
G1 X74.622 Y55.792 E0.8289
G1 X74.622 Y60.953 E1.1014
G1 X74.782 Y60.716 E1.1165
G1 X74.864 Y60.602 E1.1239
G1 X75.437 Y59.853 E1.1737
G1 X75.529 Y59.741 E1.1814
G1 X76.184 Y58.985 E1.2342
G1 X76.283 Y58.878 E1.2419
G1 X76.986 Y58.162 E1.2949
G1 X77.094 Y58.059 E1.3028
G1 X77.883 Y57.351 E1.3587
G1 X77.998 Y57.255 E1.3666
G1 X78.785 Y56.635 E1.4195
G1 X78.900 Y56.549 E1.4271
G1 X79.675 Y56.012 E1.4769
G1 X79.793 Y55.936 E1.4843
G1 X80.694 Y55.387 E1.5400
G1 X80.833 Y55.308 E1.5484
G1 X81.773 Y54.820 E1.6044
G1 X81.899 Y54.759 E1.6118
G1 X82.760 Y54.374 E1.6616
G1 X82.893 Y54.320 E1.6692
G1 X83.831 Y53.968 E1.7221
G1 X83.974 Y53.919 E1.7300
G1 X84.986 Y53.612 E1.7859
G1 X85.127 Y53.573 E1.7936
G1 X86.048 Y53.355 E1.8436
G1 X86.191 Y53.325 E1.8513
G1 X87.251 Y53.142 E1.9081
G1 X87.402 Y53.120 E1.9162
G1 X88.400 Y53.013 E1.9692
G1 X88.545 Y53.002 E1.9769
G1 X89.545 Y52.956 E2.0297
G1 X89.691 Y52.954 E2.0374
G1 X90.691 Y52.971 E2.0902
G1 X90.836 Y52.977 E2.0979
G1 X91.776 Y53.051 E2.1477
G1 X91.914 Y53.066 E2.1550
G1 X92.970 Y53.211 E2.2113
G1 X93.122 Y53.237 E2.2195
G1 X94.110 Y53.440 E2.2727
G1 X94.252 Y53.473 E2.2804
G1 X95.202 Y53.730 E2.3324
G1 X95.344 Y53.773 E2.3402
G1 X96.346 Y54.112 E2.3961
G1 X96.487 Y54.165 E2.4040
G1 X97.414 Y54.546 E2.4570
G1 X97.547 Y54.606 E2.4646
G1 X98.448 Y55.043 E2.5175
G1 X98.577 Y55.111 E2.5252
G1 X99.448 Y55.602 E2.5780
G1 X99.573 Y55.678 E2.5857
G1 X100.413 Y56.223 E2.6386
G1 X100.534 Y56.306 E2.6464
G1 X101.350 Y56.911 E2.7000
G1 X101.465 Y57.002 E2.7078
G1 X102.228 Y57.644 E2.7604
G1 X102.337 Y57.741 E2.7681
G1 X103.059 Y58.430 E2.8208
G1 X103.164 Y58.536 E2.8287
G1 X103.877 Y59.307 E2.8841
G1 X103.974 Y59.419 E2.8920
G1 X104.600 Y60.187 E2.9443
G1 X104.688 Y60.302 E2.9519
G1 X105.272 Y61.116 E3.0048
G1 X105.354 Y61.238 E3.0126
G1 X105.591 Y61.617 E3.0361
G1 X105.591 Y56.722 E3.2946
G1 X108.356 Y53.957 E3.5011
G1 X110.804 Y53.957 E3.6303
G1 X112.028 Y52.733 E3.7217
G1 X117.602 Y52.733 E4.0161
G1 X121.055 Y56.187 E4.2739
G1 X123.021 Y54.220 E4.4208
G1 X124.197 Y54.220 E4.4829
G1 X125.373 Y53.044 E4.5707
G1 X134.428 Y53.044 E5.0488
G1 X135.603 Y54.220 E5.1366
G1 X136.780 Y54.220 E5.1987
G1 X139.544 Y56.985 E5.4052
G1 X139.544 Y62.511 E5.6970
G1 X138.368 Y63.687 E5.7848
G1 X138.368 Y73.449 E6.3003
G1 X139.544 Y74.625 E6.3881
G1 X139.544 Y81.327 E6.7420
G1 X136.780 Y84.092 E6.9484
G1 X130.077 Y84.092 E7.3023
G1 X129.900 Y83.915 E7.3156
G1 X129.723 Y84.092 E7.3288
G1 X123.021 Y84.092 E7.6827
G1 X122.815 Y83.886 E7.6981
G1 X122.815 Y84.328 E7.7215
G1 X120.050 Y87.093 E7.9280
G1 X107.132 Y87.093 E8.6101
G1 X104.367 Y84.328 E8.8166
G1 X104.367 Y83.166 E8.8779
G1 X103.947 Y83.679 E8.9129
G1 X103.852 Y83.788 E8.9205
G1 X103.212 Y84.480 E8.9703
G1 X103.114 Y84.580 E8.9777
G1 X102.352 Y85.311 E9.0335
G1 X102.238 Y85.414 E9.0416
G1 X101.470 Y86.061 E9.0946
G1 X101.356 Y86.151 E9.1023
G1 X100.550 Y86.749 E9.1553
G1 X100.426 Y86.835 E9.1632
G1 X99.541 Y87.408 E9.2189
G1 X99.414 Y87.485 E9.2268
G1 X98.541 Y87.974 E9.2796
G1 X98.415 Y88.041 E9.2871
G1 X97.566 Y88.452 E9.3369
G1 X97.436 Y88.510 E9.3445
G1 X96.459 Y88.912 E9.4003
G1 X96.316 Y88.966 E9.4083
G1 X95.365 Y89.287 E9.4613
G1 X95.226 Y89.330 E9.4690
G1 X94.259 Y89.592 E9.5219
G1 X94.117 Y89.626 E9.5296
G1 X93.447 Y89.763 E9.5657
G1 X93.447 Y90.808 E9.6209
G1 X93.707 Y91.068 E9.6403
G1 X93.707 Y96.916 E9.9491
G1 X93.447 Y97.176 E9.9685
G1 X93.447 Y99.168 E10.0737
G1 X93.392 Y99.223 E10.0778
G1 X95.241 Y101.072 E10.2159
G1 X95.241 Y102.320 E10.2818
G1 X96.489 Y103.568 E10.3750
G1 X96.489 Y111.663 E10.8024
G1 X95.241 Y112.911 E10.8956
G1 X95.241 Y118.544 E11.1931
G1 X96.489 Y119.792 E11.2863
G1 X96.489 Y126.639 E11.6478
G1 X95.346 Y127.782 E11.7332
G1 X95.346 Y143.309 E12.5531
G1 X92.581 Y146.074 E12.7596
G1 X84.739 Y146.074 E13.1737
G1 X83.575 Y144.910 E13.2606
G1 X81.247 Y144.910 E13.3835
G1 X80.083 Y143.746 E13.4704
G1 X61.459 Y143.746 E14.4539
G1 X58.694 Y140.981 E14.6603
G1 X58.694 Y130.811 E15.1974
G1 X61.459 Y128.046 E15.4038
G1 X61.602 Y128.046 E15.4114
G1 X60.456 Y126.899 E15.4971
G1 X60.456 Y120.197 E15.8510
G1 X61.632 Y119.021 E15.9388
G1 X61.632 Y109.259 E16.4542
G1 X60.456 Y108.083 E16.5421
G1 X60.456 Y102.557 E16.8339
G1 X62.050 Y100.963 E16.9530
G1 X61.214 Y100.126 E17.0154
G1 X61.214 Y70.726 E18.5678
G1 X60.038 Y69.550 E18.6556
G1 X60.038 Y60.496 E19.1337
G1 X61.214 Y59.320 E19.2216
G1 X61.214 Y55.792 E19.4078
G92 E0.0000
G1 E-0.7000 F1500
G1 X61.694 Y55.991 F4800
G1 E0.0000 F1500
G92 E0.0000
G1 X64.178 Y53.507 E0.1855 F1800
G1 X71.659 Y53.507 E0.5805
G1 X74.142 Y55.991 E0.7660
G1 X74.142 Y61.120 E1.0368
G1 X73.767 Y61.495 E1.0648
G1 X74.142 Y61.871 E1.0929
G1 X74.142 Y62.615 E1.1322
G1 X74.509 Y61.987 E1.1706
G1 X74.583 Y61.869 E1.1779
G1 X75.176 Y60.990 E1.2339
G1 X75.250 Y60.888 E1.2405
G1 X75.814 Y60.150 E1.2896
G1 X75.896 Y60.050 E1.2965
G1 X76.542 Y59.305 E1.3485
G1 X76.631 Y59.209 E1.3554
G1 X77.323 Y58.504 E1.4076
G1 X77.420 Y58.411 E1.4147
G1 X78.198 Y57.714 E1.4698
G1 X78.301 Y57.627 E1.4769
G1 X79.076 Y57.016 E1.5291
G1 X79.180 Y56.940 E1.5359
G1 X79.942 Y56.411 E1.5849
G1 X80.048 Y56.342 E1.5915
G1 X80.936 Y55.801 E1.6464
G1 X81.061 Y55.731 E1.6540
G1 X81.988 Y55.249 E1.7092
G1 X82.101 Y55.194 E1.7158
G1 X82.949 Y54.816 E1.7648
G1 X83.069 Y54.767 E1.7717
G1 X83.993 Y54.420 E1.8238
G1 X84.121 Y54.377 E1.8309
G1 X85.118 Y54.073 E1.8860
G1 X85.245 Y54.039 E1.8929
G1 X86.152 Y53.823 E1.9421
G1 X86.280 Y53.797 E1.9490
G1 X87.326 Y53.616 E2.0051
G1 X87.461 Y53.597 E2.0123
G1 X88.444 Y53.491 E2.0645
G1 X88.574 Y53.481 E2.0714
G1 X89.559 Y53.436 E2.1235
G1 X89.690 Y53.434 E2.1304
G1 X90.676 Y53.450 E2.1824
G1 X90.806 Y53.457 E2.1893
G1 X91.731 Y53.529 E2.2383
G1 X91.856 Y53.542 E2.2449
G1 X92.897 Y53.685 E2.3004
G1 X93.033 Y53.709 E2.3077
G1 X94.007 Y53.908 E2.3602
G1 X94.134 Y53.939 E2.3671
G1 X95.070 Y54.191 E2.4183
G1 X95.197 Y54.230 E2.4253
G1 X96.185 Y54.565 E2.4804
G1 X96.311 Y54.612 E2.4875
G1 X97.225 Y54.988 E2.5397
G1 X97.344 Y55.041 E2.5466
G1 X98.231 Y55.472 E2.5986
G1 X98.347 Y55.532 E2.6056
G1 X99.206 Y56.017 E2.6576
G1 X99.318 Y56.085 E2.6645
G1 X100.146 Y56.621 E2.7166
G1 X100.254 Y56.697 E2.7236
G1 X101.059 Y57.293 E2.7765
G1 X101.162 Y57.374 E2.7834
G1 X101.914 Y58.007 E2.8353
G1 X102.011 Y58.094 E2.8422
G1 X102.723 Y58.772 E2.8941
G1 X102.817 Y58.868 E2.9012
G1 X103.520 Y59.628 E2.9558
G1 X103.607 Y59.728 E2.9629
G1 X104.223 Y60.484 E3.0144
G1 X104.302 Y60.588 E3.0213
G1 X104.877 Y61.390 E3.0733
G1 X104.951 Y61.500 E3.0803
G1 X105.489 Y62.359 E3.1339
G1 X105.556 Y62.474 E3.1409
G1 X106.027 Y63.341 E3.1930
G1 X106.071 Y63.428 E3.1982
G1 X106.071 Y56.921 E3.5418
G1 X108.554 Y54.437 E3.7273
G1 X111.002 Y54.437 E3.8565
G1 X112.226 Y53.213 E3.9479
G1 X117.403 Y53.213 E4.2213
G1 X121.055 Y56.865 E4.4940
G1 X123.220 Y54.700 E4.6557
G1 X124.396 Y54.700 E4.7178
G1 X125.572 Y53.524 E4.8056
G1 X134.229 Y53.524 E5.2627
G1 X135.405 Y54.700 E5.3505
G1 X136.581 Y54.700 E5.4126
G1 X139.064 Y57.184 E5.5981
G1 X139.064 Y62.313 E5.8689
G1 X137.888 Y63.489 E5.9567
G1 X137.888 Y73.648 E6.4932
G1 X139.064 Y74.824 E6.5810
G1 X139.064 Y81.129 E6.9139
G1 X136.581 Y83.612 E7.0994
G1 X130.276 Y83.612 E7.4323
G1 X129.900 Y83.237 E7.4603
G1 X129.525 Y83.612 E7.4884
G1 X123.220 Y83.612 E7.8213
G1 X122.335 Y82.727 E7.8874
G1 X122.335 Y84.130 E7.9615
G1 X119.851 Y86.613 E8.1469
G1 X113.658 Y86.613 E8.4739
G1 X113.539 Y86.494 E8.4828
G1 X113.420 Y86.613 E8.4917
G1 X107.330 Y86.613 E8.8133
G1 X104.847 Y84.130 E8.9988
G1 X104.847 Y81.716 E9.1262
G1 X104.290 Y82.495 E9.1768
G1 X104.206 Y82.604 E9.1841
G1 X103.580 Y83.370 E9.2363
G1 X103.495 Y83.467 E9.2431
G1 X102.865 Y84.149 E9.2921
G1 X102.777 Y84.239 E9.2988
G1 X102.025 Y84.960 E9.3538
G1 X101.923 Y85.052 E9.3610
G1 X101.167 Y85.689 E9.4133
G1 X101.064 Y85.770 E9.4202
G1 X100.270 Y86.359 E9.4723
G1 X100.159 Y86.436 E9.4795
G1 X99.287 Y87.001 E9.5344
G1 X99.172 Y87.070 E9.5414
G1 X98.313 Y87.552 E9.5935
G1 X98.199 Y87.612 E9.6003
G1 X97.363 Y88.017 E9.6493
G1 X97.246 Y88.069 E9.6561
G1 X96.283 Y88.466 E9.7111
G1 X96.155 Y88.513 E9.7183
G1 X95.218 Y88.830 E9.7705
G1 X95.093 Y88.868 E9.7774
G1 X94.141 Y89.126 E9.8295
G1 X94.013 Y89.157 E9.8364
G1 X93.034 Y89.358 E9.8892
G1 X92.967 Y89.369 E9.8928
G1 X92.967 Y91.007 E9.9793
G1 X93.227 Y91.267 E9.9987
G1 X93.227 Y96.717 E10.2865
G1 X92.967 Y96.977 E10.3059
G1 X92.967 Y98.969 E10.4111
G1 X92.713 Y99.223 E10.4300
G1 X94.761 Y101.271 E10.5830
G1 X94.761 Y102.519 E10.6489
G1 X96.009 Y103.767 E10.7421
G1 X96.009 Y111.464 E11.1485
G1 X94.761 Y112.712 E11.2417
G1 X94.761 Y118.743 E11.5602
G1 X96.009 Y119.991 E11.6534
G1 X96.009 Y126.440 E11.9939
G1 X94.866 Y127.583 E12.0793
G1 X94.866 Y143.111 E12.8992
G1 X92.382 Y145.594 E13.0846
G1 X84.938 Y145.594 E13.4777
G1 X83.774 Y144.430 E13.5647
G1 X81.446 Y144.430 E13.6876
G1 X80.282 Y143.266 E13.7745
G1 X61.658 Y143.266 E14.7579
G1 X59.174 Y140.783 E14.9434
G1 X59.174 Y131.010 E15.4594
G1 X61.658 Y128.526 E15.6449
G1 X62.761 Y128.526 E15.7032
G1 X60.936 Y126.701 E15.8395
G1 X60.936 Y120.396 E16.1724
G1 X62.112 Y119.220 E16.2602
G1 X62.112 Y109.061 E16.7967
G1 X60.936 Y107.885 E16.8845
G1 X60.936 Y102.756 E17.1553
G1 X62.729 Y100.963 E17.2893
G1 X61.694 Y99.928 E17.3666
G1 X61.694 Y70.528 E18.9190
G1 X60.518 Y69.352 E19.0068
G1 X60.518 Y60.695 E19.4639
G1 X61.694 Y59.519 E19.5517
G1 X61.694 Y55.991 E19.7380
G92 E0.0000
G1 E-0.7000 F1500
G1 X99.869 Y98.305 F4800
G1 E0.0000 F1500
G92 E0.0000
G1 X106.619 Y98.305 E0.3564 F1800
G1 X106.839 Y98.525 E0.3729
G1 X109.249 Y98.525 E0.5001
G1 X109.469 Y98.305 E0.5165
G1 X116.219 Y98.305 E0.8730
G1 X118.984 Y101.070 E1.0794
G1 X118.984 Y107.820 E1.4359
G1 X117.784 Y109.020 E1.5255
G1 X117.784 Y115.020 E1.8423
G1 X115.384 Y117.420 E2.0215
G1 X115.384 Y121.020 E2.2116
G1 X112.619 Y123.785 E2.4181
G1 X103.469 Y123.785 E2.9013
G1 X100.704 Y121.020 E3.1077
G1 X100.704 Y117.420 E3.2978
G1 X98.304 Y115.020 E3.4771
G1 X98.304 Y109.020 E3.7939
G1 X97.104 Y107.820 E3.8835
G1 X97.104 Y101.070 E4.2399
G1 X99.869 Y98.305 E4.4464
G92 E0.0000
G1 E-0.7000 F1500
G1 X100.068 Y98.785 F4800
G1 E0.0000 F1500
