; G-Code generated by Simplify3D(R) Version 4.1.1
; Apr 28, 2021 at 3:57:40 PM
; Settings Summary
;   processName,Trideo BOX
;   applyToModels,bicep holder for A and B_upper arm tighter v4,clip,forearmholder,thread,FingerStopper,ThumbClip,thumbscrew,UpperArm - Palm connector x2,UpperArm - Palm connector x2(2)
;   profileName,Trideo BOX
;   profileVersion,2021-04-15 09:48:16
;   baseProfile,Default
;   printMaterial,PLA
;   printQuality,Fast
;   printExtruders,
;   extruderName,Primary Extruder
;   extruderToolheadNumber,0
;   extruderDiameter,0.4
;   extruderAutoWidth,1
;   extruderWidth,0.48
;   extrusionMultiplier,0.98
;   extruderUseRetract,1
;   extruderRetractionDistance,0.7
;   extruderExtraRestartDistance,0
;   extruderRetractionZLift,0
;   extruderRetractionSpeed,1500
;   extruderUseCoasting,0
;   extruderCoastingDistance,0.2
;   extruderUseWipe,0
;   extruderWipeDistance,5
;   primaryExtruder,0
;   layerHeight,0.3
;   topSolidLayers,3
;   bottomSolidLayers,3
;   perimeterOutlines,2
;   printPerimetersInsideOut,1
;   startPointOption,2
;   startPointOriginX,0
;   startPointOriginY,0
;   sequentialIslands,0
;   spiralVaseMode,0
;   firstLayerHeightPercentage,90
;   firstLayerWidthPercentage,100
;   firstLayerUnderspeed,0.5
;   useRaft,0
;   raftExtruder,0
;   raftTopLayers,3
;   raftBaseLayers,2
;   raftOffset,3
;   raftSeparationDistance,0.14
;   raftTopInfill,100
;   aboveRaftSpeedMultiplier,0.3
;   useSkirt,1
;   skirtExtruder,0
;   skirtLayers,1
;   skirtOutlines,2
;   skirtOffset,4
;   usePrimePillar,0
;   primePillarExtruder,999
;   primePillarWidth,12
;   primePillarLocation,7
;   primePillarSpeedMultiplier,1
;   useOozeShield,0
;   oozeShieldExtruder,999
;   oozeShieldOffset,2
;   oozeShieldOutlines,1
;   oozeShieldSidewallShape,1
;   oozeShieldSidewallAngle,30
;   oozeShieldSpeedMultiplier,1
;   infillExtruder,0
;   internalInfillPattern,Rectilinear
;   externalInfillPattern,Rectilinear
;   infillPercentage,15
;   outlineOverlapPercentage,15
;   infillExtrusionWidthPercentage,100
;   minInfillLength,5
;   infillLayerInterval,1
;   internalInfillAngles,45,-45
;   overlapInternalInfillAngles,0
;   externalInfillAngles,45,-45
;   generateSupport,1
;   supportExtruder,0
;   supportInfillPercentage,25
;   supportExtraInflation,0
;   supportBaseLayers,0
;   denseSupportExtruder,0
;   denseSupportLayers,0
;   denseSupportInfillPercentage,70
;   supportLayerInterval,1
;   supportHorizontalPartOffset,0.3
;   supportUpperSeparationLayers,1
;   supportLowerSeparationLayers,1
;   supportType,0
;   supportGridSpacing,4
;   maxOverhangAngle,45
;   supportAngles,0
;   temperatureName,Primary Extruder,Heated bed
;   temperatureNumber,0,0
;   temperatureSetpointCount,1,1
;   temperatureSetpointLayers,1,1
;   temperatureSetpointTemperatures,190,60
;   temperatureStabilizeAtStartup,1,1
;   temperatureHeatedBed,0,1
;   fanLayers,1,2
;   fanSpeeds,0,100
;   blipFanToFullPower,0
;   adjustSpeedForCooling,1
;   minSpeedLayerTime,15
;   minCoolingSpeedSlowdown,20
;   increaseFanForCooling,0
;   minFanLayerTime,45
;   maxCoolingFanSpeed,100
;   increaseFanForBridging,0
;   bridgingFanSpeed,100
;   use5D,1
;   relativeEdistances,0
;   allowEaxisZeroing,1
;   independentExtruderAxes,0
;   includeM10123,0
;   stickySupport,1
;   applyToolheadOffsets,0
;   gcodeXoffset,0
;   gcodeYoffset,0
;   gcodeZoffset,0
;   overrideMachineDefinition,1
;   machineTypeOverride,0
;   strokeXoverride,200
;   strokeYoverride,200
;   strokeZoverride,200
;   originOffsetXoverride,0
;   originOffsetYoverride,0
;   originOffsetZoverride,0
;   homeXdirOverride,-1
;   homeYdirOverride,-1
;   homeZdirOverride,-1
;   flipXoverride,1
;   flipYoverride,-1
;   flipZoverride,1
;   toolheadOffsets,0,0|0,0|0,0|0,0|0,0|0,0
;   overrideFirmwareConfiguration,0
;   firmwareTypeOverride,RepRap (Marlin/Repetier/Sprinter)
;   GPXconfigOverride,r2
;   baudRateOverride,115200
;   overridePrinterModels,0
;   printerModelsOverride
;   startingGcode,G28 X0 Y0; home XY,G1 X20 Y20,G28 Z0,G1 Z5 F5000; Lift NZ
;   layerChangeGcode,
;   retractionGcode,
;   toolChangeGcode,
;   endingGcode,M104 S0 ; turn off extruder,G28 X0 ; home x,M140 S0 ; turn off bed,M84 ; disable motors,M107 ;
;   exportFileFormat,gcode
;   celebration,0
;   celebrationSong,Looney Toons
;   postProcessing,
;   defaultSpeed,3600
;   outlineUnderspeed,0.5
;   solidInfillUnderspeed,0.8
;   supportUnderspeed,0.8
;   rapidXYspeed,4800
;   rapidZspeed,1002
;   minBridgingArea,50
;   bridgingExtraInflation,0
;   bridgingExtrusionMultiplier,1
;   bridgingSpeedMultiplier,1
;   useFixedBridgingAngle,0
;   fixedBridgingAngle,0
;   applyBridgingToPerimeters,0
;   filamentDiameters,1.75|1.75|1.75|1.75|1.75|1.75
;   filamentPricesPerKg,46|46|46|46|46|46
;   filamentDensities,1.25|1.25|1.25|1.25|1.25|1.25
;   useMinPrintHeight,0
;   minPrintHeight,0
;   useMaxPrintHeight,0
;   maxPrintHeight,0
;   useDiaphragm,0
;   diaphragmLayerInterval,20
;   robustSlicing,1
;   mergeAllIntoSolid,0
;   onlyRetractWhenCrossingOutline,1
;   retractBetweenLayers,1
;   useRetractionMinTravel,0
;   retractionMinTravel,3
;   retractWhileWiping,0
;   onlyWipeOutlines,1
;   avoidCrossingOutline,0
;   maxMovementDetourFactor,3
;   toolChangeRetractionDistance,12
;   toolChangeExtraRestartDistance,-0.5
;   toolChangeRetractionSpeed,600
;   externalThinWallType,0
;   internalThinWallType,2
;   thinWallAllowedOverlapPercentage,10
;   singleExtrusionMinLength,1
;   singleExtrusionMinPrintingWidthPercentage,50
;   singleExtrusionMaxPrintingWidthPercentage,200
;   singleExtrusionEndpointExtension,0.2
;   horizontalSizeCompensation,0
G90
M82
M106 S0
M140 S60
M190 S60
M104 S190 T0
M109 S190 T0
G28 X0 Y0; home XY
G1 X20 Y20
G28 Z0
G1 Z5 F5000; Lift NZ
; process Trideo BOX
; layer 1, Z = 0.270
T0
G92 E0.0000
G1 E-0.7000 F1500
; feature skirt
; tool H0.270 W0.480
G1 Z0.270 F1002
G1 X65.898 Y64.195 F4800
G1 E0.0000 F1500
G92 E0.0000
G1 X72.894 Y64.195 E0.3694 F1800
G1 X75.659 Y66.960 E0.5759
G1 X75.659 Y69.466 E0.7083
G1 X76.035 Y69.035 E0.7385
G1 X76.188 Y68.875 E0.7502
G1 X77.300 Y67.820 E0.8311
G1 X77.519 Y67.636 E0.8462
G1 X78.702 Y66.759 E0.9240
G1 X78.879 Y66.639 E0.9353
G1 X79.656 Y66.166 E0.9833
G1 X79.855 Y66.057 E0.9953
G1 X81.208 Y65.400 E1.0747
G1 X81.415 Y65.312 E1.0866
G1 X82.273 Y64.993 E1.1349
G1 X82.479 Y64.926 E1.1464
G1 X83.871 Y64.549 E1.2225
G1 X84.085 Y64.502 E1.2341
G1 X85.006 Y64.342 E1.2834
G1 X85.231 Y64.314 E1.2954
G1 X86.727 Y64.201 E1.3746
G1 X86.945 Y64.194 E1.3861
G1 X87.803 Y64.209 E1.4314
G1 X88.022 Y64.222 E1.4430
G1 X89.555 Y64.391 E1.5245
G1 X89.841 Y64.440 E1.5398
G1 X91.321 Y64.791 E1.6201
G1 X91.535 Y64.852 E1.6318
G1 X92.403 Y65.146 E1.6803
G1 X92.611 Y65.228 E1.6921
G1 X94.013 Y65.856 E1.7732
G1 X94.270 Y65.991 E1.7885
G1 X95.582 Y66.785 E1.8695
G1 X95.765 Y66.908 E1.8811
G1 X96.466 Y67.427 E1.9272
G1 X96.636 Y67.566 E1.9388
G1 X97.747 Y68.561 E2.0175
G1 X97.905 Y68.716 E2.0293
G1 X98.522 Y69.383 E2.0772
G1 X98.665 Y69.553 E2.0889
G1 X98.915 Y69.880 E2.1107
G1 X98.915 Y67.657 E2.2280
G1 X101.680 Y64.892 E2.4345
G1 X103.516 Y64.892 E2.5315
G1 X104.434 Y63.974 E2.6000
G1 X109.702 Y63.974 E2.8782
G1 X112.326 Y66.599 E3.0742
G1 X112.373 Y66.646 E3.0777
G1 X113.929 Y65.090 E3.1939
G1 X114.811 Y65.090 E3.2404
G1 X115.693 Y64.208 E3.3063
G1 X123.571 Y64.208 E3.7223
G1 X124.453 Y65.090 E3.7882
G1 X125.335 Y65.090 E3.8347
G1 X128.100 Y67.855 E4.0412
G1 X128.100 Y73.087 E4.3175
G1 X127.218 Y73.969 E4.3833
G1 X127.218 Y80.203 E4.7125
G1 X128.100 Y81.085 E4.7784
G1 X128.100 Y87.199 E5.1012
G1 X125.335 Y89.964 E5.3077
G1 X113.929 Y89.964 E5.9100
G1 X113.859 Y89.893 E5.9152
G1 X111.538 Y92.214 E6.0886
G1 X100.762 Y92.214 E6.6576
G1 X98.165 Y89.617 E6.8515
G1 X98.056 Y89.743 E6.8603
G1 X97.909 Y89.897 E6.8715
G1 X97.250 Y90.531 E6.9198
G1 X97.079 Y90.680 E6.9318
G1 X95.901 Y91.612 E7.0111
G1 X95.722 Y91.740 E7.0227
G1 X94.986 Y92.219 E7.0691
G1 X94.797 Y92.330 E7.0807
G1 X93.493 Y93.014 E7.1584
G1 X93.296 Y93.107 E7.1699
G1 X92.449 Y93.456 E7.2183
G1 X92.236 Y93.532 E7.2303
G1 X90.799 Y93.969 E7.3095
G1 X90.586 Y94.023 E7.3212
G1 X89.762 Y94.192 E7.3656
G1 X89.617 Y94.217 E7.3734
G1 X88.802 Y94.332 E7.4168
G1 X88.585 Y94.352 E7.4283
G1 X87.090 Y94.423 E7.5073
G1 X86.872 Y94.423 E7.5188
G1 X86.049 Y94.386 E7.5624
G1 X85.898 Y94.375 E7.5703
G1 X85.059 Y94.283 E7.6149
G1 X84.913 Y94.262 E7.6227
G1 X84.156 Y94.131 E7.6633
G1 X84.014 Y94.102 E7.6709
G1 X83.207 Y93.910 E7.7147
G1 X82.996 Y93.849 E7.7263
G1 X81.572 Y93.367 E7.8057
G1 X81.368 Y93.288 E7.8173
G1 X80.614 Y92.952 E7.8608
G1 X80.477 Y92.885 E7.8689
G1 X79.729 Y92.492 E7.9135
G1 X79.599 Y92.419 E7.9214
G1 X78.929 Y92.011 E7.9628
G1 X78.810 Y91.934 E7.9703
G1 X78.196 Y91.507 E8.0098
G1 X78.076 Y91.418 E8.0177
G1 X77.415 Y90.895 E8.0622
G1 X77.300 Y90.798 E8.0701
G1 X76.715 Y90.271 E8.1117
G1 X76.610 Y90.171 E8.1194
G1 X76.037 Y89.586 E8.1626
G1 X75.894 Y89.426 E8.1739
G1 X74.982 Y88.310 E8.2500
G1 X74.850 Y88.133 E8.2617
G1 X74.777 Y88.024 E8.2686
G1 X74.777 Y99.637 E8.8818
G1 X74.971 Y99.637 E8.8921
G1 X75.853 Y100.519 E8.9580
G1 X76.735 Y100.519 E9.0045
G1 X78.749 Y102.533 E9.1549
G1 X78.749 Y102.170 E9.1741
G1 X81.514 Y99.405 E9.3806
G1 X89.608 Y99.405 E9.8080
G1 X92.373 Y102.170 E10.0145
G1 X92.373 Y103.106 E10.0639
G1 X92.550 Y103.283 E10.0771
G1 X92.550 Y102.168 E10.1359
G1 X95.315 Y99.403 E10.3424
G1 X101.465 Y99.403 E10.6672
G1 X101.685 Y99.623 E10.6836
G1 X102.295 Y99.623 E10.7158
G1 X102.515 Y99.403 E10.7322
G1 X108.665 Y99.403 E11.0570
G1 X111.430 Y102.168 E11.2635
G1 X111.430 Y102.177 E11.2639
G1 X111.564 Y102.044 E11.2739
G1 X121.167 Y102.044 E11.7810
G1 X122.040 Y101.171 E11.8462
G1 X127.278 Y101.171 E12.1228
G1 X129.024 Y99.425 E12.2532
G1 X135.993 Y99.425 E12.6212
G1 X138.758 Y102.190 E12.8276
G1 X138.758 Y115.270 E13.5183
G1 X135.993 Y118.035 E13.7248
G1 X129.024 Y118.035 E14.0928
G1 X128.151 Y117.162 E14.1580
G1 X126.405 Y117.162 E14.2502
G1 X125.532 Y116.289 E14.3154
G1 X111.564 Y116.289 E15.0529
G1 X109.762 Y114.487 E15.1875
G1 X108.730 Y115.518 E15.2646
G1 X108.730 Y118.218 E15.4071
G1 X105.965 Y120.983 E15.6136
G1 X98.015 Y120.983 E16.0334
G1 X95.250 Y118.218 E16.2399
G1 X95.250 Y115.518 E16.3824
G1 X93.450 Y113.718 E16.5169
G1 X93.450 Y109.218 E16.7545
G1 X93.309 Y109.078 E16.7650
G1 X93.309 Y111.200 E16.8771
G1 X92.373 Y112.136 E16.9470
G1 X92.373 Y115.274 E17.1127
G1 X93.309 Y116.210 E17.1826
G1 X93.309 Y122.432 E17.5111
G1 X90.544 Y125.197 E17.7176
G1 X80.578 Y125.197 E18.2438
G1 X80.482 Y125.101 E18.2510
G1 X80.482 Y125.453 E18.2695
G1 X80.622 Y125.593 E18.2800
G1 X80.622 Y131.180 E18.5750
G1 X80.482 Y131.320 E18.5855
G1 X80.482 Y132.811 E18.6642
G1 X77.717 Y135.576 E18.8707
G1 X72.467 Y135.576 E19.1479
G1 X71.567 Y134.676 E19.2151
G1 X70.517 Y134.676 E19.2705
G1 X69.617 Y135.576 E19.3377
G1 X64.367 Y135.576 E19.6150
G1 X61.602 Y132.811 E19.8214
G1 X61.602 Y131.321 E19.9001
G1 X61.462 Y131.180 E19.9106
G1 X61.462 Y125.593 E20.2057
G1 X61.602 Y125.453 E20.2161
G1 X61.602 Y123.961 E20.2949
G1 X62.749 Y122.814 E20.3806
G1 X62.564 Y122.628 E20.3944
G1 X62.564 Y116.514 E20.7173
G1 X63.446 Y115.632 E20.7831
G1 X63.446 Y109.398 E21.1123
G1 X62.564 Y108.516 E21.1782
G1 X62.564 Y103.284 E21.4545
G1 X63.841 Y102.006 E21.5498
G1 X63.133 Y101.298 E21.6027
G1 X63.133 Y79.248 E22.7671
G1 X62.251 Y78.366 E22.8329
G1 X62.251 Y70.488 E23.2489
G1 X63.133 Y69.606 E23.3148
G1 X63.133 Y66.960 E23.4545
G1 X65.898 Y64.195 E23.6610
G92 E0.0000
G1 E-0.7000 F1500
G1 X66.096 Y64.675 F4800
G1 E0.0000 F1500
G92 E0.0000
G1 X72.695 Y64.675 E0.3484 F1800
G1 X75.179 Y67.159 E0.5339
G1 X75.179 Y70.852 E0.7289
G1 X75.187 Y70.839 E0.7297
G1 X75.265 Y70.731 E0.7367
G1 X75.735 Y70.115 E0.7777
G1 X75.822 Y70.009 E0.7849
G1 X76.389 Y69.359 E0.8305
G1 X76.527 Y69.216 E0.8410
G1 X77.620 Y68.179 E0.9205
G1 X77.816 Y68.013 E0.9341
G1 X78.980 Y67.151 E1.0105
G1 X79.138 Y67.044 E1.0207
G1 X79.896 Y66.582 E1.0675
G1 X80.075 Y66.484 E1.0783
G1 X81.407 Y65.837 E1.1565
G1 X81.593 Y65.758 E1.1672
G1 X82.430 Y65.446 E1.2143
G1 X82.615 Y65.387 E1.2246
G1 X83.986 Y65.016 E1.2995
G1 X84.178 Y64.973 E1.3099
G1 X85.077 Y64.817 E1.3581
G1 X85.278 Y64.792 E1.3688
G1 X86.752 Y64.680 E1.4469
G1 X86.948 Y64.674 E1.4572
G1 X87.784 Y64.688 E1.5014
G1 X87.980 Y64.701 E1.5118
G1 X89.488 Y64.866 E1.5919
G1 X89.745 Y64.911 E1.6056
G1 X91.200 Y65.255 E1.6846
G1 X91.391 Y65.310 E1.6951
G1 X92.238 Y65.597 E1.7423
G1 X92.426 Y65.670 E1.7529
G1 X93.803 Y66.288 E1.8326
G1 X94.034 Y66.409 E1.8464
G1 X95.324 Y67.190 E1.9261
G1 X95.488 Y67.300 E1.9365
G1 X96.172 Y67.806 E1.9814
G1 X96.324 Y67.931 E1.9918
G1 X97.418 Y68.911 E2.0694
G1 X97.561 Y69.051 E2.0799
G1 X98.162 Y69.701 E2.1267
G1 X98.290 Y69.853 E2.1372
G1 X99.179 Y71.016 E2.2145
G1 X99.291 Y71.177 E2.2248
G1 X99.395 Y71.343 E2.2352
G1 X99.395 Y67.856 E2.4193
G1 X101.879 Y65.372 E2.6048
G1 X103.715 Y65.372 E2.7017
G1 X104.633 Y64.454 E2.7703
G1 X109.503 Y64.454 E3.0275
G1 X111.987 Y66.938 E3.2129
G1 X112.373 Y67.324 E3.2418
G1 X114.128 Y65.570 E3.3728
G1 X115.010 Y65.570 E3.4194
G1 X115.892 Y64.688 E3.4853
G1 X123.372 Y64.688 E3.8803
G1 X124.254 Y65.570 E3.9461
G1 X125.136 Y65.570 E3.9927
G1 X127.620 Y68.053 E4.1782
G1 X127.620 Y72.888 E4.4335
G1 X126.738 Y73.770 E4.4993
G1 X126.738 Y80.401 E4.8495
G1 X127.620 Y81.283 E4.9153
G1 X127.620 Y87.000 E5.2172
G1 X125.136 Y89.484 E5.4027
G1 X114.128 Y89.484 E5.9840
G1 X113.823 Y89.179 E6.0068
G1 X113.823 Y89.251 E6.0106
G1 X111.339 Y91.734 E6.1960
G1 X100.961 Y91.734 E6.7441
G1 X98.477 Y89.251 E6.9295
G1 X98.477 Y88.525 E6.9678
G1 X97.701 Y89.420 E7.0304
G1 X97.569 Y89.558 E7.0405
G1 X96.926 Y90.177 E7.0875
G1 X96.772 Y90.311 E7.0983
G1 X95.612 Y91.229 E7.1765
G1 X95.451 Y91.344 E7.1869
G1 X94.733 Y91.811 E7.2321
G1 X94.564 Y91.910 E7.2425
G1 X93.279 Y92.584 E7.3191
G1 X93.102 Y92.667 E7.3294
G1 X92.276 Y93.008 E7.3766
G1 X92.085 Y93.076 E7.3873
G1 X90.670 Y93.507 E7.4654
G1 X90.479 Y93.555 E7.4758
G1 X89.673 Y93.720 E7.5193
G1 X89.542 Y93.743 E7.5263
G1 X88.746 Y93.855 E7.5687
G1 X88.551 Y93.873 E7.5790
G1 X87.079 Y93.943 E7.6569
G1 X86.883 Y93.943 E7.6672
G1 X86.078 Y93.907 E7.7098
G1 X85.943 Y93.897 E7.7169
G1 X85.119 Y93.806 E7.7607
G1 X84.987 Y93.788 E7.7677
G1 X84.246 Y93.659 E7.8075
G1 X84.118 Y93.633 E7.8144
G1 X83.329 Y93.445 E7.8572
G1 X83.139 Y93.391 E7.8676
G1 X81.736 Y92.916 E7.9458
G1 X81.553 Y92.845 E7.9562
G1 X80.817 Y92.516 E7.9988
G1 X80.693 Y92.457 E8.0060
G1 X79.959 Y92.071 E8.0498
G1 X79.842 Y92.005 E8.0569
G1 X79.184 Y91.604 E8.0976
G1 X79.078 Y91.535 E8.1042
G1 X78.475 Y91.117 E8.1430
G1 X78.368 Y91.037 E8.1500
G1 X77.719 Y90.523 E8.1938
G1 X77.616 Y90.436 E8.2009
G1 X77.042 Y89.920 E8.2417
G1 X76.948 Y89.829 E8.2486
G1 X76.387 Y89.257 E8.2909
G1 X76.258 Y89.114 E8.3010
G1 X75.360 Y88.015 E8.3760
G1 X75.242 Y87.856 E8.3864
G1 X74.716 Y87.073 E8.4362
G1 X74.612 Y86.902 E8.4468
G1 X74.297 Y86.320 E8.4818
G1 X74.297 Y100.117 E9.2103
G1 X74.772 Y100.117 E9.2353
G1 X75.654 Y100.999 E9.3012
G1 X76.536 Y100.999 E9.3478
G1 X79.020 Y103.482 E9.5333
G1 X79.020 Y103.514 E9.5349
G1 X79.229 Y103.305 E9.5506
G1 X79.229 Y102.369 E9.6000
G1 X81.713 Y99.885 E9.7855
G1 X89.409 Y99.885 E10.1919
G1 X91.893 Y102.369 E10.3774
G1 X91.893 Y103.305 E10.4268
G1 X92.829 Y104.241 E10.4967
G1 X92.829 Y111.001 E10.8537
G1 X91.893 Y111.937 E10.9236
G1 X91.893 Y115.473 E11.1102
G1 X92.829 Y116.409 E11.1801
G1 X92.829 Y122.233 E11.4877
G1 X90.345 Y124.717 E11.6732
G1 X80.777 Y124.717 E12.1784
G1 X78.754 Y122.694 E12.3295
G1 X78.646 Y122.803 E12.3376
G1 X80.002 Y124.159 E12.4389
G1 X80.002 Y125.651 E12.5177
G1 X80.142 Y125.791 E12.5281
G1 X80.142 Y130.982 E12.8022
G1 X80.002 Y131.122 E12.8126
G1 X80.002 Y132.612 E12.8913
G1 X77.519 Y135.096 E13.0768
G1 X72.666 Y135.096 E13.3330
G1 X71.766 Y134.196 E13.4002
G1 X70.319 Y134.196 E13.4767
G1 X69.419 Y135.096 E13.5439
G1 X64.566 Y135.096 E13.8001
G1 X62.082 Y132.612 E13.9856
G1 X62.082 Y131.122 E14.0643
G1 X61.942 Y130.982 E14.0747
G1 X61.942 Y125.791 E14.3488
G1 X62.082 Y125.651 E14.3593
G1 X62.082 Y124.159 E14.4380
G1 X63.428 Y122.814 E14.5385
