; G-Code generated by Simplify3D(R) Version 4.1.1
; Apr 27, 2021 at 7:54:25 PM
; Settings Summary
;   processName,Trideo BOX
;   applyToModels,FingerStopper,ThumbClip,thumbscrew,UpperArm - Finger Conector,UpperArm - Palm connector,UpperArm - Thumb short conector,UpperArm - Palm connector(2)
;   profileName,Trideo BOX
;   profileVersion,2021-04-15 09:48:16
;   baseProfile,Default
;   printMaterial,PLA
;   printQuality,Fast
;   printExtruders,
;   extruderName,Primary Extruder
;   extruderToolheadNumber,0
;   extruderDiameter,0.4
;   extruderAutoWidth,1
;   extruderWidth,0.48
;   extrusionMultiplier,0.98
;   extruderUseRetract,1
;   extruderRetractionDistance,0.7
;   extruderExtraRestartDistance,0
;   extruderRetractionZLift,0
;   extruderRetractionSpeed,1500
;   extruderUseCoasting,0
;   extruderCoastingDistance,0.2
;   extruderUseWipe,0
;   extruderWipeDistance,5
;   primaryExtruder,0
;   layerHeight,0.3
;   topSolidLayers,3
;   bottomSolidLayers,3
;   perimeterOutlines,2
;   printPerimetersInsideOut,1
;   startPointOption,2
;   startPointOriginX,0
;   startPointOriginY,0
;   sequentialIslands,0
;   spiralVaseMode,0
;   firstLayerHeightPercentage,90
;   firstLayerWidthPercentage,100
;   firstLayerUnderspeed,0.5
;   useRaft,0
;   raftExtruder,0
;   raftTopLayers,3
;   raftBaseLayers,2
;   raftOffset,3
;   raftSeparationDistance,0.14
;   raftTopInfill,100
;   aboveRaftSpeedMultiplier,0.3
;   useSkirt,1
;   skirtExtruder,0
;   skirtLayers,1
;   skirtOutlines,2
;   skirtOffset,4
;   usePrimePillar,0
;   primePillarExtruder,999
;   primePillarWidth,12
;   primePillarLocation,7
;   primePillarSpeedMultiplier,1
;   useOozeShield,0
;   oozeShieldExtruder,999
;   oozeShieldOffset,2
;   oozeShieldOutlines,1
;   oozeShieldSidewallShape,1
;   oozeShieldSidewallAngle,30
;   oozeShieldSpeedMultiplier,1
;   infillExtruder,0
;   internalInfillPattern,Rectilinear
;   externalInfillPattern,Rectilinear
;   infillPercentage,15
;   outlineOverlapPercentage,15
;   infillExtrusionWidthPercentage,100
;   minInfillLength,5
;   infillLayerInterval,1
;   internalInfillAngles,45,-45
;   overlapInternalInfillAngles,0
;   externalInfillAngles,45,-45
;   generateSupport,1
;   supportExtruder,0
;   supportInfillPercentage,25
;   supportExtraInflation,0
;   supportBaseLayers,0
;   denseSupportExtruder,0
;   denseSupportLayers,0
;   denseSupportInfillPercentage,70
;   supportLayerInterval,1
;   supportHorizontalPartOffset,0.3
;   supportUpperSeparationLayers,1
;   supportLowerSeparationLayers,1
;   supportType,0
;   supportGridSpacing,4
;   maxOverhangAngle,45
;   supportAngles,0
;   temperatureName,Primary Extruder,Heated bed
;   temperatureNumber,0,0
;   temperatureSetpointCount,1,1
;   temperatureSetpointLayers,1,1
;   temperatureSetpointTemperatures,190,60
;   temperatureStabilizeAtStartup,1,1
;   temperatureHeatedBed,0,1
;   fanLayers,1,2
;   fanSpeeds,0,100
;   blipFanToFullPower,0
;   adjustSpeedForCooling,1
;   minSpeedLayerTime,15
;   minCoolingSpeedSlowdown,20
;   increaseFanForCooling,0
;   minFanLayerTime,45
;   maxCoolingFanSpeed,100
;   increaseFanForBridging,0
;   bridgingFanSpeed,100
;   use5D,1
;   relativeEdistances,0
;   allowEaxisZeroing,1
;   independentExtruderAxes,0
;   includeM10123,0
;   stickySupport,1
;   applyToolheadOffsets,0
;   gcodeXoffset,0
;   gcodeYoffset,0
;   gcodeZoffset,0
;   overrideMachineDefinition,1
;   machineTypeOverride,0
;   strokeXoverride,200
;   strokeYoverride,200
;   strokeZoverride,200
;   originOffsetXoverride,0
;   originOffsetYoverride,0
;   originOffsetZoverride,0
;   homeXdirOverride,-1
;   homeYdirOverride,-1
;   homeZdirOverride,-1
;   flipXoverride,1
;   flipYoverride,-1
;   flipZoverride,1
;   toolheadOffsets,0,0|0,0|0,0|0,0|0,0|0,0
;   overrideFirmwareConfiguration,0
;   firmwareTypeOverride,RepRap (Marlin/Repetier/Sprinter)
;   GPXconfigOverride,r2
;   baudRateOverride,115200
;   overridePrinterModels,0
;   printerModelsOverride
;   startingGcode,G28 X0 Y0; home XY,G1 X20 Y20,G28 Z0,G1 Z5 F5000; Lift NZ
;   layerChangeGcode,
;   retractionGcode,
;   toolChangeGcode,
;   endingGcode,M104 S0 ; turn off extruder,G28 X0 ; home x,M140 S0 ; turn off bed,M84 ; disable motors,M107 ;
;   exportFileFormat,gcode
;   celebration,0
;   celebrationSong,Looney Toons
;   postProcessing,
;   defaultSpeed,3600
;   outlineUnderspeed,0.5
;   solidInfillUnderspeed,0.8
;   supportUnderspeed,0.8
;   rapidXYspeed,4800
;   rapidZspeed,1002
;   minBridgingArea,50
;   bridgingExtraInflation,0
;   bridgingExtrusionMultiplier,1
;   bridgingSpeedMultiplier,1
;   useFixedBridgingAngle,0
;   fixedBridgingAngle,0
;   applyBridgingToPerimeters,0
;   filamentDiameters,1.75|1.75|1.75|1.75|1.75|1.75
;   filamentPricesPerKg,46|46|46|46|46|46
;   filamentDensities,1.25|1.25|1.25|1.25|1.25|1.25
;   useMinPrintHeight,0
;   minPrintHeight,0
;   useMaxPrintHeight,0
;   maxPrintHeight,0
;   useDiaphragm,0
;   diaphragmLayerInterval,20
;   robustSlicing,1
;   mergeAllIntoSolid,0
;   onlyRetractWhenCrossingOutline,1
;   retractBetweenLayers,1
;   useRetractionMinTravel,0
;   retractionMinTravel,3
;   retractWhileWiping,0
;   onlyWipeOutlines,1
;   avoidCrossingOutline,0
;   maxMovementDetourFactor,3
;   toolChangeRetractionDistance,12
;   toolChangeExtraRestartDistance,-0.5
;   toolChangeRetractionSpeed,600
;   externalThinWallType,0
;   internalThinWallType,2
;   thinWallAllowedOverlapPercentage,10
;   singleExtrusionMinLength,1
;   singleExtrusionMinPrintingWidthPercentage,50
;   singleExtrusionMaxPrintingWidthPercentage,200
;   singleExtrusionEndpointExtension,0.2
;   horizontalSizeCompensation,0
G90
M82
M106 S0
M140 S60
M190 S60
M104 S190 T0
M109 S190 T0
G28 X0 Y0; home XY
G1 X20 Y20
G28 Z0
G1 Z5 F5000; Lift NZ
; process Trideo BOX
; layer 1, Z = 0.270
T0
G92 E0.0000
G1 E-0.7000 F1500
; feature skirt
; tool H0.270 W0.480
G1 Z0.270 F1002
G1 X68.396 Y69.567 F4800
G1 E0.0000 F1500
G92 E0.0000
G1 X74.746 Y69.567 E0.3353 F1800
G1 X77.306 Y72.127 E0.5265
G1 X79.599 Y69.834 E0.6977
G1 X90.129 Y69.834 E1.2538
G1 X92.864 Y72.568 E1.4579
G1 X93.118 Y72.314 E1.4769
G1 X105.118 Y72.314 E2.1106
G1 X107.118 Y70.314 E2.2599
G1 X125.468 Y70.314 E3.2289
G1 X127.468 Y72.314 E3.3783
G1 X133.468 Y72.314 E3.6951
G1 X136.233 Y75.079 E3.9015
G1 X136.233 Y85.429 E4.4481
G1 X133.468 Y88.194 E4.6545
G1 X127.468 Y88.194 E4.9714
G1 X125.468 Y90.194 E5.1207
G1 X107.118 Y90.194 E6.0897
G1 X105.118 Y88.194 E6.2390
G1 X93.118 Y88.194 E6.8727
G1 X91.504 Y86.579 E6.9932
G1 X90.834 Y87.249 E7.0432
G1 X90.834 Y91.366 E7.2606
G1 X90.757 Y91.443 E7.2664
G1 X90.757 Y93.726 E7.3869
G1 X90.204 Y94.279 E7.4282
G1 X99.789 Y94.279 E7.9343
G1 X101.353 Y95.843 E8.0511
G1 X102.917 Y94.279 E8.1680
G1 X122.947 Y94.279 E9.2256
G1 X125.712 Y97.044 E9.4321
G1 X125.712 Y107.274 E9.9723
G1 X122.947 Y110.039 E10.1788
G1 X121.259 Y110.039 E10.2679
G1 X123.301 Y112.080 E10.4203
G1 X123.301 Y125.930 E11.1516
G1 X120.536 Y128.695 E11.3581
G1 X114.286 Y128.695 E11.6881
G1 X111.711 Y126.120 E11.8804
G1 X111.036 Y126.795 E11.9308
G1 X95.286 Y126.795 E12.7625
G1 X94.781 Y126.291 E12.8002
G1 X93.382 Y127.690 E12.9047
G1 X87.382 Y127.690 E13.2215
G1 X85.382 Y129.690 E13.3708
G1 X79.032 Y129.690 E13.7062
G1 X77.032 Y127.690 E13.8555
G1 X67.032 Y127.690 E14.3835
G1 X64.267 Y124.925 E14.5900
G1 X64.267 Y114.575 E15.1365
G1 X66.895 Y111.946 E15.3328
G1 X65.630 Y110.680 E15.4273
G1 X65.642 Y84.693 E16.7996
G1 X63.631 Y82.682 E16.9498
G1 X63.631 Y76.332 E17.2851
G1 X65.631 Y74.332 E17.4344
G1 X65.631 Y72.332 E17.5400
G1 X68.396 Y69.567 E17.7465
G92 E0.0000
G1 E-0.7000 F1500
G1 X68.595 Y70.047 F4800
G1 E0.0000 F1500
G92 E0.0000
G1 X74.547 Y70.047 E0.3143 F1800
G1 X77.031 Y72.530 E0.4998
G1 X77.031 Y74.530 E0.6054
G1 X77.314 Y74.814 E0.6266
G1 X77.314 Y72.797 E0.7330
G1 X79.798 Y70.314 E0.9185
G1 X89.931 Y70.314 E1.4535
G1 X92.414 Y72.797 E1.6390
G1 X92.414 Y73.696 E1.6865
G1 X93.317 Y72.794 E1.7539
G1 X105.317 Y72.794 E2.3875
G1 X107.317 Y70.794 E2.5369
G1 X125.270 Y70.794 E3.4848
G1 X127.270 Y72.794 E3.6342
G1 X133.270 Y72.794 E3.9510
G1 X135.753 Y75.277 E4.1365
G1 X135.753 Y85.230 E4.6620
G1 X133.270 Y87.714 E4.8475
G1 X127.270 Y87.714 E5.1643
G1 X125.270 Y89.714 E5.3137
G1 X107.317 Y89.714 E6.2616
G1 X105.317 Y87.714 E6.4110
G1 X93.317 Y87.714 E7.0446
G1 X91.504 Y85.900 E7.1800
G1 X90.354 Y87.050 E7.2659
G1 X90.354 Y91.167 E7.4833
G1 X90.277 Y91.244 E7.4891
G1 X90.277 Y93.527 E7.6096
G1 X89.045 Y94.759 E7.7016
G1 X99.590 Y94.759 E8.2584
G1 X101.353 Y96.522 E8.3900
G1 X103.116 Y94.759 E8.5217
G1 X122.748 Y94.759 E9.5584
G1 X125.232 Y97.242 E9.7438
G1 X125.232 Y107.075 E10.2630
G1 X122.748 Y109.559 E10.4485
G1 X103.116 Y109.559 E11.4852
G1 X101.353 Y107.796 E11.6168
G1 X99.590 Y109.559 E11.7485
G1 X79.957 Y109.559 E12.7851
G1 X77.473 Y107.075 E12.9706
G1 X77.473 Y106.277 E13.0128
G1 X77.367 Y106.193 E13.0199
G1 X77.031 Y105.688 E13.0519
G1 X77.031 Y110.483 E13.3051
G1 X75.224 Y112.290 E13.4400
G1 X77.231 Y112.290 E13.5460
G1 X79.231 Y110.290 E13.6953
G1 X85.183 Y110.290 E14.0096
G1 X87.183 Y112.290 E14.1590
G1 X93.183 Y112.290 E14.4758
G1 X94.036 Y113.143 E14.5395
G1 X95.484 Y111.695 E14.6477
G1 X110.837 Y111.695 E15.4583
G1 X112.001 Y112.859 E15.5452
G1 X112.001 Y112.279 E15.5759
G1 X114.484 Y109.795 E15.7613
G1 X120.337 Y109.795 E16.0704
G1 X122.821 Y112.279 E16.2559
G1 X122.821 Y125.731 E16.9662
G1 X120.337 Y128.215 E17.1517
G1 X114.484 Y128.215 E17.4607
G1 X111.711 Y125.441 E17.6678
G1 X110.837 Y126.315 E17.7331
G1 X95.484 Y126.315 E18.5438
G1 X94.781 Y125.612 E18.5963
G1 X93.183 Y127.210 E18.7156
G1 X87.183 Y127.210 E19.0325
G1 X85.183 Y129.210 E19.1818
G1 X79.231 Y129.210 E19.4961
G1 X77.231 Y127.210 E19.6455
G1 X67.231 Y127.210 E20.1735
G1 X64.747 Y124.726 E20.3590
G1 X64.747 Y114.774 E20.8845
G1 X67.231 Y112.290 E21.0700
G1 X67.918 Y112.290 E21.1063
G1 X66.110 Y110.482 E21.2413
G1 X66.122 Y84.494 E22.6135
G1 X64.111 Y82.483 E22.7637
G1 X64.111 Y76.530 E23.0780
G1 X66.111 Y74.530 E23.2274
G1 X66.111 Y72.530 E23.3330
G1 X68.595 Y70.047 E23.5185
G92 E0.0000
G1 E-0.7000 F1500
G1 X77.511 Y107.791 F4800
G1 E0.0000 F1500
G92 E0.0000
G1 X77.511 Y110.682 E0.1526 F1800
G1 X76.383 Y111.810 E0.2369
G1 X77.032 Y111.810 E0.2711
G1 X79.032 Y109.810 E0.4205
G1 X79.530 Y109.810 E0.4468
G1 X77.511 Y107.791 E0.5975
G92 E0.0000
G1 E-0.7000 F1500
G1 X85.611 Y110.039 F4800
G1 E0.0000 F1500
G92 E0.0000
G1 X87.382 Y111.810 E0.1323 F1800
G1 X93.382 Y111.810 E0.4491
G1 X94.036 Y112.464 E0.4980
G1 X95.286 Y111.215 E0.5913
G1 X111.036 Y111.215 E1.4229
G1 X111.711 Y111.890 E1.4733
G1 X113.562 Y110.039 E1.6116
G1 X102.917 Y110.039 E2.1737
G1 X101.353 Y108.475 E2.2905
G1 X99.789 Y110.039 E2.4073
G1 X85.611 Y110.039 E3.1559
G92 E0.0000
G1 E-0.7000 F1500
; feature outer perimeter
G1 X72.230 Y79.456 F4800
G1 E0.0000 F1500
G92 E0.0000
G1 X71.669 Y79.527 E0.0299 F900
G1 X71.060 Y79.568 E0.0621
G1 X70.910 Y79.570 E0.0700
G1 X70.910 Y79.448 E0.0764
G1 X71.747 Y79.353 E0.1209
G1 X72.229 Y79.336 E0.1464
G1 X72.230 Y79.456 E0.1528
G92 E0.0000
G1 E-0.7000 F1500
G1 X72.241 Y80.921 F4800
G1 E0.0000 F1500
G92 E0.0000
G1 X72.240 Y81.041 E0.0063 F900
G1 X71.480 Y81.131 E0.0467
G1 X70.913 Y81.153 E0.0767
G1 X70.913 Y81.037 E0.0828
G1 X71.866 Y80.933 E0.1334
G1 X72.241 Y80.921 E0.1532
G92 E0.0000
G1 E-0.7000 F1500
G1 X72.228 Y82.512 F4800
G1 E0.0000 F1500
G92 E0.0000
G1 X72.228 Y82.631 E0.0063 F900
G1 X71.600 Y82.708 E0.0397
G1 X70.903 Y82.739 E0.0765
G1 X70.903 Y82.623 E0.0827
G1 X71.678 Y82.533 E0.1238
G1 X72.228 Y82.512 E0.1529
G92 E0.0000
G1 E-0.7000 F1500
G1 X72.233 Y84.098 F4800
G1 E0.0000 F1500
G92 E0.0000
G1 X72.234 Y84.221 E0.0065 F900
G1 X72.048 Y84.247 E0.0164
G1 X70.910 Y84.247 E0.0765
G1 X70.910 Y84.212 E0.0784
G1 X71.796 Y84.112 E0.1255
G1 X72.233 Y84.098 E0.1486
G92 E0.0000
G1 E-0.7000 F1500
; feature inner perimeter
G1 X84.412 Y90.430 F4800
G1 E0.0000 F1500
G92 E0.0000
G1 X85.317 Y90.430 E0.0478 F1350
G1 X85.317 Y91.050 E0.0805
G1 X84.412 Y91.050 E0.1283
G1 X84.412 Y90.430 E0.1611
; feature outer perimeter
G1 X83.932 Y89.950 F4800
G92 E0.0000
G1 X85.797 Y89.950 E0.0985 F900
G1 X85.797 Y91.530 E0.1819
G1 X83.932 Y91.530 E0.2804
G1 X83.932 Y89.950 E0.3638
G92 E0.0000
G1 E-0.7000 F1500
G1 X81.152 Y101.207 F4800
G1 E0.0000 F1500
G92 E0.0000
G1 X81.167 Y101.211 E0.0008 F900
G1 X81.194 Y101.226 E0.0025
G1 X81.301 Y101.367 E0.0118
G1 X81.400 Y101.716 E0.0310
G1 X81.439 Y102.069 E0.0497
G1 X81.428 Y102.421 E0.0683
G1 X81.357 Y102.776 E0.0875
G1 X81.302 Y102.932 E0.0962
G1 X81.209 Y103.082 E0.1055
G1 X81.141 Y103.108 E0.1093
G1 X80.738 Y103.108 E0.1306
G1 X80.681 Y103.086 E0.1338
G1 X80.575 Y102.928 E0.1439
G1 X80.521 Y102.776 E0.1524
G1 X80.451 Y102.421 E0.1715
G1 X80.439 Y102.069 E0.1901
G1 X80.479 Y101.716 E0.2089
G1 X80.578 Y101.367 E0.2280
G1 X80.684 Y101.226 E0.2374
G1 X80.712 Y101.211 E0.2390
G1 X80.727 Y101.207 E0.2398
G1 X81.152 Y101.207 E0.2623
; feature gap fill
G1 X80.868 Y101.911 F4800
G92 E0.0000
G1 X81.029 Y102.072 E0.0120 F1800
G1 X81.030 Y102.085 E0.0127
G1 X81.021 Y102.374 E0.0280
G1 X80.963 Y102.668 E0.0438
G1 X80.958 Y102.681 E0.0445
G1 X80.908 Y102.631 E0.0482
G92 E0.0000
G1 E-0.7000 F1500
; feature outer perimeter
G1 X82.459 Y118.743 F4800
G1 E0.0000 F1500
G92 E0.0000
G1 X82.533 Y118.810 E0.0053 F900
G1 X82.679 Y119.221 E0.0283
G1 X82.719 Y119.646 E0.0508
G1 X82.706 Y120.072 E0.0733
G1 X82.679 Y120.249 E0.0828
G1 X82.624 Y120.476 E0.0951
G1 X82.534 Y120.684 E0.1071
G1 X82.457 Y120.770 E0.1132
G1 X82.379 Y120.684 E0.1193
G1 X82.289 Y120.476 E0.1312
G1 X82.234 Y120.249 E0.1436
G1 X82.208 Y120.072 E0.1530
G1 X82.195 Y119.646 E0.1755
G1 X82.232 Y119.234 E0.1974
G1 X82.381 Y118.810 E0.2211
G1 X82.459 Y118.743 E0.2266
G92 E0.0000
G1 E-0.7000 F1500
G1 X103.839 Y103.086 F4800
G1 E0.0000 F1500
G92 E0.0000
G1 X103.734 Y102.928 E0.0100 F900
G1 X103.680 Y102.776 E0.0185
G1 X103.609 Y102.421 E0.0377
G1 X103.598 Y102.069 E0.0563
G1 X103.637 Y101.716 E0.0750
G1 X103.736 Y101.367 E0.0942
G1 X103.843 Y101.226 E0.1035
G1 X103.870 Y101.211 E0.1052
G1 X103.885 Y101.207 E0.1060
G1 X104.310 Y101.207 E0.1284
G1 X104.325 Y101.211 E0.1293
G1 X104.353 Y101.226 E0.1309
G1 X104.459 Y101.367 E0.1402
G1 X104.558 Y101.716 E0.1594
G1 X104.598 Y102.069 E0.1782
G1 X104.586 Y102.421 E0.1967
G1 X104.516 Y102.776 E0.2159
G1 X104.460 Y102.932 E0.2246
G1 X104.368 Y103.082 E0.2339
G1 X104.299 Y103.108 E0.2378
G1 X103.896 Y103.108 E0.2591
G1 X103.839 Y103.086 E0.2623
; feature gap fill
G1 X104.187 Y102.150 F4800
G92 E0.0000
G1 X104.018 Y101.982 E0.0126 F1800
G92 E0.0000
G1 E-0.7000 F1500
; feature outer perimeter
G1 X109.835 Y118.065 F4800
G1 E0.0000 F1500
G92 E0.0000
G1 X110.108 Y118.067 E0.0144 F900
G1 X110.148 Y118.443 E0.0344
G1 X110.200 Y119.150 E0.0718
G1 X110.222 Y119.943 E0.1137
G1 X109.954 Y119.944 E0.1278
G1 X109.853 Y118.761 E0.1905
G1 X109.835 Y118.065 E0.2273
G92 E0.0000
G1 E-0.7000 F1500
G1 X111.847 Y118.067 F4800
G1 E0.0000 F1500
G92 E0.0000
G1 X112.116 Y118.065 E0.0142 F900
G1 X112.204 Y119.041 E0.0660
G1 X112.232 Y119.944 E0.1136
G1 X111.964 Y119.943 E0.1278
G1 X111.871 Y118.887 E0.1837
G1 X111.847 Y118.067 E0.2271
G92 E0.0000
G1 E-0.7000 F1500
G1 X113.857 Y118.065 F4800
G1 E0.0000 F1500
G92 E0.0000
G1 X114.127 Y118.067 E0.0143 F900
G1 X114.208 Y118.933 E0.0602
G1 X114.242 Y119.637 E0.0974
G1 X114.247 Y119.943 E0.1136
G1 X113.976 Y119.943 E0.1279
G1 X113.876 Y118.777 E0.1897
G1 X113.857 Y118.065 E0.2273
G92 E0.0000
G1 E-0.7000 F1500
; feature inner perimeter
G1 X109.312 Y80.795 F4800
G1 E0.0000 F1500
G92 E0.0000
G1 X109.272 Y80.251 E0.0288 F1350
G1 X109.310 Y79.727 E0.0565
G1 X121.776 Y79.727 E0.7148
G1 X121.815 Y80.251 E0.7425
G1 X121.775 Y80.795 E0.7713
G1 X109.312 Y80.795 E1.4294
; feature outer perimeter
G1 X108.839 Y80.811 F4800
G92 E0.0000
G1 X108.828 Y80.759 E0.0028 F900
G1 X108.790 Y80.251 E0.0297
G1 X108.828 Y79.742 E0.0567
G1 X108.839 Y79.690 E0.0595
G1 X109.006 Y79.289 E0.0824
G1 X109.097 Y79.247 E0.0877
G1 X121.992 Y79.247 E0.7686
G1 X122.090 Y79.290 E0.7742
G1 X122.247 Y79.688 E0.7968
G1 X122.259 Y79.742 E0.7997
G1 X122.296 Y80.251 E0.8266
G1 X122.259 Y80.759 E0.8536
G1 X122.247 Y80.811 E0.8564
