; G-Code generated by Simplify3D(R) Version 4.1.1
; Apr 28, 2021 at 3:24:19 PM
; Settings Summary
;   processName,Trideo BOX
;   applyToModels,FingerStopper,ThumbClip,thumbscrew,UpperArm - Finger Conector,UpperArm - Palm connector,UpperArm - Thumb short conector,UpperArm - Palm connector(2)
;   profileName,Trideo BOX
;   profileVersion,2021-04-15 09:48:16
;   baseProfile,Default
;   printMaterial,PLA
;   printQuality,Fast
;   printExtruders,
;   extruderName,Primary Extruder
;   extruderToolheadNumber,0
;   extruderDiameter,0.4
;   extruderAutoWidth,1
;   extruderWidth,0.48
;   extrusionMultiplier,0.98
;   extruderUseRetract,1
;   extruderRetractionDistance,0.7
;   extruderExtraRestartDistance,0
;   extruderRetractionZLift,0
;   extruderRetractionSpeed,1500
;   extruderUseCoasting,0
;   extruderCoastingDistance,0.2
;   extruderUseWipe,0
;   extruderWipeDistance,5
;   primaryExtruder,0
;   layerHeight,0.3
;   topSolidLayers,3
;   bottomSolidLayers,3
;   perimeterOutlines,2
;   printPerimetersInsideOut,1
;   startPointOption,2
;   startPointOriginX,0
;   startPointOriginY,0
;   sequentialIslands,0
;   spiralVaseMode,0
;   firstLayerHeightPercentage,90
;   firstLayerWidthPercentage,100
;   firstLayerUnderspeed,0.5
;   useRaft,0
;   raftExtruder,0
;   raftTopLayers,3
;   raftBaseLayers,2
;   raftOffset,3
;   raftSeparationDistance,0.14
;   raftTopInfill,100
;   aboveRaftSpeedMultiplier,0.3
;   useSkirt,1
;   skirtExtruder,0
;   skirtLayers,1
;   skirtOutlines,2
;   skirtOffset,4
;   usePrimePillar,0
;   primePillarExtruder,999
;   primePillarWidth,12
;   primePillarLocation,7
;   primePillarSpeedMultiplier,1
;   useOozeShield,0
;   oozeShieldExtruder,999
;   oozeShieldOffset,2
;   oozeShieldOutlines,1
;   oozeShieldSidewallShape,1
;   oozeShieldSidewallAngle,30
;   oozeShieldSpeedMultiplier,1
;   infillExtruder,0
;   internalInfillPattern,Rectilinear
;   externalInfillPattern,Rectilinear
;   infillPercentage,15
;   outlineOverlapPercentage,15
;   infillExtrusionWidthPercentage,100
;   minInfillLength,5
;   infillLayerInterval,1
;   internalInfillAngles,45,-45
;   overlapInternalInfillAngles,0
;   externalInfillAngles,45,-45
;   generateSupport,1
;   supportExtruder,0
;   supportInfillPercentage,25
;   supportExtraInflation,0
;   supportBaseLayers,0
;   denseSupportExtruder,0
;   denseSupportLayers,0
;   denseSupportInfillPercentage,70
;   supportLayerInterval,1
;   supportHorizontalPartOffset,0.3
;   supportUpperSeparationLayers,1
;   supportLowerSeparationLayers,1
;   supportType,0
;   supportGridSpacing,4
;   maxOverhangAngle,45
;   supportAngles,0
;   temperatureName,Primary Extruder,Heated bed
;   temperatureNumber,0,0
;   temperatureSetpointCount,1,1
;   temperatureSetpointLayers,1,1
;   temperatureSetpointTemperatures,190,60
;   temperatureStabilizeAtStartup,1,1
;   temperatureHeatedBed,0,1
;   fanLayers,1,2
;   fanSpeeds,0,100
;   blipFanToFullPower,0
;   adjustSpeedForCooling,1
;   minSpeedLayerTime,15
;   minCoolingSpeedSlowdown,20
;   increaseFanForCooling,0
;   minFanLayerTime,45
;   maxCoolingFanSpeed,100
;   increaseFanForBridging,0
;   bridgingFanSpeed,100
;   use5D,1
;   relativeEdistances,0
;   allowEaxisZeroing,1
;   independentExtruderAxes,0
;   includeM10123,0
;   stickySupport,1
;   applyToolheadOffsets,0
;   gcodeXoffset,0
;   gcodeYoffset,0
;   gcodeZoffset,0
;   overrideMachineDefinition,1
;   machineTypeOverride,0
;   strokeXoverride,200
;   strokeYoverride,200
;   strokeZoverride,200
;   originOffsetXoverride,0
;   originOffsetYoverride,0
;   originOffsetZoverride,0
;   homeXdirOverride,-1
;   homeYdirOverride,-1
;   homeZdirOverride,-1
;   flipXoverride,1
;   flipYoverride,-1
;   flipZoverride,1
;   toolheadOffsets,0,0|0,0|0,0|0,0|0,0|0,0
;   overrideFirmwareConfiguration,0
;   firmwareTypeOverride,RepRap (Marlin/Repetier/Sprinter)
;   GPXconfigOverride,r2
;   baudRateOverride,115200
;   overridePrinterModels,0
;   printerModelsOverride
;   startingGcode,G28 X0 Y0; home XY,G1 X20 Y20,G28 Z0,G1 Z5 F5000; Lift NZ
;   layerChangeGcode,
;   retractionGcode,
;   toolChangeGcode,
;   endingGcode,M104 S0 ; turn off extruder,G28 X0 ; home x,M140 S0 ; turn off bed,M84 ; disable motors,M107 ;
;   exportFileFormat,gcode
;   celebration,0
;   celebrationSong,Looney Toons
;   postProcessing,
;   defaultSpeed,3600
;   outlineUnderspeed,0.5
;   solidInfillUnderspeed,0.8
;   supportUnderspeed,0.8
;   rapidXYspeed,4800
;   rapidZspeed,1002
;   minBridgingArea,50
;   bridgingExtraInflation,0
;   bridgingExtrusionMultiplier,1
;   bridgingSpeedMultiplier,1
;   useFixedBridgingAngle,0
;   fixedBridgingAngle,0
;   applyBridgingToPerimeters,0
;   filamentDiameters,1.75|1.75|1.75|1.75|1.75|1.75
;   filamentPricesPerKg,46|46|46|46|46|46
;   filamentDensities,1.25|1.25|1.25|1.25|1.25|1.25
;   useMinPrintHeight,0
;   minPrintHeight,0
;   useMaxPrintHeight,0
;   maxPrintHeight,0
;   useDiaphragm,0
;   diaphragmLayerInterval,20
;   robustSlicing,1
;   mergeAllIntoSolid,0
;   onlyRetractWhenCrossingOutline,1
;   retractBetweenLayers,1
;   useRetractionMinTravel,0
;   retractionMinTravel,3
;   retractWhileWiping,0
;   onlyWipeOutlines,1
;   avoidCrossingOutline,0
;   maxMovementDetourFactor,3
;   toolChangeRetractionDistance,12
;   toolChangeExtraRestartDistance,-0.5
;   toolChangeRetractionSpeed,600
;   externalThinWallType,0
;   internalThinWallType,2
;   thinWallAllowedOverlapPercentage,10
;   singleExtrusionMinLength,1
;   singleExtrusionMinPrintingWidthPercentage,50
;   singleExtrusionMaxPrintingWidthPercentage,200
;   singleExtrusionEndpointExtension,0.2
;   horizontalSizeCompensation,0
G90
M82
M106 S0
M140 S60
M190 S60
M104 S190 T0
M109 S190 T0
G28 X0 Y0; home XY
G1 X20 Y20
G28 Z0
G1 Z5 F5000; Lift NZ
; process Trideo BOX
; layer 1, Z = 0.270
T0
G92 E0.0000
G1 E-0.7000 F1500
; feature skirt
; tool H0.270 W0.480
G1 Z0.270 F1002
G1 X68.296 Y67.867 F4800
G1 E0.0000 F1500
G92 E0.0000
G1 X74.846 Y67.867 E0.3459 F1800
G1 X77.611 Y70.632 E0.5523
G1 X77.611 Y70.832 E0.5629
G1 X79.329 Y69.114 E0.6912
G1 X90.399 Y69.114 E1.2758
G1 X93.164 Y71.879 E1.4822
G1 X93.164 Y72.014 E1.4894
G1 X104.518 Y72.014 E2.0889
G1 X106.718 Y69.814 E2.2532
G1 X126.468 Y69.814 E3.2961
G1 X128.668 Y72.014 E3.4604
G1 X135.268 Y72.014 E3.8089
G1 X138.033 Y74.779 E4.0153
G1 X138.033 Y85.729 E4.5935
G1 X135.268 Y88.494 E4.8000
G1 X128.668 Y88.494 E5.1485
G1 X126.468 Y90.694 E5.3128
G1 X106.718 Y90.694 E6.3557
G1 X104.518 Y88.494 E6.5200
G1 X91.318 Y88.494 E7.2170
G1 X90.924 Y88.100 E7.2464
G1 X90.924 Y91.909 E7.4475
G1 X90.811 Y92.022 E7.4560
G1 X90.811 Y93.979 E7.5593
G1 X100.689 Y93.979 E8.0809
G1 X101.453 Y94.743 E8.1379
G1 X102.217 Y93.979 E8.1950
G1 X123.847 Y93.979 E9.3371
G1 X126.612 Y96.744 E9.5436
G1 X126.612 Y107.574 E10.1155
G1 X123.847 Y110.339 E10.3220
G1 X123.160 Y110.339 E10.3583
G1 X124.401 Y111.580 E10.4509
G1 X124.401 Y126.430 E11.2351
G1 X121.636 Y129.195 E11.4416
G1 X115.186 Y129.195 E11.7822
G1 X112.111 Y126.120 E12.0118
G1 X111.136 Y127.095 E12.0846
G1 X95.377 Y127.095 E12.9167
G1 X94.482 Y127.990 E12.9835
G1 X87.882 Y127.990 E13.3321
G1 X85.682 Y130.190 E13.4963
G1 X79.132 Y130.190 E13.8422
G1 X76.932 Y127.990 E14.0065
G1 X65.932 Y127.990 E14.5873
G1 X63.167 Y125.225 E14.7938
G1 X63.167 Y114.275 E15.3720
G1 X65.531 Y111.911 E15.5486
G1 X65.531 Y83.782 E17.0339
G1 X63.331 Y81.582 E17.1982
G1 X63.331 Y75.032 E17.5440
G1 X65.531 Y72.832 E17.7083
G1 X65.531 Y70.632 E17.8245
G1 X68.296 Y67.867 E18.0310
G92 E0.0000
G1 E-0.7000 F1500
G1 X68.495 Y68.347 F4800
G1 E0.0000 F1500
G92 E0.0000
G1 X74.647 Y68.347 E0.3249 F1800
G1 X77.131 Y70.831 E0.5104
G1 X77.131 Y71.991 E0.5716
G1 X79.528 Y69.594 E0.7506
G1 X90.201 Y69.594 E1.3142
G1 X92.684 Y72.077 E1.4996
G1 X92.684 Y72.494 E1.5216
G1 X104.717 Y72.494 E2.1570
G1 X106.917 Y70.294 E2.3213
G1 X126.270 Y70.294 E3.3432
G1 X128.470 Y72.494 E3.5075
G1 X135.070 Y72.494 E3.8560
G1 X137.553 Y74.977 E4.0414
G1 X137.553 Y85.530 E4.5986
G1 X135.070 Y88.014 E4.7841
G1 X128.470 Y88.014 E5.1326
G1 X126.270 Y90.214 E5.2969
G1 X106.917 Y90.214 E6.3188
G1 X104.717 Y88.014 E6.4831
G1 X91.517 Y88.014 E7.1801
G1 X90.589 Y87.085 E7.2494
G1 X90.444 Y87.230 E7.2602
G1 X90.444 Y91.710 E7.4968
G1 X90.331 Y91.823 E7.5052
G1 X90.331 Y94.292 E7.6356
G1 X90.165 Y94.459 E7.6480
G1 X100.490 Y94.459 E8.1932
G1 X101.453 Y95.422 E8.2651
G1 X102.416 Y94.459 E8.3370
G1 X123.648 Y94.459 E9.4582
G1 X126.132 Y96.942 E9.6437
G1 X126.132 Y107.375 E10.1946
G1 X123.648 Y109.859 E10.3800
G1 X122.001 Y109.859 E10.4670
G1 X123.921 Y111.779 E10.6104
G1 X123.921 Y126.231 E11.3736
G1 X121.437 Y128.715 E11.5590
G1 X115.385 Y128.715 E11.8786
G1 X112.111 Y125.441 E12.1231
G1 X110.937 Y126.615 E12.2107
G1 X95.178 Y126.615 E13.0429
G1 X94.283 Y127.510 E13.1097
G1 X87.683 Y127.510 E13.4582
G1 X85.483 Y129.710 E13.6225
G1 X79.331 Y129.710 E13.9474
G1 X77.131 Y127.510 E14.1117
G1 X66.131 Y127.510 E14.6925
G1 X63.647 Y125.026 E14.8780
G1 X63.647 Y114.474 E15.4352
G1 X66.011 Y112.109 E15.6118
G1 X66.011 Y83.583 E17.1181
G1 X63.811 Y81.383 E17.2823
G1 X63.811 Y75.231 E17.6072
G1 X66.011 Y73.031 E17.7715
G1 X66.011 Y70.831 E17.8877
G1 X68.495 Y68.347 E18.0731
G92 E0.0000
G1 E-0.7000 F1500
; feature outer perimeter
G1 X70.864 Y76.622 F4800
G1 E0.0000 F1500
G92 E0.0000
G1 X71.384 Y76.622 E0.0275 F900
G1 X70.864 Y76.645 E0.0550
G1 X70.864 Y76.622 E0.0562
G92 E0.0000
G1 E-0.7000 F1500
G1 X70.860 Y78.218 F4800
G1 E0.0000 F1500
G92 E0.0000
G1 X71.761 Y78.117 E0.0478 F900
G1 X72.276 Y78.098 E0.0751
G1 X72.277 Y78.275 E0.0845
G1 X71.685 Y78.349 E0.1160
G1 X71.011 Y78.394 E0.1516
G1 X70.861 Y78.397 E0.1595
G1 X70.860 Y78.218 E0.1690
G92 E0.0000
G1 E-0.7000 F1500
G1 X70.871 Y79.962 F4800
G1 E0.0000 F1500
G92 E0.0000
G1 X71.552 Y79.880 E0.0362 F900
G1 X72.280 Y79.846 E0.0747
G1 X72.279 Y80.020 E0.0839
G1 X71.476 Y80.113 E0.1265
G1 X70.871 Y80.138 E0.1585
G1 X70.871 Y79.962 E0.1678
G92 E0.0000
G1 E-0.7000 F1500
G1 X70.860 Y81.710 F4800
G1 E0.0000 F1500
G92 E0.0000
G1 X71.684 Y81.615 E0.0438 F900
G1 X72.272 Y81.592 E0.0748
G1 X72.272 Y81.768 E0.0841
G1 X71.608 Y81.848 E0.1194
G1 X70.859 Y81.883 E0.1590
G1 X70.860 Y81.710 E0.1681
G92 E0.0000
G1 E-0.7000 F1500
G1 X70.862 Y83.457 F4800
G1 E0.0000 F1500
G92 E0.0000
G1 X71.815 Y83.352 E0.0506 F900
G1 X72.283 Y83.336 E0.0754
G1 X72.284 Y83.516 E0.0849
G1 X72.068 Y83.545 E0.0964
G1 X70.860 Y83.545 E0.1602
G1 X70.862 Y83.457 E0.1648
G92 E0.0000
G1 E-0.7000 F1500
; feature inner perimeter
G1 X84.357 Y91.016 F4800
G1 E0.0000 F1500
G92 E0.0000
G1 X85.371 Y91.016 E0.0536 F1350
G1 X85.371 Y91.816 E0.0958
G1 X84.357 Y91.816 E0.1494
G1 X84.357 Y91.016 E0.1916
; feature outer perimeter
G1 X83.877 Y90.536 F4800
G92 E0.0000
G1 X85.851 Y90.536 E0.1042 F900
G1 X85.851 Y92.296 E0.1972
G1 X83.877 Y92.296 E0.3014
G1 X83.877 Y90.536 E0.3944
G92 E0.0000
G1 E-0.7000 F1500
G1 X80.353 Y101.141 F4800
G1 E0.0000 F1500
G92 E0.0000
G1 X80.439 Y101.183 E0.0050 F900
G1 X80.533 Y101.308 E0.0133
G1 X80.552 Y101.347 E0.0156
G1 X80.640 Y101.665 E0.0330
G1 X80.687 Y102.059 E0.0540
G1 X80.671 Y102.450 E0.0746
G1 X80.592 Y102.848 E0.0960
G1 X80.560 Y102.940 E0.1012
G1 X80.437 Y103.139 E0.1136
G1 X80.368 Y103.162 E0.1174
G1 X79.906 Y103.162 E0.1418
G1 X79.845 Y103.142 E0.1452
G1 X79.716 Y102.939 E0.1579
G1 X79.683 Y102.848 E0.1630
G1 X79.605 Y102.450 E0.1844
G1 X79.589 Y102.059 E0.2051
G1 X79.636 Y101.665 E0.2260
G1 X79.724 Y101.347 E0.2434
G1 X79.743 Y101.308 E0.2457
G1 X79.837 Y101.183 E0.2540
G1 X79.923 Y101.141 E0.2590
G1 X80.353 Y101.141 E0.2817
; feature gap fill
G1 X80.079 Y101.593 F4800
G92 E0.0000
G1 X80.239 Y101.753 E0.0119 F1800
G1 X80.278 Y102.075 E0.0291
G1 X80.265 Y102.402 E0.0464
G1 X80.256 Y102.448 E0.0488
G1 X80.003 Y102.195 E0.0677
G92 E0.0000
G1 E-0.7000 F1500
; feature outer perimeter
G1 X82.670 Y118.681 F4800
G1 E0.0000 F1500
G92 E0.0000
G1 X82.691 Y118.681 E0.0011 F900
G1 X82.783 Y118.769 E0.0078
G1 X82.921 Y119.177 E0.0306
G1 X82.973 Y119.635 E0.0549
G1 X82.947 Y120.177 E0.0836
G1 X82.855 Y120.558 E0.1043
G1 X82.787 Y120.714 E0.1133
G1 X82.682 Y120.831 E0.1216
G1 X82.576 Y120.714 E0.1299
G1 X82.509 Y120.560 E0.1388
G1 X82.404 Y120.098 E0.1638
G1 X82.391 Y119.637 E0.1881
G1 X82.442 Y119.178 E0.2125
G1 X82.593 Y118.751 E0.2365
G1 X82.670 Y118.681 E0.2419
G92 E0.0000
G1 E-0.7000 F1500
G1 X103.003 Y103.142 F4800
G1 E0.0000 F1500
G92 E0.0000
G1 X102.874 Y102.939 E0.0127 F900
G1 X102.842 Y102.848 E0.0178
G1 X102.763 Y102.450 E0.0392
G1 X102.748 Y102.059 E0.0599
G1 X102.794 Y101.665 E0.0808
G1 X102.882 Y101.347 E0.0983
G1 X102.901 Y101.308 E0.1006
G1 X102.995 Y101.183 E0.1088
G1 X103.081 Y101.141 E0.1139
G1 X103.511 Y101.141 E0.1366
G1 X103.597 Y101.183 E0.1416
G1 X103.691 Y101.308 E0.1498
G1 X103.710 Y101.347 E0.1521
G1 X103.798 Y101.665 E0.1696
G1 X103.845 Y102.059 E0.1905
G1 X103.829 Y102.450 E0.2112
G1 X103.751 Y102.848 E0.2326
G1 X103.718 Y102.940 E0.2377
G1 X103.595 Y103.139 E0.2501
G1 X103.527 Y103.162 E0.2539
G1 X103.064 Y103.162 E0.2783
G1 X103.003 Y103.142 E0.2817
; feature gap fill
G1 X103.164 Y102.277 F4800
G92 E0.0000
G1 X103.401 Y102.513 E0.0177 F1800
G1 X103.423 Y102.402 E0.0236
G1 X103.436 Y102.075 E0.0409
G1 X103.408 Y101.842 E0.0533
G1 X103.221 Y101.654 E0.0673
G92 E0.0000
G1 E-0.7000 F1500
; feature outer perimeter
G1 X110.018 Y118.007 F4800
G1 E0.0000 F1500
G92 E0.0000
G1 X110.366 Y118.006 E0.0184 F900
G1 X110.404 Y118.380 E0.0382
G1 X110.462 Y119.164 E0.0797
G1 X110.487 Y120.005 E0.1242
G1 X110.141 Y120.003 E0.1424
G1 X110.051 Y118.998 E0.1957
G1 X110.018 Y118.007 E0.2481
G92 E0.0000
G1 E-0.7000 F1500
G1 X112.240 Y118.006 F4800
G1 E0.0000 F1500
G92 E0.0000
G1 X112.585 Y118.007 E0.0182 F900
G1 X112.678 Y119.043 E0.0732
G1 X112.709 Y120.004 E0.1239
G1 X112.365 Y120.006 E0.1421
G1 X112.266 Y118.877 E0.2020
G1 X112.240 Y118.006 E0.2480
G92 E0.0000
G1 E-0.7000 F1500
G1 X114.463 Y118.006 F4800
G1 E0.0000 F1500
G92 E0.0000
G1 X114.808 Y118.006 E0.0182 F900
G1 X114.892 Y118.923 E0.0668
G1 X114.930 Y119.704 E0.1081
G1 X114.936 Y120.006 E0.1241
G1 X114.586 Y120.004 E0.1425
G1 X114.497 Y119.016 E0.1949
G1 X114.463 Y118.006 E0.2482
G92 E0.0000
G1 E-0.7000 F1500
; feature inner perimeter
G1 X108.921 Y80.865 F4800
G1 E0.0000 F1500
G92 E0.0000
G1 X108.851 Y80.687 E0.0101 F1350
G1 X108.819 Y80.250 E0.0332
G1 X108.862 Y79.667 E0.0641
G1 X122.675 Y79.667 E0.7935
G1 X122.718 Y80.250 E0.8243
G1 X122.686 Y80.687 E0.8475
G1 X122.615 Y80.865 E0.8575
G1 X108.921 Y80.865 E1.5806
; feature outer perimeter
G1 X108.685 Y81.345 F4800
G92 E0.0000
G1 X108.567 Y81.274 E0.0073 F900
G1 X108.378 Y80.796 E0.0344
G1 X108.337 Y80.250 E0.0633
G1 X108.378 Y79.705 E0.0922
G1 X108.562 Y79.239 E0.1186
G1 X108.672 Y79.187 E0.1250
G1 X122.865 Y79.187 E0.8745
G1 X122.975 Y79.239 E0.8809
G1 X123.159 Y79.705 E0.9073
G1 X123.199 Y80.250 E0.9362
G1 X123.159 Y80.796 E0.9651
G1 X122.970 Y81.274 E0.9923
G1 X122.852 Y81.345 E0.9995
G1 X108.685 Y81.345 E1.7476
; feature solid layer
G1 X109.855 Y80.457 F4800
G92 E0.0000
G1 X109.474 Y80.075 E0.0285 F1440
G1 X110.153 Y80.075 E0.0643
G1 X110.534 Y80.457 E0.0928
G1 X111.213 Y80.457 E0.1286
G1 X110.832 Y80.075 E0.1571
G1 X111.510 Y80.075 E0.1929
G1 X111.892 Y80.457 E0.2214
G1 X112.570 Y80.457 E0.2573
G1 X112.189 Y80.075 E0.2857
G1 X112.868 Y80.075 E0.3216
G1 X113.249 Y80.457 E0.3501
G1 X113.928 Y80.457 E0.3859
G1 X113.547 Y80.075 E0.4144
G1 X114.226 Y80.075 E0.4502
G1 X114.607 Y80.457 E0.4787
G1 X115.286 Y80.457 E0.5145
G1 X114.904 Y80.075 E0.5430
G1 X115.583 Y80.075 E0.5788
G1 X115.965 Y80.457 E0.6073
G1 X116.643 Y80.457 E0.6432
G1 X116.262 Y80.075 E0.6716
G1 X116.941 Y80.075 E0.7075
G1 X117.322 Y80.457 E0.7359
G1 X118.001 Y80.457 E0.7718
G1 X117.620 Y80.075 E0.8003
G1 X118.299 Y80.075 E0.8361
G1 X118.680 Y80.457 E0.8646
G1 X119.359 Y80.457 E0.9004
G1 X118.977 Y80.075 E0.9289
G1 X119.656 Y80.075 E0.9647
G1 X120.037 Y80.457 E0.9932
G1 X120.716 Y80.457 E1.0291
G1 X120.335 Y80.075 E1.0575
G1 X121.014 Y80.075 E1.0934
G1 X121.395 Y80.457 E1.1218
G1 X122.074 Y80.457 E1.1577
G1 X121.693 Y80.075 E1.1862
G92 E0.0000
G1 E-0.7000 F1500
; feature support
G1 X124.323 Y81.748 F4800
G1 E0.0000 F1500
G92 E0.0000
