; G-Code generated by Simplify3D(R) Version 4.1.1
; Apr 28, 2021 at 3:25:39 PM
; Settings Summary
;   processName,Trideo BOX
;   applyToModels,FingerStopper,ThumbClip,thumbscrew,UpperArm - Finger Conector,UpperArm - Palm connector,UpperArm - Thumb short conector,UpperArm - Palm connector(2)
;   profileName,Trideo BOX
;   profileVersion,2021-04-15 09:48:16
;   baseProfile,Default
;   printMaterial,PLA
;   printQuality,Fast
;   printExtruders,
;   extruderName,Primary Extruder
;   extruderToolheadNumber,0
;   extruderDiameter,0.4
;   extruderAutoWidth,1
;   extruderWidth,0.48
;   extrusionMultiplier,0.98
;   extruderUseRetract,1
;   extruderRetractionDistance,0.7
;   extruderExtraRestartDistance,0
;   extruderRetractionZLift,0
;   extruderRetractionSpeed,1500
;   extruderUseCoasting,0
;   extruderCoastingDistance,0.2
;   extruderUseWipe,0
;   extruderWipeDistance,5
;   primaryExtruder,0
;   layerHeight,0.3
;   topSolidLayers,3
;   bottomSolidLayers,3
;   perimeterOutlines,2
;   printPerimetersInsideOut,1
;   startPointOption,2
;   startPointOriginX,0
;   startPointOriginY,0
;   sequentialIslands,0
;   spiralVaseMode,0
;   firstLayerHeightPercentage,90
;   firstLayerWidthPercentage,100
;   firstLayerUnderspeed,0.5
;   useRaft,0
;   raftExtruder,0
;   raftTopLayers,3
;   raftBaseLayers,2
;   raftOffset,3
;   raftSeparationDistance,0.14
;   raftTopInfill,100
;   aboveRaftSpeedMultiplier,0.3
;   useSkirt,1
;   skirtExtruder,0
;   skirtLayers,1
;   skirtOutlines,2
;   skirtOffset,4
;   usePrimePillar,0
;   primePillarExtruder,999
;   primePillarWidth,12
;   primePillarLocation,7
;   primePillarSpeedMultiplier,1
;   useOozeShield,0
;   oozeShieldExtruder,999
;   oozeShieldOffset,2
;   oozeShieldOutlines,1
;   oozeShieldSidewallShape,1
;   oozeShieldSidewallAngle,30
;   oozeShieldSpeedMultiplier,1
;   infillExtruder,0
;   internalInfillPattern,Rectilinear
;   externalInfillPattern,Rectilinear
;   infillPercentage,15
;   outlineOverlapPercentage,15
;   infillExtrusionWidthPercentage,100
;   minInfillLength,5
;   infillLayerInterval,1
;   internalInfillAngles,45,-45
;   overlapInternalInfillAngles,0
;   externalInfillAngles,45,-45
;   generateSupport,1
;   supportExtruder,0
;   supportInfillPercentage,25
;   supportExtraInflation,0
;   supportBaseLayers,0
;   denseSupportExtruder,0
;   denseSupportLayers,0
;   denseSupportInfillPercentage,70
;   supportLayerInterval,1
;   supportHorizontalPartOffset,0.3
;   supportUpperSeparationLayers,1
;   supportLowerSeparationLayers,1
;   supportType,0
;   supportGridSpacing,4
;   maxOverhangAngle,45
;   supportAngles,0
;   temperatureName,Primary Extruder,Heated bed
;   temperatureNumber,0,0
;   temperatureSetpointCount,1,1
;   temperatureSetpointLayers,1,1
;   temperatureSetpointTemperatures,190,60
;   temperatureStabilizeAtStartup,1,1
;   temperatureHeatedBed,0,1
;   fanLayers,1,2
;   fanSpeeds,0,100
;   blipFanToFullPower,0
;   adjustSpeedForCooling,1
;   minSpeedLayerTime,15
;   minCoolingSpeedSlowdown,20
;   increaseFanForCooling,0
;   minFanLayerTime,45
;   maxCoolingFanSpeed,100
;   increaseFanForBridging,0
;   bridgingFanSpeed,100
;   use5D,1
;   relativeEdistances,0
;   allowEaxisZeroing,1
;   independentExtruderAxes,0
;   includeM10123,0
;   stickySupport,1
;   applyToolheadOffsets,0
;   gcodeXoffset,0
;   gcodeYoffset,0
;   gcodeZoffset,0
;   overrideMachineDefinition,1
;   machineTypeOverride,0
;   strokeXoverride,200
;   strokeYoverride,200
;   strokeZoverride,200
;   originOffsetXoverride,0
;   originOffsetYoverride,0
;   originOffsetZoverride,0
;   homeXdirOverride,-1
;   homeYdirOverride,-1
;   homeZdirOverride,-1
;   flipXoverride,1
;   flipYoverride,-1
;   flipZoverride,1
;   toolheadOffsets,0,0|0,0|0,0|0,0|0,0|0,0
;   overrideFirmwareConfiguration,0
;   firmwareTypeOverride,RepRap (Marlin/Repetier/Sprinter)
;   GPXconfigOverride,r2
;   baudRateOverride,115200
;   overridePrinterModels,0
;   printerModelsOverride
;   startingGcode,G28 X0 Y0; home XY,G1 X20 Y20,G28 Z0,G1 Z5 F5000; Lift NZ
;   layerChangeGcode,
;   retractionGcode,
;   toolChangeGcode,
;   endingGcode,M104 S0 ; turn off extruder,G28 X0 ; home x,M140 S0 ; turn off bed,M84 ; disable motors,M107 ;
;   exportFileFormat,gcode
;   celebration,0
;   celebrationSong,Looney Toons
;   postProcessing,
;   defaultSpeed,3600
;   outlineUnderspeed,0.5
;   solidInfillUnderspeed,0.8
;   supportUnderspeed,0.8
;   rapidXYspeed,4800
;   rapidZspeed,1002
;   minBridgingArea,50
;   bridgingExtraInflation,0
;   bridgingExtrusionMultiplier,1
;   bridgingSpeedMultiplier,1
;   useFixedBridgingAngle,0
;   fixedBridgingAngle,0
;   applyBridgingToPerimeters,0
;   filamentDiameters,1.75|1.75|1.75|1.75|1.75|1.75
;   filamentPricesPerKg,46|46|46|46|46|46
;   filamentDensities,1.25|1.25|1.25|1.25|1.25|1.25
;   useMinPrintHeight,0
;   minPrintHeight,0
;   useMaxPrintHeight,0
;   maxPrintHeight,0
;   useDiaphragm,0
;   diaphragmLayerInterval,20
;   robustSlicing,1
;   mergeAllIntoSolid,0
;   onlyRetractWhenCrossingOutline,1
;   retractBetweenLayers,1
;   useRetractionMinTravel,0
;   retractionMinTravel,3
;   retractWhileWiping,0
;   onlyWipeOutlines,1
;   avoidCrossingOutline,0
;   maxMovementDetourFactor,3
;   toolChangeRetractionDistance,12
;   toolChangeExtraRestartDistance,-0.5
;   toolChangeRetractionSpeed,600
;   externalThinWallType,0
;   internalThinWallType,2
;   thinWallAllowedOverlapPercentage,10
;   singleExtrusionMinLength,1
;   singleExtrusionMinPrintingWidthPercentage,50
;   singleExtrusionMaxPrintingWidthPercentage,200
;   singleExtrusionEndpointExtension,0.2
;   horizontalSizeCompensation,0
G90
M82
M106 S0
M140 S60
M190 S60
M104 S190 T0
M109 S190 T0
G28 X0 Y0; home XY
G1 X20 Y20
G28 Z0
G1 Z5 F5000; Lift NZ
; process Trideo BOX
; layer 1, Z = 0.270
T0
G92 E0.0000
G1 E-0.7000 F1500
; feature skirt
; tool H0.270 W0.480
G1 Z0.270 F1002
G1 X63.590 Y65.672 F4800
G1 E0.0000 F1500
G92 E0.0000
G1 X70.340 Y65.672 E0.3564 F1800
G1 X73.105 Y68.437 E0.5629
G1 X73.105 Y70.837 E0.6896
G1 X73.237 Y70.969 E0.6995
G1 X73.237 Y68.749 E0.8167
G1 X76.002 Y65.984 E1.0232
G1 X87.672 Y65.984 E1.6394
G1 X90.437 Y68.749 E1.8459
G1 X90.437 Y69.628 E1.8923
G1 X91.097 Y68.968 E1.9415
G1 X105.497 Y68.968 E2.7019
G1 X107.897 Y66.568 E2.8811
G1 X129.047 Y66.568 E3.9979
G1 X131.447 Y68.968 E4.1772
G1 X138.647 Y68.968 E4.5574
G1 X141.412 Y71.733 E4.7638
G1 X141.412 Y83.284 E5.3737
G1 X138.647 Y86.048 E5.5802
G1 X131.447 Y86.048 E5.9604
G1 X129.047 Y88.448 E6.1396
G1 X107.897 Y88.448 E7.2564
G1 X105.497 Y86.048 E7.4356
G1 X91.097 Y86.048 E8.1960
G1 X89.173 Y84.124 E8.3397
G1 X87.997 Y85.300 E8.4275
G1 X87.997 Y90.180 E8.6852
G1 X87.845 Y90.332 E8.6965
G1 X87.845 Y93.012 E8.8380
G1 X86.178 Y94.679 E8.9625
G1 X86.389 Y94.679 E8.9737
G1 X88.769 Y92.299 E9.1514
G1 X95.499 Y92.299 E9.5068
G1 X97.879 Y94.679 E9.6845
G1 X105.019 Y94.679 E10.0615
G1 X106.837 Y96.497 E10.1973
G1 X109.266 Y94.064 E10.3788
G1 X132.498 Y94.064 E11.6055
G1 X135.263 Y96.829 E11.8120
G1 X135.263 Y108.260 E12.4155
G1 X132.498 Y111.024 E12.6220
G1 X109.268 Y111.024 E13.8487
G1 X107.481 Y109.237 E13.9821
G1 X105.019 Y111.699 E14.1659
G1 X97.879 Y111.699 E14.5430
G1 X95.499 Y114.079 E14.7207
G1 X88.769 Y114.079 E15.0761
G1 X86.389 Y111.699 E15.2538
G1 X74.489 Y111.699 E15.8822
G1 X73.105 Y110.315 E15.9855
G1 X73.105 Y113.587 E16.1583
G1 X71.972 Y114.720 E16.2429
G1 X86.921 Y114.720 E17.0322
G1 X87.682 Y115.481 E17.0891
G1 X88.462 Y114.701 E17.1474
G1 X106.733 Y114.701 E18.1121
G1 X108.898 Y116.865 E18.2738
G1 X108.898 Y115.145 E18.3646
G1 X111.662 Y112.381 E18.5711
G1 X118.333 Y112.381 E18.9233
G1 X121.098 Y115.145 E19.1297
G1 X121.098 Y131.096 E19.9720
G1 X118.333 Y133.861 E20.1784
G1 X111.662 Y133.861 E20.5307
G1 X108.038 Y130.236 E20.8013
G1 X106.733 Y131.541 E20.8988
G1 X88.462 Y131.541 E21.8635
G1 X87.761 Y130.839 E21.9159
G1 X86.921 Y131.680 E21.9787
G1 X63.690 Y131.680 E23.2053
G1 X60.925 Y128.915 E23.4118
G1 X60.925 Y127.850 E23.4680
G1 X60.425 Y127.335 E23.5060
G1 X59.744 Y126.234 E23.5743
G1 X59.443 Y125.490 E23.6167
G1 X59.196 Y124.354 E23.6781
G1 X59.143 Y123.944 E23.6999
G1 X59.109 Y123.081 E23.7455
G1 X59.124 Y122.708 E23.7652
G1 X59.223 Y121.874 E23.8096
G1 X59.292 Y121.523 E23.8285
G1 X59.506 Y120.749 E23.8709
G1 X59.759 Y120.160 E23.9047
G1 X60.469 Y118.978 E23.9775
G1 X60.924 Y118.557 E24.0102
G1 X60.923 Y117.489 E24.0666
G1 X62.824 Y115.586 E24.2087
G1 X60.825 Y113.587 E24.3579
G1 X60.825 Y82.387 E26.0054
G1 X58.425 Y79.987 E26.1846
G1 X58.425 Y73.237 E26.5411
G1 X60.825 Y70.837 E26.7203
G1 X60.825 Y68.437 E26.8470
G1 X63.590 Y65.672 E27.0535
G92 E0.0000
G1 E-0.7000 F1500
G1 X63.789 Y66.152 F4800
G1 E0.0000 F1500
G92 E0.0000
G1 X70.141 Y66.152 E0.3354 F1800
G1 X72.625 Y68.636 E0.5209
G1 X72.625 Y71.036 E0.6476
G1 X73.717 Y72.128 E0.7292
G1 X73.717 Y68.948 E0.8971
G1 X76.201 Y66.464 E1.0826
G1 X87.473 Y66.464 E1.6778
G1 X89.957 Y68.948 E1.8633
G1 X89.957 Y70.787 E1.9604
G1 X91.296 Y69.448 E2.0603
G1 X105.696 Y69.448 E2.8207
G1 X108.096 Y67.048 E2.9999
G1 X128.848 Y67.048 E4.0957
G1 X131.248 Y69.448 E4.2749
G1 X138.448 Y69.448 E4.6551
G1 X140.932 Y71.932 E4.8406
G1 X140.932 Y83.085 E5.4295
G1 X138.448 Y85.568 E5.6150
G1 X131.248 Y85.568 E5.9952
G1 X128.848 Y87.968 E6.1744
G1 X108.096 Y87.968 E7.2702
G1 X105.696 Y85.568 E7.4494
G1 X91.296 Y85.568 E8.2098
G1 X89.173 Y83.445 E8.3683
G1 X87.517 Y85.101 E8.4920
G1 X87.517 Y89.981 E8.7496
G1 X87.365 Y90.133 E8.7610
G1 X87.365 Y92.813 E8.9025
G1 X85.019 Y95.159 E9.0777
G1 X86.588 Y95.159 E9.1605
G1 X88.968 Y92.779 E9.3382
G1 X95.300 Y92.779 E9.6726
G1 X97.680 Y95.159 E9.8504
G1 X104.820 Y95.159 E10.2274
G1 X106.981 Y97.320 E10.3887
G1 X106.981 Y97.032 E10.4039
G1 X109.465 Y94.544 E10.5896
G1 X132.299 Y94.544 E11.7953
G1 X134.783 Y97.028 E11.9808
G1 X134.783 Y108.061 E12.5633
G1 X132.299 Y110.544 E12.7488
G1 X109.467 Y110.544 E13.9545
G1 X107.304 Y108.382 E14.1160
G1 X107.304 Y108.735 E14.1346
G1 X104.820 Y111.219 E14.3201
G1 X97.680 Y111.219 E14.6971
G1 X95.300 Y113.599 E14.8748
G1 X88.968 Y113.599 E15.2092
G1 X86.588 Y111.219 E15.3869
G1 X74.688 Y111.219 E16.0153
G1 X72.625 Y109.156 E16.1693
G1 X72.625 Y113.388 E16.3928
G1 X70.814 Y115.200 E16.5281
G1 X86.722 Y115.200 E17.3681
G1 X87.682 Y116.160 E17.4398
G1 X88.661 Y115.181 E17.5130
G1 X106.534 Y115.181 E18.4567
G1 X108.935 Y117.582 E18.6360
G1 X109.378 Y117.585 E18.6594
G1 X109.378 Y115.344 E18.7777
G1 X111.861 Y112.861 E18.9632
G1 X118.134 Y112.861 E19.2944
G1 X120.618 Y115.344 E19.4799
G1 X120.618 Y130.897 E20.3011
G1 X118.134 Y133.381 E20.4866
G1 X111.861 Y133.381 E20.8178
G1 X108.038 Y129.557 E21.1033
G1 X106.534 Y131.061 E21.2156
G1 X88.661 Y131.061 E22.1594
G1 X87.761 Y130.161 E22.2266
G1 X86.722 Y131.200 E22.3042
G1 X63.889 Y131.200 E23.5099
G1 X61.405 Y128.716 E23.6953
G1 X61.405 Y127.655 E23.7514
G1 X60.805 Y127.038 E23.7968
G1 X60.174 Y126.016 E23.8602
G1 X59.904 Y125.348 E23.8983
G1 X59.669 Y124.272 E23.9565
G1 X59.622 Y123.904 E23.9761
G1 X59.589 Y123.081 E24.0195
G1 X59.603 Y122.746 E24.0372
G1 X59.697 Y121.949 E24.0796
G1 X59.760 Y121.633 E24.0966
G1 X59.960 Y120.908 E24.1363
G1 X60.187 Y120.379 E24.1667
G1 X60.846 Y119.284 E24.2342
G1 X61.405 Y118.767 E24.2744
G1 X61.403 Y117.687 E24.3314
G1 X63.502 Y115.586 E24.4883
G1 X61.305 Y113.388 E24.6524
G1 X61.305 Y82.188 E26.2998
G1 X58.905 Y79.788 E26.4791
G1 X58.905 Y73.436 E26.8145
G1 X61.305 Y71.036 E26.9937
G1 X61.305 Y68.636 E27.1204
G1 X63.789 Y66.152 E27.3059
G92 E0.0000
G1 E-0.7000 F1500
; feature outer perimeter
G1 X66.217 Y74.752 F4800
G1 E0.0000 F1500
G92 E0.0000
G1 X67.223 Y74.752 E0.0531 F900
G1 X66.951 Y74.784 E0.0675
G1 X66.218 Y74.818 E0.1063
G1 X66.217 Y74.752 E0.1097
G92 E0.0000
G1 E-0.7000 F1500
G1 X66.406 Y76.461 F4800
G1 E0.0000 F1500
G92 E0.0000
G1 X67.167 Y76.387 E0.0403 F900
G1 X67.718 Y76.366 E0.0694
G1 X67.719 Y76.600 E0.0818
G1 X67.095 Y76.676 E0.1150
G1 X66.355 Y76.726 E0.1542
G1 X66.207 Y76.729 E0.1620
G1 X66.206 Y76.488 E0.1747
G1 X66.406 Y76.461 E0.1854
G92 E0.0000
G1 E-0.7000 F1500
G1 X66.939 Y78.310 F4800
G1 E0.0000 F1500
G92 E0.0000
G1 X67.710 Y78.273 E0.0408 F900
G1 X67.710 Y78.504 E0.0530
G1 X66.866 Y78.601 E0.0978
G1 X66.223 Y78.628 E0.1318
G1 X66.222 Y78.395 E0.1441
G1 X66.939 Y78.310 E0.1822
G92 E0.0000
G1 E-0.7000 F1500
G1 X67.084 Y80.203 F4800
G1 E0.0000 F1500
G92 E0.0000
G1 X67.709 Y80.177 E0.0330 F900
G1 X67.710 Y80.410 E0.0454
G1 X67.011 Y80.494 E0.0825
G1 X66.218 Y80.532 E0.1244
G1 X66.219 Y80.302 E0.1366
G1 X67.084 Y80.203 E0.1826
G92 E0.0000
G1 E-0.7000 F1500
G1 X67.226 Y82.098 F4800
G1 E0.0000 F1500
G92 E0.0000
G1 X67.724 Y82.080 E0.0263 F900
G1 X67.722 Y82.317 E0.0388
G1 X67.482 Y82.348 E0.0516
G1 X66.213 Y82.348 E0.1186
G1 X66.213 Y82.203 E0.1263
G1 X66.445 Y82.172 E0.1387
G1 X67.226 Y82.098 E0.1801
G92 E0.0000
G1 E-0.7000 F1500
; feature inner perimeter
G1 X81.269 Y89.337 F4800
G1 E0.0000 F1500
G92 E0.0000
G1 X82.405 Y89.337 E0.0600 F1350
G1 X82.405 Y90.337 E0.1128
G1 X81.269 Y90.337 E0.1727
G1 X81.269 Y89.337 E0.2255
; feature outer perimeter
G1 X80.789 Y88.857 F4800
G92 E0.0000
G1 X82.885 Y88.857 E0.1107 F900
G1 X82.885 Y90.817 E0.2142
G1 X80.789 Y90.817 E0.3248
G1 X80.789 Y88.857 E0.4283
; feature solid layer
G1 X81.677 Y89.823 F4800
G92 E0.0000
G1 X81.783 Y89.929 E0.0079 F1440
G92 E0.0000
G1 E-0.7000 F1500
; feature outer perimeter
G1 X92.411 Y102.063 F4800
G1 E0.0000 F1500
G92 E0.0000
G1 X92.452 Y102.063 E0.0021 F900
G1 X92.511 Y102.117 E0.0064
G1 X92.551 Y102.174 E0.0100
G1 X92.683 Y102.565 E0.0318
G1 X92.749 Y103.067 E0.0586
G1 X92.732 Y103.566 E0.0849
G1 X92.610 Y104.071 E0.1123
G1 X92.562 Y104.180 E0.1186
G1 X92.438 Y104.318 E0.1284
G1 X92.425 Y104.318 E0.1291
G1 X92.301 Y104.180 E0.1389
G1 X92.253 Y104.071 E0.1452
G1 X92.131 Y103.566 E0.1726
G1 X92.114 Y103.067 E0.1990
G1 X92.180 Y102.565 E0.2257
G1 X92.313 Y102.174 E0.2475
G1 X92.352 Y102.117 E0.2512
G1 X92.411 Y102.063 E0.2554
G92 E0.0000
G1 E-0.7000 F1500
G1 X109.651 Y102.434 F4800
G1 E0.0000 F1500
G92 E0.0000
G1 X109.703 Y102.000 E0.0231 F900
G1 X109.773 Y101.746 E0.0370
G1 X109.843 Y101.601 E0.0455
G1 X109.904 Y101.520 E0.0509
G1 X110.021 Y101.462 E0.0577
G1 X110.481 Y101.462 E0.0821
G1 X110.586 Y101.518 E0.0884
G1 X110.649 Y101.601 E0.0939
G1 X110.719 Y101.746 E0.1024
G1 X110.789 Y102.000 E0.1163
G1 X110.841 Y102.434 E0.1394
G1 X110.824 Y102.867 E0.1622
G1 X110.737 Y103.305 E0.1858
G1 X110.727 Y103.333 E0.1874
G1 X110.575 Y103.579 E0.2027
G1 X110.503 Y103.602 E0.2067
G1 X109.989 Y103.602 E0.2338
G1 X109.917 Y103.579 E0.2378
G1 X109.765 Y103.333 E0.2531
G1 X109.755 Y103.305 E0.2546
G1 X109.668 Y102.867 E0.2782
G1 X109.651 Y102.434 E0.3011
; feature gap fill
G1 X110.066 Y102.599 F4800
G92 E0.0000
G1 X110.396 Y102.929 E0.0246 F1800
G1 X110.417 Y102.819 E0.0305
G1 X110.432 Y102.450 E0.0500
G1 X110.410 Y102.264 E0.0599
G1 X110.130 Y101.984 E0.0808
G92 E0.0000
G1 E-0.7000 F1500
; feature outer perimeter
G1 X110.613 Y122.059 F4800
G1 E0.0000 F1500
G92 E0.0000
G1 X111.044 Y122.055 E0.0228 F900
G1 X111.132 Y123.028 E0.0743
G1 X111.163 Y123.602 E0.1047
G1 X111.178 Y124.184 E0.1354
G1 X110.747 Y124.183 E0.1582
G1 X110.636 Y122.845 E0.2290
G1 X110.613 Y122.059 E0.2706
G92 E0.0000
G1 E-0.7000 F1500
G1 X108.588 Y122.059 F4800
G1 E0.0000 F1500
G92 E0.0000
G1 X108.685 Y123.161 E0.0584 F900
G1 X108.720 Y124.182 E0.1124
G1 X108.291 Y124.184 E0.1350
G1 X108.188 Y122.981 E0.1988
G1 X108.158 Y122.055 E0.2477
G1 X108.588 Y122.059 E0.2704
G92 E0.0000
G1 E-0.7000 F1500
G1 X106.135 Y122.055 F4800
G1 E0.0000 F1500
G92 E0.0000
G1 X106.199 Y122.718 E0.0352 F900
G1 X106.238 Y123.294 E0.0656
G1 X106.265 Y124.185 E0.1127
G1 X105.836 Y124.182 E0.1354
G1 X105.724 Y122.826 E0.2072
G1 X105.702 Y122.059 E0.2478
G1 X106.135 Y122.055 E0.2706
G92 E0.0000
G1 E-0.7000 F1500
G1 X65.263 Y123.090 F4800
G1 E0.0000 F1500
G92 E0.0000
G1 X65.246 Y123.522 E0.0228 F900
G1 X65.159 Y123.961 E0.0464
G1 X65.149 Y123.989 E0.0480
G1 X64.997 Y124.235 E0.0633
G1 X64.925 Y124.258 E0.0673
G1 X64.411 Y124.258 E0.0944
G1 X64.339 Y124.235 E0.0984
G1 X64.187 Y123.989 E0.1137
G1 X64.177 Y123.961 E0.1153
G1 X64.090 Y123.522 E0.1389
