; G-Code generated by Simplify3D(R) Version 4.1.1
; Apr 28, 2021 at 3:26:51 PM
; Settings Summary
;   processName,Trideo BOX
;   applyToModels,FingerStopper,ThumbClip,thumbscrew,UpperArm - Finger Conector,UpperArm - Palm connector,UpperArm - Thumb short conector,UpperArm - Palm connector(2)
;   profileName,Trideo BOX
;   profileVersion,2021-04-15 09:48:16
;   baseProfile,Default
;   printMaterial,PLA
;   printQuality,Fast
;   printExtruders,
;   extruderName,Primary Extruder
;   extruderToolheadNumber,0
;   extruderDiameter,0.4
;   extruderAutoWidth,1
;   extruderWidth,0.48
;   extrusionMultiplier,0.98
;   extruderUseRetract,1
;   extruderRetractionDistance,0.7
;   extruderExtraRestartDistance,0
;   extruderRetractionZLift,0
;   extruderRetractionSpeed,1500
;   extruderUseCoasting,0
;   extruderCoastingDistance,0.2
;   extruderUseWipe,0
;   extruderWipeDistance,5
;   primaryExtruder,0
;   layerHeight,0.3
;   topSolidLayers,3
;   bottomSolidLayers,3
;   perimeterOutlines,2
;   printPerimetersInsideOut,1
;   startPointOption,2
;   startPointOriginX,0
;   startPointOriginY,0
;   sequentialIslands,0
;   spiralVaseMode,0
;   firstLayerHeightPercentage,90
;   firstLayerWidthPercentage,100
;   firstLayerUnderspeed,0.5
;   useRaft,0
;   raftExtruder,0
;   raftTopLayers,3
;   raftBaseLayers,2
;   raftOffset,3
;   raftSeparationDistance,0.14
;   raftTopInfill,100
;   aboveRaftSpeedMultiplier,0.3
;   useSkirt,1
;   skirtExtruder,0
;   skirtLayers,1
;   skirtOutlines,2
;   skirtOffset,4
;   usePrimePillar,0
;   primePillarExtruder,999
;   primePillarWidth,12
;   primePillarLocation,7
;   primePillarSpeedMultiplier,1
;   useOozeShield,0
;   oozeShieldExtruder,999
;   oozeShieldOffset,2
;   oozeShieldOutlines,1
;   oozeShieldSidewallShape,1
;   oozeShieldSidewallAngle,30
;   oozeShieldSpeedMultiplier,1
;   infillExtruder,0
;   internalInfillPattern,Rectilinear
;   externalInfillPattern,Rectilinear
;   infillPercentage,15
;   outlineOverlapPercentage,15
;   infillExtrusionWidthPercentage,100
;   minInfillLength,5
;   infillLayerInterval,1
;   internalInfillAngles,45,-45
;   overlapInternalInfillAngles,0
;   externalInfillAngles,45,-45
;   generateSupport,1
;   supportExtruder,0
;   supportInfillPercentage,25
;   supportExtraInflation,0
;   supportBaseLayers,0
;   denseSupportExtruder,0
;   denseSupportLayers,0
;   denseSupportInfillPercentage,70
;   supportLayerInterval,1
;   supportHorizontalPartOffset,0.3
;   supportUpperSeparationLayers,1
;   supportLowerSeparationLayers,1
;   supportType,0
;   supportGridSpacing,4
;   maxOverhangAngle,45
;   supportAngles,0
;   temperatureName,Primary Extruder,Heated bed
;   temperatureNumber,0,0
;   temperatureSetpointCount,1,1
;   temperatureSetpointLayers,1,1
;   temperatureSetpointTemperatures,190,60
;   temperatureStabilizeAtStartup,1,1
;   temperatureHeatedBed,0,1
;   fanLayers,1,2
;   fanSpeeds,0,100
;   blipFanToFullPower,0
;   adjustSpeedForCooling,1
;   minSpeedLayerTime,15
;   minCoolingSpeedSlowdown,20
;   increaseFanForCooling,0
;   minFanLayerTime,45
;   maxCoolingFanSpeed,100
;   increaseFanForBridging,0
;   bridgingFanSpeed,100
;   use5D,1
;   relativeEdistances,0
;   allowEaxisZeroing,1
;   independentExtruderAxes,0
;   includeM10123,0
;   stickySupport,1
;   applyToolheadOffsets,0
;   gcodeXoffset,0
;   gcodeYoffset,0
;   gcodeZoffset,0
;   overrideMachineDefinition,1
;   machineTypeOverride,0
;   strokeXoverride,200
;   strokeYoverride,200
;   strokeZoverride,200
;   originOffsetXoverride,0
;   originOffsetYoverride,0
;   originOffsetZoverride,0
;   homeXdirOverride,-1
;   homeYdirOverride,-1
;   homeZdirOverride,-1
;   flipXoverride,1
;   flipYoverride,-1
;   flipZoverride,1
;   toolheadOffsets,0,0|0,0|0,0|0,0|0,0|0,0
;   overrideFirmwareConfiguration,0
;   firmwareTypeOverride,RepRap (Marlin/Repetier/Sprinter)
;   GPXconfigOverride,r2
;   baudRateOverride,115200
;   overridePrinterModels,0
;   printerModelsOverride
;   startingGcode,G28 X0 Y0; home XY,G1 X20 Y20,G28 Z0,G1 Z5 F5000; Lift NZ
;   layerChangeGcode,
;   retractionGcode,
;   toolChangeGcode,
;   endingGcode,M104 S0 ; turn off extruder,G28 X0 ; home x,M140 S0 ; turn off bed,M84 ; disable motors,M107 ;
;   exportFileFormat,gcode
;   celebration,0
;   celebrationSong,Looney Toons
;   postProcessing,
;   defaultSpeed,3600
;   outlineUnderspeed,0.5
;   solidInfillUnderspeed,0.8
;   supportUnderspeed,0.8
;   rapidXYspeed,4800
;   rapidZspeed,1002
;   minBridgingArea,50
;   bridgingExtraInflation,0
;   bridgingExtrusionMultiplier,1
;   bridgingSpeedMultiplier,1
;   useFixedBridgingAngle,0
;   fixedBridgingAngle,0
;   applyBridgingToPerimeters,0
;   filamentDiameters,1.75|1.75|1.75|1.75|1.75|1.75
;   filamentPricesPerKg,46|46|46|46|46|46
;   filamentDensities,1.25|1.25|1.25|1.25|1.25|1.25
;   useMinPrintHeight,0
;   minPrintHeight,0
;   useMaxPrintHeight,0
;   maxPrintHeight,0
;   useDiaphragm,0
;   diaphragmLayerInterval,20
;   robustSlicing,1
;   mergeAllIntoSolid,0
;   onlyRetractWhenCrossingOutline,1
;   retractBetweenLayers,1
;   useRetractionMinTravel,0
;   retractionMinTravel,3
;   retractWhileWiping,0
;   onlyWipeOutlines,1
;   avoidCrossingOutline,0
;   maxMovementDetourFactor,3
;   toolChangeRetractionDistance,12
;   toolChangeExtraRestartDistance,-0.5
;   toolChangeRetractionSpeed,600
;   externalThinWallType,0
;   internalThinWallType,2
;   thinWallAllowedOverlapPercentage,10
;   singleExtrusionMinLength,1
;   singleExtrusionMinPrintingWidthPercentage,50
;   singleExtrusionMaxPrintingWidthPercentage,200
;   singleExtrusionEndpointExtension,0.2
;   horizontalSizeCompensation,0
G90
M82
M106 S0
M140 S60
M190 S60
M104 S190 T0
M109 S190 T0
G28 X0 Y0; home XY
G1 X20 Y20
G28 Z0
G1 Z5 F5000; Lift NZ
; process Trideo BOX
; layer 1, Z = 0.270
T0
G92 E0.0000
G1 E-0.7000 F1500
; feature skirt
; tool H0.270 W0.480
G1 Z0.270 F1002
G1 X70.874 Y71.866 F4800
G1 E0.0000 F1500
G92 E0.0000
G1 X77.024 Y71.866 E0.3248 F1800
G1 X79.352 Y74.194 E0.4986
G1 X81.443 Y72.103 E0.6547
G1 X91.313 Y72.103 E1.1759
G1 X93.801 Y74.591 E1.3617
G1 X94.054 Y74.338 E1.3806
G1 X104.854 Y74.338 E1.9509
G1 X106.654 Y72.538 E2.0853
G1 X123.604 Y72.538 E2.9803
G1 X125.404 Y74.338 E3.1147
G1 X130.804 Y74.338 E3.3999
G1 X133.569 Y77.103 E3.6064
G1 X133.569 Y86.853 E4.1212
G1 X130.804 Y89.618 E4.3277
G1 X125.404 Y89.618 E4.6128
G1 X123.604 Y91.418 E4.7472
G1 X106.654 Y91.418 E5.6423
G1 X104.854 Y89.618 E5.7767
G1 X94.054 Y89.618 E6.3470
G1 X92.546 Y88.110 E6.4596
G1 X92.238 Y88.418 E6.4826
G1 X92.238 Y92.040 E6.6738
G1 X92.204 Y92.074 E6.6764
G1 X92.204 Y94.180 E6.7876
G1 X91.877 Y94.506 E6.8119
G1 X94.953 Y94.506 E6.9743
G1 X95.418 Y94.971 E7.0091
G1 X97.643 Y92.746 E7.1752
G1 X103.753 Y92.746 E7.4978
G1 X106.163 Y95.156 E7.6778
G1 X106.836 Y94.483 E7.7280
G1 X125.266 Y94.483 E8.7012
G1 X128.031 Y97.248 E8.9077
G1 X128.031 Y106.878 E9.4162
G1 X125.266 Y109.643 E9.6227
G1 X106.836 Y109.643 E10.5959
G1 X106.186 Y108.993 E10.6444
G1 X105.289 Y109.889 E10.7113
G1 X115.570 Y109.889 E11.2542
G1 X118.335 Y112.654 E11.4606
G1 X118.335 Y122.285 E11.9692
G1 X115.570 Y125.049 E12.1756
G1 X97.140 Y125.049 E13.1488
G1 X95.776 Y123.685 E13.2507
G1 X93.796 Y125.665 E13.3985
G1 X88.396 Y125.665 E13.6836
G1 X86.596 Y127.465 E13.8181
G1 X80.446 Y127.465 E14.1428
G1 X78.646 Y125.665 E14.2772
G1 X69.646 Y125.665 E14.7525
G1 X66.881 Y122.900 E14.9589
G1 X66.881 Y113.150 E15.4738
G1 X69.279 Y110.752 E15.6529
G1 X68.109 Y109.581 E15.7403
G1 X68.109 Y86.181 E16.9759
G1 X66.309 Y84.381 E17.1103
G1 X66.309 Y78.231 E17.4351
G1 X68.109 Y76.431 E17.5695
G1 X68.109 Y74.631 E17.6645
G1 X70.874 Y71.866 E17.8710
G92 E0.0000
G1 E-0.7000 F1500
G1 X71.073 Y72.346 F4800
G1 E0.0000 F1500
G92 E0.0000
G1 X76.825 Y72.346 E0.3038 F1800
G1 X79.309 Y74.830 E0.4892
G1 X79.309 Y74.915 E0.4938
G1 X81.642 Y72.583 E0.6679
G1 X91.114 Y72.583 E1.1681
G1 X93.598 Y75.066 E1.3536
G1 X93.598 Y75.473 E1.3751
G1 X94.253 Y74.818 E1.4240
G1 X105.053 Y74.818 E1.9943
G1 X106.853 Y73.018 E2.1287
G1 X123.405 Y73.018 E3.0027
G1 X125.205 Y74.818 E3.1371
G1 X130.605 Y74.818 E3.4223
G1 X133.089 Y77.302 E3.6077
G1 X133.089 Y86.655 E4.1016
G1 X130.605 Y89.138 E4.2871
G1 X125.205 Y89.138 E4.5722
G1 X123.405 Y90.938 E4.7066
G1 X106.853 Y90.938 E5.5807
G1 X105.053 Y89.138 E5.7151
G1 X94.253 Y89.138 E6.2854
G1 X92.546 Y87.431 E6.4128
G1 X91.758 Y88.219 E6.4717
G1 X91.758 Y91.841 E6.6629
G1 X91.724 Y91.875 E6.6655
G1 X91.724 Y93.981 E6.7766
G1 X90.718 Y94.986 E6.8517
G1 X94.754 Y94.986 E7.0648
G1 X95.418 Y95.650 E7.1144
G1 X97.842 Y93.226 E7.2954
G1 X103.554 Y93.226 E7.5970
G1 X106.038 Y95.710 E7.7825
G1 X106.038 Y95.959 E7.7957
G1 X107.034 Y94.963 E7.8701
G1 X125.067 Y94.963 E8.8223
G1 X127.551 Y97.447 E9.0077
G1 X127.551 Y106.679 E9.4953
G1 X125.067 Y109.163 E9.6807
G1 X107.034 Y109.163 E10.6329
G1 X106.038 Y108.166 E10.7073
G1 X106.038 Y108.462 E10.7230
G1 X104.131 Y110.369 E10.8654
G1 X115.371 Y110.369 E11.4589
G1 X117.855 Y112.853 E11.6444
G1 X117.855 Y122.086 E12.1319
G1 X115.371 Y124.569 E12.3174
G1 X97.339 Y124.569 E13.2696
G1 X95.776 Y123.007 E13.3863
G1 X93.597 Y125.185 E13.5490
G1 X88.197 Y125.185 E13.8341
G1 X86.397 Y126.985 E13.9685
G1 X80.645 Y126.985 E14.2723
G1 X78.845 Y125.185 E14.4067
G1 X69.845 Y125.185 E14.8819
G1 X67.361 Y122.701 E15.0674
G1 X67.361 Y113.349 E15.5613
G1 X69.845 Y110.865 E15.7467
G1 X70.072 Y110.865 E15.7587
G1 X68.589 Y109.382 E15.8694
G1 X68.589 Y85.982 E17.1050
G1 X66.789 Y84.182 E17.2394
G1 X66.789 Y78.430 E17.5432
G1 X68.589 Y76.630 E17.6776
G1 X68.589 Y74.830 E17.7727
G1 X71.073 Y72.346 E17.9581
G92 E0.0000
G1 E-0.7000 F1500
; feature outer perimeter
G1 X73.337 Y81.278 F4800
G1 E0.0000 F1500
G92 E0.0000
G1 X74.112 Y81.188 E0.0412 F900
G1 X74.560 Y81.173 E0.0649
G1 X74.560 Y81.236 E0.0682
G1 X74.030 Y81.304 E0.0964
G1 X73.487 Y81.341 E0.1252
G1 X73.337 Y81.343 E0.1331
G1 X73.337 Y81.278 E0.1365
G92 E0.0000
G1 E-0.7000 F1500
G1 X73.334 Y82.708 F4800
G1 E0.0000 F1500
G92 E0.0000
G1 X74.218 Y82.610 E0.0470 F900
G1 X74.567 Y82.600 E0.0654
G1 X74.567 Y82.663 E0.0687
G1 X73.863 Y82.747 E0.1062
G1 X73.333 Y82.767 E0.1342
G1 X73.334 Y82.708 E0.1373
G92 E0.0000
G1 E-0.7000 F1500
G1 X73.332 Y84.135 F4800
G1 E0.0000 F1500
G92 E0.0000
G1 X74.050 Y84.050 E0.0382 F900
G1 X74.563 Y84.031 E0.0653
G1 X74.563 Y84.093 E0.0685
G1 X73.967 Y84.167 E0.1002
G1 X73.425 Y84.200 E0.1289
G1 X73.332 Y84.201 E0.1338
G1 X73.332 Y84.135 E0.1373
G92 E0.0000
G1 E-0.7000 F1500
G1 X73.482 Y85.548 F4800
G1 E0.0000 F1500
G92 E0.0000
G1 X74.156 Y85.471 E0.0358 F900
G1 X74.561 Y85.459 E0.0572
G1 X74.562 Y85.525 E0.0608
G1 X74.404 Y85.548 E0.0692
G1 X73.482 Y85.548 E0.1178
G92 E0.0000
G1 E-0.7000 F1500
G1 X85.512 Y90.624 F4800
G1 E0.0000 F1500
G92 E0.0000
G1 X87.244 Y90.624 E0.0914 F900
G1 X87.244 Y91.984 E0.1632
G1 X85.512 Y91.984 E0.2547
G1 X85.512 Y90.624 E0.3265
; feature gap fill
G1 X85.920 Y91.351 F4800
G92 E0.0000
G1 X86.146 Y91.576 E0.0169 F1800
G1 X86.825 Y91.576 E0.0527
G1 X86.281 Y91.032 E0.0933
G92 E0.0000
G1 E-0.7000 F1500
; feature outer perimeter
G1 X93.696 Y101.192 F4800
G1 E0.0000 F1500
G92 E0.0000
G1 X93.915 Y101.193 E0.0116 F900
G1 X93.955 Y101.569 E0.0316
G1 X94.003 Y102.221 E0.0661
G1 X94.024 Y102.977 E0.1060
G1 X93.809 Y102.976 E0.1173
G1 X93.712 Y101.859 E0.1765
G1 X93.696 Y101.192 E0.2118
G92 E0.0000
G1 E-0.7000 F1500
G1 X95.559 Y101.193 F4800
G1 E0.0000 F1500
G92 E0.0000
G1 X95.774 Y101.192 E0.0114 F900
G1 X95.860 Y102.121 E0.0606
G1 X95.886 Y102.981 E0.1061
G1 X95.671 Y102.980 E0.1174
G1 X95.581 Y101.975 E0.1706
G1 X95.559 Y101.193 E0.2120
G92 E0.0000
G1 E-0.7000 F1500
G1 X97.421 Y101.192 F4800
G1 E0.0000 F1500
G92 E0.0000
G1 X97.638 Y101.193 E0.0114 F900
G1 X97.716 Y102.021 E0.0554
G1 X97.748 Y102.671 E0.0897
G1 X97.752 Y102.980 E0.1060
G1 X97.535 Y102.981 E0.1175
G1 X97.438 Y101.874 E0.1762
G1 X97.421 Y101.192 E0.2122
G92 E0.0000
G1 E-0.7000 F1500
G1 X107.674 Y101.977 F4800
G1 E0.0000 F1500
G92 E0.0000
G1 X107.695 Y101.705 E0.0144 F900
G1 X107.788 Y101.350 E0.0338
G1 X107.806 Y101.309 E0.0361
G1 X107.893 Y101.193 E0.0438
G1 X107.940 Y101.176 E0.0464
G1 X108.296 Y101.176 E0.0653
G1 X108.342 Y101.193 E0.0678
G1 X108.430 Y101.309 E0.0755
G1 X108.448 Y101.350 E0.0779
G1 X108.540 Y101.705 E0.0973
G1 X108.562 Y101.980 E0.1118
G1 X108.554 Y102.298 E0.1286
G1 X108.498 Y102.612 E0.1454
G1 X108.421 Y102.829 E0.1576
G1 X108.385 Y102.887 E0.1612
G1 X108.346 Y102.931 E0.1643
G1 X108.287 Y102.957 E0.1677
G1 X107.949 Y102.957 E0.1856
G1 X107.890 Y102.931 E0.1890
G1 X107.850 Y102.887 E0.1922
G1 X107.814 Y102.829 E0.1958
G1 X107.736 Y102.609 E0.2081
G1 X107.697 Y102.408 E0.2189
G1 X107.674 Y101.977 E0.2417
; feature gap fill
G1 X108.083 Y101.974 F4800
G92 E0.0000
G1 X108.152 Y102.043 E0.0051 F1800
G92 E0.0000
G1 E-0.7000 F1500
; feature outer perimeter
G1 X98.647 Y116.600 F4800
G1 E0.0000 F1500
G92 E0.0000
G1 X98.734 Y116.716 E0.0077 F900
G1 X98.752 Y116.757 E0.0100
G1 X98.845 Y117.112 E0.0294
G1 X98.866 Y117.387 E0.0440
G1 X98.858 Y117.705 E0.0608
G1 X98.803 Y118.018 E0.0776
G1 X98.726 Y118.236 E0.0898
G1 X98.690 Y118.294 E0.0934
G1 X98.650 Y118.338 E0.0965
G1 X98.591 Y118.364 E0.0999
G1 X98.253 Y118.364 E0.1178
G1 X98.194 Y118.338 E0.1212
G1 X98.155 Y118.294 E0.1243
G1 X98.119 Y118.236 E0.1279
G1 X98.041 Y118.016 E0.1402
G1 X98.001 Y117.815 E0.1510
G1 X97.978 Y117.384 E0.1738
G1 X98.000 Y117.112 E0.1882
G1 X98.092 Y116.757 E0.2076
G1 X98.110 Y116.716 E0.2100
G1 X98.198 Y116.600 E0.2177
G1 X98.244 Y116.583 E0.2202
G1 X98.600 Y116.583 E0.2391
G1 X98.647 Y116.600 E0.2417
; feature gap fill
G1 X98.387 Y117.394 F4800
G92 E0.0000
G1 X98.456 Y117.463 E0.0051 F1800
G92 E0.0000
G1 E-0.7000 F1500
; feature outer perimeter
G1 X83.979 Y117.932 F4800
G1 E0.0000 F1500
G92 E0.0000
G1 X83.967 Y118.309 E0.0199 F900
G1 X83.905 Y118.677 E0.0396
G1 X83.795 Y118.929 E0.0541
G1 X83.745 Y118.983 E0.0580
G1 X83.697 Y118.929 E0.0618
G1 X83.584 Y118.669 E0.0768
G1 X83.569 Y118.608 E0.0801
G1 X83.525 Y118.312 E0.0959
G1 X83.513 Y117.932 E0.1160
G1 X83.548 Y117.551 E0.1362
G1 X83.566 Y117.466 E0.1408
G1 X83.657 Y117.195 E0.1559
G1 X83.685 Y117.143 E0.1590
G1 X83.746 Y117.087 E0.1634
G1 X83.807 Y117.143 E0.1677
G1 X83.835 Y117.195 E0.1708
G1 X83.927 Y117.466 E0.1860
G1 X83.944 Y117.551 E0.1906
G1 X83.979 Y117.932 E0.2108
G92 E0.0000
G1 E-0.7000 F1500
; feature inner perimeter
G1 X108.895 Y82.446 F4800
G1 E0.0000 F1500
G92 E0.0000
G1 X108.860 Y81.976 E0.0249 F1350
G1 X108.894 Y81.511 E0.0495
G1 X120.014 Y81.511 E0.6366
G1 X120.048 Y81.976 E0.6612
G1 X120.013 Y82.446 E0.6861
G1 X108.895 Y82.446 E1.2732
; feature outer perimeter
G1 X108.444 Y82.572 F4800
G92 E0.0000
G1 X108.412 Y82.428 E0.0077 F900
G1 X108.379 Y81.976 E0.0317
G1 X108.412 Y81.523 E0.0557
G1 X108.444 Y81.379 E0.0634
G1 X108.553 Y81.103 E0.0792
G1 X108.569 Y81.078 E0.0807
G1 X108.661 Y81.031 E0.0862
G1 X120.247 Y81.031 E0.6979
G1 X120.339 Y81.078 E0.7034
G1 X120.355 Y81.103 E0.7049
G1 X120.464 Y81.379 E0.7206
G1 X120.496 Y81.523 E0.7284
G1 X120.529 Y81.976 E0.7524
G1 X120.496 Y82.428 E0.7763
G1 X120.464 Y82.572 E0.7841
G1 X120.355 Y82.848 E0.7998
G1 X120.337 Y82.876 E0.8015
G1 X120.244 Y82.926 E0.8071
G1 X108.664 Y82.926 E1.4185
G1 X108.571 Y82.876 E1.4241
G1 X108.553 Y82.848 E1.4259
G1 X108.444 Y82.572 E1.4416
; feature solid layer
G1 X109.870 Y82.038 F4800
G92 E0.0000
G1 X109.751 Y81.919 E0.0088 F1440
G1 X110.430 Y81.919 E0.0447
G1 X110.548 Y82.038 E0.0535
G1 X111.227 Y82.038 E0.0894
G1 X111.109 Y81.919 E0.0982
G1 X111.788 Y81.919 E0.1340
G1 X111.906 Y82.038 E0.1429
G1 X112.585 Y82.038 E0.1787
G1 X112.467 Y81.919 E0.1876
G1 X113.145 Y81.919 E0.2234
G1 X113.264 Y82.038 E0.2323
G1 X113.943 Y82.038 E0.2681
G1 X113.824 Y81.919 E0.2769
G1 X114.503 Y81.919 E0.3128
G1 X114.621 Y82.038 E0.3216
G1 X115.300 Y82.038 E0.3575
G1 X115.182 Y81.919 E0.3663
G1 X115.861 Y81.919 E0.4021
G1 X115.979 Y82.038 E0.4110
G1 X116.658 Y82.038 E0.4468
G1 X116.539 Y81.919 E0.4557
G1 X117.218 Y81.919 E0.4915
G1 X117.337 Y82.038 E0.5004
G1 X118.015 Y82.038 E0.5362
G1 X117.897 Y81.919 E0.5450
G1 X118.576 Y81.919 E0.5809
G1 X118.694 Y82.038 E0.5897
G1 X119.373 Y82.038 E0.6256
