; G-Code generated by Simplify3D(R) Version 4.1.1
; Apr 28, 2021 at 7:38:41 PM
; Settings Summary
;   processName,Trideo BOX
;   applyToModels,forearmelbowjoiner left
;   profileName,Trideo BOX
;   profileVersion,2021-04-15 09:48:16
;   baseProfile,Default
;   printMaterial,PLA
;   printQuality,Fast
;   printExtruders,
;   extruderName,Primary Extruder
;   extruderToolheadNumber,0
;   extruderDiameter,0.4
;   extruderAutoWidth,1
;   extruderWidth,0.48
;   extrusionMultiplier,0.98
;   extruderUseRetract,1
;   extruderRetractionDistance,0.7
;   extruderExtraRestartDistance,0
;   extruderRetractionZLift,0
;   extruderRetractionSpeed,1500
;   extruderUseCoasting,0
;   extruderCoastingDistance,0.2
;   extruderUseWipe,0
;   extruderWipeDistance,5
;   primaryExtruder,0
;   layerHeight,0.3
;   topSolidLayers,3
;   bottomSolidLayers,3
;   perimeterOutlines,2
;   printPerimetersInsideOut,1
;   startPointOption,2
;   startPointOriginX,0
;   startPointOriginY,0
;   sequentialIslands,0
;   spiralVaseMode,0
;   firstLayerHeightPercentage,90
;   firstLayerWidthPercentage,100
;   firstLayerUnderspeed,0.5
;   useRaft,0
;   raftExtruder,0
;   raftTopLayers,3
;   raftBaseLayers,2
;   raftOffset,3
;   raftSeparationDistance,0.14
;   raftTopInfill,100
;   aboveRaftSpeedMultiplier,0.3
;   useSkirt,1
;   skirtExtruder,0
;   skirtLayers,1
;   skirtOutlines,2
;   skirtOffset,4
;   usePrimePillar,0
;   primePillarExtruder,999
;   primePillarWidth,12
;   primePillarLocation,7
;   primePillarSpeedMultiplier,1
;   useOozeShield,0
;   oozeShieldExtruder,999
;   oozeShieldOffset,2
;   oozeShieldOutlines,1
;   oozeShieldSidewallShape,1
;   oozeShieldSidewallAngle,30
;   oozeShieldSpeedMultiplier,1
;   infillExtruder,0
;   internalInfillPattern,Rectilinear
;   externalInfillPattern,Rectilinear
;   infillPercentage,15
;   outlineOverlapPercentage,15
;   infillExtrusionWidthPercentage,100
;   minInfillLength,5
;   infillLayerInterval,1
;   internalInfillAngles,45,-45
;   overlapInternalInfillAngles,0
;   externalInfillAngles,45,-45
;   generateSupport,1
;   supportExtruder,0
;   supportInfillPercentage,25
;   supportExtraInflation,0
;   supportBaseLayers,0
;   denseSupportExtruder,0
;   denseSupportLayers,0
;   denseSupportInfillPercentage,70
;   supportLayerInterval,1
;   supportHorizontalPartOffset,0.3
;   supportUpperSeparationLayers,1
;   supportLowerSeparationLayers,1
;   supportType,0
;   supportGridSpacing,4
;   maxOverhangAngle,45
;   supportAngles,0
;   temperatureName,Primary Extruder,Heated bed
;   temperatureNumber,0,0
;   temperatureSetpointCount,1,1
;   temperatureSetpointLayers,1,1
;   temperatureSetpointTemperatures,190,60
;   temperatureStabilizeAtStartup,1,1
;   temperatureHeatedBed,0,1
;   fanLayers,1,2
;   fanSpeeds,0,100
;   blipFanToFullPower,0
;   adjustSpeedForCooling,1
;   minSpeedLayerTime,15
;   minCoolingSpeedSlowdown,20
;   increaseFanForCooling,0
;   minFanLayerTime,45
;   maxCoolingFanSpeed,100
;   increaseFanForBridging,0
;   bridgingFanSpeed,100
;   use5D,1
;   relativeEdistances,0
;   allowEaxisZeroing,1
;   independentExtruderAxes,0
;   includeM10123,0
;   stickySupport,1
;   applyToolheadOffsets,0
;   gcodeXoffset,0
;   gcodeYoffset,0
;   gcodeZoffset,0
;   overrideMachineDefinition,1
;   machineTypeOverride,0
;   strokeXoverride,200
;   strokeYoverride,200
;   strokeZoverride,200
;   originOffsetXoverride,0
;   originOffsetYoverride,0
;   originOffsetZoverride,0
;   homeXdirOverride,-1
;   homeYdirOverride,-1
;   homeZdirOverride,-1
;   flipXoverride,1
;   flipYoverride,-1
;   flipZoverride,1
;   toolheadOffsets,0,0|0,0|0,0|0,0|0,0|0,0
;   overrideFirmwareConfiguration,0
;   firmwareTypeOverride,RepRap (Marlin/Repetier/Sprinter)
;   GPXconfigOverride,r2
;   baudRateOverride,115200
;   overridePrinterModels,0
;   printerModelsOverride
;   startingGcode,G28 X0 Y0; home XY,G1 X20 Y20,G28 Z0,G1 Z5 F5000; Lift NZ
;   layerChangeGcode,
;   retractionGcode,
;   toolChangeGcode,
;   endingGcode,M104 S0 ; turn off extruder,G28 X0 ; home x,M140 S0 ; turn off bed,M84 ; disable motors,M107 ;
;   exportFileFormat,gcode
;   celebration,0
;   celebrationSong,Looney Toons
;   postProcessing,
;   defaultSpeed,3600
;   outlineUnderspeed,0.5
;   solidInfillUnderspeed,0.8
;   supportUnderspeed,0.8
;   rapidXYspeed,4800
;   rapidZspeed,1002
;   minBridgingArea,50
;   bridgingExtraInflation,0
;   bridgingExtrusionMultiplier,1
;   bridgingSpeedMultiplier,1
;   useFixedBridgingAngle,0
;   fixedBridgingAngle,0
;   applyBridgingToPerimeters,0
;   filamentDiameters,1.75|1.75|1.75|1.75|1.75|1.75
;   filamentPricesPerKg,46|46|46|46|46|46
;   filamentDensities,1.25|1.25|1.25|1.25|1.25|1.25
;   useMinPrintHeight,0
;   minPrintHeight,0
;   useMaxPrintHeight,0
;   maxPrintHeight,0
;   useDiaphragm,0
;   diaphragmLayerInterval,20
;   robustSlicing,1
;   mergeAllIntoSolid,0
;   onlyRetractWhenCrossingOutline,1
;   retractBetweenLayers,1
;   useRetractionMinTravel,0
;   retractionMinTravel,3
;   retractWhileWiping,0
;   onlyWipeOutlines,1
;   avoidCrossingOutline,0
;   maxMovementDetourFactor,3
;   toolChangeRetractionDistance,12
;   toolChangeExtraRestartDistance,-0.5
;   toolChangeRetractionSpeed,600
;   externalThinWallType,0
;   internalThinWallType,2
;   thinWallAllowedOverlapPercentage,10
;   singleExtrusionMinLength,1
;   singleExtrusionMinPrintingWidthPercentage,50
;   singleExtrusionMaxPrintingWidthPercentage,200
;   singleExtrusionEndpointExtension,0.2
;   horizontalSizeCompensation,0
G90
M82
M106 S0
M140 S60
M190 S60
M104 S190 T0
M109 S190 T0
G28 X0 Y0; home XY
G1 X20 Y20
G28 Z0
G1 Z5 F5000; Lift NZ
; process Trideo BOX
; layer 1, Z = 0.270
T0
G92 E0.0000
G1 E-0.7000 F1500
; feature skirt
; tool H0.270 W0.480
G1 Z0.270 F1002
G1 X61.825 Y65.060 F4800
G1 E0.0000 F1500
G92 E0.0000
G1 X74.175 Y65.060 E0.6521 F1800
G1 X76.940 Y67.825 E0.8586
G1 X76.940 Y77.060 E1.3463
G1 X90.175 Y77.060 E2.0451
G1 X92.940 Y79.825 E2.2516
G1 X92.940 Y81.191 E2.3237
G1 X95.060 Y81.191 E2.4357
G1 X95.060 Y67.825 E3.1414
G1 X97.825 Y65.060 E3.3479
G1 X150.175 Y65.060 E6.1122
G1 X152.940 Y67.825 E6.3186
G1 X152.940 Y84.175 E7.1820
G1 X151.723 Y85.392 E7.2729
G1 X151.719 Y85.519 E7.2796
G1 X151.656 Y86.494 E7.3312
G1 X151.650 Y86.535 E7.3334
G1 X152.940 Y87.825 E7.4297
G1 X152.940 Y140.175 E10.1940
G1 X150.175 Y142.940 E10.4004
G1 X133.825 Y142.940 E11.2638
G1 X132.353 Y141.469 E11.3737
G1 X114.922 Y141.469 E12.2941
G1 X114.598 Y141.446 E12.3113
G1 X113.728 Y141.326 E12.3576
G1 X113.106 Y141.150 E12.3918
G1 X112.157 Y140.737 E12.4464
G1 X111.615 Y140.408 E12.4799
G1 X110.817 Y139.763 E12.5341
G1 X110.391 Y139.315 E12.5667
G1 X109.794 Y138.495 E12.6203
G1 X109.504 Y137.967 E12.6521
G1 X109.135 Y137.030 E12.7053
G1 X108.989 Y136.457 E12.7365
G1 X108.883 Y135.609 E12.7816
G1 X108.865 Y135.316 E12.7971
G1 X108.865 Y96.441 E14.8499
G1 X106.075 Y96.258 E14.9975
G1 X102.482 Y96.225 E15.1873
G1 X102.445 Y96.225 E15.1892
G1 X98.872 Y96.136 E15.3779
G1 X98.837 Y96.135 E15.3798
G1 X94.959 Y95.981 E15.5847
G1 X94.927 Y95.980 E15.5864
G1 X91.149 Y95.778 E15.7862
G1 X91.109 Y95.776 E15.7883
G1 X83.551 Y95.244 E16.1884
G1 X83.513 Y95.241 E16.1904
G1 X78.324 Y94.791 E16.4654
G1 X78.175 Y94.940 E16.4765
G1 X53.825 Y94.940 E17.7623
G1 X51.060 Y92.175 E17.9688
G1 X51.060 Y83.825 E18.4097
G1 X53.825 Y81.060 E18.6162
G1 X59.060 Y81.060 E18.8926
G1 X59.060 Y67.825 E19.5915
G1 X61.825 Y65.060 E19.7979
G92 E0.0000
G1 E-0.7000 F1500
G1 X62.024 Y65.540 F4800
G1 E0.0000 F1500
G92 E0.0000
G1 X73.976 Y65.540 E0.6311 F1800
G1 X76.460 Y68.024 E0.8166
G1 X76.460 Y77.540 E1.3191
G1 X89.976 Y77.540 E2.0328
G1 X92.460 Y80.024 E2.2183
G1 X92.460 Y81.671 E2.3053
G1 X95.540 Y81.671 E2.4679
G1 X95.540 Y68.024 E3.1885
G1 X98.024 Y65.540 E3.3740
G1 X109.976 Y65.540 E4.0051
G1 X110.000 Y65.564 E4.0069
G1 X110.024 Y65.540 E4.0087
G1 X149.976 Y65.540 E6.1183
G1 X152.460 Y68.024 E6.3038
G1 X152.460 Y83.976 E7.1461
G1 X151.244 Y85.192 E7.2370
G1 X151.244 Y85.360 E7.2458
G1 X151.239 Y85.496 E7.2530
G1 X151.178 Y86.447 E7.3033
G1 X151.144 Y86.708 E7.3172
G1 X152.460 Y88.024 E7.4155
G1 X152.460 Y139.976 E10.1588
G1 X149.976 Y142.460 E10.3442
G1 X134.024 Y142.460 E11.1866
G1 X132.552 Y140.989 E11.2965
G1 X114.939 Y140.989 E12.2265
G1 X114.647 Y140.968 E12.2420
G1 X113.827 Y140.855 E12.2857
G1 X113.268 Y140.697 E12.3164
G1 X112.378 Y140.309 E12.3676
G1 X111.892 Y140.014 E12.3977
G1 X111.143 Y139.410 E12.4485
G1 X110.761 Y139.007 E12.4778
G1 X110.200 Y138.237 E12.5281
G1 X109.939 Y137.763 E12.5567
G1 X109.593 Y136.883 E12.6066
G1 X109.462 Y136.368 E12.6347
G1 X109.361 Y135.564 E12.6774
G1 X109.345 Y135.301 E12.6913
G1 X109.345 Y95.991 E14.7671
G1 X106.092 Y95.778 E14.9392
G1 X102.488 Y95.745 E15.1295
G1 X102.455 Y95.745 E15.1313
G1 X98.886 Y95.656 E15.3198
G1 X98.854 Y95.655 E15.3214
G1 X94.979 Y95.502 E15.5262
G1 X94.950 Y95.500 E15.5277
G1 X91.176 Y95.299 E15.7273
G1 X91.140 Y95.297 E15.7292
G1 X83.587 Y94.766 E16.1291
G1 X83.552 Y94.763 E16.1309
G1 X78.142 Y94.294 E16.4176
G1 X77.976 Y94.460 E16.4300
G1 X54.024 Y94.460 E17.6948
G1 X51.540 Y91.976 E17.8803
G1 X51.540 Y84.024 E18.3002
G1 X54.024 Y81.540 E18.4857
G1 X59.540 Y81.540 E18.7770
G1 X59.540 Y68.024 E19.4907
G1 X62.024 Y65.540 E19.6761
G92 E0.0000
G1 E-0.7000 F1500
; feature inner perimeter
G1 X77.682 Y86.631 F4800
G1 E0.0000 F1500
G92 E0.0000
G1 X105.648 Y86.631 E1.4767 F1350
G1 X106.085 Y84.728 E1.5798
G1 X106.622 Y84.103 E1.6233
G1 X138.844 Y84.123 E3.3247
G1 X146.285 Y84.149 E3.7177
G1 X146.284 Y85.265 E3.7766
G1 X146.240 Y85.944 E3.8125
G1 X146.113 Y86.593 E3.8474
G1 X145.924 Y87.186 E3.8803
G1 X145.648 Y87.795 E3.9156
G1 X145.303 Y88.370 E3.9510
G1 X144.924 Y88.878 E3.9845
G1 X144.488 Y89.353 E4.0185
G1 X144.181 Y89.645 E4.0408
G1 X143.994 Y89.802 E4.0538
G1 X143.433 Y90.220 E4.0907
G1 X142.823 Y90.589 E4.1284
G1 X142.297 Y90.850 E4.1594
G1 X141.624 Y91.118 E4.1976
G1 X140.950 Y91.318 E4.2347
G1 X140.278 Y91.457 E4.2710
G1 X139.641 Y91.537 E4.3049
G1 X138.938 Y91.567 E4.3420
G1 X137.850 Y91.565 E4.3995
G1 X137.850 Y131.450 E6.5056
G1 X137.763 Y132.376 E6.5547
G1 X137.516 Y133.234 E6.6018
G1 X137.117 Y134.021 E6.6484
G1 X136.581 Y134.708 E6.6944
G1 X135.932 Y135.269 E6.7397
G1 X135.194 Y135.684 E6.7844
G1 X134.397 Y135.939 E6.8286
G1 X133.533 Y136.029 E6.8745
G1 X115.134 Y136.029 E7.8460
G1 X114.894 Y135.995 E7.8588
G1 X114.712 Y135.916 E7.8693
G1 X114.550 Y135.785 E7.8803
G1 X114.422 Y135.609 E7.8918
G1 X114.339 Y135.399 E7.9037
G1 X114.305 Y135.124 E7.9183
G1 X114.305 Y91.346 E10.2300
G1 X106.277 Y90.819 E10.6548
G1 X102.555 Y90.786 E10.8513
G1 X99.029 Y90.698 E11.0376
G1 X95.195 Y90.546 E11.2402
G1 X91.462 Y90.347 E11.4376
G1 X87.638 Y90.098 E11.6400
G1 X83.959 Y89.820 E11.8348
G1 X80.018 Y89.488 E12.0436
G1 X77.631 Y89.273 E12.1702
G1 X77.682 Y86.631 E12.3097
; feature outer perimeter
G1 X77.205 Y86.452 F4800
G92 E0.0000
G1 X77.219 Y86.151 E0.0160 F900
G1 X105.266 Y86.151 E1.4969
G1 X105.633 Y84.548 E1.5838
G1 X105.666 Y84.478 E1.5878
G1 X106.402 Y83.623 E1.6474
G1 X138.846 Y83.643 E3.3605
G1 X146.765 Y83.671 E3.7787
G1 X146.764 Y85.281 E3.8637
G1 X146.717 Y86.006 E3.9021
G1 X146.578 Y86.713 E3.9401
G1 X146.372 Y87.359 E3.9759
G1 X146.074 Y88.018 E4.0141
G1 X145.703 Y88.637 E4.0522
G1 X145.294 Y89.185 E4.0883
G1 X144.831 Y89.690 E4.1245
G1 X144.501 Y90.003 E4.1485
G1 X144.292 Y90.179 E4.1630
G1 X143.702 Y90.619 E4.2018
G1 X143.054 Y91.010 E4.2418
G1 X142.493 Y91.289 E4.2749
G1 X141.781 Y91.572 E4.3153
G1 X141.067 Y91.784 E4.3546
G1 X140.357 Y91.931 E4.3929
G1 X139.682 Y92.016 E4.4289
G1 X138.948 Y92.047 E4.4677
G1 X138.330 Y92.046 E4.5003
G1 X138.330 Y131.472 E6.5822
G1 X138.237 Y132.466 E6.6349
G1 X137.965 Y133.410 E6.6867
G1 X137.524 Y134.279 E6.7382
G1 X136.931 Y135.040 E6.7891
G1 X136.209 Y135.664 E6.8395
G1 X136.164 Y135.689 E6.8422
G1 X135.387 Y136.127 E6.8893
G1 X134.496 Y136.411 E6.9387
G1 X133.557 Y136.509 E6.9885
G1 X115.101 Y136.509 E7.9631
G1 X114.762 Y136.462 E7.9812
G1 X114.460 Y136.330 E7.9986
G1 X114.199 Y136.119 E8.0163
G1 X113.998 Y135.842 E8.0343
G1 X113.870 Y135.518 E8.0527
G1 X113.825 Y135.154 E8.0721
G1 X113.825 Y91.795 E10.3616
G1 X106.259 Y91.299 E10.7620
G1 X102.547 Y91.266 E10.9580
G1 X99.014 Y91.178 E11.1446
G1 X95.173 Y91.026 E11.3476
G1 X91.434 Y90.827 E11.5453
G1 X87.604 Y90.577 E11.7480
G1 X83.921 Y90.298 E11.9430
G1 X79.975 Y89.966 E12.1521
G1 X77.142 Y89.711 E12.3023
G1 X77.205 Y86.452 E12.4744
G92 E0.0000
G1 E-0.7000 F1500
; feature inner perimeter
G1 X117.980 Y108.888 F4800
G1 E0.0000 F1500
G92 E0.0000
G1 X117.980 Y117.061 E0.4315 F1350
G1 X132.420 Y117.061 E1.1940
G1 X132.420 Y108.888 E1.6256
G1 X117.980 Y108.888 E2.3881
; feature outer perimeter
G1 X118.460 Y109.368 F4800
G92 E0.0000
G1 X118.460 Y116.581 E0.3809 F900
G1 X131.940 Y116.581 E1.0927
G1 X131.940 Y109.368 E1.4735
G1 X118.460 Y109.368 E2.1853
; feature inner perimeter
G1 X117.980 Y121.258 F4800
G92 E0.0000
G1 X117.980 Y129.431 E0.4315 F1350
G1 X132.420 Y129.431 E1.1940
G1 X132.420 Y121.258 E1.6256
G1 X117.980 Y121.258 E2.3881
; feature outer perimeter
G1 X118.460 Y121.738 F4800
G92 E0.0000
G1 X118.460 Y128.951 E0.3809 F900
G1 X131.940 Y128.951 E1.0927
G1 X131.940 Y121.738 E1.4735
G1 X118.460 Y121.738 E2.1853
; feature solid layer
G1 X118.148 Y117.469 F4800
G92 E0.0000
G1 X121.529 Y120.850 E0.2525 F1440
G1 X122.208 Y120.850 E0.2883
G1 X118.827 Y117.469 E0.5408
G1 X119.506 Y117.469 E0.5766
G1 X122.886 Y120.850 E0.8291
G1 X123.565 Y120.850 E0.8649
G1 X120.184 Y117.469 E1.1174
G1 X120.863 Y117.469 E1.1532
G1 X124.244 Y120.850 E1.4057
G1 X124.923 Y120.850 E1.4415
G1 X121.542 Y117.469 E1.6940
G1 X122.221 Y117.469 E1.7298
G1 X125.602 Y120.850 E1.9823
G1 X126.281 Y120.850 E2.0181
G1 X122.900 Y117.469 E2.2706
G1 X123.579 Y117.469 E2.3064
G1 X126.959 Y120.850 E2.5589
G1 X127.638 Y120.850 E2.5947
G1 X124.257 Y117.469 E2.8472
G1 X124.936 Y117.469 E2.8831
G1 X128.317 Y120.850 E3.1355
G1 X128.996 Y120.850 E3.1714
G1 X125.615 Y117.469 E3.4238
G1 X126.294 Y117.469 E3.4597
G1 X129.675 Y120.850 E3.7121
G1 X130.353 Y120.850 E3.7480
G1 X126.973 Y117.469 E4.0004
G1 X127.652 Y117.469 E4.0363
G1 X131.032 Y120.850 E4.2887
G1 X131.711 Y120.850 E4.3246
G1 X128.330 Y117.469 E4.5770
G1 X129.009 Y117.469 E4.6129
G1 X132.390 Y120.850 E4.8653
G1 X132.828 Y120.850 E4.8885
G1 X132.828 Y121.288 E4.9116
G1 X137.442 Y125.902 E5.2562
G1 X137.442 Y125.223 E5.2920
G1 X129.688 Y117.469 E5.8710
G1 X130.367 Y117.469 E5.9069
G1 X137.442 Y124.544 E6.4352
G1 X137.442 Y123.865 E6.4711
G1 X131.046 Y117.469 E6.9487
G1 X131.724 Y117.469 E6.9845
G1 X137.442 Y123.187 E7.4115
G1 X137.442 Y122.508 E7.4473
G1 X132.403 Y117.469 E7.8236
G1 X132.828 Y117.469 E7.8460
G1 X132.828 Y117.215 E7.8594
G1 X137.442 Y121.829 E8.2040
G1 X137.442 Y121.150 E8.2398
G1 X132.828 Y116.536 E8.5844
G1 X132.828 Y115.857 E8.6202
G1 X137.442 Y120.471 E8.9648
G1 X137.442 Y119.792 E9.0006
G1 X132.828 Y115.179 E9.3451
G1 X132.828 Y114.500 E9.3810
G1 X137.442 Y119.114 E9.7255
G1 X137.442 Y118.435 E9.7614
G1 X132.828 Y113.821 E10.1059
G1 X132.828 Y113.142 E10.1418
G1 X137.442 Y117.756 E10.4863
G1 X137.442 Y117.077 E10.5221
G1 X132.828 Y112.463 E10.8667
G1 X132.828 Y111.785 E10.9025
G1 X137.442 Y116.398 E11.2471
G1 X137.442 Y115.720 E11.2829
G1 X132.828 Y111.106 E11.6274
G1 X132.828 Y110.427 E11.6633
G1 X137.442 Y115.041 E12.0078
G1 X137.442 Y114.362 E12.0437
G1 X132.828 Y109.748 E12.3882
G1 X132.828 Y121.967 F4800
G92 E0.0000
G1 X137.442 Y126.581 E0.3445 F1440
G1 X137.442 Y127.260 E0.3804
G1 X132.828 Y122.646 E0.7249
G1 X132.828 Y123.325 E0.7608
G1 X137.442 Y127.938 E1.1053
G1 X137.442 Y128.617 E1.1412
G1 X132.828 Y124.003 E1.4857
G1 X132.828 Y124.682 E1.5215
G1 X137.442 Y129.296 E1.8661
G1 X137.442 Y129.975 E1.9019
G1 X132.828 Y125.361 E2.2465
G1 X132.828 Y126.040 E2.2823
G1 X137.442 Y130.654 E2.6268
G1 X137.442 Y131.332 E2.6627
G1 X132.828 Y126.719 E3.0072
G1 X132.828 Y127.397 E3.0431
G1 X137.392 Y131.962 E3.3839
G1 X137.361 Y132.300 E3.4019
G1 X137.292 Y132.540 E3.4150
G1 X132.828 Y128.076 E3.7483
G1 X132.828 Y128.755 E3.7842
G1 X137.140 Y133.067 E4.1062
G1 X137.135 Y133.083 E4.1071
