; G-Code generated by Simplify3D(R) Version 4.1.1
; Apr 28, 2021 at 7:45:26 PM
; Settings Summary
;   processName,Trideo BOX
;   applyToModels,forearmelbowjoiner left
;   profileName,Trideo BOX
;   profileVersion,2021-04-15 09:48:16
;   baseProfile,Default
;   printMaterial,PLA
;   printQuality,Fast
;   printExtruders,
;   extruderName,Primary Extruder
;   extruderToolheadNumber,0
;   extruderDiameter,0.4
;   extruderAutoWidth,1
;   extruderWidth,0.48
;   extrusionMultiplier,0.98
;   extruderUseRetract,1
;   extruderRetractionDistance,0.7
;   extruderExtraRestartDistance,0
;   extruderRetractionZLift,0
;   extruderRetractionSpeed,1500
;   extruderUseCoasting,0
;   extruderCoastingDistance,0.2
;   extruderUseWipe,0
;   extruderWipeDistance,5
;   primaryExtruder,0
;   layerHeight,0.3
;   topSolidLayers,3
;   bottomSolidLayers,3
;   perimeterOutlines,2
;   printPerimetersInsideOut,1
;   startPointOption,2
;   startPointOriginX,0
;   startPointOriginY,0
;   sequentialIslands,0
;   spiralVaseMode,0
;   firstLayerHeightPercentage,90
;   firstLayerWidthPercentage,100
;   firstLayerUnderspeed,0.5
;   useRaft,0
;   raftExtruder,0
;   raftTopLayers,3
;   raftBaseLayers,2
;   raftOffset,3
;   raftSeparationDistance,0.14
;   raftTopInfill,100
;   aboveRaftSpeedMultiplier,0.3
;   useSkirt,1
;   skirtExtruder,0
;   skirtLayers,1
;   skirtOutlines,2
;   skirtOffset,4
;   usePrimePillar,0
;   primePillarExtruder,999
;   primePillarWidth,12
;   primePillarLocation,7
;   primePillarSpeedMultiplier,1
;   useOozeShield,0
;   oozeShieldExtruder,999
;   oozeShieldOffset,2
;   oozeShieldOutlines,1
;   oozeShieldSidewallShape,1
;   oozeShieldSidewallAngle,30
;   oozeShieldSpeedMultiplier,1
;   infillExtruder,0
;   internalInfillPattern,Rectilinear
;   externalInfillPattern,Rectilinear
;   infillPercentage,15
;   outlineOverlapPercentage,15
;   infillExtrusionWidthPercentage,100
;   minInfillLength,5
;   infillLayerInterval,1
;   internalInfillAngles,45,-45
;   overlapInternalInfillAngles,0
;   externalInfillAngles,45,-45
;   generateSupport,1
;   supportExtruder,0
;   supportInfillPercentage,25
;   supportExtraInflation,0
;   supportBaseLayers,0
;   denseSupportExtruder,0
;   denseSupportLayers,0
;   denseSupportInfillPercentage,70
;   supportLayerInterval,1
;   supportHorizontalPartOffset,0.3
;   supportUpperSeparationLayers,1
;   supportLowerSeparationLayers,1
;   supportType,0
;   supportGridSpacing,4
;   maxOverhangAngle,45
;   supportAngles,0
;   temperatureName,Primary Extruder,Heated bed
;   temperatureNumber,0,0
;   temperatureSetpointCount,1,1
;   temperatureSetpointLayers,1,1
;   temperatureSetpointTemperatures,190,60
;   temperatureStabilizeAtStartup,1,1
;   temperatureHeatedBed,0,1
;   fanLayers,1,2
;   fanSpeeds,0,100
;   blipFanToFullPower,0
;   adjustSpeedForCooling,1
;   minSpeedLayerTime,15
;   minCoolingSpeedSlowdown,20
;   increaseFanForCooling,0
;   minFanLayerTime,45
;   maxCoolingFanSpeed,100
;   increaseFanForBridging,0
;   bridgingFanSpeed,100
;   use5D,1
;   relativeEdistances,0
;   allowEaxisZeroing,1
;   independentExtruderAxes,0
;   includeM10123,0
;   stickySupport,1
;   applyToolheadOffsets,0
;   gcodeXoffset,0
;   gcodeYoffset,0
;   gcodeZoffset,0
;   overrideMachineDefinition,1
;   machineTypeOverride,0
;   strokeXoverride,200
;   strokeYoverride,200
;   strokeZoverride,200
;   originOffsetXoverride,0
;   originOffsetYoverride,0
;   originOffsetZoverride,0
;   homeXdirOverride,-1
;   homeYdirOverride,-1
;   homeZdirOverride,-1
;   flipXoverride,1
;   flipYoverride,-1
;   flipZoverride,1
;   toolheadOffsets,0,0|0,0|0,0|0,0|0,0|0,0
;   overrideFirmwareConfiguration,0
;   firmwareTypeOverride,RepRap (Marlin/Repetier/Sprinter)
;   GPXconfigOverride,r2
;   baudRateOverride,115200
;   overridePrinterModels,0
;   printerModelsOverride
;   startingGcode,G28 X0 Y0; home XY,G1 X20 Y20,G28 Z0,G1 Z5 F5000; Lift NZ
;   layerChangeGcode,
;   retractionGcode,
;   toolChangeGcode,
;   endingGcode,M104 S0 ; turn off extruder,G28 X0 ; home x,M140 S0 ; turn off bed,M84 ; disable motors,M107 ;
;   exportFileFormat,gcode
;   celebration,0
;   celebrationSong,Looney Toons
;   postProcessing,
;   defaultSpeed,3600
;   outlineUnderspeed,0.5
;   solidInfillUnderspeed,0.8
;   supportUnderspeed,0.8
;   rapidXYspeed,4800
;   rapidZspeed,1002
;   minBridgingArea,50
;   bridgingExtraInflation,0
;   bridgingExtrusionMultiplier,1
;   bridgingSpeedMultiplier,1
;   useFixedBridgingAngle,0
;   fixedBridgingAngle,0
;   applyBridgingToPerimeters,0
;   filamentDiameters,1.75|1.75|1.75|1.75|1.75|1.75
;   filamentPricesPerKg,46|46|46|46|46|46
;   filamentDensities,1.25|1.25|1.25|1.25|1.25|1.25
;   useMinPrintHeight,0
;   minPrintHeight,0
;   useMaxPrintHeight,0
;   maxPrintHeight,0
;   useDiaphragm,0
;   diaphragmLayerInterval,20
;   robustSlicing,1
;   mergeAllIntoSolid,0
;   onlyRetractWhenCrossingOutline,1
;   retractBetweenLayers,1
;   useRetractionMinTravel,0
;   retractionMinTravel,3
;   retractWhileWiping,0
;   onlyWipeOutlines,1
;   avoidCrossingOutline,0
;   maxMovementDetourFactor,3
;   toolChangeRetractionDistance,12
;   toolChangeExtraRestartDistance,-0.5
;   toolChangeRetractionSpeed,600
;   externalThinWallType,0
;   internalThinWallType,2
;   thinWallAllowedOverlapPercentage,10
;   singleExtrusionMinLength,1
;   singleExtrusionMinPrintingWidthPercentage,50
;   singleExtrusionMaxPrintingWidthPercentage,200
;   singleExtrusionEndpointExtension,0.2
;   horizontalSizeCompensation,0
G90
M82
M106 S0
M140 S60
M190 S60
M104 S190 T0
M109 S190 T0
G28 X0 Y0; home XY
G1 X20 Y20
G28 Z0
G1 Z5 F5000; Lift NZ
; process Trideo BOX
; layer 1, Z = 0.270
T0
G92 E0.0000
G1 E-0.7000 F1500
; feature skirt
; tool H0.270 W0.480
G1 Z0.270 F1002
G1 X57.825 Y63.060 F4800
G1 E0.0000 F1500
G92 E0.0000
G1 X74.175 Y63.060 E0.8634 F1800
G1 X76.940 Y65.825 E1.0698
G1 X76.940 Y74.175 E1.5107
G1 X76.055 Y75.060 E1.5768
G1 X86.175 Y75.060 E2.1112
G1 X88.940 Y77.825 E2.3177
G1 X88.940 Y79.782 E2.4210
G1 X95.060 Y79.782 E2.7442
G1 X95.060 Y65.825 E3.4811
G1 X97.825 Y63.060 E3.6876
G1 X111.060 Y63.060 E4.3865
G1 X111.060 Y61.825 E4.4517
G1 X113.825 Y59.060 E4.6582
G1 X158.175 Y59.060 E7.0000
G1 X160.940 Y61.825 E7.2065
G1 X160.940 Y70.175 E7.6474
G1 X158.175 Y72.940 E7.8539
G1 X156.940 Y72.940 E7.9191
G1 X156.940 Y82.175 E8.4067
G1 X156.418 Y82.697 E8.4457
G1 X156.417 Y83.899 E8.5092
G1 X156.412 Y84.049 E8.5171
G1 X156.345 Y85.091 E8.5722
G1 X156.308 Y85.381 E8.5877
G1 X156.108 Y86.428 E8.6440
G1 X156.040 Y86.699 E8.6587
G1 X155.706 Y87.751 E8.7170
G1 X155.606 Y88.013 E8.7318
G1 X155.457 Y88.342 E8.7509
G1 X156.940 Y89.825 E8.8616
G1 X156.940 Y142.175 E11.6259
G1 X154.175 Y144.940 E11.8324
G1 X138.950 Y144.940 E12.6363
G1 X138.728 Y144.986 E12.6483
G1 X137.292 Y145.135 E12.7245
G1 X137.049 Y145.148 E12.7374
G1 X116.431 Y145.148 E13.8261
G1 X116.106 Y145.125 E13.8433
G1 X115.198 Y145.000 E13.8917
G1 X114.575 Y144.824 E13.9259
G1 X113.591 Y144.395 E13.9826
G1 X113.048 Y144.066 E14.0161
G1 X112.220 Y143.396 E14.0723
G1 X111.794 Y142.949 E14.1050
G1 X111.172 Y142.096 E14.1607
G1 X110.882 Y141.567 E14.1925
G1 X110.499 Y140.593 E14.2478
G1 X110.353 Y140.019 E14.2791
G1 X110.241 Y139.130 E14.3264
G1 X110.223 Y138.837 E14.3419
G1 X110.223 Y95.643 E16.6227
G1 X106.695 Y95.411 E16.8094
G1 X102.743 Y95.376 E17.0181
G1 X102.706 Y95.375 E17.0200
G1 X98.778 Y95.278 E17.2275
G1 X98.743 Y95.277 E17.2294
G1 X94.481 Y95.108 E17.4546
G1 X94.448 Y95.106 E17.4563
G1 X90.301 Y94.885 E17.6756
G1 X90.273 Y94.884 E17.6771
G1 X86.026 Y94.606 E17.9018
G1 X85.992 Y94.604 E17.9036
G1 X77.567 Y93.930 E18.3499
G1 X77.544 Y93.928 E18.3512
G1 X72.541 Y93.478 E18.6164
G1 X72.040 Y92.940 E18.6552
G1 X49.825 Y92.940 E19.8282
G1 X47.060 Y90.175 E20.0347
G1 X47.060 Y81.825 E20.4756
G1 X49.825 Y79.060 E20.6821
G1 X55.060 Y79.060 E20.9585
G1 X55.060 Y65.825 E21.6574
G1 X57.825 Y63.060 E21.8639
G92 E0.0000
G1 E-0.7000 F1500
G1 X58.024 Y63.540 F4800
G1 E0.0000 F1500
G92 E0.0000
G1 X73.976 Y63.540 E0.8424 F1800
G1 X76.460 Y66.024 E1.0278
G1 X76.460 Y73.976 E1.4478
G1 X74.896 Y75.540 E1.5645
G1 X85.976 Y75.540 E2.1496
G1 X88.460 Y78.024 E2.3351
G1 X88.460 Y80.262 E2.4532
G1 X95.540 Y80.262 E2.8271
G1 X95.540 Y66.024 E3.5789
G1 X98.024 Y63.540 E3.7644
G1 X109.976 Y63.540 E4.3955
G1 X110.000 Y63.564 E4.3973
G1 X110.024 Y63.540 E4.3991
G1 X111.540 Y63.540 E4.4791
G1 X111.540 Y62.024 E4.5592
G1 X114.024 Y59.540 E4.7447
G1 X157.976 Y59.540 E7.0655
G1 X160.460 Y62.024 E7.2510
G1 X160.460 Y69.976 E7.6709
G1 X157.976 Y72.460 E7.8564
G1 X156.460 Y72.460 E7.9365
G1 X156.460 Y81.976 E8.4390
G1 X155.938 Y82.498 E8.4779
G1 X155.937 Y83.891 E8.5515
G1 X155.933 Y84.026 E8.5586
G1 X155.867 Y85.045 E8.6125
G1 X155.834 Y85.306 E8.6264
G1 X155.639 Y86.324 E8.6812
G1 X155.578 Y86.568 E8.6944
G1 X155.253 Y87.593 E8.7512
G1 X155.163 Y87.828 E8.7645
G1 X154.883 Y88.446 E8.8004
G1 X156.460 Y90.024 E8.9182
G1 X156.460 Y141.976 E11.6614
G1 X153.976 Y144.460 E11.8469
G1 X138.900 Y144.460 E12.6430
G1 X138.654 Y144.511 E12.6563
G1 X137.255 Y144.657 E12.7305
G1 X137.036 Y144.668 E12.7421
G1 X116.447 Y144.668 E13.8293
G1 X116.156 Y144.648 E13.8447
G1 X115.296 Y144.529 E13.8905
G1 X114.737 Y144.371 E13.9212
G1 X113.812 Y143.968 E13.9745
G1 X113.325 Y143.672 E14.0046
G1 X112.546 Y143.043 E14.0575
G1 X112.163 Y142.641 E14.0868
G1 X111.578 Y141.838 E14.1392
G1 X111.318 Y141.363 E14.1678
G1 X110.956 Y140.445 E14.2199
G1 X110.825 Y139.930 E14.2480
G1 X110.720 Y139.086 E14.2929
G1 X110.703 Y138.822 E14.3068
G1 X110.703 Y95.194 E16.6106
G1 X106.713 Y94.932 E16.8218
G1 X102.749 Y94.896 E17.0311
G1 X102.716 Y94.895 E17.0328
G1 X98.791 Y94.798 E17.2401
G1 X98.760 Y94.797 E17.2418
G1 X94.501 Y94.628 E17.4668
G1 X94.472 Y94.627 E17.4684
G1 X90.328 Y94.406 E17.6875
G1 X90.303 Y94.405 E17.6888
G1 X86.059 Y94.128 E17.9134
G1 X86.028 Y94.125 E17.9150
G1 X77.607 Y93.452 E18.3611
G1 X77.586 Y93.450 E18.3623
G1 X72.767 Y93.016 E18.6177
G1 X72.249 Y92.460 E18.6579
G1 X50.024 Y92.460 E19.8314
G1 X47.540 Y89.976 E20.0169
G1 X47.540 Y82.024 E20.4368
G1 X50.024 Y79.540 E20.6223
G1 X55.540 Y79.540 E20.9136
G1 X55.540 Y66.024 E21.6273
G1 X58.024 Y63.540 E21.8128
G92 E0.0000
G1 E-0.7000 F1500
; feature inner perimeter
G1 X75.510 Y85.222 F4800
G1 E0.0000 F1500
G92 E0.0000
G1 X106.185 Y85.222 E1.6198 F1350
G1 X106.648 Y83.260 E1.7262
G1 X107.224 Y82.591 E1.7728
G1 X108.173 Y82.574 E1.8229
G1 X115.816 Y82.574 E2.2265
G1 X144.867 Y82.597 E3.7605
G1 X150.978 Y82.618 E4.0832
G1 X150.977 Y83.796 E4.1454
G1 X150.929 Y84.549 E4.1852
G1 X150.799 Y85.230 E4.2218
G1 X150.576 Y85.934 E4.2608
G1 X150.270 Y86.609 E4.3000
G1 X149.912 Y87.212 E4.3370
G1 X149.465 Y87.814 E4.3766
G1 X148.949 Y88.375 E4.4168
G1 X148.642 Y88.664 E4.4391
G1 X148.430 Y88.842 E4.4537
G1 X147.810 Y89.304 E4.4945
G1 X147.137 Y89.711 E4.5361
G1 X146.544 Y90.005 E4.5710
G1 X145.803 Y90.300 E4.6131
G1 X145.057 Y90.521 E4.6542
G1 X144.313 Y90.676 E4.6943
G1 X143.603 Y90.765 E4.7321
G1 X142.825 Y90.798 E4.7732
G1 X141.707 Y90.796 E4.8323
G1 X141.707 Y134.603 E7.1454
G1 X141.611 Y135.632 E7.2000
G1 X141.335 Y136.588 E7.2525
G1 X140.889 Y137.466 E7.3045
G1 X140.292 Y138.233 E7.3559
G1 X139.566 Y138.860 E7.4065
G1 X138.742 Y139.323 E7.4564
G1 X137.852 Y139.608 E7.5058
G1 X136.890 Y139.708 E7.5569
G1 X116.643 Y139.708 E8.6260
G1 X116.363 Y139.669 E8.6409
G1 X116.145 Y139.574 E8.6535
G1 X115.953 Y139.418 E8.6665
G1 X115.800 Y139.210 E8.6802
G1 X115.703 Y138.961 E8.6943
G1 X115.663 Y138.646 E8.7111
G1 X115.663 Y90.549 E11.2507
G1 X106.898 Y89.973 E11.7146
G1 X102.816 Y89.936 E11.9301
G1 X98.935 Y89.840 E12.1351
G1 X94.717 Y89.673 E12.3580
G1 X90.609 Y89.454 E12.5752
G1 X86.402 Y89.179 E12.7979
G1 X82.354 Y88.874 E13.0122
G1 X78.018 Y88.509 E13.2420
G1 X75.470 Y88.279 E13.3771
G1 X75.457 Y87.629 E13.4114
G1 X75.510 Y85.222 E13.5386
; feature outer perimeter
G1 X75.041 Y84.742 F4800
G92 E0.0000
G1 X105.805 Y84.742 E1.6245 F900
G1 X106.207 Y83.035 E1.7171
G1 X107.001 Y82.115 E1.7812
G1 X108.168 Y82.094 E1.8429
G1 X115.817 Y82.094 E2.2467
G1 X144.869 Y82.117 E3.7808
G1 X151.458 Y82.140 E4.1287
G1 X151.457 Y83.812 E4.2170
G1 X151.406 Y84.610 E4.2593
G1 X151.265 Y85.348 E4.2989
G1 X151.025 Y86.106 E4.3409
G1 X150.696 Y86.831 E4.3830
G1 X150.312 Y87.479 E4.4227
G1 X149.835 Y88.121 E4.4650
G1 X149.290 Y88.713 E4.5074
G1 X148.961 Y89.023 E4.5313
G1 X148.728 Y89.218 E4.5474
G1 X148.078 Y89.703 E4.5902
G1 X147.368 Y90.132 E4.6340
G1 X146.740 Y90.444 E4.6710
G1 X145.960 Y90.754 E4.7153
G1 X145.175 Y90.987 E4.7586
G1 X144.392 Y91.150 E4.8008
G1 X143.643 Y91.244 E4.8407
G1 X142.835 Y91.278 E4.8834
G1 X142.187 Y91.277 E4.9176
G1 X142.187 Y134.625 E7.2065
G1 X142.084 Y135.722 E7.2647
G1 X141.784 Y136.764 E7.3220
G1 X141.296 Y137.725 E7.3788
G1 X140.641 Y138.565 E7.4351
G1 X139.844 Y139.255 E7.4908
G1 X138.935 Y139.766 E7.5458
G1 X137.950 Y140.080 E7.6004
G1 X136.914 Y140.188 E7.6554
G1 X116.610 Y140.188 E8.7276
G1 X116.232 Y140.135 E8.7477
G1 X115.894 Y139.988 E8.7672
G1 X115.602 Y139.752 E8.7870
G1 X115.376 Y139.443 E8.8072
G1 X115.234 Y139.080 E8.8278
G1 X115.183 Y138.675 E8.8493
G1 X115.183 Y90.998 E11.3669
G1 X106.880 Y90.453 E11.8063
G1 X102.809 Y90.416 E12.0212
G1 X98.919 Y90.320 E12.2267
G1 X94.695 Y90.152 E12.4499
G1 X90.581 Y89.933 E12.6675
G1 X86.368 Y89.658 E12.8904
G1 X82.316 Y89.352 E13.1050
G1 X77.975 Y88.987 E13.3350
G1 X74.998 Y88.719 E13.4928
G1 X74.977 Y87.629 E13.5504
G1 X75.041 Y84.742 E13.7029
G92 E0.0000
G1 E-0.7000 F1500
; feature inner perimeter
G1 X119.850 Y109.849 F4800
G1 E0.0000 F1500
G92 E0.0000
G1 X119.850 Y118.728 E0.4688 F1350
G1 X135.590 Y118.728 E1.3000
G1 X135.590 Y109.849 E1.7688
G1 X119.850 Y109.849 E2.5999
; feature outer perimeter
G1 X120.330 Y110.329 F4800
G92 E0.0000
G1 X120.330 Y118.248 E0.4181 F900
G1 X135.110 Y118.248 E1.1986
G1 X135.110 Y110.329 E1.6167
G1 X120.330 Y110.329 E2.3971
; feature inner perimeter
G1 X119.850 Y123.423 F4800
G92 E0.0000
G1 X119.850 Y132.302 E0.4688 F1350
G1 X135.590 Y132.302 E1.3000
G1 X135.590 Y123.423 E1.7688
G1 X119.850 Y123.423 E2.5999
; feature outer perimeter
G1 X120.330 Y123.903 F4800
G92 E0.0000
G1 X120.330 Y131.822 E0.4181 F900
G1 X135.110 Y131.822 E1.1986
G1 X135.110 Y123.903 E1.6167
G1 X120.330 Y123.903 E2.3971
; feature solid layer
G1 X122.336 Y123.015 F4800
G92 E0.0000
G1 X116.071 Y116.750 E0.4679 F1440
G1 X116.071 Y117.429 E0.5037
G1 X121.658 Y123.015 E0.9209
G1 X120.979 Y123.015 E0.9567
G1 X116.071 Y118.108 E1.3232
G1 X116.071 Y118.786 E1.3590
G1 X120.300 Y123.015 E1.6748
G1 X119.621 Y123.015 E1.7107
G1 X116.071 Y119.465 E1.9757
G1 X116.071 Y120.144 E2.0116
G1 X119.442 Y123.515 E2.2633
G1 X119.442 Y124.194 E2.2992
G1 X116.071 Y120.823 E2.5509
G1 X116.071 Y121.502 E2.5867
G1 X119.442 Y124.873 E2.8384
G1 X119.442 Y125.551 E2.8743
G1 X116.071 Y122.181 E3.1260
G1 X116.071 Y122.859 E3.1619
G1 X119.442 Y126.230 E3.4136
G1 X119.442 Y126.909 E3.4494
G1 X116.071 Y123.538 E3.7012
G1 X116.071 Y124.217 E3.7370
G1 X119.442 Y127.588 E3.9887
G1 X119.442 Y128.267 E4.0246
G1 X116.071 Y124.896 E4.2763
G1 X116.071 Y125.575 E4.3121
G1 X119.442 Y128.946 E4.5639
G1 X119.442 Y129.624 E4.5997
G1 X116.071 Y126.253 E4.8514
G1 X116.071 Y126.932 E4.8873
G1 X119.442 Y130.303 E5.1390
G1 X119.442 Y130.982 E5.1748
G1 X116.071 Y127.611 E5.4266
G1 X116.071 Y128.290 E5.4624
G1 X119.442 Y131.661 E5.7141
G1 X119.442 Y132.340 E5.7500
G1 X116.071 Y128.969 E6.0017
G1 X116.071 Y129.648 E6.0375
G1 X125.723 Y139.300 E6.7583
G1 X126.402 Y139.300 E6.7942
G1 X119.812 Y132.710 E7.2863
G1 X120.491 Y132.710 E7.3221
G1 X127.081 Y139.300 E7.8143
G1 X127.760 Y139.300 E7.8501
G1 X121.170 Y132.710 E8.3422
G1 X121.849 Y132.710 E8.3781
G1 X128.439 Y139.300 E8.8702
G1 X129.118 Y139.300 E8.9061
G1 X122.527 Y132.710 E9.3982
G1 X123.206 Y132.710 E9.4340
G1 X129.796 Y139.300 E9.9261
G1 X130.475 Y139.300 E9.9620
G1 X123.885 Y132.710 E10.4541
G1 X124.564 Y132.710 E10.4900
G1 X131.154 Y139.300 E10.9821
G1 X131.833 Y139.300 E11.0179
G1 X125.243 Y132.710 E11.5101
G1 X125.921 Y132.710 E11.5459
G1 X132.512 Y139.300 E12.0380
G1 X133.190 Y139.300 E12.0739
G1 X126.600 Y132.710 E12.5660
