; G-Code generated by Simplify3D(R) Version 4.1.1
; Apr 28, 2021 at 7:39:11 PM
; Settings Summary
;   processName,Trideo BOX
;   applyToModels,forearmelbowjoiner left
;   profileName,Trideo BOX
;   profileVersion,2021-04-15 09:48:16
;   baseProfile,Default
;   printMaterial,PLA
;   printQuality,Fast
;   printExtruders,
;   extruderName,Primary Extruder
;   extruderToolheadNumber,0
;   extruderDiameter,0.4
;   extruderAutoWidth,1
;   extruderWidth,0.48
;   extrusionMultiplier,0.98
;   extruderUseRetract,1
;   extruderRetractionDistance,0.7
;   extruderExtraRestartDistance,0
;   extruderRetractionZLift,0
;   extruderRetractionSpeed,1500
;   extruderUseCoasting,0
;   extruderCoastingDistance,0.2
;   extruderUseWipe,0
;   extruderWipeDistance,5
;   primaryExtruder,0
;   layerHeight,0.3
;   topSolidLayers,3
;   bottomSolidLayers,3
;   perimeterOutlines,2
;   printPerimetersInsideOut,1
;   startPointOption,2
;   startPointOriginX,0
;   startPointOriginY,0
;   sequentialIslands,0
;   spiralVaseMode,0
;   firstLayerHeightPercentage,90
;   firstLayerWidthPercentage,100
;   firstLayerUnderspeed,0.5
;   useRaft,0
;   raftExtruder,0
;   raftTopLayers,3
;   raftBaseLayers,2
;   raftOffset,3
;   raftSeparationDistance,0.14
;   raftTopInfill,100
;   aboveRaftSpeedMultiplier,0.3
;   useSkirt,1
;   skirtExtruder,0
;   skirtLayers,1
;   skirtOutlines,2
;   skirtOffset,4
;   usePrimePillar,0
;   primePillarExtruder,999
;   primePillarWidth,12
;   primePillarLocation,7
;   primePillarSpeedMultiplier,1
;   useOozeShield,0
;   oozeShieldExtruder,999
;   oozeShieldOffset,2
;   oozeShieldOutlines,1
;   oozeShieldSidewallShape,1
;   oozeShieldSidewallAngle,30
;   oozeShieldSpeedMultiplier,1
;   infillExtruder,0
;   internalInfillPattern,Rectilinear
;   externalInfillPattern,Rectilinear
;   infillPercentage,15
;   outlineOverlapPercentage,15
;   infillExtrusionWidthPercentage,100
;   minInfillLength,5
;   infillLayerInterval,1
;   internalInfillAngles,45,-45
;   overlapInternalInfillAngles,0
;   externalInfillAngles,45,-45
;   generateSupport,1
;   supportExtruder,0
;   supportInfillPercentage,25
;   supportExtraInflation,0
;   supportBaseLayers,0
;   denseSupportExtruder,0
;   denseSupportLayers,0
;   denseSupportInfillPercentage,70
;   supportLayerInterval,1
;   supportHorizontalPartOffset,0.3
;   supportUpperSeparationLayers,1
;   supportLowerSeparationLayers,1
;   supportType,0
;   supportGridSpacing,4
;   maxOverhangAngle,45
;   supportAngles,0
;   temperatureName,Primary Extruder,Heated bed
;   temperatureNumber,0,0
;   temperatureSetpointCount,1,1
;   temperatureSetpointLayers,1,1
;   temperatureSetpointTemperatures,190,60
;   temperatureStabilizeAtStartup,1,1
;   temperatureHeatedBed,0,1
;   fanLayers,1,2
;   fanSpeeds,0,100
;   blipFanToFullPower,0
;   adjustSpeedForCooling,1
;   minSpeedLayerTime,15
;   minCoolingSpeedSlowdown,20
;   increaseFanForCooling,0
;   minFanLayerTime,45
;   maxCoolingFanSpeed,100
;   increaseFanForBridging,0
;   bridgingFanSpeed,100
;   use5D,1
;   relativeEdistances,0
;   allowEaxisZeroing,1
;   independentExtruderAxes,0
;   includeM10123,0
;   stickySupport,1
;   applyToolheadOffsets,0
;   gcodeXoffset,0
;   gcodeYoffset,0
;   gcodeZoffset,0
;   overrideMachineDefinition,1
;   machineTypeOverride,0
;   strokeXoverride,200
;   strokeYoverride,200
;   strokeZoverride,200
;   originOffsetXoverride,0
;   originOffsetYoverride,0
;   originOffsetZoverride,0
;   homeXdirOverride,-1
;   homeYdirOverride,-1
;   homeZdirOverride,-1
;   flipXoverride,1
;   flipYoverride,-1
;   flipZoverride,1
;   toolheadOffsets,0,0|0,0|0,0|0,0|0,0|0,0
;   overrideFirmwareConfiguration,0
;   firmwareTypeOverride,RepRap (Marlin/Repetier/Sprinter)
;   GPXconfigOverride,r2
;   baudRateOverride,115200
;   overridePrinterModels,0
;   printerModelsOverride
;   startingGcode,G28 X0 Y0; home XY,G1 X20 Y20,G28 Z0,G1 Z5 F5000; Lift NZ
;   layerChangeGcode,
;   retractionGcode,
;   toolChangeGcode,
;   endingGcode,M104 S0 ; turn off extruder,G28 X0 ; home x,M140 S0 ; turn off bed,M84 ; disable motors,M107 ;
;   exportFileFormat,gcode
;   celebration,0
;   celebrationSong,Looney Toons
;   postProcessing,
;   defaultSpeed,3600
;   outlineUnderspeed,0.5
;   solidInfillUnderspeed,0.8
;   supportUnderspeed,0.8
;   rapidXYspeed,4800
;   rapidZspeed,1002
;   minBridgingArea,50
;   bridgingExtraInflation,0
;   bridgingExtrusionMultiplier,1
;   bridgingSpeedMultiplier,1
;   useFixedBridgingAngle,0
;   fixedBridgingAngle,0
;   applyBridgingToPerimeters,0
;   filamentDiameters,1.75|1.75|1.75|1.75|1.75|1.75
;   filamentPricesPerKg,46|46|46|46|46|46
;   filamentDensities,1.25|1.25|1.25|1.25|1.25|1.25
;   useMinPrintHeight,0
;   minPrintHeight,0
;   useMaxPrintHeight,0
;   maxPrintHeight,0
;   useDiaphragm,0
;   diaphragmLayerInterval,20
;   robustSlicing,1
;   mergeAllIntoSolid,0
;   onlyRetractWhenCrossingOutline,1
;   retractBetweenLayers,1
;   useRetractionMinTravel,0
;   retractionMinTravel,3
;   retractWhileWiping,0
;   onlyWipeOutlines,1
;   avoidCrossingOutline,0
;   maxMovementDetourFactor,3
;   toolChangeRetractionDistance,12
;   toolChangeExtraRestartDistance,-0.5
;   toolChangeRetractionSpeed,600
;   externalThinWallType,0
;   internalThinWallType,2
;   thinWallAllowedOverlapPercentage,10
;   singleExtrusionMinLength,1
;   singleExtrusionMinPrintingWidthPercentage,50
;   singleExtrusionMaxPrintingWidthPercentage,200
;   singleExtrusionEndpointExtension,0.2
;   horizontalSizeCompensation,0
G90
M82
M106 S0
M140 S60
M190 S60
M104 S190 T0
M109 S190 T0
G28 X0 Y0; home XY
G1 X20 Y20
G28 Z0
G1 Z5 F5000; Lift NZ
; process Trideo BOX
; layer 1, Z = 0.270
T0
G92 E0.0000
G1 E-0.7000 F1500
; feature skirt
; tool H0.270 W0.480
G1 Z0.270 F1002
G1 X63.825 Y69.060 F4800
G1 E0.0000 F1500
G92 E0.0000
G1 X76.175 Y69.060 E0.6521 F1800
G1 X78.940 Y71.825 E0.8586
G1 X78.940 Y77.060 E1.1350
G1 X88.175 Y77.060 E1.6227
G1 X90.940 Y79.825 E1.8292
G1 X90.940 Y82.600 E1.9757
G1 X93.060 Y82.600 E2.0876
G1 X93.060 Y71.825 E2.6566
G1 X95.825 Y69.060 E2.8630
G1 X125.060 Y69.060 E4.4068
G1 X125.060 Y67.825 E4.4720
G1 X127.825 Y65.060 E4.6784
G1 X148.175 Y65.060 E5.7530
G1 X150.940 Y67.825 E5.9595
G1 X150.940 Y76.175 E6.4004
G1 X148.175 Y78.940 E6.6069
G1 X146.940 Y78.940 E6.6721
G1 X146.940 Y82.919 E6.8822
G1 X147.034 Y83.013 E6.8892
G1 X147.030 Y86.838 E7.0912
G1 X147.025 Y86.989 E7.0992
G1 X146.967 Y87.892 E7.1470
G1 X146.927 Y88.195 E7.1631
G1 X146.741 Y89.141 E7.2140
G1 X146.674 Y89.404 E7.2283
G1 X146.399 Y90.265 E7.2760
G1 X146.300 Y90.522 E7.2906
G1 X146.093 Y90.978 E7.3170
G1 X146.940 Y91.825 E7.3803
G1 X146.940 Y136.175 E9.7221
G1 X144.175 Y138.940 E9.9286
G1 X131.825 Y138.940 E10.5807
G1 X130.654 Y137.769 E10.6682
G1 X130.578 Y137.777 E10.6722
G1 X130.335 Y137.789 E10.6851
G1 X113.414 Y137.789 E11.5786
G1 X113.089 Y137.767 E11.5958
G1 X112.258 Y137.652 E11.6400
G1 X111.636 Y137.476 E11.6742
G1 X110.724 Y137.078 E11.7267
G1 X110.181 Y136.749 E11.7602
G1 X109.415 Y136.130 E11.8123
G1 X108.989 Y135.682 E11.8449
G1 X108.415 Y134.895 E11.8964
G1 X108.125 Y134.367 E11.9282
G1 X107.772 Y133.468 E11.9792
G1 X107.625 Y132.895 E12.0104
G1 X107.525 Y132.088 E12.0534
G1 X107.506 Y131.795 E12.0689
G1 X107.506 Y97.238 E13.8936
G1 X105.454 Y97.104 E14.0022
G1 X102.221 Y97.075 E14.1729
G1 X102.183 Y97.074 E14.1749
G1 X98.966 Y96.994 E14.3448
G1 X98.931 Y96.993 E14.3466
G1 X95.437 Y96.855 E14.5313
G1 X95.405 Y96.853 E14.5330
G1 X92.002 Y96.672 E14.7130
G1 X91.962 Y96.669 E14.7151
G1 X85.156 Y96.191 E15.0753
G1 X85.117 Y96.188 E15.0774
G1 X76.814 Y95.466 E15.5175
G1 X76.343 Y94.940 E15.5548
G1 X55.825 Y94.940 E16.6382
G1 X53.060 Y92.175 E16.8447
G1 X53.060 Y83.825 E17.2856
G1 X55.825 Y81.060 E17.4921
G1 X61.060 Y81.060 E17.7685
G1 X61.060 Y71.825 E18.2562
G1 X63.825 Y69.060 E18.4626
G92 E0.0000
G1 E-0.7000 F1500
G1 X64.024 Y69.540 F4800
G1 E0.0000 F1500
G92 E0.0000
G1 X75.976 Y69.540 E0.6311 F1800
G1 X78.460 Y72.024 E0.8166
G1 X78.460 Y77.540 E1.1079
G1 X87.976 Y77.540 E1.6104
G1 X90.460 Y80.024 E1.7959
G1 X90.460 Y83.080 E1.9572
G1 X93.540 Y83.080 E2.1199
G1 X93.540 Y72.024 E2.7037
G1 X96.024 Y69.540 E2.8891
G1 X107.976 Y69.540 E3.5203
G1 X108.000 Y69.564 E3.5220
G1 X108.024 Y69.540 E3.5238
G1 X125.540 Y69.540 E4.4487
G1 X125.540 Y68.024 E4.5288
G1 X128.024 Y65.540 E4.7143
G1 X147.976 Y65.540 E5.7678
G1 X150.460 Y68.024 E5.9533
G1 X150.460 Y75.976 E6.3732
G1 X147.976 Y78.460 E6.5587
G1 X146.460 Y78.460 E6.6388
G1 X146.460 Y83.118 E6.8847
G1 X146.554 Y83.211 E6.8917
G1 X146.550 Y86.830 E7.0828
G1 X146.546 Y86.966 E7.0900
G1 X146.489 Y87.846 E7.1365
G1 X146.453 Y88.118 E7.1510
G1 X146.273 Y89.035 E7.2004
G1 X146.212 Y89.271 E7.2133
G1 X145.946 Y90.106 E7.2595
G1 X145.857 Y90.337 E7.2726
G1 X145.519 Y91.082 E7.3158
G1 X146.460 Y92.024 E7.3861
G1 X146.460 Y111.976 E8.4397
G1 X146.436 Y112.000 E8.4415
G1 X146.460 Y112.024 E8.4432
G1 X146.460 Y123.976 E9.0744
G1 X146.436 Y124.000 E9.0761
G1 X146.460 Y124.024 E9.0779
G1 X146.460 Y135.976 E9.7090
G1 X143.976 Y138.460 E9.8945
G1 X132.024 Y138.460 E10.5257
G1 X130.832 Y137.268 E10.6147
G1 X130.541 Y137.298 E10.6301
G1 X130.322 Y137.309 E10.6417
G1 X113.430 Y137.309 E11.5336
G1 X113.139 Y137.289 E11.5491
G1 X112.357 Y137.181 E11.5907
G1 X111.798 Y137.023 E11.6214
G1 X110.945 Y136.651 E11.6705
G1 X110.458 Y136.356 E11.7006
G1 X109.741 Y135.776 E11.7493
G1 X109.358 Y135.374 E11.7786
G1 X108.821 Y134.637 E11.8268
G1 X108.561 Y134.162 E11.8554
G1 X108.229 Y133.320 E11.9032
G1 X108.098 Y132.805 E11.9312
G1 X108.003 Y132.043 E11.9718
G1 X107.986 Y131.780 E11.9857
G1 X107.986 Y96.789 E13.8334
G1 X105.472 Y96.624 E13.9664
G1 X102.227 Y96.595 E14.1378
G1 X102.193 Y96.594 E14.1396
G1 X98.980 Y96.514 E14.3093
G1 X98.949 Y96.513 E14.3110
G1 X95.457 Y96.375 E14.4955
G1 X95.428 Y96.374 E14.4970
G1 X92.029 Y96.193 E14.6767
G1 X91.993 Y96.190 E14.6786
G1 X85.192 Y95.712 E15.0387
G1 X85.157 Y95.709 E15.0405
G1 X77.045 Y95.005 E15.4705
G1 X76.557 Y94.460 E15.5091
G1 X56.024 Y94.460 E16.5933
G1 X53.540 Y91.976 E16.7788
G1 X53.540 Y84.024 E17.1987
G1 X56.024 Y81.540 E17.3842
G1 X61.540 Y81.540 E17.6755
G1 X61.540 Y72.024 E18.1780
G1 X64.024 Y69.540 E18.3634
G92 E0.0000
G1 E-0.7000 F1500
; feature inner perimeter
G1 X79.861 Y88.040 F4800
G1 E0.0000 F1500
G92 E0.0000
G1 X105.309 Y88.040 E1.3437 F1350
G1 X105.257 Y87.333 E1.3812
G1 X105.510 Y86.254 E1.4397
G1 X105.557 Y86.155 E1.4455
G1 X105.978 Y85.661 E1.4797
G1 X117.127 Y85.638 E2.0684
G1 X132.821 Y85.650 E2.8971
G1 X141.591 Y85.680 E3.3602
G1 X141.590 Y86.735 E3.4159
G1 X141.551 Y87.341 E3.4480
G1 X141.437 Y87.918 E3.4791
G1 X141.271 Y88.439 E3.5079
G1 X141.025 Y88.981 E3.5394
G1 X140.718 Y89.493 E3.5709
G1 X140.383 Y89.942 E3.6005
G1 X140.003 Y90.357 E3.6302
G1 X139.547 Y90.771 E3.6627
G1 X139.057 Y91.137 E3.6950
G1 X138.509 Y91.467 E3.7288
G1 X138.050 Y91.695 E3.7559
G1 X137.446 Y91.936 E3.7902
G1 X136.843 Y92.114 E3.8234
G1 X136.244 Y92.238 E3.8557
G1 X135.680 Y92.309 E3.8857
G1 X135.051 Y92.336 E3.9189
G1 X133.993 Y92.334 E3.9748
G1 X133.993 Y128.297 E5.8738
G1 X133.916 Y129.121 E5.9175
G1 X133.697 Y129.879 E5.9592
G1 X133.344 Y130.576 E6.0004
G1 X132.870 Y131.183 E6.0411
G1 X132.297 Y131.679 E6.0811
G1 X131.646 Y132.045 E6.1205
G1 X130.943 Y132.270 E6.1595
G1 X130.176 Y132.349 E6.2002
G1 X113.626 Y132.349 E7.0741
G1 X113.424 Y132.321 E7.0849
G1 X113.278 Y132.258 E7.0933
G1 X113.148 Y132.152 E7.1021
G1 X113.043 Y132.009 E7.1115
G1 X112.975 Y131.836 E7.1213
G1 X112.946 Y131.603 E7.1337
G1 X112.946 Y92.142 E9.2174
G1 X105.657 Y91.666 E9.6031
G1 X102.294 Y91.635 E9.7807
G1 X99.124 Y91.556 E9.9482
G1 X95.673 Y91.420 E10.1305
G1 X92.316 Y91.241 E10.3081
G1 X88.874 Y91.016 E10.4902
G1 X85.565 Y90.766 E10.6654
G1 X79.818 Y90.267 E10.9700
G1 X79.861 Y88.040 E11.0876
; feature outer perimeter
G1 X79.380 Y88.053 F4800
G92 E0.0000
G1 X79.403 Y87.560 E0.0261 F900
G1 X104.792 Y87.560 E1.3667
G1 X104.773 Y87.294 E1.3808
G1 X105.055 Y86.095 E1.4458
G1 X105.150 Y85.892 E1.4576
G1 X105.740 Y85.202 E1.5056
G1 X105.767 Y85.182 E1.5074
G1 X117.126 Y85.158 E2.1072
G1 X132.823 Y85.170 E2.9361
G1 X142.072 Y85.202 E3.4244
G1 X142.070 Y86.750 E3.5062
G1 X142.028 Y87.403 E3.5407
G1 X141.903 Y88.038 E3.5749
G1 X141.720 Y88.612 E3.6067
G1 X141.451 Y89.204 E3.6411
G1 X141.118 Y89.761 E3.6753
G1 X140.754 Y90.249 E3.7075
G1 X140.342 Y90.697 E3.7396
G1 X139.852 Y91.142 E3.7745
G1 X139.325 Y91.536 E3.8093
G1 X138.740 Y91.888 E3.8454
G1 X138.245 Y92.134 E3.8745
G1 X137.603 Y92.390 E3.9110
G1 X136.960 Y92.580 E3.9464
G1 X136.322 Y92.712 E3.9808
G1 X135.721 Y92.788 E4.0128
G1 X135.061 Y92.816 E4.0477
G1 X134.473 Y92.815 E4.0788
G1 X134.473 Y128.320 E5.9535
G1 X134.390 Y129.211 E6.0008
G1 X134.146 Y130.056 E6.0472
G1 X133.751 Y130.834 E6.0933
G1 X133.220 Y131.515 E6.1389
G1 X132.574 Y132.073 E6.1840
G1 X131.839 Y132.487 E6.2286
G1 X131.041 Y132.742 E6.2728
G1 X130.200 Y132.829 E6.3174
G1 X113.593 Y132.829 E7.1944
G1 X113.292 Y132.788 E7.2104
G1 X113.027 Y132.672 E7.2257
G1 X112.797 Y132.486 E7.2413
G1 X112.619 Y132.242 E7.2572
G1 X112.507 Y131.956 E7.2735
G1 X112.466 Y131.633 E7.2906
G1 X112.466 Y92.592 E9.3522
G1 X105.639 Y92.145 E9.7134
G1 X102.286 Y92.115 E9.8905
G1 X99.108 Y92.036 E10.0583
G1 X95.651 Y91.899 E10.2410
G1 X92.287 Y91.720 E10.4189
G1 X88.840 Y91.495 E10.6013
G1 X85.526 Y91.244 E10.7768
G1 X79.329 Y90.706 E11.1052
G1 X79.380 Y88.053 E11.2454
G92 E0.0000
G1 E-0.7000 F1500
; feature inner perimeter
G1 X116.110 Y107.928 F4800
G1 E0.0000 F1500
G92 E0.0000
G1 X116.110 Y115.394 E0.3943 F1350
G1 X129.250 Y115.394 E1.0881
G1 X129.250 Y107.928 E1.4824
G1 X116.110 Y107.928 E2.1762
; feature outer perimeter
G1 X116.590 Y108.408 F4800
G92 E0.0000
G1 X116.590 Y114.914 E0.3436 F900
G1 X128.770 Y114.914 E0.9867
G1 X128.770 Y108.408 E1.3303
G1 X116.590 Y108.408 E1.9735
; feature inner perimeter
G1 X116.110 Y119.093 F4800
G92 E0.0000
G1 X116.110 Y126.560 E0.3943 F1350
G1 X129.250 Y126.560 E1.0881
G1 X129.250 Y119.093 E1.4824
G1 X116.110 Y119.093 E2.1762
; feature outer perimeter
G1 X116.590 Y119.573 F4800
G92 E0.0000
G1 X116.590 Y126.080 E0.3436 F900
G1 X128.770 Y126.080 E0.9867
G1 X128.770 Y119.573 E1.3303
G1 X116.590 Y119.573 E1.9735
; feature solid layer
G1 X115.802 Y115.802 F4800
G92 E0.0000
G1 X118.685 Y118.685 E0.2152 F1440
G1 X119.364 Y118.685 E0.2511
G1 X116.481 Y115.802 E0.4663
G1 X117.160 Y115.802 E0.5022
G1 X120.042 Y118.685 E0.7174
G1 X120.721 Y118.685 E0.7532
G1 X117.839 Y115.802 E0.9685
G1 X118.518 Y115.802 E1.0043
G1 X121.400 Y118.685 E1.2196
G1 X122.079 Y118.685 E1.2554
G1 X119.197 Y115.802 E1.4706
G1 X119.875 Y115.802 E1.5065
G1 X122.758 Y118.685 E1.7217
G1 X123.437 Y118.685 E1.7576
G1 X120.554 Y115.802 E1.9728
G1 X121.233 Y115.802 E2.0086
G1 X124.115 Y118.685 E2.2239
G1 X124.794 Y118.685 E2.2597
G1 X121.912 Y115.802 E2.4750
G1 X122.591 Y115.802 E2.5108
G1 X125.473 Y118.685 E2.7260
G1 X126.152 Y118.685 E2.7619
G1 X123.270 Y115.802 E2.9771
G1 X123.948 Y115.802 E3.0130
G1 X126.831 Y118.685 E3.2282
G1 X127.509 Y118.685 E3.2640
G1 X124.627 Y115.802 E3.4793
G1 X125.306 Y115.802 E3.5151
G1 X128.188 Y118.685 E3.7304
G1 X128.867 Y118.685 E3.7662
G1 X125.985 Y115.802 E3.9814
G1 X126.664 Y115.802 E4.0173
G1 X129.546 Y118.685 E4.2325
G1 X129.658 Y118.685 E4.2384
G1 X129.658 Y118.797 E4.2444
G1 X133.585 Y122.724 E4.5376
G1 X133.585 Y122.045 E4.5734
G1 X127.342 Y115.802 E5.0396
G1 X128.021 Y115.802 E5.0754
G1 X133.585 Y121.366 E5.4909
G1 X133.585 Y120.687 E5.5268
G1 X128.700 Y115.802 E5.8915
G1 X129.379 Y115.802 E5.9274
G1 X133.585 Y120.008 E6.2415
G1 X133.585 Y119.330 E6.2773
G1 X129.658 Y115.403 E6.5705
G1 X129.658 Y114.724 E6.6064
G1 X133.585 Y118.651 E6.8996
G1 X133.585 Y117.972 E6.9355
G1 X129.658 Y114.045 E7.2287
G1 X129.658 Y113.366 E7.2646
G1 X133.585 Y117.293 E7.5578
G1 X133.585 Y116.614 E7.5936
G1 X129.658 Y112.687 E7.8869
G1 X129.658 Y112.009 E7.9227
G1 X133.585 Y115.935 E8.2160
G1 X133.585 Y115.257 E8.2518
G1 X129.658 Y111.330 E8.5451
G1 X129.658 Y110.651 E8.5809
G1 X133.585 Y114.578 E8.8741
G1 X133.585 Y113.899 E8.9100
G1 X129.658 Y109.972 E9.2032
G1 X129.658 Y109.293 E9.2391
