; G-Code generated by Simplify3D(R) Version 4.1.1
; Apr 27, 2021 at 9:08:05 AM
; Settings Summary
;   processName,Trideo BOX
;   applyToModels,Right Arm X2
;   profileName,Trideo BOX
;   profileVersion,2021-04-15 09:48:16
;   baseProfile,Default
;   printMaterial,PLA
;   printQuality,Fast
;   printExtruders,
;   extruderName,Primary Extruder
;   extruderToolheadNumber,0
;   extruderDiameter,0.4
;   extruderAutoWidth,1
;   extruderWidth,0.48
;   extrusionMultiplier,0.98
;   extruderUseRetract,1
;   extruderRetractionDistance,0.7
;   extruderExtraRestartDistance,0
;   extruderRetractionZLift,0
;   extruderRetractionSpeed,1500
;   extruderUseCoasting,0
;   extruderCoastingDistance,0.2
;   extruderUseWipe,0
;   extruderWipeDistance,5
;   primaryExtruder,0
;   layerHeight,0.3
;   topSolidLayers,3
;   bottomSolidLayers,3
;   perimeterOutlines,2
;   printPerimetersInsideOut,1
;   startPointOption,2
;   startPointOriginX,0
;   startPointOriginY,0
;   sequentialIslands,0
;   spiralVaseMode,0
;   firstLayerHeightPercentage,90
;   firstLayerWidthPercentage,100
;   firstLayerUnderspeed,0.5
;   useRaft,0
;   raftExtruder,0
;   raftTopLayers,3
;   raftBaseLayers,2
;   raftOffset,3
;   raftSeparationDistance,0.14
;   raftTopInfill,100
;   aboveRaftSpeedMultiplier,0.3
;   useSkirt,1
;   skirtExtruder,0
;   skirtLayers,1
;   skirtOutlines,2
;   skirtOffset,4
;   usePrimePillar,0
;   primePillarExtruder,999
;   primePillarWidth,12
;   primePillarLocation,7
;   primePillarSpeedMultiplier,1
;   useOozeShield,0
;   oozeShieldExtruder,999
;   oozeShieldOffset,2
;   oozeShieldOutlines,1
;   oozeShieldSidewallShape,1
;   oozeShieldSidewallAngle,30
;   oozeShieldSpeedMultiplier,1
;   infillExtruder,0
;   internalInfillPattern,Rectilinear
;   externalInfillPattern,Rectilinear
;   infillPercentage,15
;   outlineOverlapPercentage,15
;   infillExtrusionWidthPercentage,100
;   minInfillLength,5
;   infillLayerInterval,1
;   internalInfillAngles,45,-45
;   overlapInternalInfillAngles,0
;   externalInfillAngles,45,-45
;   generateSupport,1
;   supportExtruder,0
;   supportInfillPercentage,25
;   supportExtraInflation,0
;   supportBaseLayers,0
;   denseSupportExtruder,0
;   denseSupportLayers,0
;   denseSupportInfillPercentage,70
;   supportLayerInterval,1
;   supportHorizontalPartOffset,0.3
;   supportUpperSeparationLayers,1
;   supportLowerSeparationLayers,1
;   supportType,0
;   supportGridSpacing,4
;   maxOverhangAngle,45
;   supportAngles,0
;   temperatureName,Primary Extruder,Heated bed
;   temperatureNumber,0,0
;   temperatureSetpointCount,1,1
;   temperatureSetpointLayers,1,1
;   temperatureSetpointTemperatures,190,60
;   temperatureStabilizeAtStartup,1,1
;   temperatureHeatedBed,0,1
;   fanLayers,1,2
;   fanSpeeds,0,100
;   blipFanToFullPower,0
;   adjustSpeedForCooling,1
;   minSpeedLayerTime,15
;   minCoolingSpeedSlowdown,20
;   increaseFanForCooling,0
;   minFanLayerTime,45
;   maxCoolingFanSpeed,100
;   increaseFanForBridging,0
;   bridgingFanSpeed,100
;   use5D,1
;   relativeEdistances,0
;   allowEaxisZeroing,1
;   independentExtruderAxes,0
;   includeM10123,0
;   stickySupport,1
;   applyToolheadOffsets,0
;   gcodeXoffset,0
;   gcodeYoffset,0
;   gcodeZoffset,0
;   overrideMachineDefinition,1
;   machineTypeOverride,0
;   strokeXoverride,200
;   strokeYoverride,200
;   strokeZoverride,200
;   originOffsetXoverride,0
;   originOffsetYoverride,0
;   originOffsetZoverride,0
;   homeXdirOverride,-1
;   homeYdirOverride,-1
;   homeZdirOverride,-1
;   flipXoverride,1
;   flipYoverride,-1
;   flipZoverride,1
;   toolheadOffsets,0,0|0,0|0,0|0,0|0,0|0,0
;   overrideFirmwareConfiguration,0
;   firmwareTypeOverride,RepRap (Marlin/Repetier/Sprinter)
;   GPXconfigOverride,r2
;   baudRateOverride,115200
;   overridePrinterModels,0
;   printerModelsOverride
;   startingGcode,G28 X0 Y0; home XY,G1 X20 Y20,G28 Z0,G1 Z5 F5000; Lift NZ
;   layerChangeGcode,
;   retractionGcode,
;   toolChangeGcode,
;   endingGcode,M104 S0 ; turn off extruder,G28 X0 ; home x,M140 S0 ; turn off bed,M84 ; disable motors,M107 ;
;   exportFileFormat,gcode
;   celebration,0
;   celebrationSong,Looney Toons
;   postProcessing,
;   defaultSpeed,3600
;   outlineUnderspeed,0.5
;   solidInfillUnderspeed,0.8
;   supportUnderspeed,0.8
;   rapidXYspeed,4800
;   rapidZspeed,1002
;   minBridgingArea,50
;   bridgingExtraInflation,0
;   bridgingExtrusionMultiplier,1
;   bridgingSpeedMultiplier,1
;   useFixedBridgingAngle,0
;   fixedBridgingAngle,0
;   applyBridgingToPerimeters,0
;   filamentDiameters,1.75|1.75|1.75|1.75|1.75|1.75
;   filamentPricesPerKg,46|46|46|46|46|46
;   filamentDensities,1.25|1.25|1.25|1.25|1.25|1.25
;   useMinPrintHeight,0
;   minPrintHeight,0
;   useMaxPrintHeight,0
;   maxPrintHeight,0
;   useDiaphragm,0
;   diaphragmLayerInterval,20
;   robustSlicing,1
;   mergeAllIntoSolid,0
;   onlyRetractWhenCrossingOutline,1
;   retractBetweenLayers,1
;   useRetractionMinTravel,0
;   retractionMinTravel,3
;   retractWhileWiping,0
;   onlyWipeOutlines,1
;   avoidCrossingOutline,0
;   maxMovementDetourFactor,3
;   toolChangeRetractionDistance,12
;   toolChangeExtraRestartDistance,-0.5
;   toolChangeRetractionSpeed,600
;   externalThinWallType,0
;   internalThinWallType,2
;   thinWallAllowedOverlapPercentage,10
;   singleExtrusionMinLength,1
;   singleExtrusionMinPrintingWidthPercentage,50
;   singleExtrusionMaxPrintingWidthPercentage,200
;   singleExtrusionEndpointExtension,0.2
;   horizontalSizeCompensation,0
G90
M82
M106 S0
M140 S60
M190 S60
M104 S190 T0
M109 S190 T0
G28 X0 Y0; home XY
G1 X20 Y20
G28 Z0
G1 Z5 F5000; Lift NZ
; process Trideo BOX
; layer 1, Z = 0.270
T0
G92 E0.0000
G1 E-0.7000 F1500
; feature skirt
; tool H0.270 W0.480
G1 Z0.270 F1002
G1 X84.639 Y44.118 F4800
G1 E0.0000 F1500
G92 E0.0000
G1 X87.400 Y41.380 E0.2053 F1800
G1 X89.146 Y41.380 E0.2975
G1 X89.364 Y41.160 E0.3139
G1 X126.375 Y41.160 E2.2682
G1 X126.595 Y41.380 E2.2846
G1 X129.504 Y41.380 E2.4382
G1 X132.269 Y44.145 E2.6447
G1 X132.269 Y60.317 E3.4987
G1 X132.086 Y61.233 E3.5480
G1 X131.432 Y62.804 E3.6378
G1 X130.711 Y63.759 E3.7010
G1 X129.854 Y64.440 E3.7588
G1 X129.104 Y64.842 E3.8037
G1 X127.423 Y65.385 E3.8970
G1 X125.937 Y65.385 E3.9755
G1 X124.258 Y64.842 E4.0687
G1 X123.510 Y64.442 E4.1134
G1 X122.617 Y63.734 E4.1736
G1 X121.861 Y62.696 E4.2414
G1 X121.713 Y62.302 E4.2636
G1 X120.340 Y63.675 E4.3661
G1 X120.340 Y65.875 E4.4823
G1 X118.140 Y68.075 E4.6466
G1 X118.140 Y74.675 E4.9951
G1 X115.940 Y76.875 E5.1594
G1 X115.940 Y90.075 E5.8564
G1 X113.740 Y92.275 E6.0207
G1 X113.740 Y94.525 E6.1395
G1 X115.940 Y96.725 E6.3038
G1 X115.940 Y107.725 E6.8846
G1 X118.140 Y109.925 E7.0489
G1 X118.140 Y116.525 E7.3974
G1 X120.340 Y118.725 E7.5617
G1 X120.340 Y123.125 E7.7940
G1 X121.391 Y124.175 E7.8725
G1 X121.460 Y124.038 E7.8806
G1 X121.460 Y120.925 E8.0450
G1 X124.225 Y118.160 E8.2515
G1 X130.775 Y118.160 E8.5973
G1 X133.540 Y120.925 E8.8038
G1 X133.540 Y127.475 E9.1497
G1 X132.269 Y128.746 E9.2446
G1 X132.269 Y141.555 E9.9210
G1 X129.504 Y144.320 E10.1274
G1 X127.695 Y144.320 E10.2230
G1 X126.375 Y145.640 E10.3215
G1 X85.655 Y145.640 E12.4717
G1 X87.340 Y147.325 E12.5975
G1 X87.340 Y156.075 E13.0596
G1 X84.575 Y158.840 E13.2660
G1 X73.625 Y158.840 E13.8442
G1 X70.860 Y156.075 E14.0507
G1 X70.860 Y153.875 E14.1669
G1 X68.660 Y151.675 E14.3312
G1 X68.660 Y131.925 E15.3741
G1 X71.425 Y129.160 E15.5805
G1 X85.130 Y129.160 E16.3042
G1 X85.274 Y128.844 E16.3225
G1 X85.890 Y127.820 E16.3856
G1 X86.648 Y127.040 E16.4431
G1 X87.882 Y126.248 E16.5205
G1 X89.182 Y125.867 E16.5921
G1 X91.180 Y125.867 E16.6975
G1 X92.480 Y126.248 E16.7691
G1 X92.860 Y126.492 E16.7929
G1 X92.860 Y120.925 E17.0869
G1 X95.060 Y118.725 E17.2511
G1 X95.060 Y96.725 E18.4128
G1 X97.260 Y94.525 E18.5771
G1 X97.260 Y90.075 E18.8121
G1 X95.060 Y87.875 E18.9764
G1 X95.060 Y65.875 E20.1381
G1 X92.860 Y63.675 E20.3023
G1 X92.860 Y62.040 E20.3887
G1 X86.825 Y62.040 E20.7074
G1 X84.060 Y59.275 E20.9138
G1 X84.060 Y52.725 E21.2597
G1 X84.580 Y52.205 E21.2985
G1 X84.578 Y51.823 E21.3187
G1 X84.578 Y51.793 E21.3203
G1 X84.639 Y44.118 E21.7255
G92 E0.0000
G1 E-0.7000 F1500
G1 X85.118 Y44.320 F4800
G1 E0.0000 F1500
G92 E0.0000
G1 X87.597 Y41.860 E0.1844 F1800
G1 X89.346 Y41.860 E0.2768
G1 X89.564 Y41.640 E0.2931
G1 X126.176 Y41.640 E2.2264
G1 X126.396 Y41.860 E2.2428
G1 X129.305 Y41.860 E2.3964
G1 X131.789 Y44.344 E2.5819
G1 X131.789 Y60.270 E3.4228
G1 X131.624 Y61.093 E3.4671
G1 X131.012 Y62.563 E3.5513
G1 X130.364 Y63.421 E3.6080
G1 X129.589 Y64.037 E3.6603
G1 X128.916 Y64.398 E3.7007
G1 X127.348 Y64.905 E3.7877
G1 X126.013 Y64.905 E3.8582
G1 X124.446 Y64.399 E3.9451
G1 X123.775 Y64.040 E3.9853
G1 X122.966 Y63.398 E4.0398
G1 X122.287 Y62.466 E4.1007
G1 X121.900 Y61.436 E4.1588
G1 X119.860 Y63.476 E4.3111
G1 X119.860 Y65.676 E4.4273
G1 X117.660 Y67.876 E4.5916
G1 X117.660 Y74.476 E4.9401
G1 X115.460 Y76.676 E5.1044
G1 X115.460 Y89.876 E5.8014
G1 X113.260 Y92.076 E5.9657
G1 X113.260 Y94.724 E6.1054
G1 X115.460 Y96.924 E6.2697
G1 X115.460 Y107.924 E6.8506
G1 X117.660 Y110.124 E7.0149
G1 X117.660 Y116.724 E7.3634
G1 X119.860 Y118.924 E7.5277
G1 X119.860 Y123.324 E7.7600
G1 X121.650 Y125.114 E7.8936
G1 X121.825 Y124.380 E7.9334
G1 X121.940 Y124.153 E7.9469
G1 X121.940 Y121.124 E8.1069
G1 X124.424 Y118.640 E8.2923
G1 X130.576 Y118.640 E8.6172
G1 X133.060 Y121.124 E8.8027
G1 X133.060 Y127.276 E9.1276
G1 X131.789 Y128.547 E9.2225
G1 X131.789 Y141.356 E9.8988
G1 X129.305 Y143.840 E10.0843
G1 X127.496 Y143.840 E10.1798
G1 X126.176 Y145.160 E10.2784
G1 X84.660 Y145.160 E12.4706
G1 X84.660 Y145.324 E12.4793
G1 X86.860 Y147.524 E12.6436
G1 X86.860 Y155.876 E13.0846
G1 X84.376 Y158.360 E13.2701
G1 X73.824 Y158.360 E13.8273
G1 X71.340 Y155.876 E14.0128
G1 X71.340 Y153.676 E14.1289
G1 X69.140 Y151.476 E14.2932
G1 X69.140 Y132.124 E15.3151
G1 X71.624 Y129.640 E15.5006
G1 X85.456 Y129.640 E16.2310
G1 X85.499 Y129.509 E16.2383
G1 X85.699 Y129.068 E16.2638
G1 X86.273 Y128.115 E16.3226
G1 X86.954 Y127.414 E16.3742
G1 X88.083 Y126.689 E16.4450
G1 X89.251 Y126.347 E16.5093
G1 X91.111 Y126.347 E16.6075
G1 X92.279 Y126.689 E16.6718
G1 X93.340 Y127.370 E16.7383
G1 X93.340 Y121.124 E17.0682
G1 X95.540 Y118.924 E17.2324
G1 X95.540 Y96.924 E18.3941
G1 X97.740 Y94.724 E18.5584
G1 X97.740 Y89.876 E18.8144
G1 X95.540 Y87.676 E18.9787
G1 X95.540 Y65.676 E20.1404
G1 X93.340 Y63.476 E20.3046
G1 X93.340 Y61.396 E20.4145
G1 X93.176 Y61.560 E20.4267
G1 X87.024 Y61.560 E20.7516
G1 X84.540 Y59.076 E20.9370
G1 X84.540 Y52.924 E21.2619
G1 X85.061 Y52.403 E21.3008
G1 X85.058 Y51.822 E21.3315
G1 X85.058 Y51.795 E21.3329
G1 X85.118 Y44.320 E21.7276
G92 E0.0000
G1 E-0.7000 F1500
; feature outer perimeter
G1 X89.582 Y46.340 F4800
G1 E0.0000 F1500
G92 E0.0000
G1 X90.795 Y46.340 E0.0641 F900
G1 X90.808 Y47.804 E0.1414
G1 X90.764 Y54.311 E0.4850
G1 X90.614 Y54.773 E0.5106
G1 X90.181 Y54.913 E0.5346
G1 X89.746 Y54.772 E0.5588
G1 X89.691 Y54.669 E0.5650
G1 X89.550 Y54.305 E0.5856
G1 X89.538 Y51.815 E0.7170
G1 X89.582 Y46.340 E1.0062
; feature gap fill
G1 X90.193 Y46.748 F4800
G92 E0.0000
G1 X90.392 Y46.948 E0.0149 F1800
G1 X90.398 Y47.633 E0.0511
G1 X89.983 Y47.217 E0.0821
G1 X89.977 Y47.890 E0.1177
G1 X90.396 Y48.309 E0.1490
G1 X90.392 Y48.984 E0.1846
G1 X89.972 Y48.564 E0.2159
G1 X89.966 Y49.237 E0.2515
G1 X90.387 Y49.658 E0.2829
G1 X90.383 Y50.332 E0.3185
G1 X89.961 Y49.910 E0.3500
G1 X89.956 Y50.584 E0.3856
G1 X90.378 Y51.006 E0.4171
G1 X90.373 Y51.681 E0.4527
G1 X89.950 Y51.257 E0.4843
G1 X89.946 Y51.817 E0.5139
G1 X89.946 Y51.932 E0.5200
G1 X90.369 Y52.355 E0.5515
G1 X90.364 Y53.029 E0.5871
G1 X89.950 Y52.614 E0.6181
G1 X89.953 Y53.296 E0.6541
G1 X90.360 Y53.703 E0.6845
G1 X90.356 Y54.245 E0.7131
G1 X90.323 Y54.346 E0.7187
G1 X89.956 Y53.979 E0.7461
G92 E0.0000
G1 E-0.7000 F1500
; feature outer perimeter
G1 X126.073 Y59.806 F4800
G1 E0.0000 F1500
G92 E0.0000
G1 X126.073 Y46.340 E0.7111 F900
G1 X127.309 Y46.340 E0.7763
G1 X127.309 Y59.802 E1.4872
G1 X127.113 Y60.273 E1.5141
G1 X126.680 Y60.413 E1.5381
G1 X126.249 Y60.273 E1.5621
G1 X126.073 Y59.806 E1.5884
; feature gap fill
G1 X126.481 Y59.278 F4800
G92 E0.0000
G1 X126.901 Y59.697 E0.0313 F1800
G1 X126.901 Y59.019 E0.0672
G1 X126.481 Y58.599 E0.0985
G1 X126.481 Y57.920 E0.1344
G1 X126.901 Y58.340 E0.1657
G1 X126.901 Y57.661 E0.2016
G1 X126.481 Y57.241 E0.2329
G1 X126.481 Y56.562 E0.2687
G1 X126.901 Y56.982 E0.3001
G1 X126.901 Y56.303 E0.3359
G1 X126.481 Y55.884 E0.3673
G1 X126.481 Y55.205 E0.4031
G1 X126.901 Y55.624 E0.4344
G1 X126.901 Y54.946 E0.4703
G1 X126.481 Y54.526 E0.5016
G1 X126.481 Y53.847 E0.5375
G1 X126.901 Y54.267 E0.5688
G1 X126.901 Y53.588 E0.6047
G1 X126.481 Y53.168 E0.6360
G1 X126.481 Y52.490 E0.6718
G1 X126.901 Y52.909 E0.7032
G1 X126.901 Y52.230 E0.7390
G1 X126.481 Y51.811 E0.7704
G1 X126.481 Y51.132 E0.8062
G1 X126.901 Y51.552 E0.8375
G1 X126.901 Y50.873 E0.8734
G1 X126.481 Y50.453 E0.9047
G1 X126.481 Y49.774 E0.9406
G1 X126.901 Y50.194 E0.9719
G1 X126.901 Y49.515 E1.0078
G1 X126.481 Y49.095 E1.0391
G1 X126.481 Y48.417 E1.0749
G1 X126.901 Y48.836 E1.1063
G1 X126.901 Y48.157 E1.1421
G1 X126.481 Y47.738 E1.1735
G1 X126.481 Y47.059 E1.2093
G1 X126.901 Y47.479 E1.2406
G1 X126.901 Y46.800 E1.2765
G1 X126.849 Y46.748 E1.2804
G92 E0.0000
G1 E-0.7000 F1500
; feature outer perimeter
G1 X126.931 Y125.327 F4800
G1 E0.0000 F1500
G92 E0.0000
G1 X127.026 Y125.388 E0.0059 F900
G1 X127.309 Y125.911 E0.0374
G1 X127.309 Y139.360 E0.7475
G1 X126.073 Y139.360 E0.8128
G1 X126.073 Y125.907 E1.5231
G1 X126.337 Y125.386 E1.5540
G1 X126.429 Y125.327 E1.5598
G1 X126.931 Y125.327 E1.5863
; feature gap fill
G1 X126.549 Y125.870 F4800
G92 E0.0000
G1 X126.901 Y126.222 E0.0263 F1800
G1 X126.901 Y126.901 E0.0621
G1 X126.481 Y126.481 E0.0935
G1 X126.481 Y127.160 E0.1293
G1 X126.901 Y127.580 E0.1607
G1 X126.901 Y128.259 E0.1965
G1 X126.481 Y127.839 E0.2278
G1 X126.481 Y128.518 E0.2637
G1 X126.901 Y128.937 E0.2950
G1 X126.901 Y129.616 E0.3309
G1 X126.481 Y129.196 E0.3622
G1 X126.481 Y129.875 E0.3981
G1 X126.901 Y130.295 E0.4294
G1 X126.901 Y130.974 E0.4653
G1 X126.481 Y130.554 E0.4966
G1 X126.481 Y131.233 E0.5325
G1 X126.901 Y131.653 E0.5638
G1 X126.901 Y132.331 E0.5996
G1 X126.481 Y131.912 E0.6310
G1 X126.481 Y132.591 E0.6668
G1 X126.901 Y133.010 E0.6982
G1 X126.901 Y133.689 E0.7340
G1 X126.481 Y133.269 E0.7654
G1 X126.481 Y133.948 E0.8012
G1 X126.901 Y134.368 E0.8326
G1 X126.901 Y135.047 E0.8684
G1 X126.481 Y134.627 E0.8998
G1 X126.481 Y135.306 E0.9356
G1 X126.901 Y135.726 E0.9670
G1 X126.901 Y136.404 E1.0028
G1 X126.481 Y135.985 E1.0341
G1 X126.481 Y136.663 E1.0700
G1 X126.901 Y137.083 E1.1013
G1 X126.901 Y137.762 E1.1372
G1 X126.481 Y137.342 E1.1685
G1 X126.481 Y138.021 E1.2044
G1 X126.901 Y138.441 E1.2357
G1 X126.901 Y138.952 E1.2627
G1 X126.733 Y138.952 E1.2716
G1 X126.481 Y138.700 E1.2904
G92 E0.0000
G1 E-0.7000 F1500
; feature outer perimeter
G1 X90.788 Y139.360 F4800
G1 E0.0000 F1500
G92 E0.0000
G1 X89.538 Y139.360 E0.0660 F900
G1 X89.599 Y131.389 E0.4870
G1 X89.677 Y131.146 E0.5004
G1 X89.831 Y130.891 E0.5162
G1 X89.930 Y130.827 E0.5224
G1 X90.432 Y130.827 E0.5489
G1 X90.531 Y130.891 E0.5551
G1 X90.805 Y131.345 E0.5831
G1 X90.813 Y131.378 E0.5849
G1 X90.825 Y134.130 E0.7302
G1 X90.788 Y139.360 E1.0064
; feature gap fill
G1 X89.950 Y138.825 F4800
G92 E0.0000
G1 X90.077 Y138.952 E0.0095 F1800
G1 X90.383 Y138.952 E0.0257
G1 X90.386 Y138.582 E0.0452
G1 X89.955 Y138.151 E0.0774
G1 X89.960 Y137.478 E0.1129
G1 X90.390 Y137.908 E0.1451
G1 X90.395 Y137.234 E0.1807
G1 X89.965 Y136.804 E0.2128
G1 X89.970 Y136.130 E0.2483
G1 X90.400 Y136.560 E0.2804
G1 X90.405 Y135.886 E0.3160
G1 X89.976 Y135.457 E0.3480
G1 X89.981 Y134.783 E0.3836
G1 X90.410 Y135.212 E0.4156
G1 X90.414 Y134.538 E0.4512
G1 X89.986 Y134.109 E0.4832
G1 X89.991 Y133.436 E0.5188
G1 X90.416 Y133.861 E0.5505
G1 X90.413 Y133.179 E0.5865
G1 X89.996 Y132.762 E0.6176
G1 X90.001 Y132.088 E0.6532
G1 X90.410 Y132.497 E0.6837
G1 X90.407 Y131.815 E0.7197
G1 X90.016 Y131.424 E0.7489
G92 E0.0000
G1 E-0.7000 F1500
; feature support
G1 X91.230 Y140.320 F4800
G1 E0.0000 F1500
G92 E0.0000
