; G-Code generated by Simplify3D(R) Version 4.1.1
; Apr 27, 2021 at 9:08:49 AM
; Settings Summary
;   processName,Trideo BOX
;   applyToModels,Right Arm X2
;   profileName,Trideo BOX
;   profileVersion,2021-04-15 09:48:16
;   baseProfile,Default
;   printMaterial,PLA
;   printQuality,Fast
;   printExtruders,
;   extruderName,Primary Extruder
;   extruderToolheadNumber,0
;   extruderDiameter,0.4
;   extruderAutoWidth,1
;   extruderWidth,0.48
;   extrusionMultiplier,0.98
;   extruderUseRetract,1
;   extruderRetractionDistance,0.7
;   extruderExtraRestartDistance,0
;   extruderRetractionZLift,0
;   extruderRetractionSpeed,1500
;   extruderUseCoasting,0
;   extruderCoastingDistance,0.2
;   extruderUseWipe,0
;   extruderWipeDistance,5
;   primaryExtruder,0
;   layerHeight,0.3
;   topSolidLayers,3
;   bottomSolidLayers,3
;   perimeterOutlines,2
;   printPerimetersInsideOut,1
;   startPointOption,2
;   startPointOriginX,0
;   startPointOriginY,0
;   sequentialIslands,0
;   spiralVaseMode,0
;   firstLayerHeightPercentage,90
;   firstLayerWidthPercentage,100
;   firstLayerUnderspeed,0.5
;   useRaft,0
;   raftExtruder,0
;   raftTopLayers,3
;   raftBaseLayers,2
;   raftOffset,3
;   raftSeparationDistance,0.14
;   raftTopInfill,100
;   aboveRaftSpeedMultiplier,0.3
;   useSkirt,1
;   skirtExtruder,0
;   skirtLayers,1
;   skirtOutlines,2
;   skirtOffset,4
;   usePrimePillar,0
;   primePillarExtruder,999
;   primePillarWidth,12
;   primePillarLocation,7
;   primePillarSpeedMultiplier,1
;   useOozeShield,0
;   oozeShieldExtruder,999
;   oozeShieldOffset,2
;   oozeShieldOutlines,1
;   oozeShieldSidewallShape,1
;   oozeShieldSidewallAngle,30
;   oozeShieldSpeedMultiplier,1
;   infillExtruder,0
;   internalInfillPattern,Rectilinear
;   externalInfillPattern,Rectilinear
;   infillPercentage,15
;   outlineOverlapPercentage,15
;   infillExtrusionWidthPercentage,100
;   minInfillLength,5
;   infillLayerInterval,1
;   internalInfillAngles,45,-45
;   overlapInternalInfillAngles,0
;   externalInfillAngles,45,-45
;   generateSupport,1
;   supportExtruder,0
;   supportInfillPercentage,25
;   supportExtraInflation,0
;   supportBaseLayers,0
;   denseSupportExtruder,0
;   denseSupportLayers,0
;   denseSupportInfillPercentage,70
;   supportLayerInterval,1
;   supportHorizontalPartOffset,0.3
;   supportUpperSeparationLayers,1
;   supportLowerSeparationLayers,1
;   supportType,0
;   supportGridSpacing,4
;   maxOverhangAngle,45
;   supportAngles,0
;   temperatureName,Primary Extruder,Heated bed
;   temperatureNumber,0,0
;   temperatureSetpointCount,1,1
;   temperatureSetpointLayers,1,1
;   temperatureSetpointTemperatures,190,60
;   temperatureStabilizeAtStartup,1,1
;   temperatureHeatedBed,0,1
;   fanLayers,1,2
;   fanSpeeds,0,100
;   blipFanToFullPower,0
;   adjustSpeedForCooling,1
;   minSpeedLayerTime,15
;   minCoolingSpeedSlowdown,20
;   increaseFanForCooling,0
;   minFanLayerTime,45
;   maxCoolingFanSpeed,100
;   increaseFanForBridging,0
;   bridgingFanSpeed,100
;   use5D,1
;   relativeEdistances,0
;   allowEaxisZeroing,1
;   independentExtruderAxes,0
;   includeM10123,0
;   stickySupport,1
;   applyToolheadOffsets,0
;   gcodeXoffset,0
;   gcodeYoffset,0
;   gcodeZoffset,0
;   overrideMachineDefinition,1
;   machineTypeOverride,0
;   strokeXoverride,200
;   strokeYoverride,200
;   strokeZoverride,200
;   originOffsetXoverride,0
;   originOffsetYoverride,0
;   originOffsetZoverride,0
;   homeXdirOverride,-1
;   homeYdirOverride,-1
;   homeZdirOverride,-1
;   flipXoverride,1
;   flipYoverride,-1
;   flipZoverride,1
;   toolheadOffsets,0,0|0,0|0,0|0,0|0,0|0,0
;   overrideFirmwareConfiguration,0
;   firmwareTypeOverride,RepRap (Marlin/Repetier/Sprinter)
;   GPXconfigOverride,r2
;   baudRateOverride,115200
;   overridePrinterModels,0
;   printerModelsOverride
;   startingGcode,G28 X0 Y0; home XY,G1 X20 Y20,G28 Z0,G1 Z5 F5000; Lift NZ
;   layerChangeGcode,
;   retractionGcode,
;   toolChangeGcode,
;   endingGcode,M104 S0 ; turn off extruder,G28 X0 ; home x,M140 S0 ; turn off bed,M84 ; disable motors,M107 ;
;   exportFileFormat,gcode
;   celebration,0
;   celebrationSong,Looney Toons
;   postProcessing,
;   defaultSpeed,3600
;   outlineUnderspeed,0.5
;   solidInfillUnderspeed,0.8
;   supportUnderspeed,0.8
;   rapidXYspeed,4800
;   rapidZspeed,1002
;   minBridgingArea,50
;   bridgingExtraInflation,0
;   bridgingExtrusionMultiplier,1
;   bridgingSpeedMultiplier,1
;   useFixedBridgingAngle,0
;   fixedBridgingAngle,0
;   applyBridgingToPerimeters,0
;   filamentDiameters,1.75|1.75|1.75|1.75|1.75|1.75
;   filamentPricesPerKg,46|46|46|46|46|46
;   filamentDensities,1.25|1.25|1.25|1.25|1.25|1.25
;   useMinPrintHeight,0
;   minPrintHeight,0
;   useMaxPrintHeight,0
;   maxPrintHeight,0
;   useDiaphragm,0
;   diaphragmLayerInterval,20
;   robustSlicing,1
;   mergeAllIntoSolid,0
;   onlyRetractWhenCrossingOutline,1
;   retractBetweenLayers,1
;   useRetractionMinTravel,0
;   retractionMinTravel,3
;   retractWhileWiping,0
;   onlyWipeOutlines,1
;   avoidCrossingOutline,0
;   maxMovementDetourFactor,3
;   toolChangeRetractionDistance,12
;   toolChangeExtraRestartDistance,-0.5
;   toolChangeRetractionSpeed,600
;   externalThinWallType,0
;   internalThinWallType,2
;   thinWallAllowedOverlapPercentage,10
;   singleExtrusionMinLength,1
;   singleExtrusionMinPrintingWidthPercentage,50
;   singleExtrusionMaxPrintingWidthPercentage,200
;   singleExtrusionEndpointExtension,0.2
;   horizontalSizeCompensation,0
G90
M82
M106 S0
M140 S60
M190 S60
M104 S190 T0
M109 S190 T0
G28 X0 Y0; home XY
G1 X20 Y20
G28 Z0
G1 Z5 F5000; Lift NZ
; process Trideo BOX
; layer 1, Z = 0.270
T0
G92 E0.0000
G1 E-0.7000 F1500
; feature skirt
; tool H0.270 W0.480
G1 Z0.270 F1002
G1 X83.718 Y39.223 F4800
G1 E0.0000 F1500
G92 E0.0000
G1 X86.479 Y36.480 E0.2055 F1800
G1 X88.277 Y36.480 E0.3005
G1 X88.495 Y36.260 E0.3168
G1 X128.575 Y36.260 E2.4332
G1 X128.795 Y36.480 E2.4497
G1 X131.952 Y36.480 E2.6163
G1 X134.717 Y39.245 E2.8228
G1 X134.717 Y56.667 E3.7428
G1 X134.534 Y57.583 E3.7921
G1 X133.881 Y59.149 E3.8817
G1 X133.161 Y60.104 E3.9449
G1 X132.227 Y60.847 E4.0079
G1 X131.476 Y61.249 E4.0528
G1 X129.849 Y61.775 E4.1431
G1 X128.363 Y61.775 E4.2216
G1 X126.736 Y61.250 E4.3118
G1 X125.989 Y60.850 E4.3566
G1 X125.014 Y60.076 E4.4224
G1 X124.258 Y59.039 E4.4901
G1 X123.880 Y58.035 E4.5468
G1 X121.740 Y60.175 E4.7066
G1 X121.740 Y62.575 E4.8333
G1 X119.340 Y64.975 E5.0125
G1 X119.340 Y72.175 E5.3927
G1 X116.940 Y74.575 E5.5719
G1 X116.940 Y88.975 E6.3323
G1 X114.540 Y91.375 E6.5115
G1 X114.540 Y94.225 E6.6620
G1 X116.940 Y96.625 E6.8412
G1 X116.940 Y108.625 E7.4749
G1 X119.340 Y111.025 E7.6541
G1 X119.340 Y118.225 E8.0343
G1 X121.740 Y120.625 E8.2135
G1 X121.740 Y125.425 E8.4670
G1 X123.599 Y127.284 E8.6058
G1 X123.772 Y126.561 E8.6450
G1 X123.860 Y126.387 E8.6553
G1 X123.860 Y123.025 E8.8329
G1 X126.625 Y120.260 E9.0393
G1 X133.375 Y120.260 E9.3958
G1 X136.140 Y123.025 E9.6022
G1 X136.140 Y129.775 E9.9587
G1 X134.717 Y131.198 E10.0650
G1 X134.717 Y145.155 E10.8019
G1 X131.952 Y147.920 E11.0084
G1 X129.995 Y147.920 E11.1117
G1 X128.575 Y149.340 E11.2178
G1 X83.340 Y149.340 E13.6063
G1 X83.340 Y149.425 E13.6108
G1 X85.740 Y151.825 E13.7901
G1 X85.740 Y160.975 E14.2732
G1 X82.975 Y163.740 E14.4797
G1 X71.425 Y163.740 E15.0896
G1 X68.660 Y160.975 E15.2961
G1 X68.660 Y158.575 E15.4228
G1 X66.260 Y156.175 E15.6020
G1 X66.260 Y135.025 E16.7188
G1 X69.025 Y132.260 E16.9253
G1 X84.100 Y132.260 E17.7213
G1 X84.120 Y132.196 E17.7248
G1 X84.344 Y131.705 E17.7533
G1 X85.001 Y130.613 E17.8206
G1 X85.759 Y129.832 E17.8781
G1 X86.959 Y129.063 E17.9533
G1 X88.259 Y128.682 E18.0249
G1 X90.318 Y128.682 E18.1336
G1 X91.618 Y129.063 E18.2052
G1 X92.660 Y129.731 E18.2705
G1 X92.660 Y123.025 E18.6246
G1 X95.060 Y120.625 E18.8038
G1 X95.060 Y96.625 E20.0711
G1 X97.460 Y94.225 E20.2504
G1 X97.460 Y88.975 E20.5276
G1 X95.060 Y86.575 E20.7068
G1 X95.060 Y62.575 E21.9741
G1 X92.660 Y60.175 E22.1533
G1 X92.660 Y58.055 E22.2652
G1 X92.575 Y58.140 E22.2716
G1 X85.825 Y58.140 E22.6280
G1 X83.060 Y55.375 E22.8345
G1 X83.060 Y48.625 E23.1909
G1 X83.661 Y48.024 E23.2358
G1 X83.718 Y39.223 E23.7005
G92 E0.0000
G1 E-0.7000 F1500
G1 X84.196 Y39.424 F4800
G1 E0.0000 F1500
G92 E0.0000
G1 X86.677 Y36.960 E0.1846 F1800
G1 X88.477 Y36.960 E0.2797
G1 X88.695 Y36.740 E0.2960
G1 X128.376 Y36.740 E2.3914
G1 X128.596 Y36.960 E2.4078
G1 X131.753 Y36.960 E2.5745
G1 X134.237 Y39.444 E2.7600
G1 X134.237 Y56.620 E3.6669
G1 X134.072 Y57.443 E3.7112
G1 X133.462 Y58.909 E3.7951
G1 X132.814 Y59.766 E3.8518
G1 X131.962 Y60.445 E3.9094
G1 X131.288 Y60.806 E3.9497
G1 X129.773 Y61.295 E4.0338
G1 X128.438 Y61.295 E4.1043
G1 X126.925 Y60.806 E4.1882
G1 X126.253 Y60.447 E4.2285
G1 X125.363 Y59.740 E4.2885
G1 X124.684 Y58.809 E4.3494
G1 X124.130 Y57.334 E4.4325
G1 X123.993 Y56.582 E4.4729
G1 X123.993 Y55.260 E4.5427
G1 X123.660 Y55.260 E4.5603
G1 X123.660 Y57.576 E4.6826
G1 X121.260 Y59.976 E4.8618
G1 X121.260 Y62.376 E4.9885
G1 X118.860 Y64.776 E5.1678
G1 X118.860 Y71.976 E5.5480
G1 X116.460 Y74.376 E5.7272
G1 X116.460 Y88.776 E6.4876
G1 X114.060 Y91.176 E6.6668
G1 X114.060 Y94.424 E6.8383
G1 X116.460 Y96.824 E7.0175
G1 X116.460 Y108.824 E7.6511
G1 X118.860 Y111.224 E7.8303
G1 X118.860 Y118.424 E8.2105
G1 X121.260 Y120.824 E8.3898
G1 X121.260 Y125.624 E8.6432
G1 X123.576 Y127.940 E8.8162
G1 X123.993 Y127.940 E8.8382
G1 X123.993 Y127.700 E8.8508
G1 X124.225 Y126.728 E8.9036
G1 X124.340 Y126.502 E8.9170
G1 X124.340 Y123.224 E9.0901
G1 X126.824 Y120.740 E9.2756
G1 X133.176 Y120.740 E9.6110
G1 X135.660 Y123.224 E9.7965
G1 X135.660 Y129.576 E10.1319
G1 X134.237 Y130.999 E10.2382
G1 X134.237 Y144.956 E10.9752
G1 X131.753 Y147.440 E11.1607
G1 X129.796 Y147.440 E11.2640
G1 X128.376 Y148.860 E11.3700
G1 X82.860 Y148.860 E13.7735
G1 X82.860 Y149.624 E13.8138
G1 X85.260 Y152.024 E13.9930
G1 X85.260 Y160.776 E14.4552
G1 X82.776 Y163.260 E14.6406
G1 X71.624 Y163.260 E15.2295
G1 X69.140 Y160.776 E15.4150
G1 X69.140 Y158.376 E15.5418
G1 X66.740 Y155.976 E15.7210
G1 X66.740 Y135.224 E16.8168
G1 X69.224 Y132.740 E17.0023
G1 X84.449 Y132.740 E17.8062
G1 X84.569 Y132.370 E17.8267
G1 X84.769 Y131.929 E17.8523
G1 X85.384 Y130.907 E17.9153
G1 X86.065 Y130.206 E17.9669
G1 X87.160 Y129.504 E18.0356
G1 X88.328 Y129.162 E18.0998
G1 X90.249 Y129.162 E18.2013
G1 X91.417 Y129.504 E18.2656
G1 X92.527 Y130.216 E18.3352
G1 X93.140 Y130.857 E18.3820
G1 X93.140 Y123.224 E18.7851
G1 X95.540 Y120.824 E18.9643
G1 X95.540 Y96.824 E20.2316
G1 X97.940 Y94.424 E20.4108
G1 X97.940 Y88.776 E20.7091
G1 X95.540 Y86.376 E20.8883
G1 X95.540 Y62.376 E22.1556
G1 X93.140 Y59.976 E22.3348
G1 X93.140 Y56.896 E22.4974
G1 X92.376 Y57.660 E22.5545
G1 X86.024 Y57.660 E22.8899
G1 X83.540 Y55.176 E23.0754
G1 X83.540 Y48.824 E23.4108
G1 X84.139 Y48.224 E23.4556
G1 X84.196 Y39.424 E23.9202
G92 E0.0000
G1 E-0.7000 F1500
; feature outer perimeter
G1 X88.663 Y41.440 F4800
G1 E0.0000 F1500
G92 E0.0000
G1 X89.926 Y41.440 E0.0667 F900
G1 X89.947 Y43.896 E0.1964
G1 X89.905 Y50.161 E0.5272
G1 X89.758 Y50.614 E0.5524
G1 X89.686 Y50.674 E0.5573
G1 X89.289 Y50.803 E0.5794
G1 X88.891 Y50.674 E0.6014
G1 X88.845 Y50.636 E0.6046
G1 X88.655 Y50.280 E0.6259
G1 X88.606 Y50.155 E0.6330
G1 X88.601 Y49.110 E0.6881
G1 X88.663 Y41.440 E1.0932
; feature gap fill
G1 X89.366 Y41.848 F4800
G92 E0.0000
G1 X89.523 Y42.005 E0.0117 F1800
G1 X89.529 Y42.690 E0.0479
G1 X89.065 Y42.226 E0.0826
G1 X89.059 Y42.899 E0.1181
G1 X89.535 Y43.375 E0.1536
G1 X89.539 Y43.895 E0.1811
G1 X89.538 Y44.057 E0.1897
G1 X89.054 Y43.573 E0.2258
G1 X89.048 Y44.246 E0.2614
G1 X89.534 Y44.731 E0.2976
G1 X89.529 Y45.406 E0.3332
G1 X89.043 Y44.920 E0.3695
G1 X89.038 Y45.593 E0.4051
G1 X89.524 Y46.080 E0.4415
G1 X89.520 Y46.754 E0.4771
G1 X89.032 Y46.266 E0.5135
G1 X89.027 Y46.940 E0.5490
G1 X89.515 Y47.428 E0.5855
G1 X89.511 Y48.103 E0.6211
G1 X89.021 Y47.613 E0.6577
G1 X89.016 Y48.287 E0.6932
G1 X89.506 Y48.777 E0.7298
G1 X89.502 Y49.451 E0.7654
G1 X89.011 Y48.960 E0.8021
G1 X89.009 Y49.112 E0.8101
G1 X89.012 Y49.640 E0.8380
G1 X89.490 Y50.118 E0.8737
G92 E0.0000
G1 E-0.7000 F1500
; feature outer perimeter
G1 X128.473 Y56.156 F4800
G1 E0.0000 F1500
G92 E0.0000
G1 X128.473 Y41.440 E0.7771 F900
G1 X129.757 Y41.440 E0.8449
G1 X129.757 Y56.152 E1.6217
G1 X129.556 Y56.633 E1.6493
G1 X129.506 Y56.673 E1.6527
G1 X129.106 Y56.803 E1.6749
G1 X128.705 Y56.673 E1.6971
G1 X128.651 Y56.630 E1.7007
G1 X128.473 Y56.156 E1.7275
; feature gap fill
G1 X129.349 Y56.036 F4800
G92 E0.0000
G1 X128.881 Y55.568 E0.0349 F1800
G1 X128.881 Y54.889 E0.0708
G1 X129.349 Y55.357 E0.1057
G1 X129.349 Y54.678 E0.1416
G1 X128.881 Y54.210 E0.1765
G1 X128.881 Y53.532 E0.2123
G1 X129.349 Y53.999 E0.2473
G1 X129.349 Y53.321 E0.2831
G1 X128.881 Y52.853 E0.3181
G1 X128.881 Y52.174 E0.3539
G1 X129.349 Y52.642 E0.3888
G1 X129.349 Y51.963 E0.4247
G1 X128.881 Y51.495 E0.4596
G1 X128.881 Y50.816 E0.4955
G1 X129.349 Y51.284 E0.5304
G1 X129.349 Y50.605 E0.5663
G1 X128.881 Y50.137 E0.6012
G1 X128.881 Y49.459 E0.6370
G1 X129.349 Y49.927 E0.6720
G1 X129.349 Y49.248 E0.7078
G1 X128.881 Y48.780 E0.7428
G1 X128.881 Y48.101 E0.7786
G1 X129.349 Y48.569 E0.8135
G1 X129.349 Y47.890 E0.8494
G1 X128.881 Y47.422 E0.8843
G1 X128.881 Y46.743 E0.9202
G1 X129.349 Y47.211 E0.9551
G1 X129.349 Y46.532 E0.9909
G1 X128.881 Y46.065 E1.0259
G1 X128.881 Y45.386 E1.0617
G1 X129.349 Y45.854 E1.0967
G1 X129.349 Y45.175 E1.1325
G1 X128.881 Y44.707 E1.1674
G1 X128.881 Y44.028 E1.2033
G1 X129.349 Y44.496 E1.2382
G1 X129.349 Y43.817 E1.2741
G1 X128.881 Y43.349 E1.3090
G1 X128.881 Y42.670 E1.3448
G1 X129.349 Y43.138 E1.3798
G1 X129.349 Y42.459 E1.4156
G1 X128.881 Y41.992 E1.4506
G92 E0.0000
G1 E-0.7000 F1500
; feature outer perimeter
G1 X128.824 Y127.642 F4800
G1 E0.0000 F1500
G92 E0.0000
G1 X129.387 Y127.642 E0.0297 F900
G1 X129.447 Y127.680 E0.0335
G1 X129.757 Y128.260 E0.0682
G1 X129.757 Y142.960 E0.8444
G1 X128.473 Y142.960 E0.9122
G1 X128.473 Y128.257 E1.6886
G1 X128.766 Y127.678 E1.7228
G1 X128.824 Y127.642 E1.7265
; feature gap fill
G1 X128.932 Y128.253 F4800
G92 E0.0000
G1 X129.349 Y128.670 E0.0311 F1800
G1 X129.349 Y129.349 E0.0669
G1 X128.881 Y128.881 E0.1019
G1 X128.881 Y129.560 E0.1377
G1 X129.349 Y130.028 E0.1727
G1 X129.349 Y130.706 E0.2085
G1 X128.881 Y130.238 E0.2435
G1 X128.881 Y130.917 E0.2793
G1 X129.349 Y131.385 E0.3143
G1 X129.349 Y132.064 E0.3501
G1 X128.881 Y131.596 E0.3851
G1 X128.881 Y132.275 E0.4209
G1 X129.349 Y132.743 E0.4558
G1 X129.349 Y133.422 E0.4917
G1 X128.881 Y132.954 E0.5266
G1 X128.881 Y133.633 E0.5625
G1 X129.349 Y134.101 E0.5974
G1 X129.349 Y134.779 E0.6333
G1 X128.881 Y134.311 E0.6682
G1 X128.881 Y134.990 E0.7041
G1 X129.349 Y135.458 E0.7390
G1 X129.349 Y136.137 E0.7748
G1 X128.881 Y135.669 E0.8098
G1 X128.881 Y136.348 E0.8456
G1 X129.349 Y136.816 E0.8806
G1 X129.349 Y137.495 E0.9164
G1 X128.881 Y137.027 E0.9514
G1 X128.881 Y137.706 E0.9872
G1 X129.349 Y138.174 E1.0222
G1 X129.349 Y138.852 E1.0580
G1 X128.881 Y138.384 E1.0930
G1 X128.881 Y139.063 E1.1288
G1 X129.349 Y139.531 E1.1637
G1 X129.349 Y140.210 E1.1996
G1 X128.881 Y139.742 E1.2345
G1 X128.881 Y140.421 E1.2704
G1 X129.349 Y140.889 E1.3053
G1 X129.349 Y141.568 E1.3412
G1 X128.881 Y141.100 E1.3761
G1 X128.881 Y141.778 E1.4120
G1 X129.349 Y142.246 E1.4469
G1 X129.349 Y142.552 E1.4630
G1 X128.976 Y142.552 E1.4827
G1 X128.881 Y142.457 E1.4898
G92 E0.0000
G1 E-0.7000 F1500
; feature outer perimeter
G1 X89.923 Y142.960 F4800
G1 E0.0000 F1500
G92 E0.0000
G1 X88.613 Y142.960 E0.0692 F900
G1 X88.607 Y142.392 E0.0992
G1 X88.672 Y134.239 E0.5297
G1 X88.747 Y134.007 E0.5426
G1 X88.942 Y133.683 E0.5625
G1 X89.007 Y133.642 E0.5666
G1 X89.570 Y133.642 E0.5963
G1 X89.635 Y133.683 E0.6004
G1 X89.971 Y134.242 E0.6348
G1 X89.976 Y135.397 E0.6958
G1 X89.923 Y142.960 E1.0952
; feature gap fill
G1 X89.518 Y142.466 F4800
G92 E0.0000
G1 X89.018 Y141.966 E0.0373 F1800
G1 X89.024 Y141.293 E0.0729
G1 X89.523 Y141.792 E0.1102
G1 X89.528 Y141.118 E0.1458
G1 X89.029 Y140.620 E0.1830
G1 X89.035 Y139.946 E0.2185
G1 X89.532 Y140.444 E0.2557
G1 X89.537 Y139.770 E0.2913
