; G-Code generated by Simplify3D(R) Version 4.1.1
; Apr 27, 2021 at 9:05:59 AM
; Settings Summary
;   processName,Trideo BOX
;   applyToModels,Right Arm X2
;   profileName,Trideo BOX
;   profileVersion,2021-04-15 09:48:16
;   baseProfile,Default
;   printMaterial,PLA
;   printQuality,Fast
;   printExtruders,
;   extruderName,Primary Extruder
;   extruderToolheadNumber,0
;   extruderDiameter,0.4
;   extruderAutoWidth,1
;   extruderWidth,0.48
;   extrusionMultiplier,0.98
;   extruderUseRetract,1
;   extruderRetractionDistance,0.7
;   extruderExtraRestartDistance,0
;   extruderRetractionZLift,0
;   extruderRetractionSpeed,1500
;   extruderUseCoasting,0
;   extruderCoastingDistance,0.2
;   extruderUseWipe,0
;   extruderWipeDistance,5
;   primaryExtruder,0
;   layerHeight,0.3
;   topSolidLayers,3
;   bottomSolidLayers,3
;   perimeterOutlines,2
;   printPerimetersInsideOut,1
;   startPointOption,2
;   startPointOriginX,0
;   startPointOriginY,0
;   sequentialIslands,0
;   spiralVaseMode,0
;   firstLayerHeightPercentage,90
;   firstLayerWidthPercentage,100
;   firstLayerUnderspeed,0.5
;   useRaft,0
;   raftExtruder,0
;   raftTopLayers,3
;   raftBaseLayers,2
;   raftOffset,3
;   raftSeparationDistance,0.14
;   raftTopInfill,100
;   aboveRaftSpeedMultiplier,0.3
;   useSkirt,1
;   skirtExtruder,0
;   skirtLayers,1
;   skirtOutlines,2
;   skirtOffset,4
;   usePrimePillar,0
;   primePillarExtruder,999
;   primePillarWidth,12
;   primePillarLocation,7
;   primePillarSpeedMultiplier,1
;   useOozeShield,0
;   oozeShieldExtruder,999
;   oozeShieldOffset,2
;   oozeShieldOutlines,1
;   oozeShieldSidewallShape,1
;   oozeShieldSidewallAngle,30
;   oozeShieldSpeedMultiplier,1
;   infillExtruder,0
;   internalInfillPattern,Rectilinear
;   externalInfillPattern,Rectilinear
;   infillPercentage,15
;   outlineOverlapPercentage,15
;   infillExtrusionWidthPercentage,100
;   minInfillLength,5
;   infillLayerInterval,1
;   internalInfillAngles,45,-45
;   overlapInternalInfillAngles,0
;   externalInfillAngles,45,-45
;   generateSupport,1
;   supportExtruder,0
;   supportInfillPercentage,25
;   supportExtraInflation,0
;   supportBaseLayers,0
;   denseSupportExtruder,0
;   denseSupportLayers,0
;   denseSupportInfillPercentage,70
;   supportLayerInterval,1
;   supportHorizontalPartOffset,0.3
;   supportUpperSeparationLayers,1
;   supportLowerSeparationLayers,1
;   supportType,0
;   supportGridSpacing,4
;   maxOverhangAngle,45
;   supportAngles,0
;   temperatureName,Primary Extruder,Heated bed
;   temperatureNumber,0,0
;   temperatureSetpointCount,1,1
;   temperatureSetpointLayers,1,1
;   temperatureSetpointTemperatures,190,60
;   temperatureStabilizeAtStartup,1,1
;   temperatureHeatedBed,0,1
;   fanLayers,1,2
;   fanSpeeds,0,100
;   blipFanToFullPower,0
;   adjustSpeedForCooling,1
;   minSpeedLayerTime,15
;   minCoolingSpeedSlowdown,20
;   increaseFanForCooling,0
;   minFanLayerTime,45
;   maxCoolingFanSpeed,100
;   increaseFanForBridging,0
;   bridgingFanSpeed,100
;   use5D,1
;   relativeEdistances,0
;   allowEaxisZeroing,1
;   independentExtruderAxes,0
;   includeM10123,0
;   stickySupport,1
;   applyToolheadOffsets,0
;   gcodeXoffset,0
;   gcodeYoffset,0
;   gcodeZoffset,0
;   overrideMachineDefinition,1
;   machineTypeOverride,0
;   strokeXoverride,200
;   strokeYoverride,200
;   strokeZoverride,200
;   originOffsetXoverride,0
;   originOffsetYoverride,0
;   originOffsetZoverride,0
;   homeXdirOverride,-1
;   homeYdirOverride,-1
;   homeZdirOverride,-1
;   flipXoverride,1
;   flipYoverride,-1
;   flipZoverride,1
;   toolheadOffsets,0,0|0,0|0,0|0,0|0,0|0,0
;   overrideFirmwareConfiguration,0
;   firmwareTypeOverride,RepRap (Marlin/Repetier/Sprinter)
;   GPXconfigOverride,r2
;   baudRateOverride,115200
;   overridePrinterModels,0
;   printerModelsOverride
;   startingGcode,G28 X0 Y0; home XY,G1 X20 Y20,G28 Z0,G1 Z5 F5000; Lift NZ
;   layerChangeGcode,
;   retractionGcode,
;   toolChangeGcode,
;   endingGcode,M104 S0 ; turn off extruder,G28 X0 ; home x,M140 S0 ; turn off bed,M84 ; disable motors,M107 ;
;   exportFileFormat,gcode
;   celebration,0
;   celebrationSong,Looney Toons
;   postProcessing,
;   defaultSpeed,3600
;   outlineUnderspeed,0.5
;   solidInfillUnderspeed,0.8
;   supportUnderspeed,0.8
;   rapidXYspeed,4800
;   rapidZspeed,1002
;   minBridgingArea,50
;   bridgingExtraInflation,0
;   bridgingExtrusionMultiplier,1
;   bridgingSpeedMultiplier,1
;   useFixedBridgingAngle,0
;   fixedBridgingAngle,0
;   applyBridgingToPerimeters,0
;   filamentDiameters,1.75|1.75|1.75|1.75|1.75|1.75
;   filamentPricesPerKg,46|46|46|46|46|46
;   filamentDensities,1.25|1.25|1.25|1.25|1.25|1.25
;   useMinPrintHeight,0
;   minPrintHeight,0
;   useMaxPrintHeight,0
;   maxPrintHeight,0
;   useDiaphragm,0
;   diaphragmLayerInterval,20
;   robustSlicing,1
;   mergeAllIntoSolid,0
;   onlyRetractWhenCrossingOutline,1
;   retractBetweenLayers,1
;   useRetractionMinTravel,0
;   retractionMinTravel,3
;   retractWhileWiping,0
;   onlyWipeOutlines,1
;   avoidCrossingOutline,0
;   maxMovementDetourFactor,3
;   toolChangeRetractionDistance,12
;   toolChangeExtraRestartDistance,-0.5
;   toolChangeRetractionSpeed,600
;   externalThinWallType,0
;   internalThinWallType,2
;   thinWallAllowedOverlapPercentage,10
;   singleExtrusionMinLength,1
;   singleExtrusionMinPrintingWidthPercentage,50
;   singleExtrusionMaxPrintingWidthPercentage,200
;   singleExtrusionEndpointExtension,0.2
;   horizontalSizeCompensation,0
G90
M82
M106 S0
M140 S60
M190 S60
M104 S190 T0
M109 S190 T0
G28 X0 Y0; home XY
G1 X20 Y20
G28 Z0
G1 Z5 F5000; Lift NZ
; process Trideo BOX
; layer 1, Z = 0.270
T0
G92 E0.0000
G1 E-0.7000 F1500
; feature skirt
; tool H0.270 W0.480
G1 Z0.270 F1002
G1 X86.477 Y53.918 F4800
G1 E0.0000 F1500
G92 E0.0000
G1 X89.237 Y51.180 E0.2053 F1800
G1 X90.895 Y51.180 E0.2928
G1 X91.116 Y50.960 E0.3093
G1 X121.975 Y50.960 E1.9388
G1 X122.195 Y51.180 E1.9552
G1 X124.572 Y51.180 E2.0807
G1 X127.337 Y53.945 E2.2872
G1 X127.337 Y67.608 E3.0086
G1 X127.161 Y68.506 E3.0570
G1 X126.589 Y69.911 E3.1371
G1 X126.023 Y70.740 E3.1901
G1 X125.225 Y71.500 E3.2483
G1 X124.312 Y72.043 E3.3044
G1 X122.572 Y72.604 E3.4009
G1 X121.086 Y72.604 E3.4794
G1 X119.347 Y72.043 E3.5759
G1 X118.434 Y71.500 E3.6320
G1 X117.646 Y70.751 E3.6894
G1 X117.572 Y70.643 E3.6963
G1 X117.540 Y70.675 E3.6987
G1 X117.540 Y72.475 E3.7937
G1 X115.740 Y74.275 E3.9281
G1 X115.740 Y79.675 E4.2133
G1 X113.940 Y81.475 E4.3477
G1 X113.940 Y92.275 E4.9180
G1 X112.140 Y94.075 E5.0524
G1 X112.140 Y95.125 E5.1078
G1 X113.940 Y96.925 E5.2422
G1 X113.940 Y105.925 E5.7175
G1 X115.740 Y107.725 E5.8519
G1 X115.740 Y113.125 E6.1370
G1 X117.540 Y114.925 E6.2714
G1 X117.540 Y115.845 E6.3200
G1 X119.425 Y113.960 E6.4608
G1 X125.575 Y113.960 E6.7855
G1 X128.340 Y116.725 E6.9920
G1 X128.340 Y122.875 E7.3167
G1 X127.337 Y123.878 E7.3916
G1 X127.337 Y134.355 E7.9449
G1 X124.572 Y137.120 E8.1513
G1 X123.095 Y137.120 E8.2293
G1 X121.975 Y138.240 E8.3130
G1 X90.455 Y138.240 E9.9773
G1 X90.540 Y138.325 E9.9837
G1 X90.540 Y146.275 E10.4035
G1 X87.775 Y149.040 E10.6100
G1 X78.025 Y149.040 E11.1248
G1 X75.260 Y146.275 E11.3313
G1 X75.260 Y144.475 E11.4263
G1 X73.460 Y142.675 E11.5607
G1 X73.460 Y125.725 E12.4558
G1 X76.225 Y122.960 E12.6622
G1 X87.231 Y122.960 E13.2434
G1 X87.667 Y122.235 E13.2881
G1 X88.425 Y121.454 E13.3455
G1 X89.729 Y120.619 E13.4273
G1 X91.029 Y120.237 E13.4989
G1 X92.904 Y120.237 E13.5979
G1 X93.260 Y120.342 E13.6174
G1 X93.260 Y116.725 E13.8084
G1 X95.060 Y114.925 E13.9428
G1 X95.060 Y96.925 E14.8933
G1 X96.860 Y95.125 E15.0277
G1 X96.860 Y92.275 E15.1782
G1 X95.060 Y90.475 E15.3126
G1 X95.060 Y72.475 E16.2631
G1 X93.260 Y70.675 E16.3975
G1 X93.260 Y69.840 E16.4416
G1 X88.825 Y69.840 E16.6758
G1 X86.060 Y67.075 E16.8823
G1 X86.060 Y60.925 E17.2070
G1 X86.466 Y60.519 E17.2374
G1 X86.450 Y57.233 E17.4108
G1 X86.450 Y57.203 E17.4124
G1 X86.477 Y53.918 E17.5859
G92 E0.0000
G1 E-0.7000 F1500
G1 X86.955 Y54.120 F4800
G1 E0.0000 F1500
G92 E0.0000
G1 X89.435 Y51.660 E0.1844 F1800
G1 X91.093 Y51.660 E0.2720
G1 X91.314 Y51.440 E0.2885
G1 X121.776 Y51.440 E1.8970
G1 X121.996 Y51.660 E1.9134
G1 X124.373 Y51.660 E2.0389
G1 X126.857 Y54.144 E2.2244
G1 X126.857 Y67.561 E2.9329
G1 X126.699 Y68.368 E2.9763
G1 X126.164 Y69.683 E3.0513
G1 X125.655 Y70.428 E3.0989
G1 X124.933 Y71.115 E3.1515
G1 X124.113 Y71.603 E3.2019
G1 X122.497 Y72.124 E3.2916
G1 X121.162 Y72.124 E3.3621
G1 X119.546 Y71.603 E3.4517
G1 X118.725 Y71.115 E3.5021
G1 X118.013 Y70.437 E3.5540
G1 X117.639 Y69.897 E3.5887
G1 X117.060 Y70.476 E3.6320
G1 X117.060 Y72.276 E3.7270
G1 X115.260 Y74.076 E3.8615
G1 X115.260 Y79.476 E4.1466
G1 X113.460 Y81.276 E4.2810
G1 X113.460 Y92.076 E4.8513
G1 X111.660 Y93.876 E4.9857
G1 X111.660 Y95.324 E5.0621
G1 X113.460 Y97.124 E5.1966
G1 X113.460 Y106.124 E5.6718
G1 X115.260 Y107.924 E5.8062
G1 X115.260 Y113.324 E6.0914
G1 X117.060 Y115.124 E6.2258
G1 X117.060 Y118.724 E6.4159
G1 X117.140 Y118.804 E6.4218
G1 X117.140 Y116.924 E6.5211
G1 X119.624 Y114.440 E6.7066
G1 X125.376 Y114.440 E7.0103
G1 X127.860 Y116.924 E7.1958
G1 X127.860 Y122.676 E7.4996
G1 X126.857 Y123.679 E7.5745
G1 X126.857 Y134.156 E8.1277
G1 X124.373 Y136.640 E8.3132
G1 X122.896 Y136.640 E8.3912
G1 X121.776 Y137.760 E8.4748
G1 X89.296 Y137.760 E10.1899
G1 X90.060 Y138.524 E10.2469
G1 X90.060 Y146.076 E10.6457
G1 X87.576 Y148.560 E10.8312
G1 X78.224 Y148.560 E11.3250
G1 X75.740 Y146.076 E11.5105
G1 X75.740 Y144.276 E11.6055
G1 X73.940 Y142.476 E11.7400
G1 X73.940 Y125.924 E12.6140
G1 X76.424 Y123.440 E12.7995
G1 X87.516 Y123.440 E13.3852
G1 X87.559 Y123.346 E13.3907
G1 X88.050 Y122.530 E13.4410
G1 X88.731 Y121.829 E13.4926
G1 X89.930 Y121.060 E13.5678
G1 X91.098 Y120.717 E13.6320
G1 X92.835 Y120.717 E13.7238
G1 X93.740 Y120.983 E13.7736
G1 X93.740 Y116.924 E13.9879
G1 X95.540 Y115.124 E14.1223
G1 X95.540 Y97.124 E15.0728
G1 X97.340 Y95.324 E15.2072
G1 X97.340 Y92.076 E15.3787
G1 X95.540 Y90.276 E15.5131
G1 X95.540 Y72.276 E16.4636
G1 X93.740 Y70.476 E16.5980
G1 X93.740 Y69.360 E16.6569
G1 X89.024 Y69.360 E16.9060
G1 X86.540 Y66.876 E17.0914
G1 X86.540 Y61.124 E17.3952
G1 X86.947 Y60.716 E17.4256
G1 X86.930 Y57.233 E17.6096
G1 X86.930 Y57.205 E17.6110
G1 X86.955 Y54.120 E17.7739
G92 E0.0000
G1 E-0.7000 F1500
; feature outer perimeter
G1 X91.419 Y56.140 F4800
G1 E0.0000 F1500
G92 E0.0000
G1 X92.520 Y56.140 E0.0581 F900
G1 X92.481 Y62.609 E0.3997
G1 X92.344 Y63.010 E0.4221
G1 X91.966 Y63.132 E0.4431
G1 X91.584 Y63.009 E0.4643
G1 X91.450 Y62.677 E0.4832
G1 X91.437 Y62.622 E0.4862
G1 X91.410 Y57.226 E0.7711
G1 X91.419 Y56.140 E0.8285
; feature gap fill
G1 X91.847 Y56.548 F4800
G92 E0.0000
G1 X92.108 Y56.809 E0.0195 F1800
G1 X92.104 Y57.484 E0.0551
G1 X91.819 Y57.199 E0.0765
G1 X91.818 Y57.227 E0.0780
G1 X91.822 Y57.880 E0.1125
G1 X92.100 Y58.159 E0.1333
G1 X92.096 Y58.834 E0.1689
G1 X91.825 Y58.563 E0.1891
G1 X91.828 Y59.245 E0.2251
G1 X92.092 Y59.508 E0.2448
G1 X92.088 Y60.183 E0.2805
G1 X91.832 Y59.927 E0.2996
G1 X91.835 Y60.609 E0.3356
G1 X92.084 Y60.858 E0.3542
G1 X92.080 Y61.533 E0.3898
G1 X91.838 Y61.291 E0.4079
G1 X91.841 Y61.973 E0.4439
G1 X92.076 Y62.207 E0.4614
G92 E0.0000
G1 E-0.7000 F1500
; feature outer perimeter
G1 X121.274 Y67.101 F4800
G1 E0.0000 F1500
G92 E0.0000
G1 X121.274 Y56.140 E0.5788 F900
G1 X122.377 Y56.140 E0.6371
G1 X122.377 Y67.103 E1.2159
G1 X122.212 Y67.509 E1.2391
G1 X121.829 Y67.632 E1.2603
G1 X121.446 Y67.508 E1.2816
G1 X121.274 Y67.101 E1.3049
; feature gap fill
G1 X121.682 Y66.697 F4800
G92 E0.0000
G1 X121.969 Y66.984 E0.0214 F1800
G1 X121.969 Y66.305 E0.0573
G1 X121.682 Y66.018 E0.0787
G1 X121.682 Y65.339 E0.1146
G1 X121.969 Y65.627 E0.1360
G1 X121.969 Y64.948 E0.1719
G1 X121.682 Y64.661 E0.1933
G1 X121.682 Y63.982 E0.2292
G1 X121.969 Y64.269 E0.2506
G1 X121.969 Y63.590 E0.2864
G1 X121.682 Y63.303 E0.3079
G1 X121.682 Y62.624 E0.3437
G1 X121.969 Y62.911 E0.3652
G1 X121.969 Y62.233 E0.4010
G1 X121.682 Y61.945 E0.4225
G1 X121.682 Y61.267 E0.4583
G1 X121.969 Y61.554 E0.4798
G1 X121.969 Y60.875 E0.5156
G1 X121.682 Y60.588 E0.5370
G1 X121.682 Y59.909 E0.5729
G1 X121.969 Y60.196 E0.5943
G1 X121.969 Y59.517 E0.6302
G1 X121.682 Y59.230 E0.6516
G1 X121.682 Y58.551 E0.6875
G1 X121.969 Y58.838 E0.7089
G1 X121.969 Y58.160 E0.7448
G1 X121.682 Y57.872 E0.7662
G1 X121.682 Y57.194 E0.8020
G1 X121.969 Y57.481 E0.8235
G1 X121.969 Y56.802 E0.8593
G1 X121.715 Y56.548 E0.8783
G92 E0.0000
G1 E-0.7000 F1500
; feature outer perimeter
G1 X121.640 Y120.697 F4800
G1 E0.0000 F1500
G92 E0.0000
G1 X122.019 Y120.697 E0.0200 F900
G1 X122.183 Y120.803 E0.0303
G1 X122.366 Y121.137 E0.0504
G1 X122.377 Y121.179 E0.0528
G1 X122.377 Y132.160 E0.6326
G1 X121.274 Y132.160 E0.6908
G1 X121.274 Y121.207 E1.2692
G1 X121.478 Y120.800 E1.2932
G1 X121.640 Y120.697 E1.3033
; feature gap fill
G1 X121.784 Y121.105 F4800
G92 E0.0000
G1 X121.969 Y121.290 E0.0138 F1800
G1 X121.969 Y121.969 E0.0496
G1 X121.682 Y121.682 E0.0711
G1 X121.682 Y122.361 E0.1069
G1 X121.969 Y122.648 E0.1284
G1 X121.969 Y123.327 E0.1642
G1 X121.682 Y123.039 E0.1857
G1 X121.682 Y123.718 E0.2215
G1 X121.969 Y124.005 E0.2430
G1 X121.969 Y124.684 E0.2788
G1 X121.682 Y124.397 E0.3003
G1 X121.682 Y125.076 E0.3361
G1 X121.969 Y125.363 E0.3576
G1 X121.969 Y126.042 E0.3934
G1 X121.682 Y125.755 E0.4148
G1 X121.682 Y126.433 E0.4507
G1 X121.969 Y126.721 E0.4721
G1 X121.969 Y127.399 E0.5080
G1 X121.682 Y127.112 E0.5294
G1 X121.682 Y127.791 E0.5653
G1 X121.969 Y128.078 E0.5867
G1 X121.969 Y128.757 E0.6226
G1 X121.682 Y128.470 E0.6440
G1 X121.682 Y129.149 E0.6799
G1 X121.969 Y129.436 E0.7013
G1 X121.969 Y130.115 E0.7372
G1 X121.682 Y129.828 E0.7586
G1 X121.682 Y130.506 E0.7945
G1 X121.969 Y130.794 E0.8159
G1 X121.969 Y131.472 E0.8518
G1 X121.682 Y131.185 E0.8732
G92 E0.0000
G1 E-0.7000 F1500
; feature outer perimeter
G1 X92.517 Y132.160 F4800
G1 E0.0000 F1500
G92 E0.0000
G1 X91.426 Y132.160 E0.0576 F900
G1 X91.416 Y130.161 E0.1632
G1 X91.451 Y125.689 E0.3993
G1 X91.537 Y125.424 E0.4141
G1 X91.608 Y125.305 E0.4213
G1 X91.777 Y125.197 E0.4319
G1 X92.156 Y125.197 E0.4519
G1 X92.324 Y125.305 E0.4625
G1 X92.463 Y125.535 E0.4767
G1 X92.496 Y125.678 E0.4844
G1 X92.517 Y132.160 E0.8267
; feature gap fill
G1 X92.107 Y131.479 F4800
G92 E0.0000
G1 X91.829 Y131.201 E0.0208 F1800
G1 X91.825 Y130.518 E0.0568
G1 X92.105 Y130.798 E0.0776
G1 X92.102 Y130.117 E0.1136
G1 X91.826 Y129.840 E0.1342
G1 X91.832 Y129.167 E0.1698
G1 X92.100 Y129.436 E0.1899
G1 X92.098 Y128.755 E0.2258
G1 X91.837 Y128.493 E0.2453
G1 X91.842 Y127.820 E0.2809
G1 X92.096 Y128.073 E0.2998
G1 X92.094 Y127.392 E0.3358
G1 X91.848 Y127.147 E0.3542
G1 X91.853 Y126.473 E0.3897
G1 X92.092 Y126.711 E0.4075
G1 X92.089 Y126.030 E0.4435
G1 X91.859 Y125.800 E0.4607
G92 E0.0000
G1 E-0.7000 F1500
; feature support
G1 X98.230 Y124.960 F4800
G1 E0.0000 F1500
G92 E0.0000
G1 X114.370 Y124.960 E0.8523 F1440
G1 X114.370 Y123.040 E0.9536
G1 X98.230 Y123.040 E1.8059
G1 X98.230 Y121.120 E1.9073
G1 X112.570 Y121.120 E2.6645
G1 X112.570 Y119.200 E2.7659
G1 X98.230 Y119.200 E3.5231
G1 X98.230 Y118.930 E3.5373
G1 X100.030 Y118.930 E3.6324
G1 X100.030 Y117.280 E3.7195
G1 X112.570 Y117.280 E4.3817
G1 X112.570 Y117.130 E4.3896
G1 X110.770 Y117.130 E4.4846
G1 X110.770 Y115.360 E4.5781
G1 X100.030 Y115.360 E5.1452
G1 X100.030 Y113.440 E5.2466
G1 X110.770 Y113.440 E5.8137
G1 X110.770 Y111.520 E5.9151
G1 X100.030 Y111.520 E6.4822
G1 X100.030 Y109.600 E6.5836
G1 X108.970 Y109.600 E7.0556
G1 X108.970 Y107.680 E7.1570
G1 X100.030 Y107.680 E7.6291
G1 X100.030 Y105.760 E7.7305
G1 X108.970 Y105.760 E8.2025
G1 X108.970 Y103.840 E8.3039
G1 X100.030 Y103.840 E8.7760
G1 X100.030 Y101.920 E8.8774
G1 X108.970 Y101.920 E9.3494
G1 X108.970 Y100.000 E9.4508
G1 X100.030 Y100.000 E9.9229
G1 X100.030 Y99.130 E9.9688
G1 X101.830 Y99.130 E10.0639
G1 X101.830 Y98.080 E10.1193
G1 X107.170 Y98.080 E10.4013
G1 X107.170 Y96.160 E10.5027
G1 X101.830 Y96.160 E10.7846
G1 X101.830 Y94.240 E10.8860
G1 X107.170 Y94.240 E11.1680
G1 X107.170 Y92.320 E11.2694
G1 X101.830 Y92.320 E11.5514
G1 X101.830 Y90.400 E11.6527
G1 X107.170 Y90.400 E11.9347
