; G-Code generated by Simplify3D(R) Version 4.1.1
; Apr 27, 2021 at 9:07:39 AM
; Settings Summary
;   processName,Trideo BOX
;   applyToModels,Right Arm X2
;   profileName,Trideo BOX
;   profileVersion,2021-04-15 09:48:16
;   baseProfile,Default
;   printMaterial,PLA
;   printQuality,Fast
;   printExtruders,
;   extruderName,Primary Extruder
;   extruderToolheadNumber,0
;   extruderDiameter,0.4
;   extruderAutoWidth,1
;   extruderWidth,0.48
;   extrusionMultiplier,0.98
;   extruderUseRetract,1
;   extruderRetractionDistance,0.7
;   extruderExtraRestartDistance,0
;   extruderRetractionZLift,0
;   extruderRetractionSpeed,1500
;   extruderUseCoasting,0
;   extruderCoastingDistance,0.2
;   extruderUseWipe,0
;   extruderWipeDistance,5
;   primaryExtruder,0
;   layerHeight,0.3
;   topSolidLayers,3
;   bottomSolidLayers,3
;   perimeterOutlines,2
;   printPerimetersInsideOut,1
;   startPointOption,2
;   startPointOriginX,0
;   startPointOriginY,0
;   sequentialIslands,0
;   spiralVaseMode,0
;   firstLayerHeightPercentage,90
;   firstLayerWidthPercentage,100
;   firstLayerUnderspeed,0.5
;   useRaft,0
;   raftExtruder,0
;   raftTopLayers,3
;   raftBaseLayers,2
;   raftOffset,3
;   raftSeparationDistance,0.14
;   raftTopInfill,100
;   aboveRaftSpeedMultiplier,0.3
;   useSkirt,1
;   skirtExtruder,0
;   skirtLayers,1
;   skirtOutlines,2
;   skirtOffset,4
;   usePrimePillar,0
;   primePillarExtruder,999
;   primePillarWidth,12
;   primePillarLocation,7
;   primePillarSpeedMultiplier,1
;   useOozeShield,0
;   oozeShieldExtruder,999
;   oozeShieldOffset,2
;   oozeShieldOutlines,1
;   oozeShieldSidewallShape,1
;   oozeShieldSidewallAngle,30
;   oozeShieldSpeedMultiplier,1
;   infillExtruder,0
;   internalInfillPattern,Rectilinear
;   externalInfillPattern,Rectilinear
;   infillPercentage,15
;   outlineOverlapPercentage,15
;   infillExtrusionWidthPercentage,100
;   minInfillLength,5
;   infillLayerInterval,1
;   internalInfillAngles,45,-45
;   overlapInternalInfillAngles,0
;   externalInfillAngles,45,-45
;   generateSupport,1
;   supportExtruder,0
;   supportInfillPercentage,25
;   supportExtraInflation,0
;   supportBaseLayers,0
;   denseSupportExtruder,0
;   denseSupportLayers,0
;   denseSupportInfillPercentage,70
;   supportLayerInterval,1
;   supportHorizontalPartOffset,0.3
;   supportUpperSeparationLayers,1
;   supportLowerSeparationLayers,1
;   supportType,0
;   supportGridSpacing,4
;   maxOverhangAngle,45
;   supportAngles,0
;   temperatureName,Primary Extruder,Heated bed
;   temperatureNumber,0,0
;   temperatureSetpointCount,1,1
;   temperatureSetpointLayers,1,1
;   temperatureSetpointTemperatures,190,60
;   temperatureStabilizeAtStartup,1,1
;   temperatureHeatedBed,0,1
;   fanLayers,1,2
;   fanSpeeds,0,100
;   blipFanToFullPower,0
;   adjustSpeedForCooling,1
;   minSpeedLayerTime,15
;   minCoolingSpeedSlowdown,20
;   increaseFanForCooling,0
;   minFanLayerTime,45
;   maxCoolingFanSpeed,100
;   increaseFanForBridging,0
;   bridgingFanSpeed,100
;   use5D,1
;   relativeEdistances,0
;   allowEaxisZeroing,1
;   independentExtruderAxes,0
;   includeM10123,0
;   stickySupport,1
;   applyToolheadOffsets,0
;   gcodeXoffset,0
;   gcodeYoffset,0
;   gcodeZoffset,0
;   overrideMachineDefinition,1
;   machineTypeOverride,0
;   strokeXoverride,200
;   strokeYoverride,200
;   strokeZoverride,200
;   originOffsetXoverride,0
;   originOffsetYoverride,0
;   originOffsetZoverride,0
;   homeXdirOverride,-1
;   homeYdirOverride,-1
;   homeZdirOverride,-1
;   flipXoverride,1
;   flipYoverride,-1
;   flipZoverride,1
;   toolheadOffsets,0,0|0,0|0,0|0,0|0,0|0,0
;   overrideFirmwareConfiguration,0
;   firmwareTypeOverride,RepRap (Marlin/Repetier/Sprinter)
;   GPXconfigOverride,r2
;   baudRateOverride,115200
;   overridePrinterModels,0
;   printerModelsOverride
;   startingGcode,G28 X0 Y0; home XY,G1 X20 Y20,G28 Z0,G1 Z5 F5000; Lift NZ
;   layerChangeGcode,
;   retractionGcode,
;   toolChangeGcode,
;   endingGcode,M104 S0 ; turn off extruder,G28 X0 ; home x,M140 S0 ; turn off bed,M84 ; disable motors,M107 ;
;   exportFileFormat,gcode
;   celebration,0
;   celebrationSong,Looney Toons
;   postProcessing,
;   defaultSpeed,3600
;   outlineUnderspeed,0.5
;   solidInfillUnderspeed,0.8
;   supportUnderspeed,0.8
;   rapidXYspeed,4800
;   rapidZspeed,1002
;   minBridgingArea,50
;   bridgingExtraInflation,0
;   bridgingExtrusionMultiplier,1
;   bridgingSpeedMultiplier,1
;   useFixedBridgingAngle,0
;   fixedBridgingAngle,0
;   applyBridgingToPerimeters,0
;   filamentDiameters,1.75|1.75|1.75|1.75|1.75|1.75
;   filamentPricesPerKg,46|46|46|46|46|46
;   filamentDensities,1.25|1.25|1.25|1.25|1.25|1.25
;   useMinPrintHeight,0
;   minPrintHeight,0
;   useMaxPrintHeight,0
;   maxPrintHeight,0
;   useDiaphragm,0
;   diaphragmLayerInterval,20
;   robustSlicing,1
;   mergeAllIntoSolid,0
;   onlyRetractWhenCrossingOutline,1
;   retractBetweenLayers,1
;   useRetractionMinTravel,0
;   retractionMinTravel,3
;   retractWhileWiping,0
;   onlyWipeOutlines,1
;   avoidCrossingOutline,0
;   maxMovementDetourFactor,3
;   toolChangeRetractionDistance,12
;   toolChangeExtraRestartDistance,-0.5
;   toolChangeRetractionSpeed,600
;   externalThinWallType,0
;   internalThinWallType,2
;   thinWallAllowedOverlapPercentage,10
;   singleExtrusionMinLength,1
;   singleExtrusionMinPrintingWidthPercentage,50
;   singleExtrusionMaxPrintingWidthPercentage,200
;   singleExtrusionEndpointExtension,0.2
;   horizontalSizeCompensation,0
G90
M82
M106 S0
M140 S60
M190 S60
M104 S190 T0
M109 S190 T0
G28 X0 Y0; home XY
G1 X20 Y20
G28 Z0
G1 Z5 F5000; Lift NZ
; process Trideo BOX
; layer 1, Z = 0.270
T0
G92 E0.0000
G1 E-0.7000 F1500
; feature skirt
; tool H0.270 W0.480
G1 Z0.270 F1002
G1 X85.558 Y49.018 F4800
G1 E0.0000 F1500
G92 E0.0000
G1 X88.318 Y46.280 E0.2053 F1800
G1 X90.031 Y46.280 E0.2957
G1 X90.252 Y46.060 E0.3122
G1 X124.175 Y46.060 E2.1035
G1 X124.395 Y46.280 E2.1199
G1 X127.053 Y46.280 E2.2602
G1 X129.818 Y49.045 E2.4667
G1 X129.817 Y63.991 E3.2559
G1 X129.618 Y64.944 E3.3073
G1 X128.765 Y66.901 E3.4201
G1 X127.260 Y68.264 E3.5273
G1 X124.998 Y68.995 E3.6528
G1 X123.512 Y68.995 E3.7313
G1 X121.211 Y68.252 E3.8590
G1 X119.669 Y66.809 E3.9705
G1 X119.566 Y66.549 E3.9852
G1 X118.940 Y67.175 E4.0320
G1 X118.940 Y69.175 E4.1376
G1 X116.940 Y71.175 E4.2869
G1 X116.940 Y77.175 E4.6037
G1 X114.940 Y79.175 E4.7531
G1 X114.940 Y91.175 E5.3867
G1 X112.940 Y93.175 E5.5361
G1 X112.940 Y94.825 E5.6232
G1 X114.940 Y96.825 E5.7726
G1 X114.940 Y106.825 E6.3006
G1 X116.940 Y108.825 E6.4499
G1 X116.940 Y114.825 E6.7668
G1 X118.940 Y116.825 E6.9161
G1 X118.940 Y120.825 E7.1273
G1 X119.060 Y120.945 E7.1363
G1 X119.060 Y118.825 E7.2482
G1 X121.825 Y116.060 E7.4547
G1 X128.175 Y116.060 E7.7900
G1 X130.940 Y118.825 E7.9965
G1 X130.940 Y125.175 E8.3318
G1 X129.818 Y126.297 E8.4156
G1 X129.818 Y137.955 E9.0312
G1 X127.053 Y140.720 E9.2377
G1 X125.395 Y140.720 E9.3252
G1 X124.175 Y141.940 E9.4163
G1 X88.055 Y141.940 E11.3236
G1 X88.940 Y142.825 E11.3897
G1 X88.940 Y151.175 E11.8306
G1 X86.175 Y153.940 E12.0371
G1 X75.825 Y153.940 E12.5836
G1 X73.060 Y151.175 E12.7901
G1 X73.060 Y149.175 E12.8957
G1 X71.060 Y147.175 E13.0450
G1 X71.060 Y128.825 E14.0140
G1 X73.825 Y126.060 E14.2204
G1 X86.169 Y126.060 E14.8722
G1 X86.204 Y125.983 E14.8767
G1 X86.779 Y125.027 E14.9356
G1 X87.537 Y124.247 E14.9931
G1 X88.805 Y123.433 E15.0726
G1 X90.106 Y123.052 E15.1442
G1 X92.042 Y123.052 E15.2464
G1 X93.060 Y123.351 E15.3024
G1 X93.060 Y118.825 E15.5414
G1 X95.060 Y116.825 E15.6908
G1 X95.060 Y96.825 E16.7469
G1 X97.060 Y94.825 E16.8962
G1 X97.060 Y91.175 E17.0889
G1 X95.060 Y89.175 E17.2383
G1 X95.060 Y69.175 E18.2944
G1 X93.060 Y67.175 E18.4437
G1 X93.060 Y65.940 E18.5089
G1 X87.825 Y65.940 E18.7854
G1 X85.060 Y63.175 E18.9918
G1 X85.060 Y56.825 E19.3271
G1 X85.523 Y56.362 E19.3617
G1 X85.514 Y54.528 E19.4585
G1 X85.514 Y54.498 E19.4601
G1 X85.558 Y49.018 E19.7495
G92 E0.0000
G1 E-0.7000 F1500
G1 X86.036 Y49.220 F4800
G1 E0.0000 F1500
G92 E0.0000
G1 X88.516 Y46.760 E0.1844 F1800
G1 X90.229 Y46.760 E0.2749
G1 X90.450 Y46.540 E0.2913
G1 X123.976 Y46.540 E2.0617
G1 X124.196 Y46.760 E2.0781
G1 X126.854 Y46.760 E2.2184
G1 X129.338 Y49.244 E2.4039
G1 X129.337 Y63.941 E3.1800
G1 X129.159 Y64.797 E3.2262
G1 X128.366 Y66.615 E3.3309
G1 X127.014 Y67.839 E3.4272
G1 X124.922 Y68.515 E3.5432
G1 X123.587 Y68.515 E3.6137
G1 X121.460 Y67.828 E3.7318
G1 X120.076 Y66.532 E3.8319
G1 X119.743 Y65.694 E3.8795
G1 X118.460 Y66.976 E3.9753
G1 X118.460 Y68.976 E4.0809
G1 X116.460 Y70.976 E4.2303
G1 X116.460 Y76.976 E4.5471
G1 X114.460 Y78.976 E4.6964
G1 X114.460 Y90.976 E5.3301
G1 X112.460 Y92.976 E5.4794
G1 X112.460 Y95.024 E5.5876
G1 X114.460 Y97.024 E5.7369
G1 X114.460 Y107.024 E6.2649
G1 X116.460 Y109.024 E6.4143
G1 X116.460 Y115.024 E6.7311
G1 X118.460 Y117.024 E6.8805
G1 X118.460 Y121.024 E7.0917
G1 X119.439 Y122.003 E7.1648
G1 X119.540 Y121.804 E7.1766
G1 X119.540 Y119.024 E7.3234
G1 X122.024 Y116.540 E7.5089
G1 X127.976 Y116.540 E7.8232
G1 X130.460 Y119.024 E8.0087
G1 X130.460 Y124.976 E8.3230
G1 X129.338 Y126.098 E8.4068
G1 X129.338 Y137.756 E9.0224
G1 X126.854 Y140.240 E9.2078
G1 X125.196 Y140.240 E9.2954
G1 X123.976 Y141.460 E9.3865
G1 X86.896 Y141.460 E11.3445
G1 X88.460 Y143.024 E11.4612
G1 X88.460 Y150.976 E11.8812
G1 X85.976 Y153.460 E12.0666
G1 X76.024 Y153.460 E12.5922
G1 X73.540 Y150.976 E12.7776
G1 X73.540 Y148.976 E12.8832
G1 X71.540 Y146.976 E13.0326
G1 X71.540 Y129.024 E13.9806
G1 X74.024 Y126.540 E14.1660
G1 X86.478 Y126.540 E14.8236
G1 X86.629 Y126.207 E14.8430
G1 X87.161 Y125.322 E14.8975
G1 X87.843 Y124.621 E14.9491
G1 X89.007 Y123.875 E15.0221
G1 X90.175 Y123.532 E15.0864
G1 X91.973 Y123.532 E15.1814
G1 X93.141 Y123.875 E15.2456
G1 X93.540 Y124.130 E15.2707
G1 X93.540 Y119.024 E15.5403
G1 X95.540 Y117.024 E15.6897
G1 X95.540 Y97.024 E16.7457
G1 X97.540 Y95.024 E16.8951
G1 X97.540 Y90.976 E17.1088
G1 X95.540 Y88.976 E17.2582
G1 X95.540 Y68.976 E18.3142
G1 X93.540 Y66.976 E18.4636
G1 X93.540 Y65.460 E18.5437
G1 X88.024 Y65.460 E18.8349
G1 X85.540 Y62.976 E19.0204
G1 X85.540 Y57.024 E19.3347
G1 X86.004 Y56.560 E19.3694
G1 X85.994 Y54.527 E19.4767
G1 X85.994 Y54.500 E19.4781
G1 X86.036 Y49.220 E19.7570
G92 E0.0000
G1 E-0.7000 F1500
; feature outer perimeter
G1 X90.500 Y51.240 F4800
G1 E0.0000 F1500
G92 E0.0000
G1 X91.664 Y51.240 E0.0615 F900
G1 X91.668 Y51.712 E0.0864
G1 X91.622 Y58.461 E0.4428
G1 X91.484 Y58.884 E0.4663
G1 X91.072 Y59.022 E0.4892
G1 X90.663 Y58.890 E0.5119
G1 X90.500 Y58.499 E0.5343
G1 X90.493 Y58.472 E0.5357
G1 X90.474 Y54.521 E0.7444
G1 X90.500 Y51.240 E0.9176
; feature gap fill
G1 X91.020 Y51.648 F4800
G92 E0.0000
G1 X91.259 Y51.887 E0.0179 F1800
G1 X91.255 Y52.562 E0.0535
G1 X90.901 Y52.208 E0.0799
G1 X90.895 Y52.881 E0.1155
G1 X91.250 Y53.236 E0.1420
G1 X91.245 Y53.910 E0.1776
G1 X90.890 Y53.555 E0.2041
G1 X90.884 Y54.228 E0.2397
G1 X91.241 Y54.584 E0.2663
G1 X91.236 Y55.259 E0.3019
G1 X90.884 Y54.906 E0.3282
G1 X90.887 Y55.588 E0.3642
G1 X91.232 Y55.933 E0.3899
G1 X91.227 Y56.607 E0.4255
G1 X90.891 Y56.271 E0.4507
G1 X90.894 Y56.953 E0.4867
G1 X91.222 Y57.281 E0.5112
G1 X91.218 Y57.956 E0.5468
G1 X90.897 Y57.635 E0.5708
G1 X90.900 Y58.317 E0.6068
G1 X91.149 Y58.566 E0.6254
G92 E0.0000
G1 E-0.7000 F1500
; feature outer perimeter
G1 X123.673 Y63.454 F4800
G1 E0.0000 F1500
G92 E0.0000
G1 X123.673 Y51.240 E0.6449 F900
G1 X124.858 Y51.240 E0.7075
G1 X124.857 Y63.453 E1.3524
G1 X124.667 Y63.889 E1.3775
G1 X124.255 Y64.022 E1.4004
G1 X123.847 Y63.891 E1.4230
G1 X123.673 Y63.454 E1.4478
; feature gap fill
G1 X124.081 Y62.987 F4800
G92 E0.0000
G1 X124.449 Y63.355 E0.0275 F1800
G1 X124.449 Y62.676 E0.0633
G1 X124.081 Y62.309 E0.0908
G1 X124.081 Y61.630 E0.1266
G1 X124.449 Y61.998 E0.1541
G1 X124.449 Y61.319 E0.1899
G1 X124.081 Y60.951 E0.2174
G1 X124.081 Y60.272 E0.2532
G1 X124.449 Y60.640 E0.2807
G1 X124.449 Y59.961 E0.3165
G1 X124.081 Y59.593 E0.3440
G1 X124.081 Y58.914 E0.3798
G1 X124.449 Y59.282 E0.4073
G1 X124.449 Y58.604 E0.4432
G1 X124.081 Y58.236 E0.4706
G1 X124.081 Y57.557 E0.5065
G1 X124.449 Y57.925 E0.5340
G1 X124.450 Y57.246 E0.5698
G1 X124.081 Y56.878 E0.5973
G1 X124.081 Y56.199 E0.6331
G1 X124.450 Y56.567 E0.6606
G1 X124.450 Y55.889 E0.6965
G1 X124.081 Y55.520 E0.7240
G1 X124.081 Y54.842 E0.7598
G1 X124.450 Y55.210 E0.7873
G1 X124.450 Y54.531 E0.8231
G1 X124.081 Y54.163 E0.8506
G1 X124.081 Y53.484 E0.8865
G1 X124.450 Y53.852 E0.9140
G1 X124.450 Y53.173 E0.9498
G1 X124.081 Y52.805 E0.9773
G1 X124.081 Y52.126 E1.0132
G1 X124.450 Y52.495 E1.0407
G1 X124.450 Y51.816 E1.0765
G1 X124.282 Y51.648 E1.0890
G92 E0.0000
G1 E-0.7000 F1500
; feature outer perimeter
G1 X124.475 Y123.012 F4800
G1 E0.0000 F1500
G92 E0.0000
G1 X124.604 Y123.095 E0.0081 F900
G1 X124.858 Y123.561 E0.0361
G1 X124.858 Y135.760 E0.6803
G1 X123.673 Y135.760 E0.7428
G1 X123.673 Y123.557 E1.3872
G1 X123.908 Y123.093 E1.4146
G1 X124.034 Y123.012 E1.4226
G1 X124.475 Y123.012 E1.4458
; feature gap fill
G1 X124.166 Y123.487 F4800
G92 E0.0000
G1 X124.450 Y123.771 E0.0212 F1800
G1 X124.450 Y124.450 E0.0571
G1 X124.081 Y124.081 E0.0846
G1 X124.081 Y124.760 E0.1204
G1 X124.450 Y125.129 E0.1479
G1 X124.450 Y125.808 E0.1838
G1 X124.081 Y125.439 E0.2113
G1 X124.081 Y126.118 E0.2471
G1 X124.450 Y126.486 E0.2747
G1 X124.450 Y127.165 E0.3105
G1 X124.081 Y126.797 E0.3380
G1 X124.081 Y127.476 E0.3739
G1 X124.450 Y127.844 E0.4014
G1 X124.450 Y128.523 E0.4372
G1 X124.081 Y128.154 E0.4647
G1 X124.081 Y128.833 E0.5006
G1 X124.450 Y129.202 E0.5281
G1 X124.450 Y129.880 E0.5639
G1 X124.081 Y129.512 E0.5915
G1 X124.081 Y130.191 E0.6273
G1 X124.450 Y130.559 E0.6548
G1 X124.450 Y131.238 E0.6907
G1 X124.081 Y130.870 E0.7182
G1 X124.081 Y131.548 E0.7540
G1 X124.450 Y131.917 E0.7816
G1 X124.450 Y132.596 E0.8174
G1 X124.081 Y132.227 E0.8449
G1 X124.081 Y132.906 E0.8808
G1 X124.450 Y133.275 E0.9083
G1 X124.450 Y133.953 E0.9441
G1 X124.081 Y133.585 E0.9716
G1 X124.081 Y134.264 E1.0075
G1 X124.450 Y134.632 E1.0350
G1 X124.450 Y135.311 E1.0708
G1 X124.081 Y134.943 E1.0984
G92 E0.0000
G1 E-0.7000 F1500
; feature outer perimeter
G1 X91.654 Y135.760 F4800
G1 E0.0000 F1500
G92 E0.0000
G1 X90.480 Y135.760 E0.0620 F900
G1 X90.475 Y134.760 E0.1148
G1 X90.525 Y128.539 E0.4433
G1 X90.607 Y128.285 E0.4574
G1 X90.720 Y128.098 E0.4689
G1 X90.854 Y128.012 E0.4773
G1 X91.294 Y128.012 E0.5006
G1 X91.428 Y128.098 E0.5090
G1 X91.634 Y128.440 E0.5300
G1 X91.654 Y128.528 E0.5348
G1 X91.674 Y132.864 E0.7638
G1 X91.654 Y135.760 E0.9167
; feature gap fill
G1 X91.229 Y135.352 F4800
G92 E0.0000
G1 X90.884 Y135.008 E0.0257 F1800
G1 X90.883 Y134.761 E0.0387
G1 X90.887 Y134.331 E0.0614
G1 X91.253 Y134.698 E0.0888
G1 X91.258 Y134.024 E0.1244
G1 X90.892 Y133.658 E0.1518
G1 X90.897 Y132.984 E0.1873
G1 X91.263 Y133.350 E0.2146
G1 X91.266 Y132.864 E0.2403
G1 X91.265 Y132.674 E0.2503
G1 X90.903 Y132.311 E0.2774
G1 X90.908 Y131.638 E0.3130
G1 X91.262 Y131.992 E0.3394
G1 X91.259 Y131.310 E0.3754
G1 X90.914 Y130.964 E0.4012
G1 X90.919 Y130.291 E0.4368
G1 X91.256 Y130.628 E0.4620
G1 X91.253 Y129.946 E0.4980
G1 X90.924 Y129.617 E0.5225
G1 X90.930 Y128.944 E0.5581
G1 X91.250 Y129.264 E0.5819
G1 X91.247 Y128.588 E0.6176
G1 X91.237 Y128.572 E0.6186
G1 X91.085 Y128.420 E0.6300
G92 E0.0000
G1 E-0.7000 F1500
; feature support
G1 X89.100 Y136.480 F4800
G1 E0.0000 F1500
G92 E0.0000
G1 X86.030 Y136.480 E0.1621 F1440
G1 X86.030 Y134.970 E0.2419
G1 X83.970 Y134.970 E0.3506
G1 X83.970 Y136.480 E0.4304
G1 X82.030 Y136.480 E0.5328
G92 E0.0000
G1 E-0.7000 F1500
G1 X76.030 Y132.640 F4800
G1 E0.0000 F1500
G92 E0.0000
G1 X89.098 Y132.640 E0.6900 F1440
G1 X89.099 Y134.560 E0.7914
G1 X76.030 Y134.560 E1.4815
G1 X76.030 Y136.480 E1.5829
G1 X77.970 Y136.480 E1.6853
G1 X77.970 Y137.030 E1.7144
G1 X81.970 Y137.030 E1.9256
G1 X81.970 Y138.400 E1.9979
G1 X76.030 Y138.400 E2.3116
G1 X76.030 Y140.320 E2.4130
G1 X81.970 Y140.320 E2.7266
G1 X81.970 Y142.240 E2.8280
G1 X76.030 Y142.240 E3.1417
G1 X76.030 Y144.160 E3.2430
G1 X81.970 Y144.160 E3.5567
G1 X81.970 Y144.970 E3.5995
G1 X79.970 Y144.970 E3.7051
