; G-Code generated by Simplify3D(R) Version 4.1.1
; Apr 28, 2021 at 7:25:16 PM
; Settings Summary
;   processName,Trideo BOX
;   applyToModels,smallstumpholder left
;   profileName,Trideo BOX
;   profileVersion,2021-04-15 09:48:16
;   baseProfile,Default
;   printMaterial,PLA
;   printQuality,Fast
;   printExtruders,
;   extruderName,Primary Extruder
;   extruderToolheadNumber,0
;   extruderDiameter,0.4
;   extruderAutoWidth,1
;   extruderWidth,0.48
;   extrusionMultiplier,0.98
;   extruderUseRetract,1
;   extruderRetractionDistance,0.7
;   extruderExtraRestartDistance,0
;   extruderRetractionZLift,0
;   extruderRetractionSpeed,1500
;   extruderUseCoasting,0
;   extruderCoastingDistance,0.2
;   extruderUseWipe,0
;   extruderWipeDistance,5
;   primaryExtruder,0
;   layerHeight,0.3
;   topSolidLayers,3
;   bottomSolidLayers,3
;   perimeterOutlines,2
;   printPerimetersInsideOut,1
;   startPointOption,2
;   startPointOriginX,0
;   startPointOriginY,0
;   sequentialIslands,0
;   spiralVaseMode,0
;   firstLayerHeightPercentage,90
;   firstLayerWidthPercentage,100
;   firstLayerUnderspeed,0.5
;   useRaft,0
;   raftExtruder,0
;   raftTopLayers,3
;   raftBaseLayers,2
;   raftOffset,3
;   raftSeparationDistance,0.14
;   raftTopInfill,100
;   aboveRaftSpeedMultiplier,0.3
;   useSkirt,1
;   skirtExtruder,0
;   skirtLayers,1
;   skirtOutlines,2
;   skirtOffset,4
;   usePrimePillar,0
;   primePillarExtruder,999
;   primePillarWidth,12
;   primePillarLocation,7
;   primePillarSpeedMultiplier,1
;   useOozeShield,0
;   oozeShieldExtruder,999
;   oozeShieldOffset,2
;   oozeShieldOutlines,1
;   oozeShieldSidewallShape,1
;   oozeShieldSidewallAngle,30
;   oozeShieldSpeedMultiplier,1
;   infillExtruder,0
;   internalInfillPattern,Rectilinear
;   externalInfillPattern,Rectilinear
;   infillPercentage,15
;   outlineOverlapPercentage,15
;   infillExtrusionWidthPercentage,100
;   minInfillLength,5
;   infillLayerInterval,1
;   internalInfillAngles,45,-45
;   overlapInternalInfillAngles,0
;   externalInfillAngles,45,-45
;   generateSupport,1
;   supportExtruder,0
;   supportInfillPercentage,25
;   supportExtraInflation,0
;   supportBaseLayers,0
;   denseSupportExtruder,0
;   denseSupportLayers,0
;   denseSupportInfillPercentage,70
;   supportLayerInterval,1
;   supportHorizontalPartOffset,0.3
;   supportUpperSeparationLayers,1
;   supportLowerSeparationLayers,1
;   supportType,0
;   supportGridSpacing,4
;   maxOverhangAngle,45
;   supportAngles,0
;   temperatureName,Primary Extruder,Heated bed
;   temperatureNumber,0,0
;   temperatureSetpointCount,1,1
;   temperatureSetpointLayers,1,1
;   temperatureSetpointTemperatures,190,60
;   temperatureStabilizeAtStartup,1,1
;   temperatureHeatedBed,0,1
;   fanLayers,1,2
;   fanSpeeds,0,100
;   blipFanToFullPower,0
;   adjustSpeedForCooling,1
;   minSpeedLayerTime,15
;   minCoolingSpeedSlowdown,20
;   increaseFanForCooling,0
;   minFanLayerTime,45
;   maxCoolingFanSpeed,100
;   increaseFanForBridging,0
;   bridgingFanSpeed,100
;   use5D,1
;   relativeEdistances,0
;   allowEaxisZeroing,1
;   independentExtruderAxes,0
;   includeM10123,0
;   stickySupport,1
;   applyToolheadOffsets,0
;   gcodeXoffset,0
;   gcodeYoffset,0
;   gcodeZoffset,0
;   overrideMachineDefinition,1
;   machineTypeOverride,0
;   strokeXoverride,200
;   strokeYoverride,200
;   strokeZoverride,200
;   originOffsetXoverride,0
;   originOffsetYoverride,0
;   originOffsetZoverride,0
;   homeXdirOverride,-1
;   homeYdirOverride,-1
;   homeZdirOverride,-1
;   flipXoverride,1
;   flipYoverride,-1
;   flipZoverride,1
;   toolheadOffsets,0,0|0,0|0,0|0,0|0,0|0,0
;   overrideFirmwareConfiguration,0
;   firmwareTypeOverride,RepRap (Marlin/Repetier/Sprinter)
;   GPXconfigOverride,r2
;   baudRateOverride,115200
;   overridePrinterModels,0
;   printerModelsOverride
;   startingGcode,G28 X0 Y0; home XY,G1 X20 Y20,G28 Z0,G1 Z5 F5000; Lift NZ
;   layerChangeGcode,
;   retractionGcode,
;   toolChangeGcode,
;   endingGcode,M104 S0 ; turn off extruder,G28 X0 ; home x,M140 S0 ; turn off bed,M84 ; disable motors,M107 ;
;   exportFileFormat,gcode
;   celebration,0
;   celebrationSong,Looney Toons
;   postProcessing,
;   defaultSpeed,3600
;   outlineUnderspeed,0.5
;   solidInfillUnderspeed,0.8
;   supportUnderspeed,0.8
;   rapidXYspeed,4800
;   rapidZspeed,1002
;   minBridgingArea,50
;   bridgingExtraInflation,0
;   bridgingExtrusionMultiplier,1
;   bridgingSpeedMultiplier,1
;   useFixedBridgingAngle,0
;   fixedBridgingAngle,0
;   applyBridgingToPerimeters,0
;   filamentDiameters,1.75|1.75|1.75|1.75|1.75|1.75
;   filamentPricesPerKg,46|46|46|46|46|46
;   filamentDensities,1.25|1.25|1.25|1.25|1.25|1.25
;   useMinPrintHeight,0
;   minPrintHeight,0
;   useMaxPrintHeight,0
;   maxPrintHeight,0
;   useDiaphragm,0
;   diaphragmLayerInterval,20
;   robustSlicing,1
;   mergeAllIntoSolid,0
;   onlyRetractWhenCrossingOutline,1
;   retractBetweenLayers,1
;   useRetractionMinTravel,0
;   retractionMinTravel,3
;   retractWhileWiping,0
;   onlyWipeOutlines,1
;   avoidCrossingOutline,0
;   maxMovementDetourFactor,3
;   toolChangeRetractionDistance,12
;   toolChangeExtraRestartDistance,-0.5
;   toolChangeRetractionSpeed,600
;   externalThinWallType,0
;   internalThinWallType,2
;   thinWallAllowedOverlapPercentage,10
;   singleExtrusionMinLength,1
;   singleExtrusionMinPrintingWidthPercentage,50
;   singleExtrusionMaxPrintingWidthPercentage,200
;   singleExtrusionEndpointExtension,0.2
;   horizontalSizeCompensation,0
G90
M82
M106 S0
M140 S60
M190 S60
M104 S190 T0
M109 S190 T0
G28 X0 Y0; home XY
G1 X20 Y20
G28 Z0
G1 Z5 F5000; Lift NZ
; process Trideo BOX
; layer 1, Z = 0.270
T0
G92 E0.0000
G1 E-0.7000 F1500
; feature skirt
; tool H0.270 W0.480
G1 Z0.270 F1002
G1 X65.708 Y69.282 F4800
G1 E0.0000 F1500
G92 E0.0000
G1 X66.003 Y69.010 E0.0212 F1800
G1 X66.615 Y68.535 E0.0621
G1 X67.035 Y68.274 E0.0882
G1 X67.778 Y67.915 E0.1318
G1 X68.319 Y67.730 E0.1620
G1 X69.158 Y67.553 E0.2073
G1 X69.759 Y67.504 E0.2391
G1 X70.607 Y67.543 E0.2839
G1 X71.169 Y67.638 E0.3140
G1 X71.936 Y67.865 E0.3563
G1 X72.393 Y68.054 E0.3824
G1 X73.039 Y68.405 E0.4212
G1 X73.382 Y68.632 E0.4429
G1 X73.972 Y69.100 E0.4827
G1 X74.326 Y69.448 E0.5089
G1 X75.063 Y70.343 E0.5701
G1 X75.359 Y70.801 E0.5989
G1 X75.884 Y71.865 E0.6616
G1 X76.052 Y72.319 E0.6871
G1 X76.340 Y73.431 E0.7478
G1 X76.410 Y73.862 E0.7708
G1 X76.486 Y74.967 E0.8293
G1 X76.482 Y75.336 E0.8488
G1 X76.390 Y76.384 E0.9044
G1 X76.350 Y76.658 E0.9190
G1 X76.146 Y77.636 E0.9717
G1 X76.099 Y77.826 E0.9821
G1 X75.139 Y81.068 E1.1606
G1 X74.993 Y81.727 E1.1963
G1 X74.876 Y82.461 E1.2355
G1 X74.801 Y83.221 E1.2758
G1 X74.769 Y84.050 E1.3196
G1 X74.785 Y84.927 E1.3660
G1 X74.849 Y85.854 E1.4150
G1 X74.956 Y86.777 E1.4641
G1 X75.316 Y88.820 E1.5736
G1 X75.793 Y90.789 E1.6806
G1 X76.340 Y92.620 E1.7815
G1 X76.901 Y94.213 E1.8707
G1 X77.426 Y95.485 E1.9433
G1 X77.873 Y96.388 E1.9966
G1 X78.153 Y96.835 E2.0244
G1 X78.834 Y97.613 E2.0790
G1 X79.251 Y98.029 E2.1101
G1 X79.756 Y98.485 E2.1460
G1 X80.309 Y98.934 E2.1836
G1 X80.924 Y99.381 E2.2238
G1 X81.606 Y99.819 E2.2666
G1 X82.365 Y100.247 E2.3126
G1 X83.207 Y100.660 E2.3621
G1 X84.135 Y101.056 E2.4154
G1 X85.151 Y101.431 E2.4726
G1 X86.209 Y101.771 E2.5312
G1 X88.604 Y102.404 E2.6621
G1 X91.007 Y102.914 E2.7918
G1 X98.883 Y104.306 E3.2141
G1 X99.427 Y104.365 E3.2430
G1 X100.000 Y104.385 E3.2733
G1 X100.573 Y104.365 E3.3035
G1 X101.117 Y104.306 E3.3325
G1 X108.993 Y102.914 E3.7548
G1 X111.396 Y102.404 E3.8845
G1 X113.792 Y101.771 E4.0153
G1 X114.849 Y101.431 E4.0740
G1 X115.864 Y101.056 E4.1311
G1 X116.793 Y100.660 E4.1845
G1 X117.635 Y100.247 E4.2340
G1 X118.394 Y99.819 E4.2800
G1 X119.076 Y99.381 E4.3228
G1 X119.691 Y98.934 E4.3629
G1 X120.244 Y98.485 E4.4006
G1 X120.710 Y98.064 E4.4337
G1 X121.641 Y97.094 E4.5047
G1 X121.867 Y96.823 E4.5233
G1 X121.916 Y96.750 E4.5280
G1 X122.327 Y96.007 E4.5728
G1 X122.829 Y94.895 E4.6372
G1 X123.379 Y93.451 E4.7188
G1 X123.948 Y91.699 E4.8161
G1 X124.200 Y90.816 E4.8646
G1 X124.684 Y88.820 E4.9730
G1 X125.044 Y86.776 E5.0826
G1 X125.150 Y85.857 E5.1315
G1 X125.215 Y84.932 E5.1804
G1 X125.231 Y84.057 E5.2266
G1 X125.199 Y83.220 E5.2709
G1 X125.124 Y82.461 E5.3111
G1 X125.007 Y81.727 E5.3504
G1 X124.861 Y81.068 E5.3860
G1 X123.908 Y77.848 E5.5633
G1 X123.861 Y77.663 E5.5734
G1 X123.656 Y76.689 E5.6260
G1 X123.616 Y76.418 E5.6405
G1 X123.518 Y75.346 E5.6973
G1 X123.514 Y74.970 E5.7172
G1 X123.590 Y73.863 E5.7757
G1 X123.659 Y73.433 E5.7987
G1 X123.946 Y72.323 E5.8593
G1 X124.114 Y71.871 E5.8848
G1 X124.638 Y70.805 E5.9475
G1 X124.938 Y70.342 E5.9766
G1 X125.685 Y69.438 E6.0385
G1 X126.037 Y69.093 E6.0646
G1 X126.616 Y68.633 E6.1036
G1 X126.958 Y68.407 E6.1252
G1 X127.604 Y68.056 E6.1641
G1 X128.062 Y67.866 E6.1902
G1 X128.831 Y67.638 E6.2326
G1 X129.394 Y67.543 E6.2627
G1 X130.242 Y67.504 E6.3076
G1 X130.840 Y67.552 E6.3393
G1 X131.674 Y67.728 E6.3842
G1 X132.214 Y67.912 E6.4144
G1 X132.965 Y68.274 E6.4584
G1 X133.390 Y68.538 E6.4848
G1 X134.005 Y69.017 E6.5260
G1 X134.300 Y69.290 E6.5472
G1 X134.794 Y69.832 E6.5859
G1 X134.993 Y70.082 E6.6028
G1 X135.395 Y70.666 E6.6402
G1 X135.526 Y70.879 E6.6534
G1 X135.855 Y71.484 E6.6898
G1 X135.944 Y71.666 E6.7005
G1 X136.256 Y72.379 E6.7416
G1 X136.340 Y72.600 E6.7541
G1 X136.788 Y73.993 E6.8313
G1 X136.848 Y74.213 E6.8434
G1 X137.201 Y75.831 E6.9308
G1 X137.226 Y75.962 E6.9379
G1 X137.378 Y76.914 E6.9888
G1 X137.393 Y77.018 E6.9943
G1 X137.599 Y78.820 E7.0901
G1 X137.609 Y78.936 E7.0962
G1 X137.741 Y80.960 E7.2034
G1 X137.745 Y81.060 E7.2086
G1 X137.794 Y83.171 E7.3202
G1 X137.794 Y83.257 E7.3247
G1 X137.765 Y85.418 E7.4388
G1 X137.763 Y85.494 E7.4428
G1 X137.665 Y87.615 E7.5549
G1 X137.661 Y87.687 E7.5587
G1 X137.500 Y89.789 E7.6701
G1 X137.494 Y89.860 E7.6738
G1 X137.273 Y91.928 E7.7837
G1 X137.264 Y92.000 E7.7875
G1 X136.995 Y93.957 E7.8918
G1 X136.983 Y94.030 E7.8957
G1 X136.669 Y95.887 E7.9951
G1 X136.654 Y95.963 E7.9992
G1 X136.307 Y97.672 E8.0913
G1 X136.290 Y97.751 E8.0956
G1 X135.911 Y99.331 E8.1814
G1 X135.890 Y99.414 E8.1859
G1 X135.473 Y100.915 E8.2682
G1 X135.446 Y101.005 E8.2731
G1 X135.019 Y102.332 E8.3467
G1 X134.987 Y102.425 E8.3519
G1 X134.546 Y103.622 E8.4193
G1 X134.508 Y103.719 E8.4248
G1 X134.059 Y104.789 E8.4861
G1 X134.015 Y104.887 E8.4917
G1 X133.575 Y105.817 E8.5461
G1 X133.525 Y105.916 E8.5519
G1 X133.082 Y106.749 E8.6017
G1 X133.025 Y106.850 E8.6078
G1 X132.565 Y107.619 E8.6552
G1 X132.475 Y107.759 E8.6640
G1 X131.695 Y108.877 E8.7359
G1 X131.579 Y109.029 E8.7460
G1 X131.117 Y109.589 E8.7843
G1 X131.070 Y109.641 E8.7881
G1 X131.070 Y110.253 E8.8204
G1 X128.305 Y113.018 E9.0268
G1 X128.070 Y113.018 E9.0393
G1 X128.070 Y115.178 E9.1533
G1 X128.305 Y115.178 E9.1657
G1 X131.070 Y117.943 E9.3722
G1 X131.070 Y120.543 E9.5095
G1 X131.106 Y120.785 E9.5224
G1 X131.132 Y121.194 E9.5441
G1 X131.118 Y121.822 E9.5772
G1 X131.059 Y122.294 E9.6024
G1 X130.869 Y123.125 E9.6474
G1 X130.701 Y123.608 E9.6744
G1 X130.408 Y124.229 E9.7106
G1 X130.149 Y124.655 E9.7370
G1 X129.596 Y125.379 E9.7851
G1 X129.211 Y125.776 E9.8142
G1 X128.505 Y126.352 E9.8624
G1 X128.177 Y126.576 E9.8833
G1 X127.447 Y126.990 E9.9277
G1 X127.196 Y127.113 E9.9424
G1 X126.446 Y127.428 E9.9854
G1 X126.252 Y127.500 E9.9963
G1 X125.665 Y127.688 E10.0289
G1 X122.148 Y129.021 E10.2274
G1 X122.055 Y129.054 E10.2327
G1 X119.267 Y129.979 E10.3878
G1 X119.171 Y130.008 E10.3931
G1 X117.574 Y130.465 E10.4808
G1 X117.499 Y130.485 E10.4849
G1 X115.822 Y130.904 E10.5762
G1 X115.744 Y130.922 E10.5804
G1 X113.991 Y131.298 E10.6750
G1 X113.913 Y131.314 E10.6793
G1 X112.099 Y131.639 E10.7766
G1 X112.021 Y131.652 E10.7807
G1 X110.139 Y131.925 E10.8812
G1 X110.065 Y131.935 E10.8851
G1 X108.178 Y132.148 E10.9854
G1 X108.107 Y132.155 E10.9891
G1 X106.166 Y132.316 E11.0920
G1 X106.098 Y132.321 E11.0956
G1 X104.127 Y132.427 E11.1998
G1 X104.062 Y132.430 E11.2032
G1 X102.055 Y132.483 E11.3093
G1 X101.992 Y132.483 E11.3126
G1 X97.964 Y132.483 E11.5253
G1 X97.901 Y132.482 E11.5286
G1 X95.926 Y132.429 E11.6330
G1 X95.861 Y132.427 E11.6364
G1 X93.894 Y132.320 E11.7404
G1 X93.826 Y132.316 E11.7440
G1 X91.889 Y132.155 E11.8466
G1 X91.818 Y132.148 E11.8504
G1 X89.917 Y131.933 E11.9514
G1 X89.843 Y131.923 E11.9553
G1 X87.980 Y131.652 E12.0548
G1 X87.903 Y131.639 E12.0589
G1 X86.087 Y131.314 E12.1563
G1 X86.009 Y131.298 E12.1605
G1 X84.256 Y130.922 E12.2551
G1 X84.178 Y130.904 E12.2594
G1 X82.501 Y130.485 E12.3506
G1 X82.426 Y130.465 E12.3547
G1 X80.843 Y130.012 E12.4417
G1 X80.775 Y129.992 E12.4455
G1 X79.294 Y129.520 E12.5275
G1 X79.216 Y129.494 E12.5318
G1 X76.719 Y128.603 E12.6718
G1 X76.667 Y128.584 E12.6748
G1 X74.326 Y127.685 E12.8072
G1 X73.748 Y127.500 E12.8392
G1 X73.554 Y127.428 E12.8502
G1 X72.804 Y127.113 E12.8931
G1 X72.553 Y126.990 E12.9079
G1 X71.823 Y126.576 E12.9522
G1 X71.495 Y126.352 E12.9732
G1 X70.789 Y125.776 E13.0213
G1 X70.405 Y125.379 E13.0505
G1 X69.799 Y124.587 E13.1031
G1 X69.471 Y124.002 E13.1385
G1 X69.101 Y123.044 E13.1927
G1 X68.951 Y122.398 E13.2278
G1 X68.865 Y121.423 E13.2794
G1 X68.882 Y120.861 E13.3091
G1 X68.930 Y120.543 E13.3261
G1 X68.930 Y118.693 E13.4238
G1 X71.695 Y115.928 E13.6303
G1 X71.930 Y115.928 E13.6427
G1 X71.930 Y113.018 E13.7964
G1 X71.695 Y113.018 E13.8088
G1 X68.930 Y110.253 E14.0153
G1 X68.930 Y109.642 E14.0475
G1 X68.890 Y109.598 E14.0507
G1 X68.759 Y109.443 E14.0614
G1 X68.003 Y108.466 E14.1266
G1 X67.902 Y108.326 E14.1357
G1 X67.450 Y107.645 E14.1789
G1 X67.360 Y107.496 E14.1881
G1 X66.512 Y105.987 E14.2795
G1 X66.436 Y105.841 E14.2882
G1 X65.978 Y104.873 E14.3447
G1 X65.934 Y104.775 E14.3504
G1 X65.492 Y103.718 E14.4109
G1 X65.454 Y103.622 E14.4163
G1 X65.013 Y102.425 E14.4837
G1 X64.981 Y102.332 E14.4889
G1 X64.554 Y101.006 E14.5625
G1 X64.527 Y100.915 E14.5674
G1 X64.110 Y99.415 E14.6497
G1 X64.089 Y99.333 E14.6541
G1 X63.719 Y97.788 E14.7380
G1 X63.701 Y97.709 E14.7423
G1 X63.346 Y95.967 E14.8362
G1 X63.332 Y95.891 E14.8403
G1 X63.017 Y94.036 E14.9396
G1 X63.006 Y93.963 E14.9435
G1 X62.736 Y92.000 E15.0481
G1 X62.727 Y91.929 E15.0519
G1 X62.508 Y89.876 E15.1610
G1 X62.501 Y89.805 E15.1647
G1 X62.339 Y87.687 E15.2768
G1 X62.335 Y87.615 E15.2807
G1 X62.237 Y85.494 E15.3928
G1 X62.235 Y85.418 E15.3968
G1 X62.206 Y83.257 E15.5109
G1 X62.206 Y83.171 E15.5154
G1 X62.255 Y81.059 E15.6270
G1 X62.259 Y80.960 E15.6322
G1 X62.391 Y78.935 E15.7394
G1 X62.401 Y78.820 E15.7455
G1 X62.613 Y76.971 E15.8438
G1 X62.635 Y76.826 E15.8515
G1 X62.936 Y75.133 E15.9423
G1 X62.965 Y74.995 E15.9497
G1 X63.161 Y74.181 E15.9940
G1 X63.190 Y74.071 E16.0000
G1 X63.420 Y73.285 E16.0432
G1 X63.489 Y73.083 E16.0545
G1 X63.997 Y71.794 E16.1277
G1 X64.119 Y71.531 E16.1430
G1 X64.478 Y70.871 E16.1826
G1 X64.611 Y70.655 E16.1960
G1 X65.015 Y70.072 E16.2335
G1 X65.214 Y69.822 E16.2503
G1 X65.708 Y69.282 E16.2890
G92 E0.0000
G1 E-0.7000 F1500
G1 X65.579 Y70.134 F4800
G1 E0.0000 F1500
G92 E0.0000
G1 X66.048 Y69.621 E0.0367 F1800
G1 X66.314 Y69.376 E0.0558
G1 X66.890 Y68.929 E0.0943
G1 X67.267 Y68.695 E0.1177
G1 X67.961 Y68.360 E0.1584
G1 X68.447 Y68.194 E0.1855
G1 X69.227 Y68.028 E0.2277
G1 X69.767 Y67.985 E0.2563
G1 X70.556 Y68.022 E0.2980
G1 X71.060 Y68.107 E0.3250
G1 X71.776 Y68.318 E0.3644
G1 X72.186 Y68.488 E0.3878
G1 X72.792 Y68.817 E0.4242
G1 X73.100 Y69.020 E0.4437
G1 X73.653 Y69.460 E0.4810
G1 X73.972 Y69.773 E0.5046
G1 X74.675 Y70.627 E0.5630
G1 X74.941 Y71.038 E0.5889
G1 X75.442 Y72.055 E0.6488
G1 X75.594 Y72.463 E0.6717
G1 X75.870 Y73.530 E0.7299
G1 X75.933 Y73.917 E0.7506
G1 X76.006 Y74.981 E0.8070
G1 X76.002 Y75.313 E0.8244
G1 X75.913 Y76.328 E0.8783
G1 X75.877 Y76.574 E0.8914
G1 X75.679 Y77.529 E0.9429
G1 X75.636 Y77.699 E0.9522
G1 X74.674 Y80.948 E1.1311
G1 X74.521 Y81.637 E1.1684
G1 X74.399 Y82.400 E1.2091
G1 X74.322 Y83.188 E1.2510
G1 X74.289 Y84.045 E1.2962
G1 X74.305 Y84.948 E1.3440
G1 X74.371 Y85.898 E1.3942
G1 X74.481 Y86.846 E1.4446
G1 X74.846 Y88.918 E1.5557
G1 X75.330 Y90.914 E1.6642
G1 X75.883 Y92.768 E1.7663
G1 X76.452 Y94.385 E1.8568
G1 X76.988 Y95.683 E1.9310
G1 X77.453 Y96.623 E1.9864
