; G-Code generated by Simplify3D(R) Version 4.1.1
; Apr 28, 2021 at 7:25:34 PM
; Settings Summary
;   processName,Trideo BOX
;   applyToModels,smallstumpholder left
;   profileName,Trideo BOX
;   profileVersion,2021-04-15 09:48:16
;   baseProfile,Default
;   printMaterial,PLA
;   printQuality,Fast
;   printExtruders,
;   extruderName,Primary Extruder
;   extruderToolheadNumber,0
;   extruderDiameter,0.4
;   extruderAutoWidth,1
;   extruderWidth,0.48
;   extrusionMultiplier,0.98
;   extruderUseRetract,1
;   extruderRetractionDistance,0.7
;   extruderExtraRestartDistance,0
;   extruderRetractionZLift,0
;   extruderRetractionSpeed,1500
;   extruderUseCoasting,0
;   extruderCoastingDistance,0.2
;   extruderUseWipe,0
;   extruderWipeDistance,5
;   primaryExtruder,0
;   layerHeight,0.3
;   topSolidLayers,3
;   bottomSolidLayers,3
;   perimeterOutlines,2
;   printPerimetersInsideOut,1
;   startPointOption,2
;   startPointOriginX,0
;   startPointOriginY,0
;   sequentialIslands,0
;   spiralVaseMode,0
;   firstLayerHeightPercentage,90
;   firstLayerWidthPercentage,100
;   firstLayerUnderspeed,0.5
;   useRaft,0
;   raftExtruder,0
;   raftTopLayers,3
;   raftBaseLayers,2
;   raftOffset,3
;   raftSeparationDistance,0.14
;   raftTopInfill,100
;   aboveRaftSpeedMultiplier,0.3
;   useSkirt,1
;   skirtExtruder,0
;   skirtLayers,1
;   skirtOutlines,2
;   skirtOffset,4
;   usePrimePillar,0
;   primePillarExtruder,999
;   primePillarWidth,12
;   primePillarLocation,7
;   primePillarSpeedMultiplier,1
;   useOozeShield,0
;   oozeShieldExtruder,999
;   oozeShieldOffset,2
;   oozeShieldOutlines,1
;   oozeShieldSidewallShape,1
;   oozeShieldSidewallAngle,30
;   oozeShieldSpeedMultiplier,1
;   infillExtruder,0
;   internalInfillPattern,Rectilinear
;   externalInfillPattern,Rectilinear
;   infillPercentage,15
;   outlineOverlapPercentage,15
;   infillExtrusionWidthPercentage,100
;   minInfillLength,5
;   infillLayerInterval,1
;   internalInfillAngles,45,-45
;   overlapInternalInfillAngles,0
;   externalInfillAngles,45,-45
;   generateSupport,1
;   supportExtruder,0
;   supportInfillPercentage,25
;   supportExtraInflation,0
;   supportBaseLayers,0
;   denseSupportExtruder,0
;   denseSupportLayers,0
;   denseSupportInfillPercentage,70
;   supportLayerInterval,1
;   supportHorizontalPartOffset,0.3
;   supportUpperSeparationLayers,1
;   supportLowerSeparationLayers,1
;   supportType,0
;   supportGridSpacing,4
;   maxOverhangAngle,45
;   supportAngles,0
;   temperatureName,Primary Extruder,Heated bed
;   temperatureNumber,0,0
;   temperatureSetpointCount,1,1
;   temperatureSetpointLayers,1,1
;   temperatureSetpointTemperatures,190,60
;   temperatureStabilizeAtStartup,1,1
;   temperatureHeatedBed,0,1
;   fanLayers,1,2
;   fanSpeeds,0,100
;   blipFanToFullPower,0
;   adjustSpeedForCooling,1
;   minSpeedLayerTime,15
;   minCoolingSpeedSlowdown,20
;   increaseFanForCooling,0
;   minFanLayerTime,45
;   maxCoolingFanSpeed,100
;   increaseFanForBridging,0
;   bridgingFanSpeed,100
;   use5D,1
;   relativeEdistances,0
;   allowEaxisZeroing,1
;   independentExtruderAxes,0
;   includeM10123,0
;   stickySupport,1
;   applyToolheadOffsets,0
;   gcodeXoffset,0
;   gcodeYoffset,0
;   gcodeZoffset,0
;   overrideMachineDefinition,1
;   machineTypeOverride,0
;   strokeXoverride,200
;   strokeYoverride,200
;   strokeZoverride,200
;   originOffsetXoverride,0
;   originOffsetYoverride,0
;   originOffsetZoverride,0
;   homeXdirOverride,-1
;   homeYdirOverride,-1
;   homeZdirOverride,-1
;   flipXoverride,1
;   flipYoverride,-1
;   flipZoverride,1
;   toolheadOffsets,0,0|0,0|0,0|0,0|0,0|0,0
;   overrideFirmwareConfiguration,0
;   firmwareTypeOverride,RepRap (Marlin/Repetier/Sprinter)
;   GPXconfigOverride,r2
;   baudRateOverride,115200
;   overridePrinterModels,0
;   printerModelsOverride
;   startingGcode,G28 X0 Y0; home XY,G1 X20 Y20,G28 Z0,G1 Z5 F5000; Lift NZ
;   layerChangeGcode,
;   retractionGcode,
;   toolChangeGcode,
;   endingGcode,M104 S0 ; turn off extruder,G28 X0 ; home x,M140 S0 ; turn off bed,M84 ; disable motors,M107 ;
;   exportFileFormat,gcode
;   celebration,0
;   celebrationSong,Looney Toons
;   postProcessing,
;   defaultSpeed,3600
;   outlineUnderspeed,0.5
;   solidInfillUnderspeed,0.8
;   supportUnderspeed,0.8
;   rapidXYspeed,4800
;   rapidZspeed,1002
;   minBridgingArea,50
;   bridgingExtraInflation,0
;   bridgingExtrusionMultiplier,1
;   bridgingSpeedMultiplier,1
;   useFixedBridgingAngle,0
;   fixedBridgingAngle,0
;   applyBridgingToPerimeters,0
;   filamentDiameters,1.75|1.75|1.75|1.75|1.75|1.75
;   filamentPricesPerKg,46|46|46|46|46|46
;   filamentDensities,1.25|1.25|1.25|1.25|1.25|1.25
;   useMinPrintHeight,0
;   minPrintHeight,0
;   useMaxPrintHeight,0
;   maxPrintHeight,0
;   useDiaphragm,0
;   diaphragmLayerInterval,20
;   robustSlicing,1
;   mergeAllIntoSolid,0
;   onlyRetractWhenCrossingOutline,1
;   retractBetweenLayers,1
;   useRetractionMinTravel,0
;   retractionMinTravel,3
;   retractWhileWiping,0
;   onlyWipeOutlines,1
;   avoidCrossingOutline,0
;   maxMovementDetourFactor,3
;   toolChangeRetractionDistance,12
;   toolChangeExtraRestartDistance,-0.5
;   toolChangeRetractionSpeed,600
;   externalThinWallType,0
;   internalThinWallType,2
;   thinWallAllowedOverlapPercentage,10
;   singleExtrusionMinLength,1
;   singleExtrusionMinPrintingWidthPercentage,50
;   singleExtrusionMaxPrintingWidthPercentage,200
;   singleExtrusionEndpointExtension,0.2
;   horizontalSizeCompensation,0
G90
M82
M106 S0
M140 S60
M190 S60
M104 S190 T0
M109 S190 T0
G28 X0 Y0; home XY
G1 X20 Y20
G28 Z0
G1 Z5 F5000; Lift NZ
; process Trideo BOX
; layer 1, Z = 0.270
T0
G92 E0.0000
G1 E-0.7000 F1500
; feature skirt
; tool H0.270 W0.480
G1 Z0.270 F1002
G1 X62.909 Y66.271 F4800
G1 E0.0000 F1500
G92 E0.0000
G1 X63.547 Y65.776 E0.0426 F1800
G1 X63.967 Y65.516 E0.0687
G1 X64.735 Y65.144 E0.1138
G1 X65.276 Y64.959 E0.1440
G1 X66.142 Y64.776 E0.1907
G1 X66.743 Y64.727 E0.2225
G1 X67.617 Y64.768 E0.2688
G1 X68.179 Y64.863 E0.2989
G1 X68.972 Y65.097 E0.3425
G1 X69.429 Y65.286 E0.3686
G1 X70.100 Y65.650 E0.4089
G1 X70.443 Y65.877 E0.4307
G1 X71.056 Y66.364 E0.4720
G1 X71.411 Y66.713 E0.4982
G1 X72.188 Y67.656 E0.5628
G1 X72.484 Y68.114 E0.5916
G1 X73.038 Y69.239 E0.6578
G1 X73.207 Y69.692 E0.6833
G1 X73.512 Y70.871 E0.7476
G1 X73.582 Y71.302 E0.7707
G1 X73.662 Y72.478 E0.8329
G1 X73.659 Y72.846 E0.8524
G1 X73.560 Y73.968 E0.9118
G1 X73.520 Y74.241 E0.9264
G1 X73.299 Y75.303 E0.9837
G1 X73.246 Y75.509 E0.9949
G1 X72.419 Y78.230 E1.1451
G1 X72.206 Y79.010 E1.1878
G1 X72.028 Y79.812 E1.2312
G1 X71.895 Y80.646 E1.2758
G1 X71.810 Y81.511 E1.3217
G1 X71.774 Y82.451 E1.3713
G1 X71.792 Y83.441 E1.4236
G1 X71.864 Y84.483 E1.4788
G1 X71.985 Y85.523 E1.5340
G1 X72.385 Y87.798 E1.6560
G1 X72.917 Y89.991 E1.7752
G1 X73.525 Y92.028 E1.8874
G1 X74.150 Y93.803 E1.9868
G1 X74.738 Y95.229 E2.0683
G1 X75.248 Y96.258 E2.1289
G1 X75.588 Y96.801 E2.1627
G1 X76.373 Y97.697 E2.2256
G1 X76.851 Y98.174 E2.2613
G1 X77.424 Y98.691 E2.3020
G1 X78.052 Y99.202 E2.3448
G1 X78.750 Y99.709 E2.3903
G1 X79.523 Y100.206 E2.4389
G1 X80.381 Y100.689 E2.4909
G1 X81.330 Y101.155 E2.5467
G1 X82.375 Y101.600 E2.6066
G1 X83.512 Y102.021 E2.6707
G1 X84.697 Y102.401 E2.7364
G1 X87.355 Y103.104 E2.8816
G1 X90.017 Y103.668 E3.0253
G1 X98.705 Y105.204 E3.4911
G1 X99.336 Y105.272 E3.5247
G1 X100.000 Y105.296 E3.5597
G1 X100.664 Y105.272 E3.5948
G1 X101.295 Y105.204 E3.6283
G1 X109.983 Y103.668 E4.0942
G1 X112.645 Y103.104 E4.2379
G1 X115.303 Y102.401 E4.3831
G1 X116.488 Y102.021 E4.4488
G1 X117.625 Y101.600 E4.5128
G1 X118.670 Y101.155 E4.5727
G1 X119.619 Y100.689 E4.6286
G1 X120.476 Y100.206 E4.6806
G1 X121.250 Y99.709 E4.7291
G1 X121.948 Y99.202 E4.7747
G1 X122.576 Y98.691 E4.8174
G1 X123.148 Y98.174 E4.8581
G1 X123.664 Y97.661 E4.8966
G1 X124.121 Y97.161 E4.9323
G1 X124.432 Y96.789 E4.9579
G1 X124.511 Y96.672 E4.9654
G1 X124.983 Y95.818 E5.0169
G1 X125.548 Y94.566 E5.0894
G1 X126.162 Y92.953 E5.1806
G1 X126.794 Y91.007 E5.2886
G1 X127.076 Y90.018 E5.3429
G1 X127.615 Y87.798 E5.4635
G1 X128.015 Y85.522 E5.5855
G1 X128.136 Y84.486 E5.6407
G1 X128.208 Y83.445 E5.6957
G1 X128.226 Y82.458 E5.7479
G1 X128.190 Y81.511 E5.7979
G1 X128.105 Y80.647 E5.8438
G1 X127.972 Y79.812 E5.8884
G1 X127.795 Y79.011 E5.9317
G1 X127.571 Y78.197 E5.9763
G1 X126.760 Y75.532 E6.1234
G1 X126.708 Y75.329 E6.1345
G1 X126.486 Y74.272 E6.1915
G1 X126.445 Y74.000 E6.2060
G1 X126.342 Y72.855 E6.2667
G1 X126.338 Y72.480 E6.2865
G1 X126.418 Y71.303 E6.3488
G1 X126.488 Y70.873 E6.3718
G1 X126.792 Y69.697 E6.4360
G1 X126.960 Y69.244 E6.4615
G1 X127.514 Y68.118 E6.5277
G1 X127.813 Y67.655 E6.5568
G1 X128.600 Y66.703 E6.6221
G1 X128.953 Y66.357 E6.6481
G1 X129.555 Y65.878 E6.6888
G1 X129.897 Y65.652 E6.7104
G1 X130.568 Y65.288 E6.7507
G1 X131.026 Y65.098 E6.7769
G1 X131.820 Y64.863 E6.8207
G1 X132.383 Y64.768 E6.8508
G1 X133.258 Y64.727 E6.8970
G1 X133.857 Y64.776 E6.9288
G1 X134.716 Y64.957 E6.9752
G1 X135.257 Y65.141 E7.0053
G1 X136.034 Y65.516 E7.0509
G1 X136.458 Y65.780 E7.0772
G1 X137.099 Y66.278 E7.1201
G1 X137.394 Y66.551 E7.1413
G1 X137.913 Y67.120 E7.1820
G1 X138.112 Y67.370 E7.1989
G1 X138.539 Y67.989 E7.2386
G1 X138.669 Y68.202 E7.2518
G1 X139.022 Y68.850 E7.2907
G1 X139.111 Y69.032 E7.3014
G1 X139.444 Y69.794 E7.3453
G1 X139.528 Y70.015 E7.3578
G1 X140.015 Y71.527 E7.4417
G1 X140.074 Y71.747 E7.4537
G1 X140.459 Y73.509 E7.5489
G1 X140.484 Y73.639 E7.5560
G1 X140.649 Y74.672 E7.6112
G1 X140.663 Y74.776 E7.6167
G1 X140.890 Y76.753 E7.7218
G1 X140.900 Y76.869 E7.7279
G1 X141.044 Y79.083 E7.8451
G1 X141.048 Y79.182 E7.8503
G1 X141.101 Y81.494 E7.9725
G1 X141.101 Y81.580 E7.9770
G1 X141.070 Y83.947 E8.1020
G1 X141.067 Y84.023 E8.1060
G1 X140.961 Y86.351 E8.2291
G1 X140.956 Y86.423 E8.2329
G1 X140.780 Y88.730 E8.3551
G1 X140.773 Y88.801 E8.3588
G1 X140.531 Y91.068 E8.4792
G1 X140.522 Y91.139 E8.4829
G1 X140.227 Y93.286 E8.5974
G1 X140.216 Y93.358 E8.6013
G1 X139.871 Y95.393 E8.7102
G1 X139.857 Y95.469 E8.7143
G1 X139.475 Y97.343 E8.8153
G1 X139.458 Y97.422 E8.8196
G1 X139.044 Y99.154 E8.9136
G1 X139.022 Y99.237 E8.9182
G1 X138.566 Y100.876 E9.0079
G1 X138.539 Y100.966 E9.0129
G1 X138.073 Y102.416 E9.0934
G1 X138.041 Y102.509 E9.0985
G1 X137.560 Y103.816 E9.1721
G1 X137.521 Y103.912 E9.1776
G1 X137.032 Y105.079 E9.2444
G1 X136.989 Y105.177 E9.2500
G1 X136.508 Y106.192 E9.3093
G1 X136.458 Y106.291 E9.3152
G1 X135.976 Y107.196 E9.3694
G1 X135.919 Y107.297 E9.3755
G1 X135.422 Y108.130 E9.4266
G1 X135.332 Y108.270 E9.4355
G1 X134.483 Y109.486 E9.5138
G1 X134.368 Y109.638 E9.5238
G1 X133.875 Y110.235 E9.5647
G1 X133.734 Y110.392 E9.5759
G1 X133.705 Y110.421 E9.5781
G1 X133.705 Y111.082 E9.6130
G1 X130.940 Y113.847 E9.8194
G1 X130.405 Y113.847 E9.8477
G1 X130.405 Y117.167 E10.0230
G1 X130.940 Y117.167 E10.0513
G1 X133.705 Y119.932 E10.2577
G1 X133.705 Y122.633 E10.4003
G1 X133.747 Y122.914 E10.4153
G1 X133.773 Y123.322 E10.4369
G1 X133.758 Y123.969 E10.4711
G1 X133.699 Y124.441 E10.4962
G1 X133.501 Y125.307 E10.5431
G1 X133.334 Y125.791 E10.5702
G1 X133.033 Y126.428 E10.6074
G1 X132.773 Y126.854 E10.6337
G1 X132.197 Y127.608 E10.6838
G1 X131.812 Y128.005 E10.7130
G1 X131.072 Y128.608 E10.7634
G1 X130.744 Y128.833 E10.7844
G1 X129.971 Y129.272 E10.8314
G1 X129.719 Y129.395 E10.8462
G1 X128.918 Y129.732 E10.8921
G1 X128.724 Y129.803 E10.9030
G1 X128.076 Y130.011 E10.9389
G1 X124.200 Y131.480 E11.1578
G1 X124.107 Y131.513 E11.1630
G1 X121.049 Y132.527 E11.3331
G1 X120.954 Y132.557 E11.3384
G1 X119.205 Y133.056 E11.4344
G1 X119.130 Y133.076 E11.4385
G1 X117.293 Y133.536 E11.5385
G1 X117.215 Y133.554 E11.5427
G1 X115.295 Y133.966 E11.6464
G1 X115.217 Y133.981 E11.6506
G1 X113.229 Y134.338 E11.7573
G1 X113.152 Y134.350 E11.7614
G1 X111.090 Y134.650 E11.8714
G1 X111.017 Y134.659 E11.8753
G1 X108.946 Y134.894 E11.9853
G1 X108.875 Y134.901 E11.9891
G1 X106.747 Y135.077 E12.1019
G1 X106.679 Y135.082 E12.1055
G1 X104.517 Y135.198 E12.2198
G1 X104.452 Y135.201 E12.2232
G1 X102.251 Y135.259 E12.3395
G1 X102.189 Y135.260 E12.3428
G1 X97.767 Y135.259 E12.5763
G1 X97.704 Y135.258 E12.5796
G1 X95.535 Y135.200 E12.6942
G1 X95.471 Y135.198 E12.6976
G1 X93.313 Y135.081 E12.8117
G1 X93.245 Y135.077 E12.8153
G1 X91.120 Y134.900 E12.9278
G1 X91.049 Y134.893 E12.9316
G1 X88.966 Y134.657 E13.0423
G1 X88.892 Y134.648 E13.0463
G1 X86.849 Y134.350 E13.1553
G1 X86.772 Y134.338 E13.1594
G1 X84.783 Y133.981 E13.2661
G1 X84.705 Y133.966 E13.2703
G1 X82.785 Y133.554 E13.3740
G1 X82.707 Y133.536 E13.3782
G1 X80.870 Y133.076 E13.4782
G1 X80.795 Y133.056 E13.4823
G1 X79.060 Y132.561 E13.5776
G1 X78.992 Y132.540 E13.5813
G1 X77.370 Y132.024 E13.6712
G1 X77.293 Y131.998 E13.6755
G1 X74.553 Y131.020 E13.8291
G1 X74.500 Y131.000 E13.8321
G1 X71.915 Y130.008 E13.9783
G1 X71.276 Y129.803 E14.0137
G1 X71.082 Y129.732 E14.0247
G1 X70.280 Y129.395 E14.0706
G1 X70.029 Y129.272 E14.0853
G1 X69.256 Y128.833 E14.1323
G1 X68.928 Y128.608 E14.1533
G1 X68.188 Y128.005 E14.2037
G1 X67.803 Y127.608 E14.2329
G1 X67.175 Y126.786 E14.2875
G1 X66.847 Y126.201 E14.3230
G1 X66.464 Y125.210 E14.3791
G1 X66.313 Y124.563 E14.4141
G1 X66.224 Y123.552 E14.4677
G1 X66.241 Y122.989 E14.4974
G1 X66.295 Y122.632 E14.5165
G1 X66.295 Y120.757 E14.6155
G1 X69.060 Y117.992 E14.8220
G1 X69.595 Y117.992 E14.8502
G1 X69.595 Y113.847 E15.0691
G1 X69.060 Y113.847 E15.0974
G1 X66.295 Y111.082 E15.3038
G1 X66.295 Y110.422 E15.3387
G1 X66.133 Y110.245 E15.3514
G1 X66.002 Y110.091 E15.3621
G1 X65.181 Y109.031 E15.4329
G1 X65.081 Y108.890 E15.4420
G1 X64.610 Y108.181 E15.4870
G1 X64.549 Y108.084 E15.4930
G1 X64.079 Y107.294 E15.5415
G1 X64.023 Y107.195 E15.5475
G1 X63.542 Y106.291 E15.6016
G1 X63.492 Y106.191 E15.6075
G1 X63.005 Y105.163 E15.6676
G1 X62.961 Y105.065 E15.6733
G1 X62.478 Y103.911 E15.7393
G1 X62.440 Y103.815 E15.7448
G1 X61.959 Y102.509 E15.8183
G1 X61.927 Y102.416 E15.8235
G1 X61.461 Y100.966 E15.9039
G1 X61.434 Y100.876 E15.9089
G1 X60.978 Y99.238 E15.9986
G1 X60.957 Y99.156 E16.0031
G1 X60.550 Y97.459 E16.0952
G1 X60.533 Y97.380 E16.0995
G1 X60.144 Y95.473 E16.2023
G1 X60.130 Y95.397 E16.2064
G1 X59.785 Y93.364 E16.3152
G1 X59.774 Y93.291 E16.3191
G1 X59.478 Y91.139 E16.4338
G1 X59.469 Y91.068 E16.4376
G1 X59.228 Y88.816 E16.5572
G1 X59.222 Y88.746 E16.5609
G1 X59.044 Y86.424 E16.6839
G1 X59.039 Y86.351 E16.6877
G1 X58.933 Y84.023 E16.8108
G1 X58.930 Y83.946 E16.8149
G1 X58.899 Y81.580 E16.9398
G1 X58.899 Y81.494 E16.9444
G1 X58.952 Y79.182 E17.0665
G1 X58.956 Y79.083 E17.0717
G1 X59.100 Y76.869 E17.1889
G1 X59.110 Y76.752 E17.1950
G1 X59.343 Y74.729 E17.3026
G1 X59.364 Y74.584 E17.3103
G1 X59.693 Y72.736 E17.4095
G1 X59.722 Y72.599 E17.4169
G1 X59.935 Y71.715 E17.4648
G1 X59.964 Y71.605 E17.4709
G1 X60.201 Y70.794 E17.5155
G1 X60.243 Y70.665 E17.5227
G1 X60.513 Y69.905 E17.5652
G1 X60.574 Y69.752 E17.5740
G1 X60.884 Y69.041 E17.6149
G1 X60.974 Y68.859 E17.6256
G1 X61.335 Y68.195 E17.6655
G1 X61.467 Y67.979 E17.6789
G1 X61.895 Y67.361 E17.7186
G1 X62.094 Y67.111 E17.7355
G1 X62.613 Y66.544 E17.7761
G1 X62.909 Y66.271 E17.7973
G92 E0.0000
G1 E-0.7000 F1500
G1 X63.219 Y66.638 F4800
G1 E0.0000 F1500
G92 E0.0000
G1 X63.821 Y66.171 E0.0402 F1800
G1 X64.198 Y65.937 E0.0637
G1 X64.918 Y65.589 E0.1059
G1 X65.404 Y65.423 E0.1330
G1 X66.211 Y65.252 E0.1766
G1 X66.751 Y65.208 E0.2052
G1 X67.566 Y65.246 E0.2482
G1 X68.071 Y65.331 E0.2753
G1 X68.812 Y65.551 E0.3161
G1 X69.222 Y65.720 E0.3395
G1 X69.852 Y66.062 E0.3774
G1 X70.161 Y66.266 E0.3969
G1 X70.737 Y66.724 E0.4358
G1 X71.056 Y67.037 E0.4594
G1 X71.800 Y67.940 E0.5211
G1 X72.065 Y68.351 E0.5470
G1 X72.597 Y69.429 E0.6104
G1 X72.748 Y69.836 E0.6334
G1 X73.041 Y70.970 E0.6952
G1 X73.104 Y71.357 E0.7159
G1 X73.182 Y72.492 E0.7760
G1 X73.179 Y72.823 E0.7935
G1 X73.083 Y73.911 E0.8512
G1 X73.047 Y74.157 E0.8643
G1 X72.831 Y75.194 E0.9202
G1 X72.784 Y75.380 E0.9303
G1 X71.958 Y78.097 E1.0803
G1 X71.740 Y78.894 E1.1240
G1 X71.557 Y79.722 E1.1687
G1 X71.419 Y80.585 E1.2149
G1 X71.331 Y81.479 E1.2623
G1 X71.294 Y82.446 E1.3134
G1 X71.312 Y83.462 E1.3670
