; G-Code generated by Simplify3D(R) Version 4.1.1
; Apr 28, 2021 at 7:24:42 PM
; Settings Summary
;   processName,Trideo BOX
;   applyToModels,smallstumpholder left
;   profileName,Trideo BOX
;   profileVersion,2021-04-15 09:48:16
;   baseProfile,Default
;   printMaterial,PLA
;   printQuality,Fast
;   printExtruders,
;   extruderName,Primary Extruder
;   extruderToolheadNumber,0
;   extruderDiameter,0.4
;   extruderAutoWidth,1
;   extruderWidth,0.48
;   extrusionMultiplier,0.98
;   extruderUseRetract,1
;   extruderRetractionDistance,0.7
;   extruderExtraRestartDistance,0
;   extruderRetractionZLift,0
;   extruderRetractionSpeed,1500
;   extruderUseCoasting,0
;   extruderCoastingDistance,0.2
;   extruderUseWipe,0
;   extruderWipeDistance,5
;   primaryExtruder,0
;   layerHeight,0.3
;   topSolidLayers,3
;   bottomSolidLayers,3
;   perimeterOutlines,2
;   printPerimetersInsideOut,1
;   startPointOption,2
;   startPointOriginX,0
;   startPointOriginY,0
;   sequentialIslands,0
;   spiralVaseMode,0
;   firstLayerHeightPercentage,90
;   firstLayerWidthPercentage,100
;   firstLayerUnderspeed,0.5
;   useRaft,0
;   raftExtruder,0
;   raftTopLayers,3
;   raftBaseLayers,2
;   raftOffset,3
;   raftSeparationDistance,0.14
;   raftTopInfill,100
;   aboveRaftSpeedMultiplier,0.3
;   useSkirt,1
;   skirtExtruder,0
;   skirtLayers,1
;   skirtOutlines,2
;   skirtOffset,4
;   usePrimePillar,0
;   primePillarExtruder,999
;   primePillarWidth,12
;   primePillarLocation,7
;   primePillarSpeedMultiplier,1
;   useOozeShield,0
;   oozeShieldExtruder,999
;   oozeShieldOffset,2
;   oozeShieldOutlines,1
;   oozeShieldSidewallShape,1
;   oozeShieldSidewallAngle,30
;   oozeShieldSpeedMultiplier,1
;   infillExtruder,0
;   internalInfillPattern,Rectilinear
;   externalInfillPattern,Rectilinear
;   infillPercentage,15
;   outlineOverlapPercentage,15
;   infillExtrusionWidthPercentage,100
;   minInfillLength,5
;   infillLayerInterval,1
;   internalInfillAngles,45,-45
;   overlapInternalInfillAngles,0
;   externalInfillAngles,45,-45
;   generateSupport,1
;   supportExtruder,0
;   supportInfillPercentage,25
;   supportExtraInflation,0
;   supportBaseLayers,0
;   denseSupportExtruder,0
;   denseSupportLayers,0
;   denseSupportInfillPercentage,70
;   supportLayerInterval,1
;   supportHorizontalPartOffset,0.3
;   supportUpperSeparationLayers,1
;   supportLowerSeparationLayers,1
;   supportType,0
;   supportGridSpacing,4
;   maxOverhangAngle,45
;   supportAngles,0
;   temperatureName,Primary Extruder,Heated bed
;   temperatureNumber,0,0
;   temperatureSetpointCount,1,1
;   temperatureSetpointLayers,1,1
;   temperatureSetpointTemperatures,190,60
;   temperatureStabilizeAtStartup,1,1
;   temperatureHeatedBed,0,1
;   fanLayers,1,2
;   fanSpeeds,0,100
;   blipFanToFullPower,0
;   adjustSpeedForCooling,1
;   minSpeedLayerTime,15
;   minCoolingSpeedSlowdown,20
;   increaseFanForCooling,0
;   minFanLayerTime,45
;   maxCoolingFanSpeed,100
;   increaseFanForBridging,0
;   bridgingFanSpeed,100
;   use5D,1
;   relativeEdistances,0
;   allowEaxisZeroing,1
;   independentExtruderAxes,0
;   includeM10123,0
;   stickySupport,1
;   applyToolheadOffsets,0
;   gcodeXoffset,0
;   gcodeYoffset,0
;   gcodeZoffset,0
;   overrideMachineDefinition,1
;   machineTypeOverride,0
;   strokeXoverride,200
;   strokeYoverride,200
;   strokeZoverride,200
;   originOffsetXoverride,0
;   originOffsetYoverride,0
;   originOffsetZoverride,0
;   homeXdirOverride,-1
;   homeYdirOverride,-1
;   homeZdirOverride,-1
;   flipXoverride,1
;   flipYoverride,-1
;   flipZoverride,1
;   toolheadOffsets,0,0|0,0|0,0|0,0|0,0|0,0
;   overrideFirmwareConfiguration,0
;   firmwareTypeOverride,RepRap (Marlin/Repetier/Sprinter)
;   GPXconfigOverride,r2
;   baudRateOverride,115200
;   overridePrinterModels,0
;   printerModelsOverride
;   startingGcode,G28 X0 Y0; home XY,G1 X20 Y20,G28 Z0,G1 Z5 F5000; Lift NZ
;   layerChangeGcode,
;   retractionGcode,
;   toolChangeGcode,
;   endingGcode,M104 S0 ; turn off extruder,G28 X0 ; home x,M140 S0 ; turn off bed,M84 ; disable motors,M107 ;
;   exportFileFormat,gcode
;   celebration,0
;   celebrationSong,Looney Toons
;   postProcessing,
;   defaultSpeed,3600
;   outlineUnderspeed,0.5
;   solidInfillUnderspeed,0.8
;   supportUnderspeed,0.8
;   rapidXYspeed,4800
;   rapidZspeed,1002
;   minBridgingArea,50
;   bridgingExtraInflation,0
;   bridgingExtrusionMultiplier,1
;   bridgingSpeedMultiplier,1
;   useFixedBridgingAngle,0
;   fixedBridgingAngle,0
;   applyBridgingToPerimeters,0
;   filamentDiameters,1.75|1.75|1.75|1.75|1.75|1.75
;   filamentPricesPerKg,46|46|46|46|46|46
;   filamentDensities,1.25|1.25|1.25|1.25|1.25|1.25
;   useMinPrintHeight,0
;   minPrintHeight,0
;   useMaxPrintHeight,0
;   maxPrintHeight,0
;   useDiaphragm,0
;   diaphragmLayerInterval,20
;   robustSlicing,1
;   mergeAllIntoSolid,0
;   onlyRetractWhenCrossingOutline,1
;   retractBetweenLayers,1
;   useRetractionMinTravel,0
;   retractionMinTravel,3
;   retractWhileWiping,0
;   onlyWipeOutlines,1
;   avoidCrossingOutline,0
;   maxMovementDetourFactor,3
;   toolChangeRetractionDistance,12
;   toolChangeExtraRestartDistance,-0.5
;   toolChangeRetractionSpeed,600
;   externalThinWallType,0
;   internalThinWallType,2
;   thinWallAllowedOverlapPercentage,10
;   singleExtrusionMinLength,1
;   singleExtrusionMinPrintingWidthPercentage,50
;   singleExtrusionMaxPrintingWidthPercentage,200
;   singleExtrusionEndpointExtension,0.2
;   horizontalSizeCompensation,0
G90
M82
M106 S0
M140 S60
M190 S60
M104 S190 T0
M109 S190 T0
G28 X0 Y0; home XY
G1 X20 Y20
G28 Z0
G1 Z5 F5000; Lift NZ
; process Trideo BOX
; layer 1, Z = 0.270
T0
G92 E0.0000
G1 E-0.7000 F1500
; feature skirt
; tool H0.270 W0.480
G1 Z0.270 F1002
G1 X69.098 Y71.748 F4800
G1 E0.0000 F1500
G92 E0.0000
G1 X69.684 Y71.293 E0.0392 F1800
G1 X70.104 Y71.033 E0.0653
G1 X70.820 Y70.686 E0.1073
G1 X71.361 Y70.501 E0.1375
G1 X72.174 Y70.329 E0.1813
G1 X72.775 Y70.281 E0.2132
G1 X73.597 Y70.319 E0.2566
G1 X74.159 Y70.414 E0.2867
G1 X74.900 Y70.633 E0.3276
G1 X75.357 Y70.822 E0.3537
G1 X75.978 Y71.159 E0.3910
G1 X76.321 Y71.386 E0.4127
G1 X76.887 Y71.836 E0.4509
G1 X77.242 Y72.184 E0.4771
G1 X77.938 Y73.030 E0.5350
G1 X78.234 Y73.488 E0.5638
G1 X78.729 Y74.492 E0.6229
G1 X78.898 Y74.945 E0.6484
G1 X79.169 Y75.991 E0.7054
G1 X79.238 Y76.422 E0.7285
G1 X79.309 Y77.457 E0.7833
G1 X79.306 Y77.825 E0.8027
G1 X79.220 Y78.801 E0.8545
G1 X79.180 Y79.075 E0.8691
G1 X78.992 Y79.978 E0.9178
G1 X78.944 Y80.168 E0.9281
G1 X78.082 Y83.078 E1.0884
G1 X77.958 Y83.642 E1.1189
G1 X77.856 Y84.276 E1.1528
G1 X77.792 Y84.930 E1.1875
G1 X77.764 Y85.650 E1.2255
G1 X77.778 Y86.414 E1.2659
G1 X77.834 Y87.225 E1.3088
G1 X77.928 Y88.031 E1.3517
G1 X78.246 Y89.841 E1.4487
G1 X78.670 Y91.587 E1.5436
G1 X79.155 Y93.212 E1.6331
G1 X79.652 Y94.624 E1.7121
G1 X80.113 Y95.741 E1.7760
G1 X80.498 Y96.519 E1.8218
G1 X80.717 Y96.869 E1.8436
G1 X81.295 Y97.529 E1.8899
G1 X81.651 Y97.883 E1.9165
G1 X82.088 Y98.278 E1.9476
G1 X82.566 Y98.667 E1.9801
G1 X83.098 Y99.053 E2.0148
G1 X83.690 Y99.433 E2.0519
G1 X84.348 Y99.804 E2.0918
G1 X85.083 Y100.165 E2.1350
G1 X85.896 Y100.512 E2.1817
G1 X86.790 Y100.842 E2.2320
G1 X87.720 Y101.141 E2.2836
G1 X89.853 Y101.705 E2.4001
G1 X91.996 Y102.159 E2.5158
G1 X99.061 Y103.408 E2.8946
G1 X99.518 Y103.457 E2.9190
G1 X100.000 Y103.474 E2.9444
G1 X100.481 Y103.457 E2.9698
G1 X100.939 Y103.408 E2.9941
G1 X108.004 Y102.159 E3.3730
G1 X110.147 Y101.705 E3.4887
G1 X112.280 Y101.141 E3.6051
G1 X113.210 Y100.842 E3.6567
G1 X114.104 Y100.512 E3.7070
G1 X114.918 Y100.165 E3.7538
G1 X115.652 Y99.804 E3.7969
G1 X116.311 Y99.433 E3.8369
G1 X116.902 Y99.053 E3.8740
G1 X117.434 Y98.667 E3.9087
G1 X117.912 Y98.278 E3.9412
G1 X118.310 Y97.919 E3.9695
G1 X119.125 Y97.069 E4.0317
G1 X119.303 Y96.857 E4.0463
G1 X119.322 Y96.828 E4.0481
G1 X119.672 Y96.196 E4.0863
G1 X120.110 Y95.225 E4.1426
G1 X120.595 Y93.949 E4.2147
G1 X121.102 Y92.391 E4.3011
G1 X121.323 Y91.614 E4.3438
G1 X121.754 Y89.841 E4.4402
G1 X122.072 Y88.031 E4.5372
G1 X122.165 Y87.228 E4.5799
G1 X122.222 Y86.419 E4.6227
G1 X122.236 Y85.657 E4.6630
G1 X122.208 Y84.929 E4.7014
G1 X122.144 Y84.276 E4.7361
G1 X122.042 Y83.642 E4.7699
G1 X121.918 Y83.078 E4.8005
G1 X121.062 Y80.191 E4.9595
G1 X121.015 Y80.006 E4.9696
G1 X120.827 Y79.107 E5.0180
G1 X120.786 Y78.836 E5.0325
G1 X120.695 Y77.836 E5.0855
G1 X120.690 Y77.460 E5.1054
G1 X120.761 Y76.423 E5.1603
G1 X120.831 Y75.993 E5.1833
G1 X121.100 Y74.950 E5.2402
G1 X121.268 Y74.498 E5.2656
G1 X121.763 Y73.492 E5.3248
G1 X122.063 Y73.028 E5.3540
G1 X122.770 Y72.173 E5.4126
G1 X123.121 Y71.829 E5.4386
G1 X123.677 Y71.387 E5.4760
G1 X124.018 Y71.161 E5.4977
G1 X124.640 Y70.824 E5.5350
G1 X125.097 Y70.634 E5.5611
G1 X125.841 Y70.414 E5.6021
G1 X126.404 Y70.319 E5.6323
G1 X127.226 Y70.281 E5.6757
G1 X127.824 Y70.329 E5.7074
G1 X128.631 Y70.499 E5.7509
G1 X129.171 Y70.683 E5.7811
G1 X129.896 Y71.033 E5.8236
G1 X130.322 Y71.297 E5.8500
G1 X130.911 Y71.756 E5.8894
G1 X131.206 Y72.029 E5.9107
G1 X131.675 Y72.544 E5.9475
G1 X131.874 Y72.794 E5.9643
G1 X132.252 Y73.343 E5.9995
G1 X132.383 Y73.555 E6.0127
G1 X132.689 Y74.118 E6.0465
G1 X132.778 Y74.300 E6.0572
G1 X133.068 Y74.964 E6.0955
G1 X133.152 Y75.185 E6.1080
G1 X133.562 Y76.459 E6.1786
G1 X133.621 Y76.679 E6.1907
G1 X133.944 Y78.152 E6.2703
G1 X133.968 Y78.284 E6.2774
G1 X134.108 Y79.156 E6.3240
G1 X134.122 Y79.260 E6.3296
G1 X134.308 Y80.887 E6.4161
G1 X134.319 Y81.003 E6.4222
G1 X134.438 Y82.838 E6.5193
G1 X134.442 Y82.937 E6.5245
G1 X134.486 Y84.849 E6.6255
G1 X134.487 Y84.935 E6.6300
G1 X134.460 Y86.889 E6.7332
G1 X134.458 Y86.965 E6.7373
G1 X134.370 Y88.879 E6.8384
G1 X134.366 Y88.951 E6.8422
G1 X134.221 Y90.848 E6.9427
G1 X134.214 Y90.919 E6.9464
G1 X134.014 Y92.789 E7.0458
G1 X134.006 Y92.860 E7.0496
G1 X133.762 Y94.629 E7.1438
G1 X133.751 Y94.702 E7.1477
G1 X133.466 Y96.381 E7.2376
G1 X133.452 Y96.456 E7.2417
G1 X133.138 Y98.001 E7.3249
G1 X133.121 Y98.079 E7.3292
G1 X132.779 Y99.508 E7.4067
G1 X132.758 Y99.591 E7.4113
G1 X132.379 Y100.955 E7.4860
G1 X132.352 Y101.045 E7.4910
G1 X131.964 Y102.249 E7.5577
G1 X131.932 Y102.342 E7.5629
G1 X131.532 Y103.429 E7.6241
G1 X131.494 Y103.526 E7.6296
G1 X131.075 Y104.523 E7.6867
G1 X131.009 Y104.668 E7.6952
G1 X130.229 Y106.224 E7.7871
G1 X130.145 Y106.377 E7.7963
G1 X129.708 Y107.109 E7.8413
G1 X129.618 Y107.249 E7.8501
G1 X128.907 Y108.268 E7.9157
G1 X128.791 Y108.420 E7.9258
G1 X128.435 Y108.851 E7.9553
G1 X128.435 Y109.423 E7.9855
G1 X125.735 Y112.123 E8.1871
G1 X125.735 Y113.253 E8.2468
G1 X128.435 Y115.953 E8.4484
G1 X128.435 Y118.584 E8.5873
G1 X128.499 Y119.256 E8.6230
G1 X128.450 Y120.010 E8.6629
G1 X128.236 Y120.943 E8.7134
G1 X128.069 Y121.426 E8.7404
G1 X127.783 Y122.030 E8.7757
G1 X127.524 Y122.456 E8.8021
G1 X126.994 Y123.149 E8.8481
G1 X126.610 Y123.546 E8.8773
G1 X125.937 Y124.095 E8.9231
G1 X125.609 Y124.319 E8.9441
G1 X124.923 Y124.709 E8.9858
G1 X124.672 Y124.832 E9.0005
G1 X123.975 Y125.124 E9.0404
G1 X123.781 Y125.196 E9.0514
G1 X123.254 Y125.365 E9.0806
G1 X120.096 Y126.562 E9.2589
G1 X120.003 Y126.595 E9.2641
G1 X117.484 Y127.431 E9.4043
G1 X117.388 Y127.460 E9.4095
G1 X115.942 Y127.873 E9.4890
G1 X115.867 Y127.893 E9.4931
G1 X114.350 Y128.273 E9.5756
G1 X114.272 Y128.291 E9.5799
G1 X112.687 Y128.631 E9.6655
G1 X112.609 Y128.646 E9.6697
G1 X110.968 Y128.940 E9.7577
G1 X110.891 Y128.953 E9.7618
G1 X109.187 Y129.201 E9.8527
G1 X109.113 Y129.210 E9.8567
G1 X107.410 Y129.403 E9.9472
G1 X107.339 Y129.410 E9.9510
G1 X105.585 Y129.555 E10.0439
G1 X105.517 Y129.560 E10.0475
G1 X103.736 Y129.656 E10.1417
G1 X103.671 Y129.658 E10.1451
G1 X101.858 Y129.706 E10.2409
G1 X101.795 Y129.707 E10.2442
G1 X98.160 Y129.706 E10.4361
G1 X98.098 Y129.706 E10.4394
G1 X96.316 Y129.658 E10.5335
G1 X96.252 Y129.655 E10.5369
G1 X94.475 Y129.559 E10.6309
G1 X94.407 Y129.555 E10.6345
G1 X92.657 Y129.410 E10.7272
G1 X92.586 Y129.403 E10.7310
G1 X90.869 Y129.208 E10.8222
G1 X90.795 Y129.198 E10.8262
G1 X89.110 Y128.953 E10.9161
G1 X89.033 Y128.941 E10.9202
G1 X87.391 Y128.646 E11.0083
G1 X87.313 Y128.631 E11.0125
G1 X85.728 Y128.291 E11.0981
G1 X85.650 Y128.273 E11.1023
G1 X84.133 Y127.893 E11.1849
G1 X84.058 Y127.873 E11.1890
G1 X82.625 Y127.464 E11.2676
G1 X82.557 Y127.443 E11.2714
G1 X81.217 Y127.017 E11.3457
G1 X81.140 Y126.991 E11.3500
G1 X78.886 Y126.186 E11.4763
G1 X78.834 Y126.167 E11.4793
G1 X76.737 Y125.362 E11.5979
G1 X76.219 Y125.196 E11.6266
G1 X76.025 Y125.124 E11.6375
G1 X75.328 Y124.832 E11.6774
G1 X75.077 Y124.709 E11.6922
G1 X74.391 Y124.319 E11.7339
G1 X74.063 Y124.095 E11.7548
G1 X73.390 Y123.546 E11.8007
G1 X73.006 Y123.149 E11.8299
G1 X72.424 Y122.388 E11.8804
G1 X72.096 Y121.803 E11.9158
G1 X71.739 Y120.879 E11.9682
G1 X71.589 Y120.233 E12.0032
G1 X71.506 Y119.295 E12.0529
G1 X71.523 Y118.732 E12.0827
G1 X71.565 Y118.453 E12.0976
G1 X71.565 Y116.628 E12.1939
G1 X74.265 Y113.928 E12.3956
G1 X74.265 Y112.123 E12.4909
G1 X71.565 Y109.423 E12.6925
G1 X71.565 Y108.854 E12.7225
G1 X71.516 Y108.796 E12.7265
G1 X70.824 Y107.901 E12.7863
G1 X70.723 Y107.761 E12.7954
G1 X70.307 Y107.134 E12.8351
G1 X70.216 Y106.985 E12.8443
G1 X69.445 Y105.612 E12.9275
G1 X69.370 Y105.466 E12.9362
G1 X68.951 Y104.583 E12.9878
G1 X68.908 Y104.484 E12.9935
G1 X68.506 Y103.524 E13.0484
G1 X68.468 Y103.428 E13.0539
G1 X68.068 Y102.342 E13.1150
G1 X68.036 Y102.249 E13.1202
G1 X67.648 Y101.045 E13.1870
G1 X67.621 Y100.955 E13.1920
G1 X67.242 Y99.592 E13.2666
G1 X67.221 Y99.510 E13.2711
G1 X66.887 Y98.117 E13.3468
G1 X66.870 Y98.038 E13.3510
G1 X66.548 Y96.461 E13.4360
G1 X66.534 Y96.385 E13.4401
G1 X66.250 Y94.707 E13.5299
G1 X66.239 Y94.635 E13.5338
G1 X65.994 Y92.861 E13.6284
G1 X65.986 Y92.790 E13.6322
G1 X65.787 Y90.935 E13.7307
G1 X65.781 Y90.864 E13.7344
G1 X65.634 Y88.951 E13.8357
G1 X65.630 Y88.879 E13.8395
G1 X65.542 Y86.965 E13.9407
G1 X65.540 Y86.889 E13.9447
G1 X65.513 Y84.935 E14.0479
G1 X65.514 Y84.849 E14.0525
G1 X65.557 Y82.937 E14.1534
G1 X65.562 Y82.838 E14.1587
G1 X65.681 Y81.002 E14.2558
G1 X65.692 Y80.887 E14.2619
G1 X65.884 Y79.213 E14.3509
G1 X65.905 Y79.067 E14.3587
G1 X66.179 Y77.530 E14.4411
G1 X66.208 Y77.392 E14.4485
G1 X66.387 Y76.647 E14.4890
G1 X66.417 Y76.537 E14.4950
G1 X66.628 Y75.814 E14.5348
G1 X66.697 Y75.611 E14.5461
G1 X67.163 Y74.428 E14.6133
G1 X67.286 Y74.165 E14.6286
G1 X67.622 Y73.548 E14.6657
G1 X67.755 Y73.332 E14.6791
G1 X68.134 Y72.783 E14.7143
G1 X68.333 Y72.533 E14.7312
G1 X68.802 Y72.021 E14.7679
G1 X69.098 Y71.748 E14.7891
G92 E0.0000
G1 E-0.7000 F1500
G1 X69.408 Y72.115 F4800
G1 E0.0000 F1500
G92 E0.0000
G1 X69.958 Y71.688 E0.0368 F1800
G1 X70.336 Y71.454 E0.0602
G1 X71.003 Y71.131 E0.0994
G1 X71.489 Y70.965 E0.1265
G1 X72.243 Y70.805 E0.1672
G1 X72.783 Y70.761 E0.1958
G1 X73.546 Y70.797 E0.2361
G1 X74.050 Y70.882 E0.2631
G1 X74.740 Y71.086 E0.3011
G1 X75.150 Y71.256 E0.3246
G1 X75.731 Y71.571 E0.3594
G1 X76.039 Y71.775 E0.3789
G1 X76.569 Y72.196 E0.4147
G1 X76.888 Y72.509 E0.4383
G1 X77.550 Y73.313 E0.4933
G1 X77.816 Y73.725 E0.5192
G1 X78.288 Y74.682 E0.5755
G1 X78.439 Y75.089 E0.5985
G1 X78.698 Y76.090 E0.6530
G1 X78.761 Y76.477 E0.6737
G1 X78.829 Y77.471 E0.7263
G1 X78.826 Y77.802 E0.7438
G1 X78.743 Y78.745 E0.7938
G1 X78.707 Y78.991 E0.8069
G1 X78.524 Y79.871 E0.8544
G1 X78.481 Y80.041 E0.8637
G1 X77.617 Y82.958 E1.0243
G1 X77.486 Y83.553 E1.0565
G1 X77.380 Y84.215 E1.0919
G1 X77.313 Y84.897 E1.1281
G1 X77.284 Y85.645 E1.1676
G1 X77.299 Y86.435 E1.2093
G1 X77.356 Y87.269 E1.2535
G1 X77.453 Y88.100 E1.2977
G1 X77.776 Y89.939 E1.3963
G1 X78.206 Y91.712 E1.4926
G1 X78.698 Y93.360 E1.5834
G1 X79.203 Y94.795 E1.6637
G1 X79.675 Y95.939 E1.7291
G1 X80.078 Y96.753 E1.7770
G1 X80.331 Y97.156 E1.8022
G1 X80.945 Y97.857 E1.8514
G1 X81.321 Y98.232 E1.8794
G1 X81.776 Y98.643 E1.9117
G1 X82.273 Y99.047 E1.9456
G1 X82.827 Y99.450 E1.9818
G1 X83.442 Y99.844 E2.0203
G1 X84.125 Y100.229 E2.0617
G1 X84.882 Y100.601 E2.1063
G1 X85.719 Y100.958 E2.1543
G1 X86.633 Y101.296 E2.2058
G1 X87.585 Y101.601 E2.2586
G1 X89.742 Y102.172 E2.3764
