; G-Code generated by Simplify3D(R) Version 4.1.1
; Apr 27, 2021 at 8:46:07 AM
; Settings Summary
;   processName,Trideo BOX
;   applyToModels,x1
;   profileName,Trideo BOX
;   profileVersion,2021-04-15 09:48:16
;   baseProfile,Default
;   printMaterial,PLA
;   printQuality,Fast
;   printExtruders,
;   extruderName,Primary Extruder
;   extruderToolheadNumber,0
;   extruderDiameter,0.4
;   extruderAutoWidth,1
;   extruderWidth,0.48
;   extrusionMultiplier,0.98
;   extruderUseRetract,1
;   extruderRetractionDistance,0.7
;   extruderExtraRestartDistance,0
;   extruderRetractionZLift,0
;   extruderRetractionSpeed,1500
;   extruderUseCoasting,0
;   extruderCoastingDistance,0.2
;   extruderUseWipe,0
;   extruderWipeDistance,5
;   primaryExtruder,0
;   layerHeight,0.3
;   topSolidLayers,3
;   bottomSolidLayers,3
;   perimeterOutlines,2
;   printPerimetersInsideOut,1
;   startPointOption,2
;   startPointOriginX,0
;   startPointOriginY,0
;   sequentialIslands,0
;   spiralVaseMode,0
;   firstLayerHeightPercentage,90
;   firstLayerWidthPercentage,100
;   firstLayerUnderspeed,0.5
;   useRaft,0
;   raftExtruder,0
;   raftTopLayers,3
;   raftBaseLayers,2
;   raftOffset,3
;   raftSeparationDistance,0.14
;   raftTopInfill,100
;   aboveRaftSpeedMultiplier,0.3
;   useSkirt,1
;   skirtExtruder,0
;   skirtLayers,1
;   skirtOutlines,2
;   skirtOffset,4
;   usePrimePillar,0
;   primePillarExtruder,999
;   primePillarWidth,12
;   primePillarLocation,7
;   primePillarSpeedMultiplier,1
;   useOozeShield,0
;   oozeShieldExtruder,999
;   oozeShieldOffset,2
;   oozeShieldOutlines,1
;   oozeShieldSidewallShape,1
;   oozeShieldSidewallAngle,30
;   oozeShieldSpeedMultiplier,1
;   infillExtruder,0
;   internalInfillPattern,Rectilinear
;   externalInfillPattern,Rectilinear
;   infillPercentage,15
;   outlineOverlapPercentage,15
;   infillExtrusionWidthPercentage,100
;   minInfillLength,5
;   infillLayerInterval,1
;   internalInfillAngles,45,-45
;   overlapInternalInfillAngles,0
;   externalInfillAngles,45,-45
;   generateSupport,1
;   supportExtruder,0
;   supportInfillPercentage,25
;   supportExtraInflation,0
;   supportBaseLayers,0
;   denseSupportExtruder,0
;   denseSupportLayers,0
;   denseSupportInfillPercentage,70
;   supportLayerInterval,1
;   supportHorizontalPartOffset,0.3
;   supportUpperSeparationLayers,1
;   supportLowerSeparationLayers,1
;   supportType,0
;   supportGridSpacing,4
;   maxOverhangAngle,45
;   supportAngles,0
;   temperatureName,Primary Extruder,Heated bed
;   temperatureNumber,0,0
;   temperatureSetpointCount,1,1
;   temperatureSetpointLayers,1,1
;   temperatureSetpointTemperatures,190,60
;   temperatureStabilizeAtStartup,1,1
;   temperatureHeatedBed,0,1
;   fanLayers,1,2
;   fanSpeeds,0,100
;   blipFanToFullPower,0
;   adjustSpeedForCooling,1
;   minSpeedLayerTime,15
;   minCoolingSpeedSlowdown,20
;   increaseFanForCooling,0
;   minFanLayerTime,45
;   maxCoolingFanSpeed,100
;   increaseFanForBridging,0
;   bridgingFanSpeed,100
;   use5D,1
;   relativeEdistances,0
;   allowEaxisZeroing,1
;   independentExtruderAxes,0
;   includeM10123,0
;   stickySupport,1
;   applyToolheadOffsets,0
;   gcodeXoffset,0
;   gcodeYoffset,0
;   gcodeZoffset,0
;   overrideMachineDefinition,1
;   machineTypeOverride,0
;   strokeXoverride,200
;   strokeYoverride,200
;   strokeZoverride,200
;   originOffsetXoverride,0
;   originOffsetYoverride,0
;   originOffsetZoverride,0
;   homeXdirOverride,-1
;   homeYdirOverride,-1
;   homeZdirOverride,-1
;   flipXoverride,1
;   flipYoverride,-1
;   flipZoverride,1
;   toolheadOffsets,0,0|0,0|0,0|0,0|0,0|0,0
;   overrideFirmwareConfiguration,0
;   firmwareTypeOverride,RepRap (Marlin/Repetier/Sprinter)
;   GPXconfigOverride,r2
;   baudRateOverride,115200
;   overridePrinterModels,0
;   printerModelsOverride
;   startingGcode,G28 X0 Y0; home XY,G1 X20 Y20,G28 Z0,G1 Z5 F5000; Lift NZ
;   layerChangeGcode,
;   retractionGcode,
;   toolChangeGcode,
;   endingGcode,M104 S0 ; turn off extruder,G28 X0 ; home x,M140 S0 ; turn off bed,M84 ; disable motors,M107 ;
;   exportFileFormat,gcode
;   celebration,0
;   celebrationSong,Looney Toons
;   postProcessing,
;   defaultSpeed,3600
;   outlineUnderspeed,0.5
;   solidInfillUnderspeed,0.8
;   supportUnderspeed,0.8
;   rapidXYspeed,4800
;   rapidZspeed,1002
;   minBridgingArea,50
;   bridgingExtraInflation,0
;   bridgingExtrusionMultiplier,1
;   bridgingSpeedMultiplier,1
;   useFixedBridgingAngle,0
;   fixedBridgingAngle,0
;   applyBridgingToPerimeters,0
;   filamentDiameters,1.75|1.75|1.75|1.75|1.75|1.75
;   filamentPricesPerKg,46|46|46|46|46|46
;   filamentDensities,1.25|1.25|1.25|1.25|1.25|1.25
;   useMinPrintHeight,0
;   minPrintHeight,0
;   useMaxPrintHeight,0
;   maxPrintHeight,0
;   useDiaphragm,0
;   diaphragmLayerInterval,20
;   robustSlicing,1
;   mergeAllIntoSolid,0
;   onlyRetractWhenCrossingOutline,1
;   retractBetweenLayers,1
;   useRetractionMinTravel,0
;   retractionMinTravel,3
;   retractWhileWiping,0
;   onlyWipeOutlines,1
;   avoidCrossingOutline,0
;   maxMovementDetourFactor,3
;   toolChangeRetractionDistance,12
;   toolChangeExtraRestartDistance,-0.5
;   toolChangeRetractionSpeed,600
;   externalThinWallType,0
;   internalThinWallType,2
;   thinWallAllowedOverlapPercentage,10
;   singleExtrusionMinLength,1
;   singleExtrusionMinPrintingWidthPercentage,50
;   singleExtrusionMaxPrintingWidthPercentage,200
;   singleExtrusionEndpointExtension,0.2
;   horizontalSizeCompensation,0
G90
M82
M106 S0
M140 S60
M190 S60
M104 S190 T0
M109 S190 T0
G28 X0 Y0; home XY
G1 X20 Y20
G28 Z0
G1 Z5 F5000; Lift NZ
; process Trideo BOX
; layer 1, Z = 0.270
T0
G92 E0.0000
G1 E-0.7000 F1500
; feature skirt
; tool H0.270 W0.480
G1 Z0.270 F1002
G1 X63.474 Y78.115 F4800
G1 E0.0000 F1500
G92 E0.0000
G1 X64.325 Y77.600 E0.0525 F1800
G1 X64.978 Y77.328 E0.0898
G1 X65.982 Y77.077 E0.1445
G1 X66.550 Y77.007 E0.1747
G1 X72.370 Y76.989 E0.4820
G1 X72.378 Y76.988 E0.4825
G1 X133.440 Y77.006 E3.7068
G1 X134.014 Y77.076 E3.7373
G1 X135.022 Y77.328 E3.7922
G1 X135.675 Y77.600 E3.8295
G1 X136.526 Y78.115 E3.8820
G1 X137.264 Y78.815 E3.9357
G1 X138.201 Y80.192 E4.0237
G1 X138.619 Y81.549 E4.0987
G1 X138.619 Y83.451 E4.1991
G1 X138.201 Y84.808 E4.2741
G1 X137.264 Y86.186 E4.3621
G1 X136.525 Y86.886 E4.4158
G1 X135.675 Y87.400 E4.4683
G1 X135.022 Y87.672 E4.5056
G1 X134.014 Y87.924 E4.5605
G1 X133.439 Y87.994 E4.5910
G1 X132.770 Y87.994 E4.6264
G1 X132.770 Y90.951 E4.7825
G1 X132.033 Y92.705 E4.8829
G1 X127.670 Y96.983 E5.2056
G1 X127.670 Y107.956 E5.7851
G1 X127.688 Y108.326 E5.8046
G1 X127.752 Y108.744 E5.8269
G1 X127.877 Y109.193 E5.8516
G1 X127.978 Y109.452 E5.8662
G1 X128.167 Y109.831 E5.8886
G1 X128.327 Y110.094 E5.9049
G1 X128.728 Y110.627 E5.9401
G1 X129.063 Y110.999 E5.9665
G1 X129.441 Y111.364 E5.9942
G1 X129.809 Y111.680 E6.0199
G1 X130.946 Y112.542 E6.0952
G1 X131.085 Y112.600 E6.1032
G1 X131.935 Y113.114 E6.1556
G1 X132.674 Y113.814 E6.2094
G1 X133.611 Y115.192 E6.2973
G1 X134.029 Y116.549 E6.3723
G1 X134.029 Y118.451 E6.4727
G1 X133.611 Y119.808 E6.5477
G1 X132.674 Y121.185 E6.6357
G1 X131.936 Y121.885 E6.6894
G1 X131.085 Y122.400 E6.7419
G1 X130.433 Y122.671 E6.7792
G1 X129.424 Y122.924 E6.8341
G1 X128.849 Y122.994 E6.8647
G1 X112.981 Y122.994 E7.7026
G1 X112.131 Y122.144 E7.7661
G1 X111.281 Y122.994 E7.8296
G1 X99.356 Y122.994 E8.4592
G1 X98.506 Y122.144 E8.5227
G1 X97.657 Y122.994 E8.5862
G1 X85.732 Y122.994 E9.2158
G1 X84.882 Y122.144 E9.2793
G1 X84.032 Y122.994 E9.3427
G1 X71.150 Y122.994 E10.0230
G1 X70.576 Y122.924 E10.0535
G1 X69.567 Y122.671 E10.1084
G1 X68.915 Y122.400 E10.1458
G1 X68.064 Y121.885 E10.1982
G1 X67.326 Y121.186 E10.2519
G1 X66.389 Y119.808 E10.3399
G1 X65.971 Y118.451 E10.4149
G1 X65.971 Y116.549 E10.5153
G1 X66.389 Y115.192 E10.5903
G1 X67.326 Y113.814 E10.6783
G1 X68.064 Y113.115 E10.7320
G1 X68.915 Y112.600 E10.7845
G1 X69.059 Y112.540 E10.7927
G1 X70.031 Y111.810 E10.8569
G1 X70.570 Y111.353 E10.8943
G1 X70.937 Y110.999 E10.9211
G1 X71.276 Y110.624 E10.9478
G1 X71.631 Y110.152 E10.9790
G1 X71.842 Y109.813 E11.0001
G1 X71.998 Y109.500 E11.0186
G1 X72.202 Y108.939 E11.0501
G1 X72.256 Y108.730 E11.0615
G1 X72.283 Y108.583 E11.0694
G1 X72.310 Y108.375 E11.0805
G1 X72.330 Y107.956 E11.1026
G1 X72.330 Y96.983 E11.6821
G1 X68.999 Y93.717 E11.9284
G1 X68.598 Y93.462 E11.9535
G1 X68.399 Y93.320 E11.9664
G1 X67.544 Y92.642 E12.0240
G1 X67.360 Y92.480 E12.0370
G1 X66.582 Y91.718 E12.0944
G1 X66.415 Y91.537 E12.1074
G1 X65.712 Y90.689 E12.1656
G1 X65.547 Y90.465 E12.1803
G1 X64.853 Y89.391 E12.2478
G1 X64.727 Y89.171 E12.2612
G1 X64.278 Y88.279 E12.3139
G1 X64.186 Y88.074 E12.3258
G1 X63.846 Y87.202 E12.3752
G1 X63.807 Y87.087 E12.3817
G1 X63.475 Y86.885 E12.4022
G1 X62.736 Y86.186 E12.4559
G1 X61.799 Y84.808 E12.5439
G1 X61.381 Y83.451 E12.6189
G1 X61.381 Y81.549 E12.7193
G1 X61.799 Y80.192 E12.7943
G1 X62.736 Y78.814 E12.8822
G1 X63.474 Y78.115 E12.9359
G92 E0.0000
G1 E-0.7000 F1500
G1 X63.767 Y78.499 F4800
G1 E0.0000 F1500
G92 E0.0000
G1 X64.542 Y78.030 E0.0479 F1800
G1 X65.129 Y77.785 E0.0814
G1 X66.071 Y77.550 E0.1327
G1 X66.580 Y77.486 E0.1598
G1 X72.371 Y77.469 E0.4656
G1 X72.378 Y77.468 E0.4659
G1 X133.411 Y77.486 E3.6887
G1 X133.926 Y77.549 E3.7161
G1 X134.871 Y77.785 E3.7675
G1 X135.457 Y78.029 E3.8011
G1 X136.233 Y78.499 E3.8489
G1 X136.896 Y79.127 E3.8972
G1 X137.763 Y80.402 E3.9786
G1 X138.139 Y81.622 E4.0460
G1 X138.139 Y83.378 E4.1387
G1 X137.763 Y84.598 E4.2061
G1 X136.896 Y85.873 E4.2875
G1 X136.233 Y86.502 E4.3358
G1 X135.457 Y86.971 E4.3837
G1 X134.871 Y87.215 E4.4172
G1 X133.926 Y87.451 E4.4686
G1 X133.410 Y87.514 E4.4961
G1 X132.290 Y87.514 E4.5552
G1 X132.290 Y90.854 E4.7316
G1 X131.628 Y92.430 E4.8218
G1 X127.190 Y96.781 E5.1500
G1 X127.190 Y107.968 E5.7407
G1 X127.209 Y108.374 E5.7622
G1 X127.281 Y108.845 E5.7874
G1 X127.421 Y109.345 E5.8148
G1 X127.538 Y109.646 E5.8318
G1 X127.747 Y110.063 E5.8564
G1 X127.929 Y110.364 E5.8750
G1 X128.357 Y110.933 E5.9126
G1 X128.718 Y111.333 E5.9411
G1 X129.118 Y111.719 E5.9704
G1 X129.507 Y112.054 E5.9975
G1 X130.705 Y112.962 E6.0769
G1 X130.867 Y113.029 E6.0862
G1 X131.643 Y113.498 E6.1340
G1 X132.306 Y114.127 E6.1823
G1 X133.173 Y115.402 E6.2637
G1 X133.549 Y116.622 E6.3311
G1 X133.549 Y118.378 E6.4239
G1 X133.173 Y119.598 E6.4912
G1 X132.306 Y120.873 E6.5726
G1 X131.643 Y121.501 E6.6209
G1 X130.868 Y121.970 E6.6687
G1 X130.281 Y122.215 E6.7023
G1 X129.336 Y122.451 E6.7537
G1 X128.820 Y122.514 E6.7812
G1 X113.179 Y122.514 E7.6071
G1 X112.131 Y121.466 E7.6854
G1 X111.082 Y122.514 E7.7637
G1 X99.555 Y122.514 E8.3724
G1 X98.506 Y121.466 E8.4507
G1 X97.458 Y122.514 E8.5290
G1 X85.931 Y122.514 E9.1376
G1 X84.882 Y121.466 E9.2160
G1 X83.833 Y122.514 E9.2943
G1 X71.180 Y122.514 E9.9624
G1 X70.664 Y122.451 E9.9899
G1 X69.719 Y122.215 E10.0413
G1 X69.132 Y121.970 E10.0749
G1 X68.357 Y121.501 E10.1227
G1 X67.694 Y120.873 E10.1710
G1 X66.827 Y119.598 E10.2524
G1 X66.451 Y118.379 E10.3197
G1 X66.451 Y116.621 E10.4125
G1 X66.827 Y115.402 E10.4799
G1 X67.694 Y114.127 E10.5613
G1 X68.357 Y113.498 E10.6096
G1 X69.133 Y113.029 E10.6574
G1 X69.299 Y112.960 E10.6670
G1 X70.331 Y112.185 E10.7351
G1 X70.892 Y111.709 E10.7740
G1 X71.282 Y111.333 E10.8026
G1 X71.646 Y110.929 E10.8313
G1 X72.028 Y110.424 E10.8647
G1 X72.262 Y110.047 E10.8881
G1 X72.440 Y109.690 E10.9092
G1 X72.661 Y109.082 E10.9433
G1 X72.726 Y108.832 E10.9570
G1 X72.757 Y108.656 E10.9664
G1 X72.789 Y108.417 E10.9791
G1 X72.810 Y107.968 E11.0029
G1 X72.810 Y96.781 E11.5936
G1 X69.299 Y93.339 E11.8532
G1 X68.866 Y93.064 E11.8803
G1 X68.687 Y92.936 E11.8919
G1 X67.852 Y92.274 E11.9482
G1 X67.687 Y92.128 E11.9599
G1 X66.926 Y91.384 E12.0160
G1 X66.776 Y91.221 E12.0277
G1 X66.091 Y90.393 E12.0845
G1 X65.943 Y90.192 E12.0977
G1 X65.263 Y89.141 E12.1638
G1 X65.150 Y88.944 E12.1758
G1 X64.711 Y88.073 E12.2272
G1 X64.629 Y87.889 E12.2379
G1 X64.298 Y87.038 E12.2861
G1 X64.238 Y86.861 E12.2960
G1 X64.211 Y86.770 E12.3010
G1 X63.767 Y86.502 E12.3284
G1 X63.104 Y85.873 E12.3766
G1 X62.237 Y84.598 E12.4581
G1 X61.861 Y83.378 E12.5254
G1 X61.861 Y81.621 E12.6182
G1 X62.237 Y80.402 E12.6856
G1 X63.104 Y79.127 E12.7670
G1 X63.767 Y78.499 E12.8153
G92 E0.0000
G1 E-0.7000 F1500
; feature inner perimeter
G1 X68.539 Y82.440 F4800
G1 E0.0000 F1500
G92 E0.0000
G1 X72.381 Y82.428 E0.2029 F1350
G1 X77.899 Y82.444 E0.4943
G1 X122.101 Y82.444 E2.8283
G1 X127.330 Y82.429 E3.1044
G1 X127.330 Y89.698 E3.4882
G1 X122.230 Y94.698 E3.8653
G1 X122.230 Y108.086 E4.5722
G1 X122.267 Y108.861 E4.6132
G1 X122.340 Y109.416 E4.6428
G1 X122.425 Y109.894 E4.6684
G1 X122.595 Y110.543 E4.7038
G1 X122.714 Y110.927 E4.7251
G1 X122.999 Y111.658 E4.7665
G1 X123.401 Y112.464 E4.8141
G1 X123.815 Y113.144 E4.8561
G1 X124.280 Y113.783 E4.8978
G1 X124.532 Y114.098 E4.9192
G1 X125.151 Y114.784 E4.9679
G1 X125.776 Y115.387 E5.0138
G1 X126.390 Y115.915 E5.0565
G1 X126.856 Y116.265 E5.0873
G1 X127.337 Y116.656 E5.1200
G1 X127.861 Y117.032 E5.1541
G1 X128.350 Y117.555 E5.1919
G1 X125.151 Y117.571 E5.3608
G1 X121.748 Y117.556 E5.5406
G1 X118.344 Y117.571 E5.7203
G1 X115.656 Y117.558 E5.8623
G1 X115.656 Y104.682 E6.5422
G1 X108.606 Y104.682 E6.9144
G1 X108.606 Y117.554 E7.5942
G1 X102.031 Y117.554 E7.9413
G1 X102.031 Y104.823 E8.6136
G1 X94.981 Y104.823 E8.9859
G1 X94.981 Y117.554 E9.6581
G1 X88.407 Y117.554 E10.0053
G1 X88.407 Y105.097 E10.6630
G1 X81.357 Y105.097 E11.0353
G1 X81.357 Y117.554 E11.6931
G1 X71.651 Y117.554 E12.2056
G1 X72.139 Y117.032 E12.2434
G1 X72.663 Y116.656 E12.2775
G1 X73.137 Y116.271 E12.3097
G1 X73.421 Y116.069 E12.3281
G1 X74.222 Y115.389 E12.3836
G1 X74.849 Y114.784 E12.4296
G1 X75.468 Y114.098 E12.4783
G1 X75.720 Y113.783 E12.4996
G1 X76.127 Y113.225 E12.5361
G1 X76.597 Y112.467 E12.5832
G1 X77.000 Y111.660 E12.6308
G1 X77.184 Y111.196 E12.6572
G1 X77.403 Y110.552 E12.6931
G1 X77.575 Y109.894 E12.7290
G1 X77.660 Y109.416 E12.7547
G1 X77.733 Y108.861 E12.7842
G1 X77.770 Y108.086 E12.8252
G1 X77.770 Y94.698 E13.5322
G1 X72.400 Y89.433 E13.9292
G1 X71.653 Y88.958 E13.9760
G1 X71.050 Y88.479 E14.0167
G1 X70.501 Y87.943 E14.0572
G1 X70.013 Y87.353 E14.0976
G1 X69.623 Y86.772 E14.1346
G1 X69.519 Y86.591 E14.1456
G1 X69.201 Y85.962 E14.1828
G1 X68.964 Y85.354 E14.2173
G1 X68.799 Y84.787 E14.2484
G1 X68.694 Y84.290 E14.2753
G1 X68.623 Y83.772 E14.3029
G1 X68.539 Y82.440 E14.3733
; feature outer perimeter
G1 X68.095 Y83.031 F4800
G92 E0.0000
G1 X67.305 Y83.045 E0.0417 F900
G1 X66.882 Y83.035 E0.0641
G1 X66.559 Y82.954 E0.0817
G1 X66.522 Y82.932 E0.0840
G1 X66.341 Y82.667 E0.1009
G1 X66.341 Y82.333 E0.1185
G1 X66.522 Y82.068 E0.1354
G1 X66.559 Y82.046 E0.1377
G1 X66.880 Y81.966 E0.1552
G1 X72.381 Y81.948 E0.4457
G1 X77.900 Y81.964 E0.7371
G1 X122.100 Y81.964 E3.0711
G1 X127.619 Y81.948 E3.3625
G1 X133.120 Y81.966 E3.6529
G1 X133.441 Y82.046 E3.6704
G1 X133.479 Y82.068 E3.6727
G1 X133.659 Y82.333 E3.6896
G1 X133.659 Y82.667 E3.7072
G1 X133.478 Y82.932 E3.7242
G1 X133.441 Y82.954 E3.7265
G1 X133.120 Y83.034 E3.7439
G1 X127.810 Y83.034 E4.0243
G1 X127.810 Y89.899 E4.3868
G1 X122.710 Y94.899 E4.7640
G1 X122.710 Y108.074 E5.4597
G1 X122.745 Y108.818 E5.4990
G1 X122.815 Y109.342 E5.5269
G1 X122.894 Y109.792 E5.5510
G1 X123.056 Y110.411 E5.5848
G1 X123.168 Y110.768 E5.6045
G1 X123.438 Y111.463 E5.6439
G1 X123.822 Y112.232 E5.6893
G1 X124.215 Y112.877 E5.7292
G1 X124.661 Y113.492 E5.7693
G1 X124.898 Y113.787 E5.7893
G1 X125.496 Y114.450 E5.8364
G1 X126.100 Y115.032 E5.8807
G1 X126.691 Y115.540 E5.9219
G1 X127.152 Y115.886 E5.9523
G1 X127.628 Y116.274 E5.9848
G1 X128.179 Y116.670 E6.0206
G1 X128.433 Y116.941 E6.0402
G1 X128.851 Y117.046 E6.0630
G1 X128.888 Y117.068 E6.0653
G1 X129.069 Y117.333 E6.0822
G1 X129.069 Y117.667 E6.0998
G1 X128.888 Y117.932 E6.1167
G1 X128.851 Y117.954 E6.1190
G1 X128.530 Y118.035 E6.1365
G1 X125.151 Y118.051 E6.3150
G1 X121.748 Y118.036 E6.4946
G1 X118.345 Y118.051 E6.6743
G1 X115.176 Y118.036 E6.8417
G1 X115.176 Y105.162 E7.5215
G1 X109.086 Y105.162 E7.8430
G1 X109.086 Y118.034 E8.5228
G1 X101.551 Y118.034 E8.9206
G1 X101.551 Y105.303 E9.5929
