; G-Code generated by Simplify3D(R) Version 4.1.1
; Apr 27, 2021 at 8:46:23 AM
; Settings Summary
;   processName,Trideo BOX
;   applyToModels,x1
;   profileName,Trideo BOX
;   profileVersion,2021-04-15 09:48:16
;   baseProfile,Default
;   printMaterial,PLA
;   printQuality,Fast
;   printExtruders,
;   extruderName,Primary Extruder
;   extruderToolheadNumber,0
;   extruderDiameter,0.4
;   extruderAutoWidth,1
;   extruderWidth,0.48
;   extrusionMultiplier,0.98
;   extruderUseRetract,1
;   extruderRetractionDistance,0.7
;   extruderExtraRestartDistance,0
;   extruderRetractionZLift,0
;   extruderRetractionSpeed,1500
;   extruderUseCoasting,0
;   extruderCoastingDistance,0.2
;   extruderUseWipe,0
;   extruderWipeDistance,5
;   primaryExtruder,0
;   layerHeight,0.3
;   topSolidLayers,3
;   bottomSolidLayers,3
;   perimeterOutlines,2
;   printPerimetersInsideOut,1
;   startPointOption,2
;   startPointOriginX,0
;   startPointOriginY,0
;   sequentialIslands,0
;   spiralVaseMode,0
;   firstLayerHeightPercentage,90
;   firstLayerWidthPercentage,100
;   firstLayerUnderspeed,0.5
;   useRaft,0
;   raftExtruder,0
;   raftTopLayers,3
;   raftBaseLayers,2
;   raftOffset,3
;   raftSeparationDistance,0.14
;   raftTopInfill,100
;   aboveRaftSpeedMultiplier,0.3
;   useSkirt,1
;   skirtExtruder,0
;   skirtLayers,1
;   skirtOutlines,2
;   skirtOffset,4
;   usePrimePillar,0
;   primePillarExtruder,999
;   primePillarWidth,12
;   primePillarLocation,7
;   primePillarSpeedMultiplier,1
;   useOozeShield,0
;   oozeShieldExtruder,999
;   oozeShieldOffset,2
;   oozeShieldOutlines,1
;   oozeShieldSidewallShape,1
;   oozeShieldSidewallAngle,30
;   oozeShieldSpeedMultiplier,1
;   infillExtruder,0
;   internalInfillPattern,Rectilinear
;   externalInfillPattern,Rectilinear
;   infillPercentage,15
;   outlineOverlapPercentage,15
;   infillExtrusionWidthPercentage,100
;   minInfillLength,5
;   infillLayerInterval,1
;   internalInfillAngles,45,-45
;   overlapInternalInfillAngles,0
;   externalInfillAngles,45,-45
;   generateSupport,1
;   supportExtruder,0
;   supportInfillPercentage,25
;   supportExtraInflation,0
;   supportBaseLayers,0
;   denseSupportExtruder,0
;   denseSupportLayers,0
;   denseSupportInfillPercentage,70
;   supportLayerInterval,1
;   supportHorizontalPartOffset,0.3
;   supportUpperSeparationLayers,1
;   supportLowerSeparationLayers,1
;   supportType,0
;   supportGridSpacing,4
;   maxOverhangAngle,45
;   supportAngles,0
;   temperatureName,Primary Extruder,Heated bed
;   temperatureNumber,0,0
;   temperatureSetpointCount,1,1
;   temperatureSetpointLayers,1,1
;   temperatureSetpointTemperatures,190,60
;   temperatureStabilizeAtStartup,1,1
;   temperatureHeatedBed,0,1
;   fanLayers,1,2
;   fanSpeeds,0,100
;   blipFanToFullPower,0
;   adjustSpeedForCooling,1
;   minSpeedLayerTime,15
;   minCoolingSpeedSlowdown,20
;   increaseFanForCooling,0
;   minFanLayerTime,45
;   maxCoolingFanSpeed,100
;   increaseFanForBridging,0
;   bridgingFanSpeed,100
;   use5D,1
;   relativeEdistances,0
;   allowEaxisZeroing,1
;   independentExtruderAxes,0
;   includeM10123,0
;   stickySupport,1
;   applyToolheadOffsets,0
;   gcodeXoffset,0
;   gcodeYoffset,0
;   gcodeZoffset,0
;   overrideMachineDefinition,1
;   machineTypeOverride,0
;   strokeXoverride,200
;   strokeYoverride,200
;   strokeZoverride,200
;   originOffsetXoverride,0
;   originOffsetYoverride,0
;   originOffsetZoverride,0
;   homeXdirOverride,-1
;   homeYdirOverride,-1
;   homeZdirOverride,-1
;   flipXoverride,1
;   flipYoverride,-1
;   flipZoverride,1
;   toolheadOffsets,0,0|0,0|0,0|0,0|0,0|0,0
;   overrideFirmwareConfiguration,0
;   firmwareTypeOverride,RepRap (Marlin/Repetier/Sprinter)
;   GPXconfigOverride,r2
;   baudRateOverride,115200
;   overridePrinterModels,0
;   printerModelsOverride
;   startingGcode,G28 X0 Y0; home XY,G1 X20 Y20,G28 Z0,G1 Z5 F5000; Lift NZ
;   layerChangeGcode,
;   retractionGcode,
;   toolChangeGcode,
;   endingGcode,M104 S0 ; turn off extruder,G28 X0 ; home x,M140 S0 ; turn off bed,M84 ; disable motors,M107 ;
;   exportFileFormat,gcode
;   celebration,0
;   celebrationSong,Looney Toons
;   postProcessing,
;   defaultSpeed,3600
;   outlineUnderspeed,0.5
;   solidInfillUnderspeed,0.8
;   supportUnderspeed,0.8
;   rapidXYspeed,4800
;   rapidZspeed,1002
;   minBridgingArea,50
;   bridgingExtraInflation,0
;   bridgingExtrusionMultiplier,1
;   bridgingSpeedMultiplier,1
;   useFixedBridgingAngle,0
;   fixedBridgingAngle,0
;   applyBridgingToPerimeters,0
;   filamentDiameters,1.75|1.75|1.75|1.75|1.75|1.75
;   filamentPricesPerKg,46|46|46|46|46|46
;   filamentDensities,1.25|1.25|1.25|1.25|1.25|1.25
;   useMinPrintHeight,0
;   minPrintHeight,0
;   useMaxPrintHeight,0
;   maxPrintHeight,0
;   useDiaphragm,0
;   diaphragmLayerInterval,20
;   robustSlicing,1
;   mergeAllIntoSolid,0
;   onlyRetractWhenCrossingOutline,1
;   retractBetweenLayers,1
;   useRetractionMinTravel,0
;   retractionMinTravel,3
;   retractWhileWiping,0
;   onlyWipeOutlines,1
;   avoidCrossingOutline,0
;   maxMovementDetourFactor,3
;   toolChangeRetractionDistance,12
;   toolChangeExtraRestartDistance,-0.5
;   toolChangeRetractionSpeed,600
;   externalThinWallType,0
;   internalThinWallType,2
;   thinWallAllowedOverlapPercentage,10
;   singleExtrusionMinLength,1
;   singleExtrusionMinPrintingWidthPercentage,50
;   singleExtrusionMaxPrintingWidthPercentage,200
;   singleExtrusionEndpointExtension,0.2
;   horizontalSizeCompensation,0
G90
M82
M106 S0
M140 S60
M190 S60
M104 S190 T0
M109 S190 T0
G28 X0 Y0; home XY
G1 X20 Y20
G28 Z0
G1 Z5 F5000; Lift NZ
; process Trideo BOX
; layer 1, Z = 0.270
T0
G92 E0.0000
G1 E-0.7000 F1500
; feature skirt
; tool H0.270 W0.480
G1 Z0.270 F1002
G1 X60.110 Y76.369 F4800
G1 E0.0000 F1500
G92 E0.0000
G1 X61.031 Y75.812 E0.0569 F1800
G1 X61.684 Y75.540 E0.0942
G1 X62.667 Y75.294 E0.1477
G1 X63.235 Y75.224 E0.1779
G1 X70.958 Y75.200 E0.5857
G1 X70.965 Y75.200 E0.5861
G1 X129.035 Y75.200 E3.6524
G1 X129.042 Y75.200 E3.6528
G1 X136.765 Y75.224 E4.0606
G1 X137.333 Y75.294 E4.0908
G1 X138.316 Y75.540 E4.1443
G1 X138.969 Y75.812 E4.1817
G1 X139.890 Y76.369 E4.2385
G1 X140.629 Y77.069 E4.2922
G1 X141.545 Y78.416 E4.3783
G1 X141.963 Y79.774 E4.4533
G1 X141.963 Y81.726 E4.5564
G1 X141.545 Y83.084 E4.6314
G1 X140.629 Y84.431 E4.7174
G1 X139.890 Y85.131 E4.7711
G1 X138.969 Y85.688 E4.8280
G1 X138.316 Y85.960 E4.8653
G1 X137.329 Y86.207 E4.9191
G1 X136.754 Y86.277 E4.9496
G1 X135.575 Y86.277 E5.0119
G1 X135.575 Y89.951 E5.2059
G1 X134.838 Y91.705 E5.3063
G1 X129.965 Y96.483 E5.6667
G1 X129.965 Y108.767 E6.3154
G1 X129.986 Y109.206 E6.3386
G1 X130.065 Y109.721 E6.3661
G1 X130.220 Y110.276 E6.3965
G1 X130.344 Y110.593 E6.4145
G1 X130.571 Y111.049 E6.4414
G1 X130.767 Y111.373 E6.4614
G1 X131.250 Y112.017 E6.5039
G1 X131.637 Y112.445 E6.5344
G1 X132.070 Y112.864 E6.5662
G1 X132.497 Y113.234 E6.5960
G1 X133.884 Y114.297 E6.6883
G1 X133.920 Y114.312 E6.6903
G1 X134.841 Y114.869 E6.7472
G1 X135.580 Y115.569 E6.8009
G1 X136.496 Y116.916 E6.8870
G1 X136.914 Y118.274 E6.9620
G1 X136.914 Y120.226 E7.0651
G1 X136.496 Y121.584 E7.1401
G1 X135.580 Y122.931 E7.2261
G1 X134.841 Y123.631 E7.2798
G1 X133.920 Y124.188 E7.3367
G1 X133.267 Y124.460 E7.3740
G1 X132.286 Y124.705 E7.4274
G1 X131.723 Y124.776 E7.4574
G1 X126.848 Y124.800 E7.7148
G1 X126.831 Y124.800 E7.7157
G1 X114.467 Y124.773 E8.3686
G1 X113.343 Y123.647 E8.4526
G1 X112.213 Y124.777 E8.5369
G1 X99.487 Y124.777 E9.2089
G1 X98.357 Y123.647 E9.2933
G1 X97.227 Y124.777 E9.3777
G1 X84.501 Y124.777 E10.0497
G1 X83.370 Y123.647 E10.1341
G1 X82.240 Y124.777 E10.2186
G1 X68.294 Y124.777 E10.9549
G1 X67.720 Y124.707 E10.9855
G1 X66.733 Y124.460 E11.0392
G1 X66.080 Y124.188 E11.0766
G1 X65.159 Y123.631 E11.1334
G1 X64.420 Y122.931 E11.1871
G1 X63.504 Y121.584 E11.2732
G1 X63.086 Y120.226 E11.3482
G1 X63.086 Y118.274 E11.4513
G1 X63.504 Y116.916 E11.5263
G1 X64.420 Y115.569 E11.6123
G1 X65.159 Y114.869 E11.6660
G1 X66.080 Y114.312 E11.7229
G1 X66.118 Y114.296 E11.7251
G1 X67.314 Y113.389 E11.8043
G1 X67.941 Y112.853 E11.8479
G1 X68.363 Y112.445 E11.8789
G1 X68.752 Y112.013 E11.9096
G1 X69.190 Y111.432 E11.9480
G1 X69.438 Y111.032 E11.9728
G1 X69.631 Y110.645 E11.9957
G1 X69.877 Y109.964 E12.0339
G1 X69.944 Y109.708 E12.0479
G1 X69.975 Y109.531 E12.0574
G1 X70.012 Y109.254 E12.0721
G1 X70.035 Y108.767 E12.0979
G1 X70.035 Y96.483 E12.7465
G1 X66.194 Y92.717 E13.0306
G1 X65.721 Y92.416 E13.0602
G1 X65.521 Y92.274 E13.0731
G1 X64.600 Y91.543 E13.1352
G1 X64.416 Y91.381 E13.1482
G1 X63.577 Y90.560 E13.2101
G1 X63.410 Y90.378 E13.2232
G1 X62.655 Y89.466 E13.2857
G1 X62.493 Y89.246 E13.3002
G1 X61.762 Y88.119 E13.3711
G1 X61.636 Y87.901 E13.3843
G1 X61.142 Y86.927 E13.4420
G1 X61.048 Y86.717 E13.4542
G1 X60.671 Y85.750 E13.5090
G1 X60.601 Y85.544 E13.5204
G1 X60.561 Y85.404 E13.5282
G1 X60.110 Y85.131 E13.5560
G1 X59.371 Y84.431 E13.6097
G1 X58.455 Y83.084 E13.6958
G1 X58.037 Y81.726 E13.7708
G1 X58.037 Y79.774 E13.8739
G1 X58.455 Y78.416 E13.9489
G1 X59.371 Y77.069 E14.0349
G1 X60.110 Y76.369 E14.0886
G92 E0.0000
G1 E-0.7000 F1500
G1 X60.402 Y76.753 F4800
G1 E0.0000 F1500
G92 E0.0000
G1 X61.249 Y76.241 E0.0522 F1800
G1 X61.835 Y75.997 E0.0858
G1 X62.756 Y75.767 E0.1359
G1 X63.265 Y75.703 E0.1630
G1 X70.959 Y75.680 E0.5692
G1 X70.966 Y75.680 E0.5696
G1 X129.034 Y75.680 E3.6359
G1 X129.041 Y75.680 E3.6362
G1 X136.735 Y75.703 E4.0425
G1 X137.244 Y75.767 E4.0696
G1 X138.165 Y75.997 E4.1197
G1 X138.751 Y76.241 E4.1532
G1 X139.598 Y76.753 E4.2054
G1 X140.261 Y77.382 E4.2537
G1 X141.108 Y78.627 E4.3332
G1 X141.483 Y79.846 E4.4006
G1 X141.483 Y81.654 E4.4960
G1 X141.108 Y82.873 E4.5634
G1 X140.261 Y84.118 E4.6429
G1 X139.598 Y84.747 E4.6912
G1 X138.751 Y85.259 E4.7434
G1 X138.165 Y85.503 E4.7769
G1 X137.241 Y85.734 E4.8272
G1 X136.725 Y85.797 E4.8547
G1 X135.095 Y85.797 E4.9407
G1 X135.095 Y89.854 E5.1550
G1 X134.433 Y91.430 E5.2452
G1 X129.485 Y96.281 E5.6111
G1 X129.485 Y108.778 E6.2710
G1 X129.507 Y109.254 E6.2961
G1 X129.594 Y109.823 E6.3265
G1 X129.764 Y110.428 E6.3597
G1 X129.904 Y110.788 E6.3801
G1 X130.150 Y111.281 E6.4092
G1 X130.369 Y111.642 E6.4315
G1 X130.880 Y112.322 E6.4764
G1 X131.291 Y112.778 E6.5089
G1 X131.746 Y113.218 E6.5422
G1 X132.194 Y113.606 E6.5735
G1 X133.642 Y114.716 E6.6699
G1 X133.702 Y114.741 E6.6733
G1 X134.548 Y115.253 E6.7256
G1 X135.212 Y115.882 E6.7738
G1 X136.059 Y117.127 E6.8533
G1 X136.434 Y118.346 E6.9207
G1 X136.434 Y120.154 E7.0162
G1 X136.059 Y121.373 E7.0835
G1 X135.212 Y122.618 E7.1630
G1 X134.549 Y123.247 E7.2113
G1 X133.702 Y123.759 E7.2635
G1 X133.116 Y124.003 E7.2971
G1 X132.197 Y124.233 E7.3471
G1 X131.692 Y124.296 E7.3740
G1 X126.847 Y124.320 E7.6298
G1 X126.832 Y124.320 E7.6306
G1 X114.666 Y124.293 E8.2730
G1 X113.344 Y122.968 E8.3718
G1 X112.015 Y124.297 E8.4711
G1 X99.686 Y124.297 E9.1221
G1 X98.357 Y122.968 E9.2213
G1 X97.028 Y124.297 E9.3206
G1 X84.700 Y124.297 E9.9716
G1 X83.370 Y122.968 E10.0708
G1 X82.041 Y124.297 E10.1701
G1 X68.324 Y124.297 E10.8944
G1 X67.808 Y124.234 E10.9219
G1 X66.884 Y124.003 E10.9722
G1 X66.298 Y123.759 E11.0057
G1 X65.451 Y123.247 E11.0579
G1 X64.788 Y122.618 E11.1062
G1 X63.941 Y121.373 E11.1857
G1 X63.566 Y120.154 E11.2531
G1 X63.566 Y118.346 E11.3485
G1 X63.941 Y117.127 E11.4159
G1 X64.788 Y115.882 E11.4954
G1 X65.451 Y115.253 E11.5437
G1 X66.298 Y114.741 E11.5959
G1 X66.359 Y114.716 E11.5994
G1 X67.615 Y113.763 E11.6827
G1 X68.264 Y113.208 E11.7277
G1 X68.709 Y112.778 E11.7604
G1 X69.123 Y112.319 E11.7930
G1 X69.587 Y111.703 E11.8337
G1 X69.858 Y111.266 E11.8609
G1 X70.073 Y110.834 E11.8864
G1 X70.336 Y110.107 E11.9272
G1 X70.413 Y109.810 E11.9434
G1 X70.450 Y109.605 E11.9544
G1 X70.490 Y109.297 E11.9708
G1 X70.515 Y108.778 E11.9982
G1 X70.515 Y96.281 E12.6581
G1 X66.494 Y92.339 E12.9555
G1 X65.989 Y92.018 E12.9871
G1 X65.810 Y91.890 E12.9987
G1 X64.908 Y91.175 E13.0594
G1 X64.743 Y91.029 E13.0711
G1 X63.922 Y90.225 E13.1318
G1 X63.772 Y90.062 E13.1435
G1 X63.033 Y89.170 E13.2046
G1 X62.888 Y88.972 E13.2176
G1 X62.171 Y87.868 E13.2871
G1 X62.058 Y87.673 E13.2990
G1 X61.575 Y86.720 E13.3554
G1 X61.491 Y86.532 E13.3663
G1 X61.122 Y85.586 E13.4199
G1 X61.060 Y85.401 E13.4302
G1 X60.970 Y85.090 E13.4473
G1 X60.402 Y84.747 E13.4823
G1 X59.739 Y84.118 E13.5306
G1 X58.892 Y82.873 E13.6101
G1 X58.517 Y81.654 E13.6775
G1 X58.517 Y79.846 E13.7729
G1 X58.892 Y78.627 E13.8403
G1 X59.739 Y77.382 E13.9198
G1 X60.402 Y76.753 E13.9681
G92 E0.0000
G1 E-0.7000 F1500
; feature inner perimeter
G1 X65.325 Y80.657 F4800
G1 E0.0000 F1500
G92 E0.0000
G1 X70.969 Y80.640 E0.2980 F1350
G1 X75.689 Y80.653 E0.5473
G1 X124.311 Y80.653 E3.1147
G1 X129.031 Y80.640 E3.3639
G1 X130.135 Y80.643 E3.4222
G1 X130.135 Y88.698 E3.8475
G1 X124.525 Y94.198 E4.2624
G1 X124.525 Y108.895 E5.0385
G1 X124.565 Y109.740 E5.0831
G1 X124.648 Y110.366 E5.1165
G1 X124.738 Y110.872 E5.1436
G1 X124.918 Y111.562 E5.1813
G1 X125.058 Y112.011 E5.2061
G1 X125.365 Y112.799 E5.2507
G1 X125.803 Y113.679 E5.3026
G1 X126.253 Y114.419 E5.3484
G1 X126.757 Y115.115 E5.3937
G1 X127.054 Y115.486 E5.4189
G1 X127.721 Y116.226 E5.4715
G1 X128.396 Y116.879 E5.5210
G1 X129.059 Y117.452 E5.5673
G1 X129.759 Y117.990 E5.6139
G1 X130.109 Y118.283 E5.6380
G1 X130.640 Y118.667 E5.6726
G1 X131.267 Y119.338 E5.7211
G1 X126.834 Y119.360 E5.9552
G1 X123.923 Y119.347 E6.1090
G1 X121.011 Y119.360 E6.2627
G1 X117.149 Y119.341 E6.4666
G1 X117.149 Y105.222 E7.2122
G1 X109.538 Y105.222 E7.6141
G1 X109.538 Y119.337 E8.3594
G1 X102.163 Y119.337 E8.7489
G1 X102.163 Y105.377 E9.4860
G1 X94.552 Y105.377 E9.8879
G1 X94.552 Y119.337 E10.6251
G1 X87.176 Y119.337 E11.0145
G1 X87.176 Y105.679 E11.7357
G1 X79.565 Y105.679 E12.1376
G1 X79.565 Y119.337 E12.8588
G1 X68.733 Y119.337 E13.4308
G1 X69.360 Y118.667 E13.4793
G1 X69.888 Y118.285 E13.5136
G1 X70.445 Y117.829 E13.5517
G1 X70.719 Y117.634 E13.5694
G1 X71.602 Y116.880 E13.6307
G1 X72.279 Y116.226 E13.6804
G1 X72.946 Y115.486 E13.7330
G1 X73.243 Y115.115 E13.7582
G1 X73.689 Y114.500 E13.7983
G1 X74.195 Y113.682 E13.8491
G1 X74.634 Y112.801 E13.9010
G1 X74.841 Y112.279 E13.9307
G1 X75.080 Y111.570 E13.9702
G1 X75.262 Y110.872 E14.0083
G1 X75.352 Y110.366 E14.0354
G1 X75.435 Y109.740 E14.0688
G1 X75.475 Y108.895 E14.1134
G1 X75.475 Y94.198 E14.8895
G1 X69.595 Y88.433 E15.3243
G1 X68.776 Y87.912 E15.3756
G1 X68.107 Y87.381 E15.4207
G1 X67.498 Y86.785 E15.4657
G1 X66.955 Y86.130 E15.5106
G1 X66.515 Y85.471 E15.5524
G1 X66.422 Y85.311 E15.5622
G1 X66.062 Y84.600 E15.6043
G1 X65.791 Y83.905 E15.6437
G1 X65.600 Y83.241 E15.6802
G1 X65.497 Y82.753 E15.7065
G1 X65.411 Y82.129 E15.7397
G1 X65.325 Y80.657 E15.8176
; feature outer perimeter
G1 X64.883 Y81.318 F4800
G92 E0.0000
G1 X64.147 Y81.332 E0.0389 F900
G1 X63.567 Y81.318 E0.0695
G1 X63.265 Y81.242 E0.0860
G1 X63.157 Y81.177 E0.0926
G1 X62.997 Y80.942 E0.1076
G1 X62.997 Y80.558 E0.1279
G1 X63.157 Y80.323 E0.1429
G1 X63.265 Y80.258 E0.1496
G1 X63.565 Y80.183 E0.1659
G1 X70.969 Y80.160 E0.5569
G1 X75.690 Y80.173 E0.8062
G1 X124.310 Y80.173 E3.3735
G1 X129.031 Y80.160 E3.6228
G1 X136.435 Y80.183 E4.0138
G1 X136.735 Y80.258 E4.0301
G1 X136.843 Y80.323 E4.0368
G1 X137.003 Y80.558 E4.0518
G1 X137.003 Y80.942 E4.0720
G1 X136.843 Y81.177 E4.0871
G1 X136.735 Y81.242 E4.0937
G1 X136.435 Y81.317 E4.1100
G1 X130.615 Y81.317 E4.4174
G1 X130.615 Y88.899 E4.8177
G1 X125.005 Y94.399 E5.2326
G1 X125.005 Y108.884 E5.9974
G1 X125.043 Y109.697 E6.0404
G1 X125.122 Y110.292 E6.0721
G1 X125.207 Y110.769 E6.0977
G1 X125.379 Y111.430 E6.1338
G1 X125.511 Y111.853 E6.1571
G1 X125.804 Y112.605 E6.1997
G1 X126.224 Y113.447 E6.2494
G1 X126.653 Y114.153 E6.2931
G1 X127.138 Y114.824 E6.3368
G1 X127.420 Y115.175 E6.3606
G1 X128.067 Y115.893 E6.4116
G1 X128.720 Y116.524 E6.4596
G1 X129.362 Y117.080 E6.5044
G1 X130.060 Y117.615 E6.5508
G1 X130.404 Y117.904 E6.5745
G1 X130.959 Y118.305 E6.6107
G1 X131.289 Y118.658 E6.6362
G1 X131.686 Y118.758 E6.6578
G1 X131.794 Y118.823 E6.6645
G1 X131.954 Y119.058 E6.6795
G1 X131.954 Y119.442 E6.6998
G1 X131.794 Y119.677 E6.7148
G1 X131.686 Y119.742 E6.7215
