; G-Code generated by Simplify3D(R) Version 4.1.1
; Apr 27, 2021 at 9:02:46 AM
; Settings Summary
;   processName,Trideo BOX
;   applyToModels,x1
;   profileName,Trideo BOX
;   profileVersion,2021-04-15 09:48:16
;   baseProfile,Default
;   printMaterial,PLA
;   printQuality,Fast
;   printExtruders,
;   extruderName,Primary Extruder
;   extruderToolheadNumber,0
;   extruderDiameter,0.4
;   extruderAutoWidth,1
;   extruderWidth,0.48
;   extrusionMultiplier,0.98
;   extruderUseRetract,1
;   extruderRetractionDistance,0.7
;   extruderExtraRestartDistance,0
;   extruderRetractionZLift,0
;   extruderRetractionSpeed,1500
;   extruderUseCoasting,0
;   extruderCoastingDistance,0.2
;   extruderUseWipe,0
;   extruderWipeDistance,5
;   primaryExtruder,0
;   layerHeight,0.3
;   topSolidLayers,3
;   bottomSolidLayers,3
;   perimeterOutlines,2
;   printPerimetersInsideOut,1
;   startPointOption,2
;   startPointOriginX,0
;   startPointOriginY,0
;   sequentialIslands,0
;   spiralVaseMode,0
;   firstLayerHeightPercentage,90
;   firstLayerWidthPercentage,100
;   firstLayerUnderspeed,0.5
;   useRaft,0
;   raftExtruder,0
;   raftTopLayers,3
;   raftBaseLayers,2
;   raftOffset,3
;   raftSeparationDistance,0.14
;   raftTopInfill,100
;   aboveRaftSpeedMultiplier,0.3
;   useSkirt,1
;   skirtExtruder,0
;   skirtLayers,1
;   skirtOutlines,2
;   skirtOffset,4
;   usePrimePillar,0
;   primePillarExtruder,999
;   primePillarWidth,12
;   primePillarLocation,7
;   primePillarSpeedMultiplier,1
;   useOozeShield,0
;   oozeShieldExtruder,999
;   oozeShieldOffset,2
;   oozeShieldOutlines,1
;   oozeShieldSidewallShape,1
;   oozeShieldSidewallAngle,30
;   oozeShieldSpeedMultiplier,1
;   infillExtruder,0
;   internalInfillPattern,Rectilinear
;   externalInfillPattern,Rectilinear
;   infillPercentage,15
;   outlineOverlapPercentage,15
;   infillExtrusionWidthPercentage,100
;   minInfillLength,5
;   infillLayerInterval,1
;   internalInfillAngles,45,-45
;   overlapInternalInfillAngles,0
;   externalInfillAngles,45,-45
;   generateSupport,1
;   supportExtruder,0
;   supportInfillPercentage,25
;   supportExtraInflation,0
;   supportBaseLayers,0
;   denseSupportExtruder,0
;   denseSupportLayers,0
;   denseSupportInfillPercentage,70
;   supportLayerInterval,1
;   supportHorizontalPartOffset,0.3
;   supportUpperSeparationLayers,1
;   supportLowerSeparationLayers,1
;   supportType,0
;   supportGridSpacing,4
;   maxOverhangAngle,45
;   supportAngles,0
;   temperatureName,Primary Extruder,Heated bed
;   temperatureNumber,0,0
;   temperatureSetpointCount,1,1
;   temperatureSetpointLayers,1,1
;   temperatureSetpointTemperatures,190,60
;   temperatureStabilizeAtStartup,1,1
;   temperatureHeatedBed,0,1
;   fanLayers,1,2
;   fanSpeeds,0,100
;   blipFanToFullPower,0
;   adjustSpeedForCooling,1
;   minSpeedLayerTime,15
;   minCoolingSpeedSlowdown,20
;   increaseFanForCooling,0
;   minFanLayerTime,45
;   maxCoolingFanSpeed,100
;   increaseFanForBridging,0
;   bridgingFanSpeed,100
;   use5D,1
;   relativeEdistances,0
;   allowEaxisZeroing,1
;   independentExtruderAxes,0
;   includeM10123,0
;   stickySupport,1
;   applyToolheadOffsets,0
;   gcodeXoffset,0
;   gcodeYoffset,0
;   gcodeZoffset,0
;   overrideMachineDefinition,1
;   machineTypeOverride,0
;   strokeXoverride,200
;   strokeYoverride,200
;   strokeZoverride,200
;   originOffsetXoverride,0
;   originOffsetYoverride,0
;   originOffsetZoverride,0
;   homeXdirOverride,-1
;   homeYdirOverride,-1
;   homeZdirOverride,-1
;   flipXoverride,1
;   flipYoverride,-1
;   flipZoverride,1
;   toolheadOffsets,0,0|0,0|0,0|0,0|0,0|0,0
;   overrideFirmwareConfiguration,0
;   firmwareTypeOverride,RepRap (Marlin/Repetier/Sprinter)
;   GPXconfigOverride,r2
;   baudRateOverride,115200
;   overridePrinterModels,0
;   printerModelsOverride
;   startingGcode,G28 X0 Y0; home XY,G1 X20 Y20,G28 Z0,G1 Z5 F5000; Lift NZ
;   layerChangeGcode,
;   retractionGcode,
;   toolChangeGcode,
;   endingGcode,M104 S0 ; turn off extruder,G28 X0 ; home x,M140 S0 ; turn off bed,M84 ; disable motors,M107 ;
;   exportFileFormat,gcode
;   celebration,0
;   celebrationSong,Looney Toons
;   postProcessing,
;   defaultSpeed,3600
;   outlineUnderspeed,0.5
;   solidInfillUnderspeed,0.8
;   supportUnderspeed,0.8
;   rapidXYspeed,4800
;   rapidZspeed,1002
;   minBridgingArea,50
;   bridgingExtraInflation,0
;   bridgingExtrusionMultiplier,1
;   bridgingSpeedMultiplier,1
;   useFixedBridgingAngle,0
;   fixedBridgingAngle,0
;   applyBridgingToPerimeters,0
;   filamentDiameters,1.75|1.75|1.75|1.75|1.75|1.75
;   filamentPricesPerKg,46|46|46|46|46|46
;   filamentDensities,1.25|1.25|1.25|1.25|1.25|1.25
;   useMinPrintHeight,0
;   minPrintHeight,0
;   useMaxPrintHeight,0
;   maxPrintHeight,0
;   useDiaphragm,0
;   diaphragmLayerInterval,20
;   robustSlicing,1
;   mergeAllIntoSolid,0
;   onlyRetractWhenCrossingOutline,1
;   retractBetweenLayers,1
;   useRetractionMinTravel,0
;   retractionMinTravel,3
;   retractWhileWiping,0
;   onlyWipeOutlines,1
;   avoidCrossingOutline,0
;   maxMovementDetourFactor,3
;   toolChangeRetractionDistance,12
;   toolChangeExtraRestartDistance,-0.5
;   toolChangeRetractionSpeed,600
;   externalThinWallType,0
;   internalThinWallType,2
;   thinWallAllowedOverlapPercentage,10
;   singleExtrusionMinLength,1
;   singleExtrusionMinPrintingWidthPercentage,50
;   singleExtrusionMaxPrintingWidthPercentage,200
;   singleExtrusionEndpointExtension,0.2
;   horizontalSizeCompensation,0
G90
M82
M106 S0
M140 S60
M190 S60
M104 S190 T0
M109 S190 T0
G28 X0 Y0; home XY
G1 X20 Y20
G28 Z0
G1 Z5 F5000; Lift NZ
; process Trideo BOX
; layer 1, Z = 0.270
T0
G92 E0.0000
G1 E-0.7000 F1500
; feature skirt
; tool H0.270 W0.480
G1 Z0.270 F1002
G1 X56.745 Y74.624 F4800
G1 E0.0000 F1500
G92 E0.0000
G1 X57.738 Y74.024 E0.0612 F1800
G1 X58.390 Y73.752 E0.0986
G1 X59.352 Y73.511 E0.1509
G1 X59.920 Y73.441 E0.1811
G1 X69.546 Y73.411 E0.6894
G1 X69.553 Y73.411 E0.6898
G1 X130.447 Y73.411 E3.9052
G1 X130.454 Y73.411 E3.9056
G1 X140.080 Y73.441 E4.4139
G1 X140.648 Y73.511 E4.4441
G1 X141.610 Y73.752 E4.4965
G1 X142.263 Y74.024 E4.5338
G1 X143.255 Y74.624 E4.5951
G1 X143.993 Y75.324 E4.6488
G1 X144.889 Y76.641 E4.7329
G1 X145.307 Y77.998 E4.8079
G1 X145.307 Y80.002 E4.9137
G1 X144.889 Y81.359 E4.9887
G1 X143.993 Y82.676 E5.0728
G1 X143.255 Y83.376 E5.1265
G1 X142.263 Y83.976 E5.1878
G1 X141.610 Y84.248 E5.2251
G1 X140.644 Y84.490 E5.2777
G1 X140.069 Y84.560 E5.3082
G1 X138.380 Y84.560 E5.3974
G1 X138.380 Y88.951 E5.6293
G1 X137.643 Y90.705 E5.7297
G1 X132.260 Y95.983 E6.1278
G1 X132.260 Y109.577 E6.8457
G1 X132.284 Y110.086 E6.8725
G1 X132.377 Y110.699 E6.9053
G1 X132.562 Y111.359 E6.9415
G1 X132.709 Y111.735 E6.9628
G1 X132.974 Y112.267 E6.9942
G1 X133.207 Y112.651 E7.0179
G1 X133.773 Y113.406 E7.0677
G1 X134.210 Y113.890 E7.1021
G1 X134.697 Y114.362 E7.1380
G1 X135.208 Y114.807 E7.1738
G1 X135.525 Y115.060 E7.1952
G1 X140.175 Y115.060 E7.4407
G1 X142.940 Y117.825 E7.6472
G1 X142.940 Y126.175 E8.0881
G1 X140.175 Y128.940 E8.2946
G1 X131.825 Y128.940 E8.7355
G1 X129.469 Y126.584 E8.9114
G1 X128.531 Y126.589 E8.9610
G1 X128.512 Y126.589 E8.9619
G1 X115.959 Y126.555 E9.6248
G1 X114.557 Y125.149 E9.7296
G1 X113.146 Y126.560 E9.8350
G1 X99.619 Y126.560 E10.5493
G1 X98.208 Y125.149 E10.6547
G1 X96.797 Y126.560 E10.7600
G1 X83.269 Y126.560 E11.4743
G1 X81.859 Y125.149 E11.5797
G1 X80.448 Y126.560 E11.6850
G1 X70.555 Y126.560 E12.2074
G1 X68.175 Y128.940 E12.3851
G1 X59.825 Y128.940 E12.8260
G1 X57.060 Y126.175 E13.0325
G1 X57.060 Y117.825 E13.4734
G1 X59.825 Y115.060 E13.6799
G1 X64.476 Y115.060 E13.9255
G1 X64.599 Y114.965 E13.9337
G1 X65.314 Y114.352 E13.9834
G1 X65.790 Y113.890 E14.0185
G1 X66.229 Y113.403 E14.0531
G1 X66.750 Y112.711 E14.0988
G1 X67.034 Y112.251 E14.1274
G1 X67.291 Y111.735 E14.1578
G1 X67.463 Y111.295 E14.1828
G1 X67.526 Y111.090 E14.1941
G1 X67.631 Y110.686 E14.2161
G1 X67.668 Y110.479 E14.2272
G1 X67.714 Y110.133 E14.2456
G1 X67.740 Y109.577 E14.2750
G1 X67.740 Y95.983 E14.9929
G1 X63.389 Y91.717 E15.3146
G1 X62.844 Y91.370 E15.3487
G1 X62.644 Y91.228 E15.3617
G1 X61.657 Y90.444 E15.4282
G1 X61.472 Y90.282 E15.4412
G1 X60.573 Y89.401 E15.5077
G1 X60.406 Y89.219 E15.5207
G1 X59.598 Y88.243 E15.5877
G1 X59.438 Y88.026 E15.6019
G1 X58.669 Y86.846 E15.6763
G1 X58.544 Y86.629 E15.6895
G1 X58.006 Y85.573 E15.7521
G1 X57.910 Y85.359 E15.7644
G1 X57.496 Y84.298 E15.8246
G1 X57.424 Y84.085 E15.8364
G1 X57.322 Y83.725 E15.8562
G1 X56.745 Y83.376 E15.8918
G1 X56.007 Y82.676 E15.9455
G1 X55.111 Y81.359 E16.0296
G1 X54.693 Y80.002 E16.1046
G1 X54.693 Y77.998 E16.2104
G1 X55.111 Y76.641 E16.2854
G1 X56.007 Y75.324 E16.3695
G1 X56.745 Y74.624 E16.4233
G92 E0.0000
G1 E-0.7000 F1500
G1 X57.038 Y75.008 F4800
G1 E0.0000 F1500
G92 E0.0000
G1 X57.955 Y74.453 E0.0566 F1800
G1 X58.541 Y74.209 E0.0901
G1 X59.440 Y73.984 E0.1391
G1 X59.950 Y73.921 E0.1662
G1 X69.547 Y73.891 E0.6730
G1 X69.554 Y73.891 E0.6733
G1 X130.446 Y73.891 E3.8887
G1 X130.453 Y73.891 E3.8890
G1 X140.050 Y73.921 E4.3958
G1 X140.560 Y73.984 E4.4229
G1 X141.459 Y74.209 E4.4718
G1 X142.045 Y74.453 E4.5054
G1 X142.962 Y75.008 E4.5620
G1 X143.626 Y75.637 E4.6102
G1 X144.452 Y76.851 E4.6878
G1 X144.827 Y78.071 E4.7552
G1 X144.827 Y79.929 E4.8533
G1 X144.452 Y81.149 E4.9207
G1 X143.626 Y82.363 E4.9983
G1 X142.962 Y82.992 E5.0465
G1 X142.045 Y83.547 E5.1031
G1 X141.459 Y83.791 E5.1367
G1 X140.556 Y84.017 E5.1858
G1 X140.040 Y84.080 E5.2133
G1 X137.900 Y84.080 E5.3263
G1 X137.900 Y88.854 E5.5783
G1 X137.238 Y90.430 E5.6686
G1 X131.780 Y95.781 E6.0722
G1 X131.780 Y109.589 E6.8013
G1 X131.806 Y110.133 E6.8301
G1 X131.907 Y110.800 E6.8657
G1 X132.107 Y111.511 E6.9047
G1 X132.270 Y111.930 E6.9284
G1 X132.553 Y112.499 E6.9620
G1 X132.809 Y112.920 E6.9880
G1 X133.402 Y113.711 E7.0402
G1 X133.864 Y114.223 E7.0766
G1 X134.372 Y114.716 E7.1140
G1 X134.901 Y115.176 E7.1510
G1 X135.357 Y115.540 E7.1819
G1 X139.976 Y115.540 E7.4257
G1 X142.460 Y118.024 E7.6112
G1 X142.460 Y125.976 E8.0311
G1 X139.976 Y128.460 E8.2166
G1 X132.024 Y128.460 E8.6365
G1 X129.667 Y126.103 E8.8125
G1 X128.529 Y126.109 E8.8726
G1 X128.513 Y126.109 E8.8735
G1 X116.158 Y126.076 E9.5258
G1 X114.557 Y124.470 E9.6456
G1 X112.947 Y126.080 E9.7658
G1 X99.817 Y126.080 E10.4591
G1 X98.208 Y124.471 E10.5793
G1 X96.598 Y126.080 E10.6995
G1 X83.468 Y126.080 E11.3928
G1 X81.859 Y124.471 E11.5130
G1 X80.249 Y126.080 E11.6332
G1 X70.356 Y126.080 E12.1556
G1 X67.976 Y128.460 E12.3333
G1 X60.024 Y128.460 E12.7532
G1 X57.540 Y125.976 E12.9387
G1 X57.540 Y118.024 E13.3586
G1 X60.024 Y115.540 E13.5441
G1 X64.638 Y115.540 E13.7878
G1 X64.902 Y115.338 E13.8053
G1 X65.637 Y114.707 E13.8565
G1 X66.136 Y114.223 E13.8932
G1 X66.600 Y113.708 E13.9298
G1 X67.147 Y112.982 E13.9778
G1 X67.454 Y112.484 E14.0087
G1 X67.730 Y111.930 E14.0414
G1 X67.916 Y111.454 E14.0684
G1 X67.988 Y111.221 E14.0812
G1 X68.100 Y110.788 E14.1048
G1 X68.143 Y110.553 E14.1175
G1 X68.192 Y110.176 E14.1375
G1 X68.220 Y109.589 E14.1686
G1 X68.220 Y95.781 E14.8977
G1 X63.689 Y91.339 E15.2327
G1 X63.112 Y90.972 E15.2688
G1 X62.933 Y90.844 E15.2805
G1 X61.965 Y90.076 E15.3457
G1 X61.799 Y89.930 E15.3574
G1 X60.918 Y89.067 E15.4225
G1 X60.767 Y88.904 E15.4342
G1 X59.976 Y87.948 E15.4998
G1 X59.833 Y87.753 E15.5125
G1 X59.078 Y86.594 E15.5855
G1 X58.966 Y86.400 E15.5974
G1 X58.439 Y85.365 E15.6587
G1 X58.353 Y85.174 E15.6698
G1 X57.947 Y84.134 E15.7287
G1 X57.883 Y83.943 E15.7394
G1 X57.732 Y83.412 E15.7685
G1 X57.038 Y82.992 E15.8114
G1 X56.374 Y82.363 E15.8596
G1 X55.548 Y81.149 E15.9372
G1 X55.173 Y79.929 E16.0046
G1 X55.173 Y78.071 E16.1027
G1 X55.548 Y76.851 E16.1701
G1 X56.374 Y75.637 E16.2477
G1 X57.038 Y75.008 E16.2959
G92 E0.0000
G1 E-0.7000 F1500
; feature inner perimeter
G1 X62.111 Y78.874 F4800
G1 E0.0000 F1500
G92 E0.0000
G1 X69.557 Y78.851 E0.3932 F1350
G1 X73.479 Y78.862 E0.6003
G1 X126.521 Y78.862 E3.4011
G1 X130.443 Y78.851 E3.6082
G1 X132.940 Y78.859 E3.7400
G1 X132.940 Y87.698 E4.2068
G1 X126.820 Y93.698 E4.6593
G1 X126.820 Y109.705 E5.5046
G1 X126.863 Y110.618 E5.5528
G1 X126.955 Y111.317 E5.5901
G1 X127.051 Y111.850 E5.6186
G1 X127.240 Y112.582 E5.6586
G1 X127.401 Y113.096 E5.6870
G1 X127.731 Y113.941 E5.7349
G1 X128.205 Y114.894 E5.7911
G1 X128.691 Y115.695 E5.8406
G1 X129.233 Y116.446 E5.8895
G1 X129.576 Y116.875 E5.9185
G1 X130.292 Y117.669 E5.9749
G1 X131.016 Y118.370 E6.0282
G1 X131.721 Y118.984 E6.0775
G1 X131.981 Y119.199 E6.0954
G1 X132.448 Y119.546 E6.1261
G1 X132.886 Y119.913 E6.1562
G1 X133.419 Y120.301 E6.1911
G1 X134.185 Y121.121 E6.2503
G1 X128.517 Y121.149 E6.5496
G1 X126.097 Y121.138 E6.6773
G1 X123.678 Y121.149 E6.8051
G1 X118.643 Y121.124 E7.0710
G1 X118.643 Y105.762 E7.8821
G1 X110.471 Y105.762 E8.3136
G1 X110.471 Y121.120 E9.1246
G1 X102.294 Y121.120 E9.5564
G1 X102.294 Y105.931 E10.3584
G1 X94.122 Y105.931 E10.7899
G1 X94.122 Y121.120 E11.5920
G1 X85.945 Y121.120 E12.0238
G1 X85.945 Y106.261 E12.8084
G1 X77.773 Y106.261 E13.2399
G1 X77.773 Y121.120 E14.0245
G1 X65.816 Y121.120 E14.6559
G1 X66.581 Y120.301 E14.7151
G1 X67.114 Y119.913 E14.7499
G1 X67.552 Y119.547 E14.7800
G1 X68.024 Y119.195 E14.8111
G1 X68.982 Y118.372 E14.8778
G1 X69.708 Y117.669 E14.9312
G1 X70.424 Y116.875 E14.9876
G1 X70.767 Y116.446 E15.0166
G1 X71.251 Y115.776 E15.0603
G1 X71.794 Y114.896 E15.1149
G1 X72.268 Y113.943 E15.1711
G1 X72.494 Y113.376 E15.2033
G1 X72.600 Y113.092 E15.2193
G1 X72.760 Y112.582 E15.2476
G1 X72.949 Y111.850 E15.2875
G1 X73.045 Y111.317 E15.3161
G1 X73.137 Y110.618 E15.3533
G1 X73.180 Y109.705 E15.4015
G1 X73.180 Y93.698 E16.2468
G1 X66.790 Y87.433 E16.7193
G1 X65.900 Y86.866 E16.7751
G1 X65.163 Y86.282 E16.8247
G1 X64.494 Y85.627 E16.8742
G1 X63.898 Y84.907 E16.9235
G1 X63.407 Y84.171 E16.9702
G1 X63.326 Y84.031 E16.9788
G1 X62.922 Y83.239 E17.0257
G1 X62.617 Y82.456 E17.0701
G1 X62.400 Y81.693 E17.1119
G1 X62.309 Y81.261 E17.1353
G1 X62.200 Y80.486 E17.1766
G1 X62.111 Y78.874 E17.2619
; feature outer perimeter
G1 X61.671 Y79.606 F4800
G92 E0.0000
G1 X60.988 Y79.618 E0.0360 F900
G1 X60.252 Y79.601 E0.0749
G1 X59.971 Y79.531 E0.0902
G1 X59.792 Y79.422 E0.1013
G1 X59.653 Y79.217 E0.1144
G1 X59.653 Y78.783 E0.1373
G1 X59.792 Y78.578 E0.1504
G1 X59.971 Y78.469 E0.1615
G1 X60.250 Y78.400 E0.1766
G1 X69.557 Y78.371 E0.6681
G1 X73.480 Y78.382 E0.8752
G1 X126.520 Y78.382 E3.6760
G1 X130.443 Y78.371 E3.8831
G1 X139.750 Y78.400 E4.3746
G1 X140.029 Y78.469 E4.3897
G1 X140.208 Y78.578 E4.4008
G1 X140.347 Y78.783 E4.4139
G1 X140.347 Y79.217 E4.4368
G1 X140.208 Y79.422 E4.4499
G1 X140.029 Y79.531 E4.4610
G1 X139.750 Y79.600 E4.4761
G1 X133.420 Y79.600 E4.8104
G1 X133.420 Y87.899 E5.2486
G1 X127.300 Y93.899 E5.7012
G1 X127.300 Y109.694 E6.5352
G1 X127.341 Y110.575 E6.5818
G1 X127.430 Y111.243 E6.6173
G1 X127.520 Y111.747 E6.6444
G1 X127.702 Y112.450 E6.6827
G1 X127.854 Y112.937 E6.7097
G1 X128.170 Y113.746 E6.7555
G1 X128.626 Y114.662 E6.8096
G1 X129.091 Y115.429 E6.8569
G1 X129.616 Y116.156 E6.9043
G1 X129.942 Y116.564 E6.9319
G1 X130.638 Y117.335 E6.9867
G1 X131.341 Y118.017 E7.0384
G1 X132.032 Y118.618 E7.0868
G1 X132.278 Y118.821 E7.1036
G1 X132.746 Y119.170 E7.1344
G1 X133.181 Y119.535 E7.1644
G1 X133.738 Y119.940 E7.2008
G1 X134.145 Y120.375 E7.2323
G1 X134.521 Y120.469 E7.2527
G1 X134.700 Y120.578 E7.2638
G1 X134.839 Y120.783 E7.2769
G1 X134.839 Y121.217 E7.2998
G1 X134.700 Y121.422 E7.3129
G1 X134.521 Y121.531 E7.3240
G1 X134.242 Y121.600 E7.3392
G1 X128.516 Y121.629 E7.6415
G1 X126.097 Y121.618 E7.7692
G1 X123.679 Y121.629 E7.8969
G1 X118.163 Y121.601 E8.1882
G1 X118.163 Y106.242 E8.9992
G1 X110.951 Y106.242 E9.3801
G1 X110.951 Y121.600 E10.1910
G1 X101.814 Y121.600 E10.6735
G1 X101.814 Y106.411 E11.4755
G1 X94.602 Y106.411 E11.8564
G1 X94.602 Y121.600 E12.6584
G1 X85.465 Y121.600 E13.1409
G1 X85.465 Y106.741 E13.9255
G1 X78.253 Y106.741 E14.3063
G1 X78.253 Y121.600 E15.0909
G1 X65.758 Y121.600 E15.7507
G1 X65.479 Y121.531 E15.7659
G1 X65.300 Y121.422 E15.7769
G1 X65.161 Y121.217 E15.7900
G1 X65.161 Y120.783 E15.8130
G1 X65.300 Y120.578 E15.8261
