; G-Code generated by Simplify3D(R) Version 4.1.1
; Apr 27, 2021 at 8:45:41 AM
; Settings Summary
;   processName,Trideo BOX
;   applyToModels,x1
;   profileName,Trideo BOX
;   profileVersion,2021-04-15 09:48:16
;   baseProfile,Default
;   printMaterial,PLA
;   printQuality,Fast
;   printExtruders,
;   extruderName,Primary Extruder
;   extruderToolheadNumber,0
;   extruderDiameter,0.4
;   extruderAutoWidth,1
;   extruderWidth,0.48
;   extrusionMultiplier,0.98
;   extruderUseRetract,1
;   extruderRetractionDistance,0.7
;   extruderExtraRestartDistance,0
;   extruderRetractionZLift,0
;   extruderRetractionSpeed,1500
;   extruderUseCoasting,0
;   extruderCoastingDistance,0.2
;   extruderUseWipe,0
;   extruderWipeDistance,5
;   primaryExtruder,0
;   layerHeight,0.3
;   topSolidLayers,3
;   bottomSolidLayers,3
;   perimeterOutlines,2
;   printPerimetersInsideOut,1
;   startPointOption,2
;   startPointOriginX,0
;   startPointOriginY,0
;   sequentialIslands,0
;   spiralVaseMode,0
;   firstLayerHeightPercentage,90
;   firstLayerWidthPercentage,100
;   firstLayerUnderspeed,0.5
;   useRaft,0
;   raftExtruder,0
;   raftTopLayers,3
;   raftBaseLayers,2
;   raftOffset,3
;   raftSeparationDistance,0.14
;   raftTopInfill,100
;   aboveRaftSpeedMultiplier,0.3
;   useSkirt,1
;   skirtExtruder,0
;   skirtLayers,1
;   skirtOutlines,2
;   skirtOffset,4
;   usePrimePillar,0
;   primePillarExtruder,999
;   primePillarWidth,12
;   primePillarLocation,7
;   primePillarSpeedMultiplier,1
;   useOozeShield,0
;   oozeShieldExtruder,999
;   oozeShieldOffset,2
;   oozeShieldOutlines,1
;   oozeShieldSidewallShape,1
;   oozeShieldSidewallAngle,30
;   oozeShieldSpeedMultiplier,1
;   infillExtruder,0
;   internalInfillPattern,Rectilinear
;   externalInfillPattern,Rectilinear
;   infillPercentage,15
;   outlineOverlapPercentage,15
;   infillExtrusionWidthPercentage,100
;   minInfillLength,5
;   infillLayerInterval,1
;   internalInfillAngles,45,-45
;   overlapInternalInfillAngles,0
;   externalInfillAngles,45,-45
;   generateSupport,1
;   supportExtruder,0
;   supportInfillPercentage,25
;   supportExtraInflation,0
;   supportBaseLayers,0
;   denseSupportExtruder,0
;   denseSupportLayers,0
;   denseSupportInfillPercentage,70
;   supportLayerInterval,1
;   supportHorizontalPartOffset,0.3
;   supportUpperSeparationLayers,1
;   supportLowerSeparationLayers,1
;   supportType,0
;   supportGridSpacing,4
;   maxOverhangAngle,45
;   supportAngles,0
;   temperatureName,Primary Extruder,Heated bed
;   temperatureNumber,0,0
;   temperatureSetpointCount,1,1
;   temperatureSetpointLayers,1,1
;   temperatureSetpointTemperatures,190,60
;   temperatureStabilizeAtStartup,1,1
;   temperatureHeatedBed,0,1
;   fanLayers,1,2
;   fanSpeeds,0,100
;   blipFanToFullPower,0
;   adjustSpeedForCooling,1
;   minSpeedLayerTime,15
;   minCoolingSpeedSlowdown,20
;   increaseFanForCooling,0
;   minFanLayerTime,45
;   maxCoolingFanSpeed,100
;   increaseFanForBridging,0
;   bridgingFanSpeed,100
;   use5D,1
;   relativeEdistances,0
;   allowEaxisZeroing,1
;   independentExtruderAxes,0
;   includeM10123,0
;   stickySupport,1
;   applyToolheadOffsets,0
;   gcodeXoffset,0
;   gcodeYoffset,0
;   gcodeZoffset,0
;   overrideMachineDefinition,1
;   machineTypeOverride,0
;   strokeXoverride,200
;   strokeYoverride,200
;   strokeZoverride,200
;   originOffsetXoverride,0
;   originOffsetYoverride,0
;   originOffsetZoverride,0
;   homeXdirOverride,-1
;   homeYdirOverride,-1
;   homeZdirOverride,-1
;   flipXoverride,1
;   flipYoverride,-1
;   flipZoverride,1
;   toolheadOffsets,0,0|0,0|0,0|0,0|0,0|0,0
;   overrideFirmwareConfiguration,0
;   firmwareTypeOverride,RepRap (Marlin/Repetier/Sprinter)
;   GPXconfigOverride,r2
;   baudRateOverride,115200
;   overridePrinterModels,0
;   printerModelsOverride
;   startingGcode,G28 X0 Y0; home XY,G1 X20 Y20,G28 Z0,G1 Z5 F5000; Lift NZ
;   layerChangeGcode,
;   retractionGcode,
;   toolChangeGcode,
;   endingGcode,M104 S0 ; turn off extruder,G28 X0 ; home x,M140 S0 ; turn off bed,M84 ; disable motors,M107 ;
;   exportFileFormat,gcode
;   celebration,0
;   celebrationSong,Looney Toons
;   postProcessing,
;   defaultSpeed,3600
;   outlineUnderspeed,0.5
;   solidInfillUnderspeed,0.8
;   supportUnderspeed,0.8
;   rapidXYspeed,4800
;   rapidZspeed,1002
;   minBridgingArea,50
;   bridgingExtraInflation,0
;   bridgingExtrusionMultiplier,1
;   bridgingSpeedMultiplier,1
;   useFixedBridgingAngle,0
;   fixedBridgingAngle,0
;   applyBridgingToPerimeters,0
;   filamentDiameters,1.75|1.75|1.75|1.75|1.75|1.75
;   filamentPricesPerKg,46|46|46|46|46|46
;   filamentDensities,1.25|1.25|1.25|1.25|1.25|1.25
;   useMinPrintHeight,0
;   minPrintHeight,0
;   useMaxPrintHeight,0
;   maxPrintHeight,0
;   useDiaphragm,0
;   diaphragmLayerInterval,20
;   robustSlicing,1
;   mergeAllIntoSolid,0
;   onlyRetractWhenCrossingOutline,1
;   retractBetweenLayers,1
;   useRetractionMinTravel,0
;   retractionMinTravel,3
;   retractWhileWiping,0
;   onlyWipeOutlines,1
;   avoidCrossingOutline,0
;   maxMovementDetourFactor,3
;   toolChangeRetractionDistance,12
;   toolChangeExtraRestartDistance,-0.5
;   toolChangeRetractionSpeed,600
;   externalThinWallType,0
;   internalThinWallType,2
;   thinWallAllowedOverlapPercentage,10
;   singleExtrusionMinLength,1
;   singleExtrusionMinPrintingWidthPercentage,50
;   singleExtrusionMaxPrintingWidthPercentage,200
;   singleExtrusionEndpointExtension,0.2
;   horizontalSizeCompensation,0
G90
M82
M106 S0
M140 S60
M190 S60
M104 S190 T0
M109 S190 T0
G28 X0 Y0; home XY
G1 X20 Y20
G28 Z0
G1 Z5 F5000; Lift NZ
; process Trideo BOX
; layer 1, Z = 0.270
T0
G92 E0.0000
G1 E-0.7000 F1500
; feature skirt
; tool H0.270 W0.480
G1 Z0.270 F1002
G1 X66.282 Y80.293 F4800
G1 E0.0000 F1500
G92 E0.0000
G1 X67.631 Y79.320 E0.0878 F1800
G1 X69.189 Y78.879 E0.1733
G1 X69.828 Y78.790 E0.2074
G1 X73.782 Y78.777 E0.4161
G1 X73.790 Y78.777 E0.4166
G1 X130.162 Y78.789 E3.3932
G1 X130.807 Y78.878 E3.4276
G1 X132.369 Y79.320 E3.5133
G1 X133.717 Y80.293 E3.6011
G1 X134.857 Y81.967 E3.7080
G1 X135.275 Y83.325 E3.7831
G1 X135.275 Y85.222 E3.8832
G1 X134.801 Y86.659 E3.9631
G1 X133.550 Y88.355 E4.0744
G1 X132.184 Y89.270 E4.1612
G1 X130.699 Y89.641 E4.2420
G1 X130.124 Y89.711 E4.2726
G1 X129.965 Y89.711 E4.2810
G1 X129.965 Y91.951 E4.3993
G1 X129.228 Y93.705 E4.4997
G1 X125.375 Y97.483 E4.7847
G1 X125.375 Y107.146 E5.2949
G1 X125.389 Y107.446 E5.3108
G1 X125.439 Y107.767 E5.3279
G1 X125.535 Y108.111 E5.3468
G1 X125.612 Y108.310 E5.3581
G1 X125.763 Y108.612 E5.3759
G1 X125.887 Y108.816 E5.3885
G1 X126.205 Y109.238 E5.4164
G1 X126.489 Y109.553 E5.4388
G1 X126.811 Y109.862 E5.4624
G1 X127.118 Y110.125 E5.4837
G1 X127.932 Y110.734 E5.5374
G1 X128.238 Y110.820 E5.5542
G1 X129.587 Y111.793 E5.6420
G1 X130.726 Y113.467 E5.7489
G1 X131.144 Y114.825 E5.8239
G1 X131.144 Y116.722 E5.9241
G1 X130.671 Y118.159 E6.0040
G1 X129.419 Y119.855 E6.1153
G1 X128.053 Y120.770 E6.2021
G1 X126.568 Y121.141 E6.2829
G1 X125.993 Y121.211 E6.3135
G1 X111.487 Y121.211 E7.0795
G1 X110.918 Y120.642 E7.1220
G1 X110.348 Y121.211 E7.1645
G1 X99.225 Y121.211 E7.7519
G1 X98.656 Y120.642 E7.7944
G1 X98.086 Y121.211 E7.8369
G1 X86.963 Y121.211 E8.4242
G1 X86.394 Y120.642 E8.4668
G1 X85.825 Y121.211 E8.5093
G1 X73.970 Y121.211 E9.1352
G1 X73.324 Y121.122 E9.1697
G1 X71.762 Y120.680 E9.2554
G1 X70.413 Y119.707 E9.3432
G1 X69.274 Y118.033 E9.4501
G1 X68.856 Y116.675 E9.5251
G1 X68.856 Y114.825 E9.6228
G1 X69.274 Y113.467 E9.6978
G1 X70.413 Y111.793 E9.8048
G1 X71.762 Y110.820 E9.8926
G1 X72.074 Y110.732 E9.9097
G1 X72.751 Y110.230 E9.9542
G1 X73.201 Y109.851 E9.9853
G1 X73.511 Y109.553 E10.0080
G1 X73.799 Y109.233 E10.0307
G1 X74.073 Y108.871 E10.0547
G1 X74.247 Y108.592 E10.0720
G1 X74.366 Y108.354 E10.0861
G1 X74.527 Y107.913 E10.1109
G1 X74.556 Y107.802 E10.1169
G1 X74.611 Y107.446 E10.1360
G1 X74.625 Y107.146 E10.1518
G1 X74.625 Y97.483 E10.6621
G1 X71.804 Y94.717 E10.8707
G1 X71.475 Y94.508 E10.8913
G1 X71.276 Y94.366 E10.9042
G1 X70.488 Y93.741 E10.9573
G1 X70.304 Y93.579 E10.9702
G1 X69.586 Y92.877 E11.0232
G1 X69.420 Y92.696 E11.0362
G1 X68.769 Y91.911 E11.0900
G1 X68.602 Y91.683 E11.1050
G1 X67.944 Y90.662 E11.1692
G1 X67.817 Y90.439 E11.1827
G1 X67.412 Y89.630 E11.2305
G1 X67.323 Y89.430 E11.2420
G1 X67.065 Y88.767 E11.2796
G1 X66.450 Y88.355 E11.3187
G1 X65.199 Y86.659 E11.4300
G1 X64.725 Y85.222 E11.5099
G1 X64.725 Y83.325 E11.6100
G1 X65.143 Y81.967 E11.6851
G1 X66.282 Y80.293 E11.7920
G92 E0.0000
G1 E-0.7000 F1500
G1 X66.632 Y80.633 F4800
G1 E0.0000 F1500
G92 E0.0000
G1 X67.843 Y79.759 E0.0789 F1800
G1 X69.289 Y79.350 E0.1582
G1 X69.862 Y79.269 E0.1888
G1 X73.783 Y79.257 E0.3958
G1 X73.790 Y79.257 E0.3962
G1 X130.129 Y79.269 E3.3711
G1 X130.709 Y79.349 E3.4020
G1 X132.157 Y79.759 E3.4814
G1 X133.368 Y80.633 E3.5603
G1 X134.419 Y82.177 E3.6590
G1 X134.795 Y83.397 E3.7264
G1 X134.795 Y85.145 E3.8186
G1 X134.370 Y86.436 E3.8904
G1 X133.214 Y88.002 E3.9932
G1 X131.986 Y88.824 E4.0712
G1 X130.611 Y89.168 E4.1461
G1 X130.095 Y89.231 E4.1735
G1 X129.485 Y89.231 E4.2057
G1 X129.485 Y91.854 E4.3442
G1 X128.823 Y93.430 E4.4344
G1 X124.895 Y97.281 E4.7249
G1 X124.895 Y107.157 E5.2464
G1 X124.911 Y107.494 E5.2642
G1 X124.969 Y107.868 E5.2842
G1 X125.079 Y108.263 E5.3059
G1 X125.173 Y108.505 E5.3196
G1 X125.343 Y108.845 E5.3397
G1 X125.489 Y109.085 E5.3545
G1 X125.834 Y109.543 E5.3848
G1 X126.144 Y109.887 E5.4093
G1 X126.489 Y110.218 E5.4345
G1 X126.818 Y110.500 E5.4574
G1 X127.716 Y111.171 E5.5166
G1 X128.025 Y111.259 E5.5336
G1 X129.237 Y112.133 E5.6124
G1 X130.288 Y113.677 E5.7111
G1 X130.664 Y114.897 E5.7785
G1 X130.664 Y116.645 E5.8708
G1 X130.239 Y117.936 E5.9426
G1 X129.083 Y119.502 E6.0453
G1 X127.855 Y120.324 E6.1233
G1 X126.480 Y120.668 E6.1982
G1 X125.964 Y120.731 E6.2256
G1 X111.686 Y120.731 E6.9796
G1 X110.918 Y119.963 E7.0369
G1 X110.149 Y120.731 E7.0943
G1 X99.424 Y120.731 E7.6607
G1 X98.656 Y119.963 E7.7180
G1 X97.888 Y120.731 E7.7754
G1 X87.162 Y120.731 E8.3417
G1 X86.394 Y119.963 E8.3991
G1 X85.626 Y120.731 E8.4565
G1 X74.003 Y120.731 E9.0702
G1 X73.423 Y120.651 E9.1011
G1 X71.975 Y120.241 E9.1806
G1 X70.763 Y119.367 E9.2595
G1 X69.712 Y117.823 E9.3581
G1 X69.336 Y116.603 E9.4255
G1 X69.336 Y114.897 E9.5156
G1 X69.712 Y113.677 E9.5830
G1 X70.763 Y112.133 E9.6816
G1 X71.975 Y111.259 E9.7605
G1 X72.289 Y111.170 E9.7778
G1 X73.049 Y110.606 E9.8277
G1 X73.522 Y110.208 E9.8604
G1 X73.856 Y109.887 E9.8848
G1 X74.170 Y109.539 E9.9096
G1 X74.469 Y109.143 E9.9358
G1 X74.666 Y108.827 E9.9555
G1 X74.807 Y108.544 E9.9722
G1 X74.985 Y108.057 E9.9996
G1 X75.027 Y107.900 E10.0081
G1 X75.089 Y107.494 E10.0298
G1 X75.105 Y107.157 E10.0476
G1 X75.105 Y97.281 E10.5691
G1 X72.104 Y94.339 E10.7910
G1 X71.743 Y94.109 E10.8136
G1 X71.564 Y93.982 E10.8252
G1 X70.796 Y93.373 E10.8770
G1 X70.630 Y93.227 E10.8886
G1 X69.931 Y92.543 E10.9403
G1 X69.781 Y92.380 E10.9520
G1 X69.148 Y91.616 E11.0044
G1 X68.997 Y91.411 E11.0178
G1 X68.354 Y90.413 E11.0805
G1 X68.241 Y90.213 E11.0927
G1 X67.846 Y89.425 E11.1392
G1 X67.767 Y89.245 E11.1496
G1 X67.473 Y88.491 E11.1923
G1 X67.460 Y88.454 E11.1944
G1 X66.786 Y88.002 E11.2372
G1 X65.630 Y86.436 E11.3400
G1 X65.205 Y85.145 E11.4118
G1 X65.205 Y83.397 E11.5041
G1 X65.581 Y82.177 E11.5715
G1 X66.632 Y80.633 E11.6701
G92 E0.0000
G1 E-0.7000 F1500
; feature inner perimeter
G1 X71.753 Y84.224 F4800
G1 E0.0000 F1500
G92 E0.0000
G1 X73.793 Y84.217 E0.1077 F1350
G1 X80.109 Y84.235 E0.4413
G1 X119.891 Y84.235 E2.5419
G1 X124.525 Y84.222 E2.7866
G1 X124.525 Y90.698 E3.1285
G1 X119.935 Y95.198 E3.4679
G1 X119.935 Y107.276 E4.1057
G1 X119.969 Y107.982 E4.1430
G1 X120.033 Y108.465 E4.1687
G1 X120.112 Y108.917 E4.1930
G1 X120.272 Y109.524 E4.2261
G1 X120.371 Y109.842 E4.2437
G1 X120.633 Y110.516 E4.2819
G1 X121.000 Y111.249 E4.3252
G1 X121.380 Y111.873 E4.3637
G1 X122.003 Y112.701 E4.4185
G1 X122.581 Y113.342 E4.4640
G1 X123.157 Y113.895 E4.5062
G1 X123.720 Y114.376 E4.5453
G1 X124.166 Y114.707 E4.5747
G1 X124.561 Y115.026 E4.6015
G1 X125.190 Y115.475 E4.6423
G1 X125.095 Y115.775 E4.6589
G1 X123.469 Y115.783 E4.7448
G1 X119.573 Y115.765 E4.9505
G1 X115.678 Y115.783 E5.1562
G1 X114.162 Y115.775 E5.2362
G1 X114.162 Y104.142 E5.8505
G1 X107.673 Y104.142 E6.1932
G1 X107.673 Y115.771 E6.8073
G1 X101.900 Y115.771 E7.1121
G1 X101.900 Y104.269 E7.7195
G1 X95.411 Y104.269 E8.0621
G1 X95.411 Y115.771 E8.6695
G1 X89.638 Y115.771 E8.9743
G1 X89.638 Y104.516 E9.5687
G1 X83.149 Y104.516 E9.9113
G1 X83.149 Y115.771 E10.5057
G1 X74.911 Y115.771 E10.9407
G1 X74.815 Y115.471 E10.9574
G1 X75.439 Y115.026 E10.9978
G1 X75.828 Y114.712 E11.0243
G1 X76.122 Y114.503 E11.0433
G1 X76.841 Y113.897 E11.0929
G1 X77.419 Y113.342 E11.1353
G1 X77.997 Y112.702 E11.1808
G1 X78.561 Y111.955 E11.2302
G1 X78.999 Y111.252 E11.2740
G1 X79.366 Y110.519 E11.3172
G1 X79.527 Y110.112 E11.3404
G1 X79.726 Y109.533 E11.3727
G1 X79.890 Y108.909 E11.4068
G1 X80.031 Y107.990 E11.4559
G1 X80.065 Y107.276 E11.4936
G1 X80.065 Y95.198 E12.1314
G1 X75.205 Y90.433 E12.4908
G1 X74.530 Y90.004 E12.5330
G1 X73.993 Y89.578 E12.5692
G1 X73.505 Y89.101 E12.6052
G1 X73.070 Y88.576 E12.6412
G1 X72.731 Y88.072 E12.6733
G1 X72.615 Y87.872 E12.6855
G1 X72.341 Y87.323 E12.7179
G1 X72.252 Y87.096 E12.7308
G1 X72.138 Y86.802 E12.7474
G1 X72.000 Y86.335 E12.7731
G1 X71.897 Y85.864 E12.7986
G1 X71.834 Y85.412 E12.8227
G1 X71.753 Y84.224 E12.8856
; feature outer perimeter
G1 X71.307 Y84.746 F4800
G92 E0.0000
G1 X70.194 Y84.751 E0.0588 F900
G1 X69.876 Y84.672 E0.0761
G1 X69.685 Y84.391 E0.0940
G1 X69.685 Y84.109 E0.1089
G1 X69.876 Y83.828 E0.1268
G1 X70.195 Y83.748 E0.1442
G1 X73.793 Y83.737 E0.3341
G1 X80.110 Y83.755 E0.6677
G1 X119.890 Y83.755 E2.7683
G1 X126.207 Y83.737 E3.1018
G1 X129.805 Y83.748 E3.2918
G1 X130.124 Y83.828 E3.3092
G1 X130.315 Y84.109 E3.3271
G1 X130.315 Y84.391 E3.3420
G1 X130.124 Y84.672 E3.3599
G1 X129.805 Y84.751 E3.3772
G1 X125.005 Y84.751 E3.6307
G1 X125.005 Y90.899 E3.9553
G1 X120.415 Y95.399 E4.2948
G1 X120.415 Y107.264 E4.9213
G1 X120.447 Y107.939 E4.9570
G1 X120.507 Y108.392 E4.9811
G1 X120.582 Y108.814 E5.0037
G1 X120.733 Y109.391 E5.0352
G1 X120.824 Y109.683 E5.0514
G1 X121.073 Y110.322 E5.0876
G1 X121.420 Y111.016 E5.1286
G1 X121.777 Y111.603 E5.1648
G1 X122.373 Y112.396 E5.2172
G1 X122.925 Y113.007 E5.2607
G1 X123.479 Y113.540 E5.3013
G1 X124.019 Y114.000 E5.3387
G1 X124.460 Y114.328 E5.3678
G1 X124.852 Y114.644 E5.3943
G1 X125.400 Y115.034 E5.4299
G1 X125.577 Y115.224 E5.4436
G1 X125.993 Y115.328 E5.4662
G1 X126.184 Y115.609 E5.4841
G1 X126.184 Y115.891 E5.4990
G1 X125.993 Y116.172 E5.5170
G1 X125.674 Y116.252 E5.5343
G1 X123.468 Y116.263 E5.6508
G1 X119.573 Y116.245 E5.8565
G1 X115.678 Y116.263 E6.0621
G1 X113.682 Y116.253 E6.1675
G1 X113.682 Y104.622 E6.7817
G1 X108.153 Y104.622 E7.0736
G1 X108.153 Y116.251 E7.6878
G1 X101.420 Y116.251 E8.0433
G1 X101.420 Y104.749 E8.6507
G1 X95.891 Y104.749 E8.9426
G1 X95.891 Y116.251 E9.5500
G1 X89.158 Y116.251 E9.9055
G1 X89.158 Y104.996 E10.4999
G1 X83.629 Y104.996 E10.7918
G1 X83.629 Y116.251 E11.3862
G1 X74.326 Y116.251 E11.8775
G1 X74.007 Y116.172 E11.8948
G1 X73.816 Y115.891 E11.9127
G1 X73.816 Y115.609 E11.9276
G1 X74.007 Y115.328 E11.9455
G1 X74.423 Y115.224 E11.9682
G1 X74.600 Y115.034 E11.9819
G1 X75.148 Y114.644 E12.0174
G1 X75.538 Y114.329 E12.0439
G1 X75.828 Y114.123 E12.0626
G1 X76.520 Y113.540 E12.1104
G1 X77.075 Y113.007 E12.1510
G1 X77.626 Y112.396 E12.1945
G1 X78.165 Y111.683 E12.2417
G1 X78.580 Y111.017 E12.2831
G1 X78.927 Y110.323 E12.3241
G1 X79.077 Y109.945 E12.3456
G1 X79.266 Y109.394 E12.3763
G1 X79.419 Y108.811 E12.4082
G1 X79.553 Y107.942 E12.4546
G1 X79.585 Y107.264 E12.4904
G1 X79.585 Y95.399 E13.1169
G1 X74.905 Y90.811 E13.4630
G1 X74.251 Y90.395 E13.5039
G1 X73.675 Y89.939 E13.5427
G1 X73.151 Y89.426 E13.5814
G1 X72.686 Y88.864 E13.6200
G1 X72.324 Y88.326 E13.6542
G1 X72.193 Y88.100 E13.6680
G1 X71.902 Y87.518 E13.7024
G1 X71.805 Y87.270 E13.7165
G1 X71.684 Y86.958 E13.7341
G1 X71.535 Y86.455 E13.7618
G1 X71.425 Y85.949 E13.7892
G1 X71.356 Y85.462 E13.8151
