; G-Code generated by Simplify3D(R) Version 4.1.1
; Apr 27, 2021 at 7:40:27 PM
; Settings Summary
;   processName,Trideo BOX
;   applyToModels,Thumb connector
;   profileName,Trideo BOX
;   profileVersion,2021-04-15 09:48:16
;   baseProfile,Default
;   printMaterial,PLA
;   printQuality,Fast
;   printExtruders,
;   extruderName,Primary Extruder
;   extruderToolheadNumber,0
;   extruderDiameter,0.4
;   extruderAutoWidth,1
;   extruderWidth,0.48
;   extrusionMultiplier,0.98
;   extruderUseRetract,1
;   extruderRetractionDistance,0.7
;   extruderExtraRestartDistance,0
;   extruderRetractionZLift,0
;   extruderRetractionSpeed,1500
;   extruderUseCoasting,0
;   extruderCoastingDistance,0.2
;   extruderUseWipe,0
;   extruderWipeDistance,5
;   primaryExtruder,0
;   layerHeight,0.3
;   topSolidLayers,3
;   bottomSolidLayers,3
;   perimeterOutlines,2
;   printPerimetersInsideOut,1
;   startPointOption,2
;   startPointOriginX,0
;   startPointOriginY,0
;   sequentialIslands,0
;   spiralVaseMode,0
;   firstLayerHeightPercentage,90
;   firstLayerWidthPercentage,100
;   firstLayerUnderspeed,0.5
;   useRaft,0
;   raftExtruder,0
;   raftTopLayers,3
;   raftBaseLayers,2
;   raftOffset,3
;   raftSeparationDistance,0.14
;   raftTopInfill,100
;   aboveRaftSpeedMultiplier,0.3
;   useSkirt,1
;   skirtExtruder,0
;   skirtLayers,1
;   skirtOutlines,2
;   skirtOffset,4
;   usePrimePillar,0
;   primePillarExtruder,999
;   primePillarWidth,12
;   primePillarLocation,7
;   primePillarSpeedMultiplier,1
;   useOozeShield,0
;   oozeShieldExtruder,999
;   oozeShieldOffset,2
;   oozeShieldOutlines,1
;   oozeShieldSidewallShape,1
;   oozeShieldSidewallAngle,30
;   oozeShieldSpeedMultiplier,1
;   infillExtruder,0
;   internalInfillPattern,Rectilinear
;   externalInfillPattern,Rectilinear
;   infillPercentage,15
;   outlineOverlapPercentage,15
;   infillExtrusionWidthPercentage,100
;   minInfillLength,5
;   infillLayerInterval,1
;   internalInfillAngles,45,-45
;   overlapInternalInfillAngles,0
;   externalInfillAngles,45,-45
;   generateSupport,1
;   supportExtruder,0
;   supportInfillPercentage,25
;   supportExtraInflation,0
;   supportBaseLayers,0
;   denseSupportExtruder,0
;   denseSupportLayers,0
;   denseSupportInfillPercentage,70
;   supportLayerInterval,1
;   supportHorizontalPartOffset,0.3
;   supportUpperSeparationLayers,1
;   supportLowerSeparationLayers,1
;   supportType,0
;   supportGridSpacing,4
;   maxOverhangAngle,45
;   supportAngles,0
;   temperatureName,Primary Extruder,Heated bed
;   temperatureNumber,0,0
;   temperatureSetpointCount,1,1
;   temperatureSetpointLayers,1,1
;   temperatureSetpointTemperatures,190,60
;   temperatureStabilizeAtStartup,1,1
;   temperatureHeatedBed,0,1
;   fanLayers,1,2
;   fanSpeeds,0,100
;   blipFanToFullPower,0
;   adjustSpeedForCooling,1
;   minSpeedLayerTime,15
;   minCoolingSpeedSlowdown,20
;   increaseFanForCooling,0
;   minFanLayerTime,45
;   maxCoolingFanSpeed,100
;   increaseFanForBridging,0
;   bridgingFanSpeed,100
;   use5D,1
;   relativeEdistances,0
;   allowEaxisZeroing,1
;   independentExtruderAxes,0
;   includeM10123,0
;   stickySupport,1
;   applyToolheadOffsets,0
;   gcodeXoffset,0
;   gcodeYoffset,0
;   gcodeZoffset,0
;   overrideMachineDefinition,1
;   machineTypeOverride,0
;   strokeXoverride,200
;   strokeYoverride,200
;   strokeZoverride,200
;   originOffsetXoverride,0
;   originOffsetYoverride,0
;   originOffsetZoverride,0
;   homeXdirOverride,-1
;   homeYdirOverride,-1
;   homeZdirOverride,-1
;   flipXoverride,1
;   flipYoverride,-1
;   flipZoverride,1
;   toolheadOffsets,0,0|0,0|0,0|0,0|0,0|0,0
;   overrideFirmwareConfiguration,0
;   firmwareTypeOverride,RepRap (Marlin/Repetier/Sprinter)
;   GPXconfigOverride,r2
;   baudRateOverride,115200
;   overridePrinterModels,0
;   printerModelsOverride
;   startingGcode,G28 X0 Y0; home XY,G1 X20 Y20,G28 Z0,G1 Z5 F5000; Lift NZ
;   layerChangeGcode,
;   retractionGcode,
;   toolChangeGcode,
;   endingGcode,M104 S0 ; turn off extruder,G28 X0 ; home x,M140 S0 ; turn off bed,M84 ; disable motors,M107 ;
;   exportFileFormat,gcode
;   celebration,0
;   celebrationSong,Looney Toons
;   postProcessing,
;   defaultSpeed,3600
;   outlineUnderspeed,0.5
;   solidInfillUnderspeed,0.8
;   supportUnderspeed,0.8
;   rapidXYspeed,4800
;   rapidZspeed,1002
;   minBridgingArea,50
;   bridgingExtraInflation,0
;   bridgingExtrusionMultiplier,1
;   bridgingSpeedMultiplier,1
;   useFixedBridgingAngle,0
;   fixedBridgingAngle,0
;   applyBridgingToPerimeters,0
;   filamentDiameters,1.75|1.75|1.75|1.75|1.75|1.75
;   filamentPricesPerKg,46|46|46|46|46|46
;   filamentDensities,1.25|1.25|1.25|1.25|1.25|1.25
;   useMinPrintHeight,0
;   minPrintHeight,0
;   useMaxPrintHeight,0
;   maxPrintHeight,0
;   useDiaphragm,0
;   diaphragmLayerInterval,20
;   robustSlicing,1
;   mergeAllIntoSolid,0
;   onlyRetractWhenCrossingOutline,1
;   retractBetweenLayers,1
;   useRetractionMinTravel,0
;   retractionMinTravel,3
;   retractWhileWiping,0
;   onlyWipeOutlines,1
;   avoidCrossingOutline,0
;   maxMovementDetourFactor,3
;   toolChangeRetractionDistance,12
;   toolChangeExtraRestartDistance,-0.5
;   toolChangeRetractionSpeed,600
;   externalThinWallType,0
;   internalThinWallType,2
;   thinWallAllowedOverlapPercentage,10
;   singleExtrusionMinLength,1
;   singleExtrusionMinPrintingWidthPercentage,50
;   singleExtrusionMaxPrintingWidthPercentage,200
;   singleExtrusionEndpointExtension,0.2
;   horizontalSizeCompensation,0
G90
M82
M106 S0
M140 S60
M190 S60
M104 S190 T0
M109 S190 T0
G28 X0 Y0; home XY
G1 X20 Y20
G28 Z0
G1 Z5 F5000; Lift NZ
; process Trideo BOX
; layer 1, Z = 0.270
T0
G92 E0.0000
G1 E-0.7000 F1500
; feature skirt
; tool H0.270 W0.480
G1 Z0.270 F1002
G1 X66.123 Y96.737 F4800
G1 E0.0000 F1500
G92 E0.0000
G1 X70.923 Y96.654 E0.2535 F1800
G1 X82.827 Y96.020 E0.8830
G1 X88.416 Y95.692 E1.1786
G1 X92.120 Y95.427 E1.3747
G1 X95.803 Y95.112 E1.5699
G1 X99.452 Y94.731 E1.7636
G1 X103.063 Y94.268 E1.9559
G1 X105.911 Y93.821 E2.1081
G1 X108.711 Y93.291 E2.2585
G1 X111.465 Y92.651 E2.4078
G1 X112.760 Y92.298 E2.4787
G1 X114.033 Y91.908 E2.5490
G1 X115.637 Y91.344 E2.6388
G1 X117.142 Y90.717 E2.7249
G1 X118.537 Y90.021 E2.8072
G1 X119.837 Y89.233 E2.8875
G1 X120.146 Y89.010 E2.9076
G1 X120.997 Y88.317 E2.9656
G1 X121.269 Y88.061 E2.9853
G1 X123.281 Y85.897 E3.1413
G1 X124.644 Y85.159 E3.2232
G1 X126.543 Y84.832 E3.3249
G1 X126.832 Y84.800 E3.3403
G1 X127.958 Y84.746 E3.3998
G1 X128.221 Y84.749 E3.4137
G1 X129.332 Y84.820 E3.4725
G1 X129.594 Y84.851 E3.4864
G1 X130.690 Y85.045 E3.5452
G1 X130.946 Y85.105 E3.5591
G1 X132.014 Y85.420 E3.6179
G1 X132.262 Y85.508 E3.6317
G1 X133.288 Y85.940 E3.6905
G1 X133.524 Y86.055 E3.7044
G1 X134.497 Y86.598 E3.7632
G1 X134.719 Y86.739 E3.7771
G1 X135.624 Y87.387 E3.8359
G1 X135.829 Y87.552 E3.8498
G1 X136.657 Y88.296 E3.9086
G1 X136.843 Y88.482 E3.9225
G1 X137.583 Y89.314 E3.9813
G1 X137.747 Y89.520 E3.9952
G1 X138.390 Y90.429 E4.0539
G1 X138.529 Y90.652 E4.0678
G1 X139.051 Y91.598 E4.1249
G1 X139.162 Y91.827 E4.1383
G1 X139.603 Y92.881 E4.1986
G1 X139.693 Y93.136 E4.2129
G1 X140.004 Y94.210 E4.2720
G1 X140.063 Y94.467 E4.2859
G1 X140.251 Y95.564 E4.3447
G1 X140.281 Y95.825 E4.3585
G1 X140.346 Y96.937 E4.4173
G1 X140.347 Y97.200 E4.4312
G1 X140.288 Y98.312 E4.4900
G1 X140.260 Y98.573 E4.5039
G1 X140.078 Y99.672 E4.5627
G1 X140.021 Y99.928 E4.5766
G1 X139.718 Y101.000 E4.6354
G1 X139.632 Y101.248 E4.6493
G1 X139.212 Y102.280 E4.7081
G1 X139.099 Y102.517 E4.7220
G1 X138.567 Y103.495 E4.7807
G1 X138.429 Y103.719 E4.7946
G1 X137.791 Y104.632 E4.8534
G1 X137.628 Y104.838 E4.8673
G1 X136.893 Y105.675 E4.9261
G1 X136.709 Y105.862 E4.9400
G1 X135.885 Y106.611 E4.9988
G1 X135.681 Y106.777 E5.0127
G1 X134.779 Y107.430 E5.0715
G1 X134.558 Y107.573 E5.0854
G1 X133.589 Y108.121 E5.1442
G1 X133.354 Y108.238 E5.1580
G1 X132.330 Y108.676 E5.2168
G1 X132.082 Y108.765 E5.2307
G1 X131.016 Y109.086 E5.2895
G1 X130.761 Y109.148 E5.3034
G1 X129.665 Y109.349 E5.3622
G1 X129.404 Y109.381 E5.3761
G1 X128.294 Y109.459 E5.4349
G1 X128.031 Y109.463 E5.4488
G1 X126.918 Y109.416 E5.5076
G1 X126.656 Y109.391 E5.5214
G1 X125.557 Y109.221 E5.5802
G1 X125.300 Y109.167 E5.5941
G1 X124.234 Y108.878 E5.6524
G1 X123.987 Y108.797 E5.6661
G1 X122.974 Y108.399 E5.7236
G1 X122.743 Y108.293 E5.7370
G1 X122.037 Y107.924 E5.7791
G1 X118.585 Y107.703 E5.9617
G1 X115.238 Y107.588 E6.1386
G1 X111.868 Y107.549 E6.3165
G1 X108.494 Y107.584 E6.4947
G1 X105.117 Y107.690 E6.6731
G1 X101.742 Y107.864 E6.8515
G1 X98.374 Y108.104 E7.0298
G1 X94.250 Y108.495 E7.2485
G1 X90.138 Y109.003 E7.4674
G1 X88.129 Y109.300 E7.5746
G1 X86.122 Y109.638 E7.6820
G1 X84.138 Y110.016 E7.7887
G1 X82.186 Y110.438 E7.8942
G1 X80.226 Y110.924 E8.0008
G1 X78.318 Y111.471 E8.1056
G1 X76.454 Y112.094 E8.2094
G1 X74.738 Y112.751 E8.3064
G1 X70.729 Y114.733 E8.5425
G1 X66.075 Y108.115 E8.9697
G1 X68.488 Y105.791 E9.1466
G1 X65.242 Y105.036 E9.3226
G1 X66.123 Y96.737 E9.7633
G92 E0.0000
G1 E-0.7000 F1500
G1 X66.555 Y97.210 F4800
G1 E0.0000 F1500
G92 E0.0000
G1 X70.939 Y97.134 E0.2315 F1800
G1 X82.853 Y96.499 E0.8615
G1 X88.447 Y96.171 E1.1574
G1 X92.157 Y95.906 E1.3538
G1 X95.848 Y95.590 E1.5494
G1 X99.507 Y95.208 E1.7437
G1 X103.131 Y94.743 E1.9366
G1 X105.993 Y94.294 E2.0896
G1 X108.810 Y93.761 E2.2410
G1 X111.582 Y93.117 E2.3913
G1 X112.893 Y92.759 E2.4630
G1 X114.183 Y92.364 E2.5343
G1 X115.809 Y91.792 E2.6253
G1 X117.341 Y91.154 E2.7129
G1 X118.769 Y90.442 E2.7972
G1 X120.102 Y89.633 E2.8795
G1 X120.439 Y89.391 E2.9014
G1 X121.314 Y88.678 E2.9610
G1 X121.610 Y88.399 E2.9825
G1 X123.579 Y86.281 E3.1352
G1 X124.803 Y85.619 E3.2087
G1 X126.610 Y85.307 E3.3055
G1 X126.870 Y85.279 E3.3193
G1 X127.968 Y85.226 E3.3773
G1 X128.204 Y85.228 E3.3898
G1 X129.289 Y85.298 E3.4472
G1 X129.523 Y85.326 E3.4597
G1 X130.593 Y85.515 E3.5170
G1 X130.823 Y85.569 E3.5295
G1 X131.866 Y85.877 E3.5869
G1 X132.088 Y85.956 E3.5994
G1 X133.090 Y86.377 E3.6567
G1 X133.302 Y86.481 E3.6692
G1 X134.251 Y87.011 E3.7266
G1 X134.450 Y87.137 E3.7391
G1 X135.334 Y87.770 E3.7965
G1 X135.518 Y87.917 E3.8089
G1 X136.326 Y88.644 E3.8663
G1 X136.493 Y88.811 E3.8788
G1 X137.215 Y89.623 E3.9362
G1 X137.363 Y89.808 E3.9487
G1 X137.990 Y90.696 E4.0060
G1 X138.115 Y90.896 E4.0185
G1 X138.625 Y91.819 E4.0742
G1 X138.724 Y92.025 E4.0862
G1 X139.155 Y93.053 E4.1451
G1 X139.236 Y93.283 E4.1580
G1 X139.539 Y94.331 E4.2156
G1 X139.592 Y94.561 E4.2281
G1 X139.776 Y95.632 E4.2855
G1 X139.803 Y95.867 E4.2979
G1 X139.867 Y96.952 E4.3553
G1 X139.867 Y97.188 E4.3678
G1 X139.810 Y98.273 E4.4252
G1 X139.784 Y98.508 E4.4376
G1 X139.607 Y99.580 E4.4950
G1 X139.555 Y99.811 E4.5075
G1 X139.259 Y100.856 E4.5649
G1 X139.183 Y101.080 E4.5774
G1 X138.772 Y102.086 E4.6347
G1 X138.671 Y102.299 E4.6472
G1 X138.152 Y103.254 E4.7046
G1 X138.027 Y103.455 E4.7171
G1 X137.405 Y104.346 E4.7745
G1 X137.259 Y104.532 E4.7869
G1 X136.542 Y105.348 E4.8443
G1 X136.376 Y105.516 E4.8568
G1 X135.572 Y106.247 E4.9142
G1 X135.389 Y106.396 E4.9266
G1 X134.509 Y107.034 E4.9840
G1 X134.310 Y107.161 E4.9965
G1 X133.364 Y107.697 E5.0539
G1 X133.153 Y107.802 E5.0664
G1 X132.153 Y108.229 E5.1237
G1 X131.931 Y108.310 E5.1362
G1 X130.891 Y108.623 E5.1936
G1 X130.661 Y108.678 E5.2061
G1 X129.592 Y108.874 E5.2634
G1 X129.358 Y108.904 E5.2759
G1 X128.274 Y108.979 E5.3333
G1 X128.037 Y108.983 E5.3458
G1 X126.952 Y108.937 E5.4032
G1 X126.716 Y108.914 E5.4156
G1 X125.643 Y108.749 E5.4730
G1 X125.413 Y108.700 E5.4854
G1 X124.372 Y108.418 E5.5424
G1 X124.150 Y108.345 E5.5547
G1 X123.161 Y107.957 E5.6108
G1 X122.953 Y107.862 E5.6228
G1 X122.169 Y107.452 E5.6696
G1 X118.609 Y107.224 E5.8580
G1 X115.248 Y107.108 E6.0355
G1 X111.868 Y107.069 E6.2140
G1 X108.484 Y107.104 E6.3927
G1 X105.098 Y107.210 E6.5716
G1 X101.712 Y107.384 E6.7506
G1 X98.335 Y107.625 E6.9294
G1 X94.198 Y108.018 E7.1488
G1 X90.073 Y108.527 E7.3683
G1 X88.054 Y108.826 E7.4761
G1 X86.038 Y109.165 E7.5840
G1 X84.042 Y109.545 E7.6913
G1 X82.077 Y109.970 E7.7975
G1 X80.102 Y110.460 E7.9049
G1 X78.175 Y111.013 E8.0108
G1 X76.292 Y111.642 E8.1156
G1 X74.545 Y112.311 E8.2144
G1 X70.885 Y114.120 E8.4300
G1 X66.705 Y108.176 E8.8137
G1 X69.413 Y105.567 E9.0123
G1 X69.415 Y105.561 E9.0126
G1 X69.416 Y105.554 E9.0130
G1 X69.416 Y105.547 E9.0133
G1 X69.415 Y105.540 E9.0137
G1 X69.413 Y105.534 E9.0141
G1 X69.410 Y105.526 E9.0145
G1 X69.407 Y105.521 E9.0148
G1 X69.402 Y105.514 E9.0153
G1 X69.379 Y105.506 E9.0165
G1 X65.764 Y104.665 E9.2125
G1 X66.555 Y97.210 E9.6084
G92 E0.0000
G1 E-0.7000 F1500
; feature inner perimeter
G1 X72.949 Y101.990 F4800
G1 E0.0000 F1500
G92 E0.0000
G1 X76.668 Y101.783 E0.1967 F1350
G1 X83.130 Y101.452 E0.5384
G1 X88.769 Y101.120 E0.8367
G1 X92.545 Y100.851 E1.0366
G1 X96.317 Y100.528 E1.2364
G1 X100.078 Y100.136 E1.4361
G1 X101.957 Y99.907 E1.5361
G1 X103.833 Y99.653 E1.6360
G1 X106.836 Y99.183 E1.7965
G1 X108.337 Y98.912 E1.8771
G1 X109.831 Y98.615 E1.9575
G1 X111.320 Y98.288 E2.0380
G1 X112.801 Y97.925 E2.1185
G1 X114.272 Y97.524 E2.1990
G1 X115.728 Y97.078 E2.2794
G1 X116.662 Y96.763 E2.3315
G1 X117.586 Y96.425 E2.3834
G1 X118.500 Y96.061 E2.4354
G1 X119.402 Y95.669 E2.4873
G1 X120.292 Y95.246 E2.5394
G1 X121.166 Y94.789 E2.5914
G1 X121.938 Y94.342 E2.6385
G1 X122.172 Y94.558 E2.6553
G1 X122.094 Y94.722 E2.6649
G1 X121.858 Y95.422 E2.7040
G1 X121.704 Y96.145 E2.7430
G1 X121.635 Y96.882 E2.7821
G1 X121.652 Y97.621 E2.8211
G1 X121.755 Y98.353 E2.8601
G1 X121.942 Y99.068 E2.8992
G1 X122.211 Y99.757 E2.9382
G1 X122.558 Y100.411 E2.9773
G1 X122.978 Y101.018 E3.0163
G1 X123.466 Y101.574 E3.0554
G1 X124.016 Y102.069 E3.0944
G1 X124.619 Y102.496 E3.1335
G1 X125.268 Y102.851 E3.1725
G1 X125.953 Y103.128 E3.2115
G1 X126.666 Y103.324 E3.2506
G1 X127.397 Y103.435 E3.2896
G1 X128.136 Y103.461 E3.3287
G1 X128.873 Y103.401 E3.3677
G1 X129.598 Y103.256 E3.4068
G1 X130.301 Y103.027 E3.4458
G1 X130.973 Y102.719 E3.4848
G1 X131.605 Y102.334 E3.5239
G1 X132.188 Y101.879 E3.5629
G1 X132.713 Y101.360 E3.6020
G1 X133.175 Y100.782 E3.6410
G1 X133.567 Y100.155 E3.6800
G1 X133.884 Y99.487 E3.7191
G1 X134.120 Y98.787 E3.7581
G1 X134.274 Y98.064 E3.7972
G1 X134.343 Y97.328 E3.8362
G1 X134.326 Y96.588 E3.8752
G1 X134.223 Y95.856 E3.9143
G1 X134.035 Y95.138 E3.9535
G1 X133.767 Y94.452 E3.9924
G1 X133.420 Y93.799 E4.0314
G1 X133.000 Y93.191 E4.0704
G1 X132.512 Y92.636 E4.1095
G1 X131.963 Y92.141 E4.1485
G1 X131.359 Y91.714 E4.1875
G1 X130.711 Y91.359 E4.2266
G1 X130.025 Y91.082 E4.2656
G1 X129.312 Y90.886 E4.3047
G1 X128.582 Y90.774 E4.3437
G1 X127.843 Y90.748 E4.3827
G1 X127.106 Y90.808 E4.4218
G1 X126.424 Y90.945 E4.4585
G1 X126.271 Y90.670 E4.4751
G1 X126.581 Y90.337 E4.4991
G1 X126.803 Y90.290 E4.5111
G1 X127.269 Y90.225 E4.5359
G1 X128.046 Y90.188 E4.5770
G1 X128.814 Y90.238 E4.6177
G1 X129.573 Y90.372 E4.6583
G1 X130.311 Y90.590 E4.6990
G1 X131.021 Y90.888 E4.7397
G1 X131.694 Y91.264 E4.7803
G1 X132.320 Y91.712 E4.8210
G1 X132.893 Y92.227 E4.8617
G1 X133.405 Y92.802 E4.9023
G1 X133.849 Y93.431 E4.9430
G1 X134.208 Y94.081 E4.9822
G1 X134.517 Y94.818 E5.0244
G1 X134.730 Y95.556 E5.0650
G1 X134.861 Y96.315 E5.1057
G1 X134.906 Y97.084 E5.1463
G1 X134.865 Y97.853 E5.1870
G1 X134.739 Y98.613 E5.2277
G1 X134.530 Y99.354 E5.2683
G1 X134.239 Y100.067 E5.3090
G1 X133.871 Y100.744 E5.3497
G1 X133.430 Y101.375 E5.3903
G1 X132.921 Y101.954 E5.4310
G1 X132.351 Y102.472 E5.4717
G1 X131.728 Y102.924 E5.5123
G1 X131.058 Y103.303 E5.5530
G1 X130.349 Y103.606 E5.5937
G1 X129.612 Y103.828 E5.6343
G1 X128.854 Y103.967 E5.6750
G1 X128.086 Y104.020 E5.7157
G1 X127.317 Y103.988 E5.7563
G1 X126.555 Y103.871 E5.7970
G1 X125.817 Y103.671 E5.8374
G1 X125.116 Y103.396 E5.8772
G1 X124.469 Y103.057 E5.9157
G1 X123.751 Y102.586 E5.9611
G1 X122.333 Y102.477 E6.0362
G1 X118.851 Y102.269 E6.2204
G1 X115.362 Y102.149 E6.4047
G1 X111.871 Y102.109 E6.5891
G1 X108.380 Y102.145 E6.7734
G1 X104.893 Y102.254 E6.9577
G1 X101.409 Y102.434 E7.1419
G1 X97.926 Y102.682 E7.3262
G1 X95.793 Y102.870 E7.4393
G1 X93.661 Y103.087 E7.5525
G1 X91.531 Y103.333 E7.6657
G1 X89.402 Y103.612 E7.7790
