; G-Code generated by Simplify3D(R) Version 4.1.1
; Apr 27, 2021 at 7:40:44 PM
; Settings Summary
;   processName,Trideo BOX
;   applyToModels,Thumb connector
;   profileName,Trideo BOX
;   profileVersion,2021-04-15 09:48:16
;   baseProfile,Default
;   printMaterial,PLA
;   printQuality,Fast
;   printExtruders,
;   extruderName,Primary Extruder
;   extruderToolheadNumber,0
;   extruderDiameter,0.4
;   extruderAutoWidth,1
;   extruderWidth,0.48
;   extrusionMultiplier,0.98
;   extruderUseRetract,1
;   extruderRetractionDistance,0.7
;   extruderExtraRestartDistance,0
;   extruderRetractionZLift,0
;   extruderRetractionSpeed,1500
;   extruderUseCoasting,0
;   extruderCoastingDistance,0.2
;   extruderUseWipe,0
;   extruderWipeDistance,5
;   primaryExtruder,0
;   layerHeight,0.3
;   topSolidLayers,3
;   bottomSolidLayers,3
;   perimeterOutlines,2
;   printPerimetersInsideOut,1
;   startPointOption,2
;   startPointOriginX,0
;   startPointOriginY,0
;   sequentialIslands,0
;   spiralVaseMode,0
;   firstLayerHeightPercentage,90
;   firstLayerWidthPercentage,100
;   firstLayerUnderspeed,0.5
;   useRaft,0
;   raftExtruder,0
;   raftTopLayers,3
;   raftBaseLayers,2
;   raftOffset,3
;   raftSeparationDistance,0.14
;   raftTopInfill,100
;   aboveRaftSpeedMultiplier,0.3
;   useSkirt,1
;   skirtExtruder,0
;   skirtLayers,1
;   skirtOutlines,2
;   skirtOffset,4
;   usePrimePillar,0
;   primePillarExtruder,999
;   primePillarWidth,12
;   primePillarLocation,7
;   primePillarSpeedMultiplier,1
;   useOozeShield,0
;   oozeShieldExtruder,999
;   oozeShieldOffset,2
;   oozeShieldOutlines,1
;   oozeShieldSidewallShape,1
;   oozeShieldSidewallAngle,30
;   oozeShieldSpeedMultiplier,1
;   infillExtruder,0
;   internalInfillPattern,Rectilinear
;   externalInfillPattern,Rectilinear
;   infillPercentage,15
;   outlineOverlapPercentage,15
;   infillExtrusionWidthPercentage,100
;   minInfillLength,5
;   infillLayerInterval,1
;   internalInfillAngles,45,-45
;   overlapInternalInfillAngles,0
;   externalInfillAngles,45,-45
;   generateSupport,1
;   supportExtruder,0
;   supportInfillPercentage,25
;   supportExtraInflation,0
;   supportBaseLayers,0
;   denseSupportExtruder,0
;   denseSupportLayers,0
;   denseSupportInfillPercentage,70
;   supportLayerInterval,1
;   supportHorizontalPartOffset,0.3
;   supportUpperSeparationLayers,1
;   supportLowerSeparationLayers,1
;   supportType,0
;   supportGridSpacing,4
;   maxOverhangAngle,45
;   supportAngles,0
;   temperatureName,Primary Extruder,Heated bed
;   temperatureNumber,0,0
;   temperatureSetpointCount,1,1
;   temperatureSetpointLayers,1,1
;   temperatureSetpointTemperatures,190,60
;   temperatureStabilizeAtStartup,1,1
;   temperatureHeatedBed,0,1
;   fanLayers,1,2
;   fanSpeeds,0,100
;   blipFanToFullPower,0
;   adjustSpeedForCooling,1
;   minSpeedLayerTime,15
;   minCoolingSpeedSlowdown,20
;   increaseFanForCooling,0
;   minFanLayerTime,45
;   maxCoolingFanSpeed,100
;   increaseFanForBridging,0
;   bridgingFanSpeed,100
;   use5D,1
;   relativeEdistances,0
;   allowEaxisZeroing,1
;   independentExtruderAxes,0
;   includeM10123,0
;   stickySupport,1
;   applyToolheadOffsets,0
;   gcodeXoffset,0
;   gcodeYoffset,0
;   gcodeZoffset,0
;   overrideMachineDefinition,1
;   machineTypeOverride,0
;   strokeXoverride,200
;   strokeYoverride,200
;   strokeZoverride,200
;   originOffsetXoverride,0
;   originOffsetYoverride,0
;   originOffsetZoverride,0
;   homeXdirOverride,-1
;   homeYdirOverride,-1
;   homeZdirOverride,-1
;   flipXoverride,1
;   flipYoverride,-1
;   flipZoverride,1
;   toolheadOffsets,0,0|0,0|0,0|0,0|0,0|0,0
;   overrideFirmwareConfiguration,0
;   firmwareTypeOverride,RepRap (Marlin/Repetier/Sprinter)
;   GPXconfigOverride,r2
;   baudRateOverride,115200
;   overridePrinterModels,0
;   printerModelsOverride
;   startingGcode,G28 X0 Y0; home XY,G1 X20 Y20,G28 Z0,G1 Z5 F5000; Lift NZ
;   layerChangeGcode,
;   retractionGcode,
;   toolChangeGcode,
;   endingGcode,M104 S0 ; turn off extruder,G28 X0 ; home x,M140 S0 ; turn off bed,M84 ; disable motors,M107 ;
;   exportFileFormat,gcode
;   celebration,0
;   celebrationSong,Looney Toons
;   postProcessing,
;   defaultSpeed,3600
;   outlineUnderspeed,0.5
;   solidInfillUnderspeed,0.8
;   supportUnderspeed,0.8
;   rapidXYspeed,4800
;   rapidZspeed,1002
;   minBridgingArea,50
;   bridgingExtraInflation,0
;   bridgingExtrusionMultiplier,1
;   bridgingSpeedMultiplier,1
;   useFixedBridgingAngle,0
;   fixedBridgingAngle,0
;   applyBridgingToPerimeters,0
;   filamentDiameters,1.75|1.75|1.75|1.75|1.75|1.75
;   filamentPricesPerKg,46|46|46|46|46|46
;   filamentDensities,1.25|1.25|1.25|1.25|1.25|1.25
;   useMinPrintHeight,0
;   minPrintHeight,0
;   useMaxPrintHeight,0
;   maxPrintHeight,0
;   useDiaphragm,0
;   diaphragmLayerInterval,20
;   robustSlicing,1
;   mergeAllIntoSolid,0
;   onlyRetractWhenCrossingOutline,1
;   retractBetweenLayers,1
;   useRetractionMinTravel,0
;   retractionMinTravel,3
;   retractWhileWiping,0
;   onlyWipeOutlines,1
;   avoidCrossingOutline,0
;   maxMovementDetourFactor,3
;   toolChangeRetractionDistance,12
;   toolChangeExtraRestartDistance,-0.5
;   toolChangeRetractionSpeed,600
;   externalThinWallType,0
;   internalThinWallType,2
;   thinWallAllowedOverlapPercentage,10
;   singleExtrusionMinLength,1
;   singleExtrusionMinPrintingWidthPercentage,50
;   singleExtrusionMaxPrintingWidthPercentage,200
;   singleExtrusionEndpointExtension,0.2
;   horizontalSizeCompensation,0
G90
M82
M106 S0
M140 S60
M190 S60
M104 S190 T0
M109 S190 T0
G28 X0 Y0; home XY
G1 X20 Y20
G28 Z0
G1 Z5 F5000; Lift NZ
; process Trideo BOX
; layer 1, Z = 0.270
T0
G92 E0.0000
G1 E-0.7000 F1500
; feature skirt
; tool H0.270 W0.480
G1 Z0.270 F1002
G1 X63.593 Y96.856 F4800
G1 E0.0000 F1500
G92 E0.0000
G1 X68.054 Y96.820 E0.2355 F1800
G1 X81.139 Y96.120 E0.9275
G1 X87.290 Y95.759 E1.2528
G1 X91.371 Y95.468 E1.4689
G1 X95.430 Y95.120 E1.6840
G1 X99.455 Y94.700 E1.8977
G1 X103.440 Y94.189 E2.1099
G1 X106.588 Y93.695 E2.2781
G1 X109.685 Y93.109 E2.4445
G1 X112.733 Y92.400 E2.6098
G1 X114.174 Y92.007 E2.6887
G1 X115.593 Y91.573 E2.7670
G1 X117.380 Y90.944 E2.8670
G1 X119.105 Y90.226 E2.9657
G1 X119.873 Y89.861 E3.0106
G1 X120.605 Y89.479 E3.0542
G1 X122.063 Y88.605 E3.1440
G1 X122.989 Y87.901 E3.2054
G1 X123.386 Y87.562 E3.2329
G1 X123.758 Y87.211 E3.2599
G1 X125.982 Y84.840 E3.4316
G1 X127.344 Y84.109 E3.5132
G1 X129.272 Y83.781 E3.6165
G1 X129.555 Y83.751 E3.6315
G1 X130.763 Y83.693 E3.6954
G1 X131.026 Y83.695 E3.7093
G1 X132.222 Y83.772 E3.7726
G1 X132.484 Y83.803 E3.7865
G1 X133.664 Y84.012 E3.8497
G1 X133.920 Y84.072 E3.8636
G1 X135.069 Y84.411 E3.9269
G1 X135.317 Y84.499 E3.9408
G1 X136.422 Y84.964 E4.0041
G1 X136.658 Y85.079 E4.0180
G1 X137.704 Y85.664 E4.0813
G1 X137.927 Y85.805 E4.0952
G1 X138.901 Y86.502 E4.1584
G1 X139.106 Y86.666 E4.1723
G1 X139.998 Y87.468 E4.2356
G1 X140.183 Y87.654 E4.2495
G1 X140.980 Y88.550 E4.3128
G1 X141.144 Y88.756 E4.3267
G1 X141.836 Y89.734 E4.3900
G1 X141.975 Y89.957 E4.4038
G1 X142.539 Y90.978 E4.4654
G1 X142.650 Y91.207 E4.4789
G1 X143.123 Y92.339 E4.5437
G1 X143.213 Y92.595 E4.5580
G1 X143.547 Y93.750 E4.6215
G1 X143.606 Y94.006 E4.6353
G1 X143.809 Y95.187 E4.6986
G1 X143.839 Y95.449 E4.7125
G1 X143.909 Y96.645 E4.7758
G1 X143.910 Y96.908 E4.7897
G1 X143.847 Y98.105 E4.8530
G1 X143.818 Y98.366 E4.8669
G1 X143.622 Y99.549 E4.9302
G1 X143.565 Y99.805 E4.9440
G1 X143.239 Y100.959 E5.0073
G1 X143.153 Y101.207 E5.0212
G1 X142.701 Y102.317 E5.0845
G1 X142.588 Y102.555 E5.0984
G1 X142.015 Y103.608 E5.1617
G1 X141.877 Y103.831 E5.1756
G1 X141.191 Y104.814 E5.2388
G1 X141.028 Y105.021 E5.2527
G1 X140.237 Y105.921 E5.3160
G1 X140.052 Y106.108 E5.3299
G1 X139.166 Y106.915 E5.3932
G1 X138.962 Y107.080 E5.4071
G1 X137.991 Y107.783 E5.4704
G1 X137.770 Y107.926 E5.4842
G1 X136.727 Y108.516 E5.5475
G1 X136.491 Y108.633 E5.5614
G1 X135.389 Y109.104 E5.6247
G1 X135.142 Y109.194 E5.6386
G1 X133.994 Y109.539 E5.7019
G1 X133.739 Y109.601 E5.7158
G1 X132.560 Y109.817 E5.7790
G1 X132.299 Y109.850 E5.7929
G1 X131.103 Y109.933 E5.8562
G1 X130.840 Y109.937 E5.8701
G1 X129.643 Y109.887 E5.9334
G1 X129.381 Y109.861 E5.9473
G1 X128.197 Y109.679 E6.0105
G1 X127.941 Y109.624 E6.0244
G1 X126.792 Y109.313 E6.0872
G1 X126.545 Y109.232 E6.1009
G1 X125.452 Y108.803 E6.1630
G1 X125.220 Y108.697 E6.1764
G1 X124.308 Y108.219 E6.2308
G1 X120.469 Y107.975 E6.4339
G1 X116.773 Y107.847 E6.6292
G1 X113.055 Y107.805 E6.8255
G1 X109.333 Y107.844 E7.0221
G1 X105.608 Y107.960 E7.2188
G1 X101.886 Y108.152 E7.4157
G1 X98.170 Y108.417 E7.6124
G1 X93.621 Y108.848 E7.8536
G1 X89.084 Y109.408 E8.0950
G1 X86.864 Y109.737 E8.2135
G1 X84.646 Y110.110 E8.3323
G1 X82.453 Y110.528 E8.4502
G1 X80.292 Y110.995 E8.5670
G1 X78.119 Y111.534 E8.6851
G1 X76.001 Y112.141 E8.8015
G1 X73.929 Y112.833 E8.9169
G1 X72.024 Y113.561 E9.0245
G1 X68.144 Y115.515 E9.2539
G1 X63.435 Y108.981 E9.6792
G1 X66.318 Y106.111 E9.8940
G1 X66.319 Y106.106 E9.8943
G1 X62.264 Y104.643 E10.1219
G1 X63.593 Y96.856 E10.5390
G92 E0.0000
G1 E-0.7000 F1500
G1 X63.999 Y97.333 F4800
G1 E0.0000 F1500
G92 E0.0000
G1 X68.069 Y97.300 E0.2149 F1800
G1 X81.164 Y96.600 E0.9074
G1 X87.321 Y96.238 E1.2331
G1 X91.408 Y95.946 E1.4494
G1 X95.476 Y95.598 E1.6650
G1 X99.510 Y95.177 E1.8792
G1 X103.508 Y94.664 E2.0920
G1 X106.670 Y94.168 E2.2610
G1 X109.784 Y93.579 E2.4284
G1 X112.851 Y92.866 E2.5946
G1 X114.308 Y92.468 E2.6744
G1 X115.743 Y92.029 E2.7536
G1 X117.552 Y91.393 E2.8549
G1 X119.301 Y90.665 E2.9549
G1 X120.087 Y90.291 E3.0009
G1 X120.840 Y89.898 E3.0457
G1 X122.333 Y89.003 E3.1376
G1 X123.290 Y88.275 E3.2012
G1 X123.707 Y87.919 E3.2301
G1 X124.098 Y87.551 E3.2585
G1 X126.279 Y85.226 E3.4268
G1 X127.501 Y84.569 E3.5001
G1 X129.338 Y84.257 E3.5984
G1 X129.593 Y84.229 E3.6119
G1 X130.773 Y84.173 E3.6743
G1 X131.009 Y84.175 E3.6868
G1 X132.179 Y84.250 E3.7487
G1 X132.413 Y84.278 E3.7612
G1 X133.567 Y84.482 E3.8230
G1 X133.797 Y84.536 E3.8355
G1 X134.921 Y84.868 E3.8974
G1 X135.143 Y84.947 E3.9099
G1 X136.224 Y85.401 E3.9717
G1 X136.436 Y85.505 E3.9842
G1 X137.459 Y86.076 E4.0461
G1 X137.658 Y86.203 E4.0586
G1 X138.611 Y86.885 E4.1204
G1 X138.796 Y87.032 E4.1329
G1 X139.667 Y87.816 E4.1948
G1 X139.833 Y87.983 E4.2073
G1 X140.612 Y88.859 E4.2691
G1 X140.759 Y89.044 E4.2816
G1 X141.436 Y90.000 E4.3435
G1 X141.562 Y90.200 E4.3559
G1 X142.112 Y91.198 E4.4161
G1 X142.212 Y91.405 E4.4282
G1 X142.675 Y92.512 E4.4916
G1 X142.756 Y92.741 E4.5044
G1 X143.082 Y93.870 E4.5665
G1 X143.135 Y94.101 E4.5790
G1 X143.334 Y95.255 E4.6409
G1 X143.361 Y95.490 E4.6533
G1 X143.429 Y96.660 E4.7152
G1 X143.430 Y96.896 E4.7277
G1 X143.368 Y98.066 E4.7896
G1 X143.342 Y98.301 E4.8020
G1 X143.151 Y99.457 E4.8639
G1 X143.099 Y99.688 E4.8764
G1 X142.781 Y100.815 E4.9382
G1 X142.704 Y101.039 E4.9507
G1 X142.262 Y102.124 E5.0126
G1 X142.160 Y102.337 E5.0251
G1 X141.600 Y103.366 E5.0869
G1 X141.476 Y103.567 E5.0994
G1 X140.805 Y104.528 E5.1613
G1 X140.659 Y104.714 E5.1738
G1 X139.885 Y105.594 E5.2356
G1 X139.720 Y105.762 E5.2481
G1 X138.853 Y106.551 E5.3100
G1 X138.669 Y106.700 E5.3225
G1 X137.720 Y107.387 E5.3843
G1 X137.522 Y107.514 E5.3968
G1 X136.502 Y108.092 E5.4587
G1 X136.290 Y108.197 E5.4712
G1 X135.213 Y108.657 E5.5330
G1 X134.991 Y108.738 E5.5455
G1 X133.869 Y109.076 E5.6074
G1 X133.639 Y109.131 E5.6199
G1 X132.487 Y109.342 E5.6817
G1 X132.252 Y109.372 E5.6942
G1 X131.083 Y109.453 E5.7561
G1 X130.847 Y109.457 E5.7685
G1 X129.676 Y109.408 E5.8304
G1 X129.441 Y109.385 E5.8429
G1 X128.284 Y109.206 E5.9047
G1 X128.053 Y109.157 E5.9172
G1 X126.930 Y108.854 E5.9786
G1 X126.708 Y108.780 E5.9910
G1 X125.640 Y108.361 E6.0516
G1 X125.431 Y108.265 E6.0637
G1 X124.441 Y107.747 E6.1227
G1 X120.493 Y107.495 E6.3316
G1 X116.784 Y107.367 E6.5276
G1 X113.055 Y107.325 E6.7245
G1 X109.323 Y107.364 E6.9216
G1 X105.589 Y107.480 E7.1188
G1 X101.856 Y107.672 E7.3162
G1 X98.131 Y107.938 E7.5134
G1 X93.569 Y108.371 E7.7553
G1 X89.019 Y108.933 E7.9974
G1 X86.789 Y109.263 E8.1165
G1 X84.562 Y109.638 E8.2357
G1 X82.357 Y110.058 E8.3543
G1 X80.183 Y110.528 E8.4717
G1 X77.995 Y111.070 E8.5907
G1 X75.859 Y111.683 E8.7081
G1 X73.767 Y112.381 E8.8245
G1 X71.830 Y113.121 E8.9340
G1 X68.294 Y114.902 E9.1431
G1 X64.063 Y109.033 E9.5251
G1 X66.695 Y106.415 E9.7211
G1 X66.743 Y106.336 E9.7260
G1 X66.770 Y106.275 E9.7295
G1 X66.789 Y106.211 E9.7330
G1 X66.798 Y106.145 E9.7366
G1 X66.799 Y106.078 E9.7401
G1 X66.791 Y106.012 E9.7436
G1 X66.774 Y105.948 E9.7471
G1 X66.749 Y105.884 E9.7507
G1 X66.716 Y105.828 E9.7542
G1 X66.675 Y105.775 E9.7577
G1 X66.628 Y105.728 E9.7612
G1 X66.577 Y105.689 E9.7646
G1 X62.805 Y104.328 E9.9764
G1 X63.999 Y97.333 E10.3511
G92 E0.0000
G1 E-0.7000 F1500
; feature inner perimeter
G1 X70.146 Y102.152 F4800
G1 E0.0000 F1500
G92 E0.0000
G1 X75.114 Y101.876 E0.2628 F1350
G1 X81.440 Y101.552 E0.5972
G1 X87.643 Y101.188 E0.9253
G1 X91.796 Y100.891 E1.1452
G1 X95.944 Y100.536 E1.3650
G1 X100.081 Y100.105 E1.5846
G1 X102.147 Y99.853 E1.6945
G1 X104.210 Y99.574 E1.8045
G1 X107.512 Y99.057 E1.9810
G1 X109.162 Y98.759 E2.0695
G1 X110.805 Y98.433 E2.1579
G1 X112.442 Y98.073 E2.2464
G1 X114.070 Y97.675 E2.3349
G1 X115.687 Y97.233 E2.4234
G1 X117.288 Y96.744 E2.5118
G1 X118.314 Y96.397 E2.5690
G1 X119.329 Y96.025 E2.6261
G1 X120.333 Y95.625 E2.6831
G1 X121.324 Y95.195 E2.7402
G1 X122.301 Y94.730 E2.7974
G1 X123.261 Y94.229 E2.8545
G1 X124.273 Y93.643 E2.9163
G1 X124.507 Y93.859 E2.9331
G1 X124.341 Y94.209 E2.9535
G1 X124.082 Y94.975 E2.9962
G1 X123.914 Y95.766 E3.0389
G1 X123.847 Y96.476 E3.0766
G1 X123.856 Y97.375 E3.1240
G1 X123.969 Y98.181 E3.1670
G1 X124.174 Y98.963 E3.2097
G1 X124.468 Y99.716 E3.2524
G1 X124.847 Y100.430 E3.2951
G1 X125.307 Y101.096 E3.3378
G1 X125.841 Y101.703 E3.3805
G1 X126.442 Y102.244 E3.4232
G1 X127.102 Y102.712 E3.4659
G1 X127.812 Y103.100 E3.5086
G1 X128.561 Y103.403 E3.5513
G1 X129.341 Y103.617 E3.5940
G1 X130.141 Y103.739 E3.6367
G1 X130.949 Y103.767 E3.6795
G1 X131.755 Y103.701 E3.7222
G1 X132.548 Y103.543 E3.7649
G1 X133.317 Y103.293 E3.8076
G1 X134.052 Y102.955 E3.8503
G1 X134.743 Y102.535 E3.8929
G1 X135.380 Y102.037 E3.9357
G1 X135.955 Y101.468 E3.9783
G1 X136.460 Y100.837 E4.0210
G1 X136.840 Y100.229 E4.0589
G1 X137.233 Y99.425 E4.1062
G1 X137.493 Y98.655 E4.1491
G1 X137.662 Y97.864 E4.1918
G1 X137.737 Y97.059 E4.2345
G1 X137.718 Y96.251 E4.2772
G1 X137.606 Y95.450 E4.3199
G1 X137.401 Y94.668 E4.3626
G1 X137.107 Y93.914 E4.4053
G1 X136.728 Y93.201 E4.4480
G1 X136.268 Y92.535 E4.4906
G1 X135.734 Y91.928 E4.5333
G1 X135.134 Y91.387 E4.5760
G1 X134.474 Y90.919 E4.6187
G1 X133.765 Y90.531 E4.6614
G1 X133.015 Y90.228 E4.7041
G1 X132.235 Y90.014 E4.7468
G1 X131.436 Y89.892 E4.7895
G1 X130.628 Y89.864 E4.8322
G1 X129.822 Y89.929 E4.8749
G1 X128.907 Y90.112 E4.9241
G1 X128.754 Y89.837 E4.9408
G1 X129.266 Y89.291 E4.9803
G1 X129.470 Y89.248 E4.9913
G1 X129.989 Y89.176 E5.0190
G1 X130.851 Y89.135 E5.0645
G1 X131.704 Y89.190 E5.1097
G1 X132.546 Y89.339 E5.1548
G1 X133.367 Y89.581 E5.2000
G1 X134.155 Y89.912 E5.2452
G1 X134.902 Y90.329 E5.2903
G1 X135.597 Y90.827 E5.3355
G1 X136.233 Y91.399 E5.3806
G1 X136.802 Y92.037 E5.4258
G1 X137.295 Y92.736 E5.4710
G1 X137.695 Y93.460 E5.5147
G1 X138.036 Y94.275 E5.5613
G1 X138.274 Y95.096 E5.6064
G1 X138.418 Y95.939 E5.6516
G1 X138.468 Y96.793 E5.6967
G1 X138.423 Y97.647 E5.7419
G1 X138.284 Y98.490 E5.7870
G1 X138.051 Y99.313 E5.8322
G1 X137.728 Y100.105 E5.8774
G1 X137.319 Y100.856 E5.9225
G1 X136.830 Y101.557 E5.9677
G1 X136.265 Y102.200 E6.0128
G1 X135.632 Y102.775 E6.0580
G1 X134.939 Y103.277 E6.1032
G1 X134.195 Y103.698 E6.1483
G1 X133.409 Y104.034 E6.1935
G1 X132.590 Y104.281 E6.2386
G1 X131.749 Y104.435 E6.2838
G1 X130.896 Y104.494 E6.3289
G1 X130.041 Y104.459 E6.3741
G1 X129.196 Y104.328 E6.4193
G1 X128.376 Y104.106 E6.4641
G1 X127.596 Y103.800 E6.5084
G1 X126.875 Y103.422 E6.5514
G1 X126.058 Y102.882 E6.6031
G1 X124.563 Y102.769 E6.6822
G1 X120.734 Y102.541 E6.8848
G1 X116.897 Y102.408 E7.0875
G1 X113.058 Y102.365 E7.2902
G1 X109.219 Y102.404 E7.4929
G1 X105.384 Y102.524 E7.6956
