; G-Code generated by Simplify3D(R) Version 4.1.1
; Apr 27, 2021 at 7:41:03 PM
; Settings Summary
;   processName,Trideo BOX
;   applyToModels,Thumb connector
;   profileName,Trideo BOX
;   profileVersion,2021-04-15 09:48:16
;   baseProfile,Default
;   printMaterial,PLA
;   printQuality,Fast
;   printExtruders,
;   extruderName,Primary Extruder
;   extruderToolheadNumber,0
;   extruderDiameter,0.4
;   extruderAutoWidth,1
;   extruderWidth,0.48
;   extrusionMultiplier,0.98
;   extruderUseRetract,1
;   extruderRetractionDistance,0.7
;   extruderExtraRestartDistance,0
;   extruderRetractionZLift,0
;   extruderRetractionSpeed,1500
;   extruderUseCoasting,0
;   extruderCoastingDistance,0.2
;   extruderUseWipe,0
;   extruderWipeDistance,5
;   primaryExtruder,0
;   layerHeight,0.3
;   topSolidLayers,3
;   bottomSolidLayers,3
;   perimeterOutlines,2
;   printPerimetersInsideOut,1
;   startPointOption,2
;   startPointOriginX,0
;   startPointOriginY,0
;   sequentialIslands,0
;   spiralVaseMode,0
;   firstLayerHeightPercentage,90
;   firstLayerWidthPercentage,100
;   firstLayerUnderspeed,0.5
;   useRaft,0
;   raftExtruder,0
;   raftTopLayers,3
;   raftBaseLayers,2
;   raftOffset,3
;   raftSeparationDistance,0.14
;   raftTopInfill,100
;   aboveRaftSpeedMultiplier,0.3
;   useSkirt,1
;   skirtExtruder,0
;   skirtLayers,1
;   skirtOutlines,2
;   skirtOffset,4
;   usePrimePillar,0
;   primePillarExtruder,999
;   primePillarWidth,12
;   primePillarLocation,7
;   primePillarSpeedMultiplier,1
;   useOozeShield,0
;   oozeShieldExtruder,999
;   oozeShieldOffset,2
;   oozeShieldOutlines,1
;   oozeShieldSidewallShape,1
;   oozeShieldSidewallAngle,30
;   oozeShieldSpeedMultiplier,1
;   infillExtruder,0
;   internalInfillPattern,Rectilinear
;   externalInfillPattern,Rectilinear
;   infillPercentage,15
;   outlineOverlapPercentage,15
;   infillExtrusionWidthPercentage,100
;   minInfillLength,5
;   infillLayerInterval,1
;   internalInfillAngles,45,-45
;   overlapInternalInfillAngles,0
;   externalInfillAngles,45,-45
;   generateSupport,1
;   supportExtruder,0
;   supportInfillPercentage,25
;   supportExtraInflation,0
;   supportBaseLayers,0
;   denseSupportExtruder,0
;   denseSupportLayers,0
;   denseSupportInfillPercentage,70
;   supportLayerInterval,1
;   supportHorizontalPartOffset,0.3
;   supportUpperSeparationLayers,1
;   supportLowerSeparationLayers,1
;   supportType,0
;   supportGridSpacing,4
;   maxOverhangAngle,45
;   supportAngles,0
;   temperatureName,Primary Extruder,Heated bed
;   temperatureNumber,0,0
;   temperatureSetpointCount,1,1
;   temperatureSetpointLayers,1,1
;   temperatureSetpointTemperatures,190,60
;   temperatureStabilizeAtStartup,1,1
;   temperatureHeatedBed,0,1
;   fanLayers,1,2
;   fanSpeeds,0,100
;   blipFanToFullPower,0
;   adjustSpeedForCooling,1
;   minSpeedLayerTime,15
;   minCoolingSpeedSlowdown,20
;   increaseFanForCooling,0
;   minFanLayerTime,45
;   maxCoolingFanSpeed,100
;   increaseFanForBridging,0
;   bridgingFanSpeed,100
;   use5D,1
;   relativeEdistances,0
;   allowEaxisZeroing,1
;   independentExtruderAxes,0
;   includeM10123,0
;   stickySupport,1
;   applyToolheadOffsets,0
;   gcodeXoffset,0
;   gcodeYoffset,0
;   gcodeZoffset,0
;   overrideMachineDefinition,1
;   machineTypeOverride,0
;   strokeXoverride,200
;   strokeYoverride,200
;   strokeZoverride,200
;   originOffsetXoverride,0
;   originOffsetYoverride,0
;   originOffsetZoverride,0
;   homeXdirOverride,-1
;   homeYdirOverride,-1
;   homeZdirOverride,-1
;   flipXoverride,1
;   flipYoverride,-1
;   flipZoverride,1
;   toolheadOffsets,0,0|0,0|0,0|0,0|0,0|0,0
;   overrideFirmwareConfiguration,0
;   firmwareTypeOverride,RepRap (Marlin/Repetier/Sprinter)
;   GPXconfigOverride,r2
;   baudRateOverride,115200
;   overridePrinterModels,0
;   printerModelsOverride
;   startingGcode,G28 X0 Y0; home XY,G1 X20 Y20,G28 Z0,G1 Z5 F5000; Lift NZ
;   layerChangeGcode,
;   retractionGcode,
;   toolChangeGcode,
;   endingGcode,M104 S0 ; turn off extruder,G28 X0 ; home x,M140 S0 ; turn off bed,M84 ; disable motors,M107 ;
;   exportFileFormat,gcode
;   celebration,0
;   celebrationSong,Looney Toons
;   postProcessing,
;   defaultSpeed,3600
;   outlineUnderspeed,0.5
;   solidInfillUnderspeed,0.8
;   supportUnderspeed,0.8
;   rapidXYspeed,4800
;   rapidZspeed,1002
;   minBridgingArea,50
;   bridgingExtraInflation,0
;   bridgingExtrusionMultiplier,1
;   bridgingSpeedMultiplier,1
;   useFixedBridgingAngle,0
;   fixedBridgingAngle,0
;   applyBridgingToPerimeters,0
;   filamentDiameters,1.75|1.75|1.75|1.75|1.75|1.75
;   filamentPricesPerKg,46|46|46|46|46|46
;   filamentDensities,1.25|1.25|1.25|1.25|1.25|1.25
;   useMinPrintHeight,0
;   minPrintHeight,0
;   useMaxPrintHeight,0
;   maxPrintHeight,0
;   useDiaphragm,0
;   diaphragmLayerInterval,20
;   robustSlicing,1
;   mergeAllIntoSolid,0
;   onlyRetractWhenCrossingOutline,1
;   retractBetweenLayers,1
;   useRetractionMinTravel,0
;   retractionMinTravel,3
;   retractWhileWiping,0
;   onlyWipeOutlines,1
;   avoidCrossingOutline,0
;   maxMovementDetourFactor,3
;   toolChangeRetractionDistance,12
;   toolChangeExtraRestartDistance,-0.5
;   toolChangeRetractionSpeed,600
;   externalThinWallType,0
;   internalThinWallType,2
;   thinWallAllowedOverlapPercentage,10
;   singleExtrusionMinLength,1
;   singleExtrusionMinPrintingWidthPercentage,50
;   singleExtrusionMaxPrintingWidthPercentage,200
;   singleExtrusionEndpointExtension,0.2
;   horizontalSizeCompensation,0
G90
M82
M106 S0
M140 S60
M190 S60
M104 S190 T0
M109 S190 T0
G28 X0 Y0; home XY
G1 X20 Y20
G28 Z0
G1 Z5 F5000; Lift NZ
; process Trideo BOX
; layer 1, Z = 0.270
T0
G92 E0.0000
G1 E-0.7000 F1500
; feature skirt
; tool H0.270 W0.480
G1 Z0.270 F1002
G1 X60.849 Y96.990 F4800
G1 E0.0000 F1500
G92 E0.0000
G1 X65.183 Y96.986 E0.2289 F1800
G1 X79.449 Y96.233 E0.9832
G1 X86.164 Y95.838 E1.3384
G1 X90.623 Y95.519 E1.5744
G1 X95.058 Y95.139 E1.8095
G1 X99.458 Y94.680 E2.0431
G1 X103.818 Y94.120 E2.2752
G1 X107.266 Y93.579 E2.4595
G1 X110.687 Y92.931 E2.6434
G1 X112.335 Y92.568 E2.7325
G1 X113.978 Y92.166 E2.8218
G1 X115.591 Y91.725 E2.9101
G1 X117.154 Y91.247 E2.9964
G1 X119.125 Y90.553 E3.1067
G1 X121.030 Y89.760 E3.2157
G1 X121.886 Y89.354 E3.2657
G1 X122.706 Y88.925 E3.3146
G1 X124.328 Y87.954 E3.4144
G1 X125.366 Y87.163 E3.4833
G1 X125.821 Y86.775 E3.5149
G1 X126.246 Y86.374 E3.5457
G1 X128.673 Y83.791 E3.7329
G1 X130.038 Y83.060 E3.8147
G1 X131.999 Y82.731 E3.9197
G1 X132.278 Y82.701 E3.9345
G1 X133.569 Y82.640 E4.0027
G1 X133.832 Y82.642 E4.0166
G1 X135.112 Y82.724 E4.0844
G1 X135.374 Y82.755 E4.0983
G1 X136.638 Y82.979 E4.1660
G1 X136.894 Y83.039 E4.1799
G1 X138.125 Y83.402 E4.2477
G1 X138.372 Y83.490 E4.2616
G1 X139.556 Y83.988 E4.3294
G1 X139.792 Y84.103 E4.3432
G1 X140.913 Y84.729 E4.4110
G1 X141.135 Y84.870 E4.4249
G1 X142.179 Y85.617 E4.4927
G1 X142.384 Y85.781 E4.5066
G1 X143.338 Y86.640 E4.5743
G1 X143.524 Y86.826 E4.5882
G1 X144.377 Y87.785 E4.6560
G1 X144.540 Y87.991 E4.6699
G1 X145.282 Y89.039 E4.7377
G1 X145.421 Y89.262 E4.7516
G1 X146.042 Y90.385 E4.8193
G1 X146.156 Y90.622 E4.8332
G1 X146.647 Y91.808 E4.9010
G1 X146.734 Y92.056 E4.9149
G1 X147.091 Y93.289 E4.9827
G1 X147.149 Y93.546 E4.9965
G1 X147.367 Y94.811 E5.0643
G1 X147.397 Y95.072 E5.0782
G1 X147.472 Y96.353 E5.1460
G1 X147.473 Y96.616 E5.1599
G1 X147.405 Y97.898 E5.2276
G1 X147.376 Y98.160 E5.2415
G1 X147.167 Y99.426 E5.3093
G1 X147.109 Y99.682 E5.3232
G1 X146.760 Y100.917 E5.3910
G1 X146.674 Y101.166 E5.4049
G1 X146.190 Y102.355 E5.4726
G1 X146.077 Y102.592 E5.4865
G1 X145.464 Y103.720 E5.5543
G1 X145.325 Y103.944 E5.5682
G1 X144.590 Y104.996 E5.6360
G1 X144.428 Y105.203 E5.6499
G1 X143.580 Y106.166 E5.7176
G1 X143.396 Y106.354 E5.7315
G1 X142.447 Y107.218 E5.7993
G1 X142.242 Y107.384 E5.8132
G1 X141.203 Y108.136 E5.8810
G1 X140.981 Y108.279 E5.8948
G1 X139.865 Y108.911 E5.9626
G1 X139.629 Y109.028 E5.9765
G1 X138.449 Y109.532 E6.0443
G1 X138.202 Y109.622 E6.0582
G1 X136.972 Y109.992 E6.1259
G1 X136.717 Y110.054 E6.1398
G1 X135.451 Y110.286 E6.2078
G1 X135.183 Y110.319 E6.2221
G1 X133.874 Y110.406 E6.2913
G1 X133.618 Y110.410 E6.3048
G1 X132.368 Y110.357 E6.3709
G1 X132.106 Y110.332 E6.3848
G1 X130.838 Y110.136 E6.4526
G1 X130.581 Y110.082 E6.4664
G1 X129.350 Y109.749 E6.5338
G1 X129.103 Y109.667 E6.5475
G1 X127.931 Y109.206 E6.6140
G1 X127.698 Y109.100 E6.6275
G1 X126.612 Y108.531 E6.6923
G1 X126.543 Y108.490 E6.6965
G1 X126.415 Y108.480 E6.7033
G1 X122.362 Y108.238 E6.9177
G1 X118.307 Y108.098 E7.1319
G1 X114.242 Y108.051 E7.3466
G1 X110.171 Y108.093 E7.5615
G1 X106.099 Y108.220 E7.7767
G1 X102.028 Y108.429 E7.9919
G1 X97.965 Y108.719 E8.2070
G1 X92.991 Y109.190 E8.4708
G1 X88.029 Y109.802 E8.7348
G1 X85.596 Y110.163 E8.8647
G1 X83.168 Y110.571 E8.9947
G1 X80.764 Y111.029 E9.1239
G1 X78.394 Y111.541 E9.2519
G1 X76.009 Y112.132 E9.3817
G1 X73.681 Y112.800 E9.5096
G1 X71.411 Y113.558 E9.6360
G1 X69.317 Y114.368 E9.7545
G1 X65.532 Y116.296 E9.9788
G1 X60.786 Y109.820 E10.4028
G1 X63.597 Y106.962 E10.6144
G1 X63.650 Y106.876 E10.6198
G1 X63.675 Y106.819 E10.6231
G1 X63.692 Y106.759 E10.6264
G1 X63.702 Y106.697 E10.6296
G1 X63.702 Y106.635 E10.6329
G1 X63.695 Y106.573 E10.6362
G1 X63.679 Y106.513 E10.6395
G1 X63.655 Y106.454 E10.6429
G1 X63.625 Y106.401 E10.6461
G1 X63.586 Y106.352 E10.6494
G1 X63.542 Y106.308 E10.6527
G1 X63.492 Y106.270 E10.6560
G1 X63.472 Y106.258 E10.6572
G1 X59.429 Y104.716 E10.8857
G1 X60.849 Y96.990 E11.3005
G92 E0.0000
G1 E-0.7000 F1500
G1 X61.248 Y97.469 F4800
G1 E0.0000 F1500
G92 E0.0000
G1 X65.196 Y97.466 E0.2084 F1800
G1 X79.476 Y96.712 E0.9635
G1 X86.195 Y96.317 E1.3189
G1 X90.660 Y95.998 E1.5553
G1 X95.104 Y95.617 E1.7908
G1 X99.514 Y95.157 E2.0249
G1 X103.886 Y94.595 E2.2577
G1 X107.347 Y94.052 E2.4427
G1 X110.783 Y93.401 E2.6274
G1 X112.443 Y93.036 E2.7171
G1 X114.098 Y92.631 E2.8071
G1 X115.725 Y92.186 E2.8961
G1 X117.304 Y91.703 E2.9833
G1 X119.297 Y91.002 E3.0949
G1 X121.225 Y90.199 E3.2052
G1 X122.100 Y89.783 E3.2563
G1 X122.940 Y89.344 E3.3064
G1 X124.598 Y88.352 E3.4084
G1 X125.668 Y87.537 E3.4794
G1 X126.141 Y87.133 E3.5123
G1 X126.586 Y86.713 E3.5446
G1 X128.969 Y84.177 E3.7283
G1 X130.195 Y83.521 E3.8018
G1 X132.065 Y83.207 E3.9019
G1 X132.315 Y83.180 E3.9152
G1 X133.578 Y83.120 E3.9819
G1 X133.814 Y83.122 E3.9944
G1 X135.069 Y83.202 E4.0608
G1 X135.303 Y83.230 E4.0733
G1 X136.541 Y83.449 E4.1396
G1 X136.771 Y83.503 E4.1521
G1 X137.976 Y83.859 E4.2185
G1 X138.199 Y83.938 E4.2309
G1 X139.357 Y84.425 E4.2973
G1 X139.570 Y84.529 E4.3098
G1 X140.667 Y85.142 E4.3761
G1 X140.866 Y85.268 E4.3886
G1 X141.889 Y85.999 E4.4550
G1 X142.073 Y86.147 E4.4674
G1 X143.007 Y86.988 E4.5338
G1 X143.174 Y87.155 E4.5463
G1 X144.009 Y88.094 E4.6126
G1 X144.156 Y88.279 E4.6251
G1 X144.882 Y89.305 E4.6915
G1 X145.008 Y89.505 E4.7040
G1 X145.615 Y90.606 E4.7703
G1 X145.717 Y90.819 E4.7828
G1 X146.198 Y91.980 E4.8492
G1 X146.277 Y92.202 E4.8616
G1 X146.626 Y93.410 E4.9280
G1 X146.679 Y93.640 E4.9405
G1 X146.891 Y94.879 E5.0068
G1 X146.918 Y95.114 E5.0193
G1 X146.992 Y96.368 E5.0857
G1 X146.993 Y96.604 E5.0982
G1 X146.926 Y97.859 E5.1645
G1 X146.901 Y98.094 E5.1770
G1 X146.695 Y99.334 E5.2434
G1 X146.644 Y99.565 E5.2558
G1 X146.302 Y100.774 E5.3222
G1 X146.225 Y100.997 E5.3347
G1 X145.751 Y102.161 E5.4010
G1 X145.649 Y102.375 E5.4135
G1 X145.049 Y103.479 E5.4799
G1 X144.924 Y103.680 E5.4924
G1 X144.204 Y104.710 E5.5587
G1 X144.059 Y104.896 E5.5712
G1 X143.229 Y105.840 E5.6376
G1 X143.063 Y106.008 E5.6500
G1 X142.133 Y106.854 E5.7164
G1 X141.950 Y107.003 E5.7289
G1 X140.932 Y107.740 E5.7952
G1 X140.733 Y107.868 E5.8077
G1 X139.640 Y108.487 E5.8741
G1 X139.428 Y108.592 E5.8865
G1 X138.272 Y109.086 E5.9529
G1 X138.050 Y109.166 E5.9654
G1 X136.847 Y109.529 E6.0317
G1 X136.617 Y109.584 E6.0442
G1 X135.378 Y109.811 E6.1108
G1 X135.137 Y109.841 E6.1236
G1 X133.855 Y109.927 E6.1914
G1 X133.625 Y109.929 E6.2036
G1 X132.401 Y109.878 E6.2682
G1 X132.166 Y109.855 E6.2807
G1 X130.924 Y109.664 E6.3471
G1 X130.694 Y109.615 E6.3595
G1 X129.488 Y109.289 E6.4255
G1 X129.266 Y109.215 E6.4378
G1 X128.118 Y108.764 E6.5029
G1 X127.909 Y108.669 E6.5151
G1 X126.846 Y108.111 E6.5785
G1 X126.692 Y108.021 E6.5879
G1 X126.449 Y108.001 E6.6008
G1 X122.384 Y107.758 E6.8158
G1 X118.318 Y107.618 E7.0306
G1 X114.243 Y107.571 E7.2458
G1 X110.161 Y107.613 E7.4614
G1 X106.079 Y107.740 E7.6770
G1 X101.998 Y107.950 E7.8928
G1 X97.926 Y108.240 E8.1084
G1 X92.939 Y108.713 E8.3729
G1 X87.964 Y109.327 E8.6376
G1 X85.522 Y109.689 E8.7679
G1 X83.084 Y110.098 E8.8985
G1 X80.668 Y110.558 E9.0283
G1 X78.286 Y111.073 E9.1570
G1 X75.886 Y111.668 E9.2876
G1 X73.539 Y112.341 E9.4165
G1 X71.248 Y113.106 E9.5440
G1 X69.121 Y113.929 E9.6645
G1 X65.678 Y115.683 E9.8685
G1 X61.415 Y109.866 E10.2493
G1 X63.979 Y107.259 E10.4424
G1 X64.077 Y107.098 E10.4523
G1 X64.128 Y106.982 E10.4590
G1 X64.163 Y106.861 E10.4657
G1 X64.181 Y106.735 E10.4724
G1 X64.183 Y106.609 E10.4791
G1 X64.167 Y106.483 E10.4857
G1 X64.136 Y106.361 E10.4924
G1 X64.087 Y106.242 E10.4992
G1 X64.025 Y106.134 E10.5058
G1 X63.947 Y106.033 E10.5125
G1 X63.857 Y105.944 E10.5192
G1 X63.757 Y105.868 E10.5259
G1 X63.676 Y105.823 E10.5307
G1 X59.973 Y104.410 E10.7400
G1 X61.248 Y97.469 E11.1126
G92 E0.0000
G1 E-0.7000 F1500
; feature inner perimeter
G1 X67.246 Y102.319 F4800
G1 E0.0000 F1500
G92 E0.0000
G1 X71.667 Y102.073 E0.2338 F1350
G1 X79.750 Y101.665 E0.6612
G1 X86.518 Y101.266 E1.0192
G1 X91.048 Y100.943 E1.2590
G1 X95.573 Y100.555 E1.4988
G1 X100.085 Y100.084 E1.7383
G1 X102.339 Y99.810 E1.8582
G1 X104.589 Y99.505 E1.9781
G1 X108.190 Y98.941 E2.1706
G1 X109.989 Y98.616 E2.2671
G1 X111.782 Y98.260 E2.3636
G1 X113.566 Y97.867 E2.4601
G1 X115.341 Y97.433 E2.5566
G1 X117.104 Y96.951 E2.6531
G1 X118.850 Y96.417 E2.7495
G1 X119.968 Y96.040 E2.8118
G1 X121.075 Y95.634 E2.8741
G1 X122.169 Y95.198 E2.9362
G1 X123.249 Y94.729 E2.9985
G1 X124.314 Y94.222 E3.0607
G1 X125.360 Y93.676 E3.1230
G1 X126.375 Y93.088 E3.1850
G1 X126.597 Y92.951 E3.1988
G1 X126.838 Y93.166 E3.2158
G1 X126.587 Y93.696 E3.2467
G1 X126.306 Y94.527 E3.2931
G1 X126.123 Y95.386 E3.3395
G1 X126.062 Y96.037 E3.3740
G1 X126.041 Y96.261 E3.3858
G1 X126.061 Y97.138 E3.4322
G1 X126.183 Y98.008 E3.4786
G1 X126.406 Y98.858 E3.5249
G1 X126.725 Y99.676 E3.5713
G1 X127.137 Y100.451 E3.6177
G1 X127.636 Y101.173 E3.6640
G1 X128.216 Y101.833 E3.7104
G1 X128.869 Y102.420 E3.7568
G1 X129.585 Y102.928 E3.8031
G1 X130.355 Y103.350 E3.8495
G1 X131.169 Y103.678 E3.8959
G1 X132.016 Y103.911 E3.9422
G1 X132.884 Y104.043 E3.9886
G1 X133.762 Y104.074 E4.0350
G1 X134.637 Y104.002 E4.0813
G1 X135.498 Y103.830 E4.1277
G1 X136.333 Y103.559 E4.1740
G1 X137.131 Y103.192 E4.2204
G1 X137.881 Y102.736 E4.2668
G1 X138.572 Y102.195 E4.3131
G1 X139.197 Y101.578 E4.3595
G1 X139.745 Y100.893 E4.4058
G1 X140.094 Y100.335 E4.4405
G1 X140.211 Y100.148 E4.4522
G1 X140.586 Y99.355 E4.4986
G1 X140.867 Y98.523 E4.5449
G1 X141.050 Y97.664 E4.5913
G1 X141.132 Y96.790 E4.6376
G1 X141.111 Y95.913 E4.6840
G1 X140.989 Y95.043 E4.7303
G1 X140.767 Y94.194 E4.7767
G1 X140.448 Y93.376 E4.8230
G1 X140.036 Y92.601 E4.8694
G1 X139.537 Y91.879 E4.9157
G1 X138.957 Y91.220 E4.9621
G1 X138.305 Y90.632 E5.0084
G1 X137.589 Y90.124 E5.0548
G1 X136.819 Y89.703 E5.1012
G1 X136.005 Y89.374 E5.1475
G1 X135.158 Y89.142 E5.1939
G1 X134.290 Y89.009 E5.2402
G1 X133.413 Y88.978 E5.2866
G1 X132.538 Y89.049 E5.3329
G1 X131.677 Y89.221 E5.3793
G1 X131.394 Y89.313 E5.3950
G1 X131.214 Y89.030 E5.4127
G1 X131.952 Y88.245 E5.4696
G1 X132.138 Y88.206 E5.4797
G1 X132.709 Y88.127 E5.5101
G1 X133.656 Y88.082 E5.5601
G1 X134.594 Y88.142 E5.6098
G1 X135.520 Y88.306 E5.6594
G1 X136.422 Y88.572 E5.7091
G1 X137.289 Y88.936 E5.7587
G1 X138.109 Y89.395 E5.8084
G1 X138.874 Y89.942 E5.8580
G1 X139.573 Y90.570 E5.9077
G1 X140.198 Y91.273 E5.9573
G1 X140.742 Y92.040 E6.0070
G1 X141.196 Y92.863 E6.0566
G1 X141.556 Y93.732 E6.1063
G1 X141.817 Y94.635 E6.1559
G1 X141.976 Y95.562 E6.2056
G1 X142.031 Y96.501 E6.2552
G1 X141.982 Y97.440 E6.3049
G1 X141.828 Y98.367 E6.3545
