; G-Code generated by Simplify3D(R) Version 4.1.1
; Apr 27, 2021 at 7:39:55 PM
; Settings Summary
;   processName,Trideo BOX
;   applyToModels,Thumb connector
;   profileName,Trideo BOX
;   profileVersion,2021-04-15 09:48:16
;   baseProfile,Default
;   printMaterial,PLA
;   printQuality,Fast
;   printExtruders,
;   extruderName,Primary Extruder
;   extruderToolheadNumber,0
;   extruderDiameter,0.4
;   extruderAutoWidth,1
;   extruderWidth,0.48
;   extrusionMultiplier,0.98
;   extruderUseRetract,1
;   extruderRetractionDistance,0.7
;   extruderExtraRestartDistance,0
;   extruderRetractionZLift,0
;   extruderRetractionSpeed,1500
;   extruderUseCoasting,0
;   extruderCoastingDistance,0.2
;   extruderUseWipe,0
;   extruderWipeDistance,5
;   primaryExtruder,0
;   layerHeight,0.3
;   topSolidLayers,3
;   bottomSolidLayers,3
;   perimeterOutlines,2
;   printPerimetersInsideOut,1
;   startPointOption,2
;   startPointOriginX,0
;   startPointOriginY,0
;   sequentialIslands,0
;   spiralVaseMode,0
;   firstLayerHeightPercentage,90
;   firstLayerWidthPercentage,100
;   firstLayerUnderspeed,0.5
;   useRaft,0
;   raftExtruder,0
;   raftTopLayers,3
;   raftBaseLayers,2
;   raftOffset,3
;   raftSeparationDistance,0.14
;   raftTopInfill,100
;   aboveRaftSpeedMultiplier,0.3
;   useSkirt,1
;   skirtExtruder,0
;   skirtLayers,1
;   skirtOutlines,2
;   skirtOffset,4
;   usePrimePillar,0
;   primePillarExtruder,999
;   primePillarWidth,12
;   primePillarLocation,7
;   primePillarSpeedMultiplier,1
;   useOozeShield,0
;   oozeShieldExtruder,999
;   oozeShieldOffset,2
;   oozeShieldOutlines,1
;   oozeShieldSidewallShape,1
;   oozeShieldSidewallAngle,30
;   oozeShieldSpeedMultiplier,1
;   infillExtruder,0
;   internalInfillPattern,Rectilinear
;   externalInfillPattern,Rectilinear
;   infillPercentage,15
;   outlineOverlapPercentage,15
;   infillExtrusionWidthPercentage,100
;   minInfillLength,5
;   infillLayerInterval,1
;   internalInfillAngles,45,-45
;   overlapInternalInfillAngles,0
;   externalInfillAngles,45,-45
;   generateSupport,1
;   supportExtruder,0
;   supportInfillPercentage,25
;   supportExtraInflation,0
;   supportBaseLayers,0
;   denseSupportExtruder,0
;   denseSupportLayers,0
;   denseSupportInfillPercentage,70
;   supportLayerInterval,1
;   supportHorizontalPartOffset,0.3
;   supportUpperSeparationLayers,1
;   supportLowerSeparationLayers,1
;   supportType,0
;   supportGridSpacing,4
;   maxOverhangAngle,45
;   supportAngles,0
;   temperatureName,Primary Extruder,Heated bed
;   temperatureNumber,0,0
;   temperatureSetpointCount,1,1
;   temperatureSetpointLayers,1,1
;   temperatureSetpointTemperatures,190,60
;   temperatureStabilizeAtStartup,1,1
;   temperatureHeatedBed,0,1
;   fanLayers,1,2
;   fanSpeeds,0,100
;   blipFanToFullPower,0
;   adjustSpeedForCooling,1
;   minSpeedLayerTime,15
;   minCoolingSpeedSlowdown,20
;   increaseFanForCooling,0
;   minFanLayerTime,45
;   maxCoolingFanSpeed,100
;   increaseFanForBridging,0
;   bridgingFanSpeed,100
;   use5D,1
;   relativeEdistances,0
;   allowEaxisZeroing,1
;   independentExtruderAxes,0
;   includeM10123,0
;   stickySupport,1
;   applyToolheadOffsets,0
;   gcodeXoffset,0
;   gcodeYoffset,0
;   gcodeZoffset,0
;   overrideMachineDefinition,1
;   machineTypeOverride,0
;   strokeXoverride,200
;   strokeYoverride,200
;   strokeZoverride,200
;   originOffsetXoverride,0
;   originOffsetYoverride,0
;   originOffsetZoverride,0
;   homeXdirOverride,-1
;   homeYdirOverride,-1
;   homeZdirOverride,-1
;   flipXoverride,1
;   flipYoverride,-1
;   flipZoverride,1
;   toolheadOffsets,0,0|0,0|0,0|0,0|0,0|0,0
;   overrideFirmwareConfiguration,0
;   firmwareTypeOverride,RepRap (Marlin/Repetier/Sprinter)
;   GPXconfigOverride,r2
;   baudRateOverride,115200
;   overridePrinterModels,0
;   printerModelsOverride
;   startingGcode,G28 X0 Y0; home XY,G1 X20 Y20,G28 Z0,G1 Z5 F5000; Lift NZ
;   layerChangeGcode,
;   retractionGcode,
;   toolChangeGcode,
;   endingGcode,M104 S0 ; turn off extruder,G28 X0 ; home x,M140 S0 ; turn off bed,M84 ; disable motors,M107 ;
;   exportFileFormat,gcode
;   celebration,0
;   celebrationSong,Looney Toons
;   postProcessing,
;   defaultSpeed,3600
;   outlineUnderspeed,0.5
;   solidInfillUnderspeed,0.8
;   supportUnderspeed,0.8
;   rapidXYspeed,4800
;   rapidZspeed,1002
;   minBridgingArea,50
;   bridgingExtraInflation,0
;   bridgingExtrusionMultiplier,1
;   bridgingSpeedMultiplier,1
;   useFixedBridgingAngle,0
;   fixedBridgingAngle,0
;   applyBridgingToPerimeters,0
;   filamentDiameters,1.75|1.75|1.75|1.75|1.75|1.75
;   filamentPricesPerKg,46|46|46|46|46|46
;   filamentDensities,1.25|1.25|1.25|1.25|1.25|1.25
;   useMinPrintHeight,0
;   minPrintHeight,0
;   useMaxPrintHeight,0
;   maxPrintHeight,0
;   useDiaphragm,0
;   diaphragmLayerInterval,20
;   robustSlicing,1
;   mergeAllIntoSolid,0
;   onlyRetractWhenCrossingOutline,1
;   retractBetweenLayers,1
;   useRetractionMinTravel,0
;   retractionMinTravel,3
;   retractWhileWiping,0
;   onlyWipeOutlines,1
;   avoidCrossingOutline,0
;   maxMovementDetourFactor,3
;   toolChangeRetractionDistance,12
;   toolChangeExtraRestartDistance,-0.5
;   toolChangeRetractionSpeed,600
;   externalThinWallType,0
;   internalThinWallType,2
;   thinWallAllowedOverlapPercentage,10
;   singleExtrusionMinLength,1
;   singleExtrusionMinPrintingWidthPercentage,50
;   singleExtrusionMaxPrintingWidthPercentage,200
;   singleExtrusionEndpointExtension,0.2
;   horizontalSizeCompensation,0
G90
M82
M106 S0
M140 S60
M190 S60
M104 S190 T0
M109 S190 T0
G28 X0 Y0; home XY
G1 X20 Y20
G28 Z0
G1 Z5 F5000; Lift NZ
; process Trideo BOX
; layer 1, Z = 0.270
T0
G92 E0.0000
G1 E-0.7000 F1500
; feature skirt
; tool H0.270 W0.480
G1 Z0.270 F1002
G1 X68.900 Y96.607 F4800
G1 E0.0000 F1500
G92 E0.0000
G1 X73.796 Y96.489 E0.2586 F1800
G1 X84.517 Y95.920 E0.8255
G1 X89.542 Y95.624 E1.0913
G1 X92.868 Y95.387 E1.2674
G1 X96.175 Y95.104 E1.4427
G1 X99.449 Y94.762 E1.6165
G1 X102.687 Y94.347 E1.7888
G1 X105.235 Y93.947 E1.9251
G1 X107.736 Y93.473 E2.0595
G1 X110.196 Y92.902 E2.1928
G1 X111.345 Y92.588 E2.2557
G1 X112.474 Y92.243 E2.3181
G1 X113.895 Y91.743 E2.3976
G1 X115.220 Y91.191 E2.4734
G1 X116.486 Y90.560 E2.5481
G1 X116.965 Y90.283 E2.5773
G1 X117.890 Y89.662 E2.6361
G1 X118.567 Y89.110 E2.6822
G1 X118.784 Y88.906 E2.6979
G1 X120.596 Y86.949 E2.8388
G1 X121.954 Y86.209 E2.9205
G1 X123.812 Y85.882 E3.0200
G1 X124.108 Y85.849 E3.0358
G1 X125.153 Y85.800 E3.0910
G1 X125.416 Y85.802 E3.1049
G1 X126.447 Y85.868 E3.1595
G1 X126.718 Y85.901 E3.1739
G1 X127.758 Y86.089 E3.2297
G1 X128.004 Y86.148 E3.2431
G1 X128.959 Y86.429 E3.2956
G1 X129.206 Y86.517 E3.3095
G1 X130.154 Y86.916 E3.3638
G1 X130.391 Y87.031 E3.3777
G1 X131.289 Y87.533 E3.4320
G1 X131.511 Y87.674 E3.4459
G1 X132.347 Y88.272 E3.5002
G1 X132.552 Y88.437 E3.5141
G1 X133.317 Y89.124 E3.5684
G1 X133.502 Y89.311 E3.5823
G1 X134.186 Y90.079 E3.6366
G1 X134.350 Y90.285 E3.6505
G1 X134.944 Y91.124 E3.7048
G1 X135.083 Y91.347 E3.7186
G1 X135.564 Y92.218 E3.7712
G1 X135.674 Y92.447 E3.7846
G1 X136.083 Y93.421 E3.8404
G1 X136.174 Y93.678 E3.8548
G1 X136.461 Y94.671 E3.9093
G1 X136.519 Y94.927 E3.9232
G1 X136.694 Y95.941 E3.9775
G1 X136.724 Y96.202 E3.9914
G1 X136.784 Y97.229 E4.0457
G1 X136.785 Y97.492 E4.0596
G1 X136.730 Y98.519 E4.1139
G1 X136.702 Y98.780 E4.1278
G1 X136.534 Y99.795 E4.1821
G1 X136.476 Y100.051 E4.1960
G1 X136.197 Y101.041 E4.2503
G1 X136.111 Y101.290 E4.2642
G1 X135.723 Y102.242 E4.3185
G1 X135.610 Y102.480 E4.3324
G1 X135.119 Y103.383 E4.3867
G1 X134.980 Y103.607 E4.4005
G1 X134.391 Y104.450 E4.4549
G1 X134.229 Y104.656 E4.4687
G1 X133.550 Y105.429 E4.5230
G1 X133.365 Y105.616 E4.5369
G1 X132.605 Y106.308 E4.5912
G1 X132.400 Y106.474 E4.6051
G1 X131.568 Y107.077 E4.6594
G1 X131.346 Y107.219 E4.6733
G1 X130.451 Y107.726 E4.7276
G1 X130.216 Y107.843 E4.7415
G1 X129.270 Y108.247 E4.7958
G1 X129.023 Y108.337 E4.8097
G1 X128.038 Y108.633 E4.8640
G1 X127.782 Y108.695 E4.8779
G1 X126.771 Y108.880 E4.9322
G1 X126.510 Y108.913 E4.9461
G1 X125.484 Y108.985 E5.0004
G1 X125.221 Y108.989 E5.0143
G1 X124.194 Y108.946 E5.0686
G1 X123.932 Y108.920 E5.0825
G1 X122.916 Y108.763 E5.1367
G1 X122.660 Y108.709 E5.1506
G1 X121.675 Y108.443 E5.2044
G1 X121.429 Y108.362 E5.2181
G1 X120.496 Y107.995 E5.2710
G1 X120.265 Y107.890 E5.2844
G1 X119.766 Y107.630 E5.3141
G1 X116.700 Y107.431 E5.4764
G1 X113.703 Y107.328 E5.6348
G1 X110.681 Y107.294 E5.7943
G1 X107.655 Y107.325 E5.9541
G1 X104.626 Y107.420 E6.1141
G1 X101.598 Y107.576 E6.2742
G1 X98.578 Y107.791 E6.4341
G1 X94.880 Y108.142 E6.6303
G1 X91.214 Y108.594 E6.8253
G1 X87.576 Y109.170 E7.0198
G1 X85.824 Y109.503 E7.1140
G1 X84.080 Y109.880 E7.2082
G1 X82.332 Y110.314 E7.3033
G1 X80.634 Y110.801 E7.3966
G1 X78.967 Y111.358 E7.4894
G1 X78.167 Y111.660 E7.5345
G1 X77.467 Y111.933 E7.5742
G1 X73.329 Y113.952 E7.8173
G1 X68.718 Y107.270 E8.2460
G1 X70.624 Y105.479 E8.3841
G1 X68.051 Y104.880 E8.5236
G1 X68.900 Y96.607 E8.9627
G92 E0.0000
G1 E-0.7000 F1500
G1 X69.334 Y97.077 F4800
G1 E0.0000 F1500
G92 E0.0000
G1 X73.815 Y96.968 E0.2367 F1800
G1 X84.544 Y96.399 E0.8040
G1 X89.573 Y96.103 E1.0700
G1 X92.906 Y95.865 E1.2465
G1 X96.221 Y95.582 E1.4221
G1 X99.504 Y95.239 E1.5964
G1 X102.754 Y94.822 E1.7695
G1 X105.317 Y94.420 E1.9065
G1 X107.835 Y93.943 E2.0418
G1 X110.313 Y93.368 E2.1761
G1 X111.478 Y93.049 E2.2399
G1 X112.624 Y92.699 E2.3032
G1 X114.067 Y92.191 E2.3839
G1 X115.420 Y91.628 E2.4613
G1 X116.714 Y90.983 E2.5377
G1 X117.220 Y90.690 E2.5685
G1 X118.176 Y90.048 E2.6293
G1 X118.884 Y89.471 E2.6776
G1 X119.125 Y89.244 E2.6950
G1 X120.895 Y87.333 E2.8326
G1 X122.115 Y86.668 E2.9060
G1 X123.880 Y86.358 E3.0006
G1 X124.146 Y86.328 E3.0147
G1 X125.163 Y86.280 E3.0685
G1 X125.399 Y86.282 E3.0809
G1 X126.403 Y86.346 E3.1341
G1 X126.646 Y86.376 E3.1470
G1 X127.659 Y86.559 E3.2014
G1 X127.881 Y86.612 E3.2134
G1 X128.810 Y86.886 E3.2646
G1 X129.033 Y86.965 E3.2770
G1 X129.956 Y87.353 E3.3299
G1 X130.168 Y87.457 E3.3424
G1 X131.043 Y87.945 E3.3953
G1 X131.242 Y88.072 E3.4078
G1 X132.057 Y88.655 E3.4607
G1 X132.241 Y88.803 E3.4731
G1 X132.986 Y89.472 E3.5260
G1 X133.153 Y89.640 E3.5385
G1 X133.819 Y90.388 E3.5914
G1 X133.966 Y90.573 E3.6039
G1 X134.544 Y91.391 E3.6568
G1 X134.669 Y91.591 E3.6692
G1 X135.138 Y92.439 E3.7204
G1 X135.237 Y92.644 E3.7324
G1 X135.635 Y93.594 E3.7868
G1 X135.716 Y93.825 E3.7997
G1 X135.996 Y94.791 E3.8528
G1 X136.049 Y95.022 E3.8653
G1 X136.218 Y96.009 E3.9182
G1 X136.245 Y96.243 E3.9307
G1 X136.304 Y97.243 E3.9836
G1 X136.305 Y97.480 E3.9961
G1 X136.252 Y98.480 E4.0489
G1 X136.226 Y98.715 E4.0614
G1 X136.062 Y99.703 E4.1143
G1 X136.011 Y99.934 E4.1268
G1 X135.738 Y100.897 E4.1797
G1 X135.661 Y101.121 E4.1921
G1 X135.283 Y102.048 E4.2450
G1 X135.182 Y102.262 E4.2575
G1 X134.703 Y103.142 E4.3104
G1 X134.579 Y103.343 E4.3229
G1 X134.005 Y104.164 E4.3758
G1 X133.859 Y104.350 E4.3883
G1 X133.198 Y105.102 E4.4411
G1 X133.032 Y105.270 E4.4536
G1 X132.291 Y105.944 E4.5065
G1 X132.108 Y106.093 E4.5190
G1 X131.297 Y106.681 E4.5719
G1 X131.098 Y106.808 E4.5844
G1 X130.226 Y107.302 E4.6372
G1 X130.015 Y107.407 E4.6497
G1 X129.094 Y107.801 E4.7026
G1 X128.872 Y107.881 E4.7151
G1 X127.913 Y108.170 E4.7680
G1 X127.683 Y108.225 E4.7804
G1 X126.698 Y108.406 E4.8333
G1 X126.463 Y108.435 E4.8458
G1 X125.464 Y108.505 E4.8987
G1 X125.228 Y108.508 E4.9112
G1 X124.227 Y108.467 E4.9641
G1 X123.992 Y108.444 E4.9765
G1 X123.002 Y108.291 E5.0294
G1 X122.772 Y108.242 E5.0418
G1 X121.813 Y107.983 E5.0943
G1 X121.592 Y107.910 E5.1066
G1 X120.683 Y107.553 E5.1581
G1 X120.476 Y107.459 E5.1702
G1 X119.898 Y107.157 E5.2046
G1 X116.724 Y106.952 E5.3725
G1 X113.713 Y106.848 E5.5316
G1 X110.681 Y106.814 E5.6917
G1 X107.645 Y106.845 E5.8521
G1 X104.607 Y106.940 E6.0126
G1 X101.569 Y107.096 E6.1732
G1 X98.539 Y107.313 E6.3336
G1 X94.828 Y107.665 E6.5305
G1 X91.147 Y108.119 E6.7263
G1 X87.493 Y108.697 E6.9216
G1 X85.728 Y109.033 E7.0165
G1 X83.972 Y109.413 E7.1114
G1 X82.208 Y109.850 E7.2073
G1 X80.492 Y110.343 E7.3016
G1 X78.806 Y110.905 E7.3954
G1 X77.995 Y111.212 E7.4412
G1 X77.274 Y111.493 E7.4821
G1 X73.490 Y113.339 E7.7044
G1 X69.347 Y107.338 E8.0895
G1 X71.606 Y105.214 E8.2532
G1 X68.572 Y104.508 E8.4177
G1 X69.334 Y97.077 E8.8122
G92 E0.0000
G1 E-0.7000 F1500
; feature inner perimeter
G1 X75.751 Y101.828 F4800
G1 E0.0000 F1500
G92 E0.0000
G1 X78.223 Y101.691 E0.1307 F1350
G1 X84.819 Y101.351 E0.4795
G1 X89.895 Y101.053 E0.7480
G1 X93.294 Y100.810 E0.9279
G1 X96.690 Y100.520 E1.1079
G1 X100.075 Y100.166 E1.2876
G1 X101.767 Y99.961 E1.3776
G1 X103.456 Y99.732 E1.4676
G1 X106.160 Y99.309 E1.6121
G1 X107.512 Y99.065 E1.6846
G1 X108.857 Y98.798 E1.7571
G1 X110.199 Y98.503 E1.8296
G1 X111.532 Y98.176 E1.9021
G1 X112.858 Y97.814 E1.9747
G1 X114.169 Y97.413 E2.0471
G1 X115.011 Y97.129 E2.0940
G1 X115.843 Y96.824 E2.1408
G1 X116.667 Y96.496 E2.1876
G1 X117.481 Y96.143 E2.2345
G1 X118.283 Y95.761 E2.2814
G1 X119.071 Y95.349 E2.3283
G1 X119.970 Y94.829 E2.3831
G1 X119.619 Y95.865 E2.4409
G1 X119.479 Y96.526 E2.4765
G1 X119.418 Y97.249 E2.5149
G1 X119.432 Y97.863 E2.5473
G1 X119.526 Y98.528 E2.5828
G1 X119.696 Y99.178 E2.6182
G1 X119.941 Y99.807 E2.6539
G1 X120.288 Y100.445 E2.6922
G1 X120.637 Y100.950 E2.7246
G1 X121.081 Y101.455 E2.7601
G1 X121.704 Y102.016 E2.8044
G1 X121.582 Y102.300 E2.8207
G1 X120.103 Y102.184 E2.8991
G1 X116.968 Y101.997 E3.0649
G1 X113.827 Y101.889 E3.2309
G1 X110.684 Y101.853 E3.3969
G1 X107.541 Y101.886 E3.5628
G1 X104.401 Y101.984 E3.7287
G1 X101.265 Y102.146 E3.8945
G1 X98.130 Y102.369 E4.0605
G1 X96.210 Y102.538 E4.1623
G1 X94.290 Y102.733 E4.2642
G1 X92.372 Y102.956 E4.3661
G1 X90.456 Y103.207 E4.4682
G1 X88.544 Y103.490 E4.5702
G1 X86.638 Y103.810 E4.6723
G1 X84.740 Y104.172 E4.7743
G1 X82.851 Y104.581 E4.8764
G1 X80.927 Y105.058 E4.9810
G1 X79.026 Y105.603 E5.0855
G1 X78.077 Y105.907 E5.1381
G1 X76.786 Y106.356 E5.2102
G1 X76.899 Y105.963 E5.2318
G1 X76.988 Y105.359 E5.2641
G1 X76.996 Y104.748 E5.2963
G1 X76.922 Y104.141 E5.3286
G1 X76.768 Y103.550 E5.3609
G1 X76.536 Y102.983 E5.3932
G1 X76.232 Y102.454 E5.4254
G1 X75.751 Y101.828 E5.4671
; feature outer perimeter
G1 X75.499 Y102.288 F4800
G92 E0.0000
G1 X75.111 Y101.903 E0.0289 F900
G1 X74.675 Y101.572 E0.0578
G1 X74.408 Y101.422 E0.0739
G1 X78.198 Y101.212 E0.2743
G1 X84.793 Y100.872 E0.6230
G1 X89.864 Y100.574 E0.8912
G1 X93.257 Y100.332 E1.0708
G1 X96.644 Y100.042 E1.2504
G1 X100.021 Y99.689 E1.4297
G1 X101.706 Y99.485 E1.5193
G1 X103.387 Y99.257 E1.6089
G1 X106.080 Y98.835 E1.7528
G1 X107.422 Y98.593 E1.8248
G1 X108.759 Y98.328 E1.8968
G1 X110.090 Y98.035 E1.9687
G1 X111.412 Y97.711 E2.0406
G1 X112.724 Y97.353 E2.1124
G1 X114.022 Y96.956 E2.1841
G1 X114.852 Y96.676 E2.2303
G1 X115.672 Y96.376 E2.2765
G1 X116.483 Y96.053 E2.3225
G1 X117.282 Y95.705 E2.3685
G1 X118.069 Y95.332 E2.4145
G1 X118.839 Y94.929 E2.4605
G1 X119.591 Y94.494 E2.5063
G1 X120.314 Y94.022 E2.5519
G1 X120.844 Y93.653 E2.5860
G1 X121.353 Y93.257 E2.6201
G1 X121.842 Y92.840 E2.6540
G1 X122.310 Y92.398 E2.6880
G1 X123.658 Y90.943 E2.7927
G1 X124.053 Y90.859 E2.8140
G1 X124.504 Y90.796 E2.8381
G1 X125.244 Y90.761 E2.8772
G1 X125.981 Y90.808 E2.9162
G1 X126.736 Y90.945 E2.9567
G1 X127.417 Y91.146 E2.9942
G1 X128.098 Y91.432 E3.0332
G1 X128.743 Y91.792 E3.0722
G1 X129.344 Y92.222 E3.1112
G1 X129.893 Y92.716 E3.1502
G1 X130.384 Y93.268 E3.1892
G1 X130.811 Y93.871 E3.2282
G1 X131.154 Y94.493 E3.2658
G1 X131.450 Y95.200 E3.3063
G1 X131.656 Y95.909 E3.3453
G1 X131.781 Y96.637 E3.3843
G1 X131.824 Y97.375 E3.4233
G1 X131.785 Y98.112 E3.4623
G1 X131.664 Y98.841 E3.5013
G1 X131.463 Y99.552 E3.5403
G1 X131.184 Y100.236 E3.5793
G1 X130.831 Y100.885 E3.6183
G1 X130.408 Y101.490 E3.6573
G1 X129.920 Y102.045 E3.6963
G1 X129.374 Y102.542 E3.7353
G1 X128.776 Y102.975 E3.7743
G1 X128.133 Y103.339 E3.8133
G1 X127.454 Y103.629 E3.8523
G1 X126.747 Y103.842 E3.8913
G1 X126.020 Y103.975 E3.9303
G1 X125.283 Y104.027 E3.9693
G1 X124.545 Y103.996 E4.0083
G1 X123.815 Y103.883 E4.0473
G1 X123.108 Y103.692 E4.0860
G1 X122.437 Y103.429 E4.1240
