; G-Code generated by Simplify3D(R) Version 4.1.2
; Apr 7, 2023 at 5:30:26 PM
; Settings Summary
;   processName,Ender2
;   applyToModels,2023_Palma v16_x2 v3_2_Body1,2023_Palma v16_x2 v3_2_Body1(2),2023_Palma v16_x2 v3_2_Body1(3)
;   profileName,Building Profile
;   profileVersion,2020-12-31 08:14:15
;   baseProfile,Creality Ender 3 Pro (modified)
;   printMaterial,PLA
;   printQuality,Medium
;   printExtruders,
;   extruderName,Primary Extruder
;   extruderToolheadNumber,0
;   extruderDiameter,0.4
;   extruderAutoWidth,0
;   extruderWidth,0.4
;   extrusionMultiplier,1
;   extruderUseRetract,1
;   extruderRetractionDistance,3.8
;   extruderExtraRestartDistance,0.15
;   extruderRetractionZLift,0
;   extruderRetractionSpeed,2600
;   extruderUseCoasting,0
;   extruderCoastingDistance,0.2
;   extruderUseWipe,0
;   extruderWipeDistance,5
;   primaryExtruder,0
;   layerHeight,0.18
;   topSolidLayers,5
;   bottomSolidLayers,3
;   perimeterOutlines,2
;   printPerimetersInsideOut,1
;   startPointOption,2
;   startPointOriginX,0
;   startPointOriginY,0
;   sequentialIslands,0
;   spiralVaseMode,0
;   firstLayerHeightPercentage,100
;   firstLayerWidthPercentage,95
;   firstLayerUnderspeed,0.5
;   useRaft,0
;   raftExtruder,0
;   raftTopLayers,3
;   raftBaseLayers,2
;   raftOffset,5
;   raftSeparationDistance,0.18
;   raftTopInfill,100
;   aboveRaftSpeedMultiplier,0.3
;   useSkirt,0
;   skirtExtruder,0
;   skirtLayers,1
;   skirtOutlines,2
;   skirtOffset,4
;   usePrimePillar,0
;   primePillarExtruder,999
;   primePillarWidth,12
;   primePillarLocation,7
;   primePillarSpeedMultiplier,1
;   useOozeShield,0
;   oozeShieldExtruder,999
;   oozeShieldOffset,2
;   oozeShieldOutlines,1
;   oozeShieldSidewallShape,1
;   oozeShieldSidewallAngle,30
;   oozeShieldSpeedMultiplier,1
;   infillExtruder,0
;   internalInfillPattern,Rectilinear
;   externalInfillPattern,Rectilinear
;   infillPercentage,20
;   outlineOverlapPercentage,15
;   infillExtrusionWidthPercentage,100
;   minInfillLength,5
;   infillLayerInterval,1
;   internalInfillAngles,45,-45
;   overlapInternalInfillAngles,0
;   externalInfillAngles,45,-45
;   generateSupport,0
;   supportExtruder,0
;   supportInfillPercentage,30
;   supportExtraInflation,0
;   supportBaseLayers,0
;   denseSupportExtruder,0
;   denseSupportLayers,0
;   denseSupportInfillPercentage,70
;   supportLayerInterval,1
;   supportHorizontalPartOffset,0.38
;   supportUpperSeparationLayers,1
;   supportLowerSeparationLayers,2
;   supportType,0
;   supportGridSpacing,4
;   maxOverhangAngle,60
;   supportAngles,0
;   temperatureName,Primary Extruder,Heated Bed
;   temperatureNumber,0,0
;   temperatureSetpointCount,1,1
;   temperatureSetpointLayers,1,1
;   temperatureSetpointTemperatures,225,60
;   temperatureStabilizeAtStartup,1,1
;   temperatureHeatedBed,0,1
;   fanLayers,1,2
;   fanSpeeds,0,100
;   blipFanToFullPower,0
;   adjustSpeedForCooling,1
;   minSpeedLayerTime,15
;   minCoolingSpeedSlowdown,20
;   increaseFanForCooling,0
;   minFanLayerTime,45
;   maxCoolingFanSpeed,100
;   increaseFanForBridging,0
;   bridgingFanSpeed,100
;   use5D,1
;   relativeEdistances,0
;   allowEaxisZeroing,1
;   independentExtruderAxes,0
;   includeM10123,0
;   stickySupport,1
;   applyToolheadOffsets,0
;   gcodeXoffset,0
;   gcodeYoffset,0
;   gcodeZoffset,0
;   overrideMachineDefinition,1
;   machineTypeOverride,0
;   strokeXoverride,220
;   strokeYoverride,220
;   strokeZoverride,250
;   originOffsetXoverride,-5
;   originOffsetYoverride,-5
;   originOffsetZoverride,0
;   homeXdirOverride,-1
;   homeYdirOverride,-1
;   homeZdirOverride,-1
;   flipXoverride,1
;   flipYoverride,-1
;   flipZoverride,1
;   toolheadOffsets,0,0|0,0|0,0|0,0|0,0|0,0
;   overrideFirmwareConfiguration,1
;   firmwareTypeOverride,RepRap (Marlin/Repetier/Sprinter)
;   GPXconfigOverride,r2
;   baudRateOverride,115200
;   overridePrinterModels,1
;   printerModelsOverride
;   startingGcode,G28 ; home all axes,G1 X5 Y10 Z0.2 F3000 ; get ready to prime,G92 E0 ; reset extrusion distance,G1 X160 E15 F600 ; prime nozzle,G1 X180 F5000 ; quick wipe
;   layerChangeGcode,M117 Layer [current_layer] of [total_layer_count] ; layer 
;   retractionGcode,
;   toolChangeGcode,
;   endingGcode,G91 ; relative positioning,G0 Z10 ; move z axis up 10mm,G28 X0 ; home X axis,M106 S0 ; turn off cooling fan,M104 S0 ; turn off extruder,M140 S0 ; turn off bed,M84 ; disable motors
;   exportFileFormat,gcode
;   celebration,0
;   celebrationSong,Star Wars
;   postProcessing,
;   defaultSpeed,4800
;   outlineUnderspeed,0.5
;   solidInfillUnderspeed,0.8
;   supportUnderspeed,0.8
;   rapidXYspeed,6000
;   rapidZspeed,1000
;   minBridgingArea,50
;   bridgingExtraInflation,0
;   bridgingExtrusionMultiplier,1
;   bridgingSpeedMultiplier,1
;   useFixedBridgingAngle,0
;   fixedBridgingAngle,0
;   applyBridgingToPerimeters,0
;   filamentDiameters,1.75|1.75|1.75|1.75|1.75|1.75
;   filamentPricesPerKg,17|46|46|46|46|46
;   filamentDensities,1.24|1.25|1.25|1.25|1.25|1.25
;   useMinPrintHeight,0
;   minPrintHeight,0
;   useMaxPrintHeight,0
;   maxPrintHeight,0
;   useDiaphragm,0
;   diaphragmLayerInterval,20
;   robustSlicing,1
;   mergeAllIntoSolid,0
;   onlyRetractWhenCrossingOutline,1
;   retractBetweenLayers,1
;   useRetractionMinTravel,1
;   retractionMinTravel,5
;   retractWhileWiping,0
;   onlyWipeOutlines,0
;   avoidCrossingOutline,0
;   maxMovementDetourFactor,3
;   toolChangeRetractionDistance,12
;   toolChangeExtraRestartDistance,-0.5
;   toolChangeRetractionSpeed,600
;   externalThinWallType,0
;   internalThinWallType,2
;   thinWallAllowedOverlapPercentage,10
;   singleExtrusionMinLength,1
;   singleExtrusionMinPrintingWidthPercentage,50
;   singleExtrusionMaxPrintingWidthPercentage,200
;   singleExtrusionEndpointExtension,0.2
;   horizontalSizeCompensation,0
G90
M82
M106 S0
M140 S60
M190 S60
M104 S225 T0
M109 S225 T0
G28 ; home all axes
G1 X5 Y10 Z0.2 F3000 ; get ready to prime
G92 E0 ; reset extrusion distance
G1 X160 E15 F600 ; prime nozzle
G1 X180 F5000 ; quick wipe
; process Ender2
; layer 1, Z = 0.180
T0
G92 E0.0000
G1 E-3.8000 F2600
M117 Layer 1 of 28 ; layer 
; feature inner perimeter
; tool H0.180 W0.380
G1 Z0.180 F1000
G1 X88.070 Y52.959 F6000
G1 E0.1500 F2600
G92 E0.0000
G1 X117.943 Y52.959 E0.8495 F1800
G1 X127.607 Y52.898 E1.1243
G1 X129.352 Y52.905 E1.1740
G1 X129.352 Y64.207 E1.4953
G1 X132.745 Y64.207 E1.5918
G1 X136.070 Y60.710 E1.7291
G1 X136.070 Y52.905 E1.9510
G1 X137.916 Y52.898 E2.0035
G1 X145.966 Y52.947 E2.2324
G1 X145.892 Y54.292 E2.2707
G1 X145.849 Y54.639 E2.2807
G1 X145.690 Y55.424 E2.3035
G1 X145.413 Y56.265 E2.3286
G1 X145.319 Y56.494 E2.3357
G1 X144.916 Y57.298 E2.3612
G1 X144.347 Y58.132 E2.3900
G1 X143.784 Y58.774 E2.4142
G1 X143.067 Y59.410 E2.4415
G1 X142.136 Y60.040 E2.4735
G1 X136.930 Y65.246 E2.6828
G1 X136.930 Y78.574 E3.0618
G1 X136.965 Y79.326 E3.0832
G1 X137.007 Y79.697 E3.0939
G1 X137.095 Y80.215 E3.1088
G1 X137.218 Y80.780 E3.1253
G1 X137.530 Y81.748 E3.1542
G1 X137.785 Y82.334 E3.1723
G1 X138.033 Y82.841 E3.1884
G1 X138.488 Y83.601 E3.2136
G1 X138.898 Y84.179 E3.2337
G1 X139.259 Y84.638 E3.2503
G1 X139.879 Y85.321 E3.2766
G1 X140.467 Y85.897 E3.3000
G1 X140.845 Y86.230 E3.3143
G1 X141.158 Y86.472 E3.3256
G1 X141.739 Y86.979 E3.3475
G1 X142.113 Y87.263 E3.3608
G1 X142.916 Y88.056 E3.3929
G1 X133.141 Y88.056 E3.6709
G1 X133.141 Y68.471 E4.2278
G1 X126.501 Y68.471 E4.4167
G1 X126.501 Y88.056 E4.9736
G1 X119.784 Y88.056 E5.1646
G1 X119.784 Y68.471 E5.7216
G1 X113.144 Y68.471 E5.9104
G1 X113.144 Y88.056 E6.4674
G1 X106.427 Y88.056 E6.6584
G1 X106.427 Y68.471 E7.2153
G1 X99.787 Y68.471 E7.4041
G1 X99.787 Y88.056 E7.9611
G1 X87.084 Y88.056 E8.3223
G1 X87.887 Y87.263 E8.3544
G1 X88.261 Y86.979 E8.3678
G1 X88.842 Y86.472 E8.3897
G1 X89.166 Y86.222 E8.4014
G1 X89.883 Y85.527 E8.4297
G1 X90.107 Y85.335 E8.4381
G1 X90.743 Y84.636 E8.4650
G1 X91.297 Y83.916 E8.4908
G1 X91.515 Y83.596 E8.5018
G1 X91.967 Y82.841 E8.5269
G1 X92.259 Y82.247 E8.5457
G1 X92.471 Y81.745 E8.5612
G1 X92.782 Y80.780 E8.5900
G1 X92.905 Y80.216 E8.6065
G1 X92.993 Y79.697 E8.6214
G1 X93.035 Y79.326 E8.6320
G1 X93.070 Y78.574 E8.6534
G1 X93.070 Y65.246 E9.0325
G1 X88.070 Y60.246 E9.2335
G1 X88.070 Y52.959 E9.4407
; feature outer perimeter
G1 X87.690 Y53.434 F6000
G92 E0.0000
G1 X86.438 Y53.446 E0.0356 F1200
G1 X82.032 Y53.385 E0.1609
G1 X81.765 Y53.296 E0.1689
G1 X81.612 Y53.112 E0.1757
G1 X81.567 Y52.982 E0.1796
G1 X81.612 Y52.852 E0.1835
G1 X81.765 Y52.668 E0.1903
G1 X82.031 Y52.579 E0.1983
G1 X117.942 Y52.579 E1.2195
G1 X127.608 Y52.518 E1.4944
G1 X129.732 Y52.527 E1.5548
G1 X129.732 Y63.827 E1.8762
G1 X132.582 Y63.827 E1.9572
G1 X135.690 Y60.558 E2.0855
G1 X135.690 Y52.527 E2.3138
G1 X137.915 Y52.518 E2.3771
G1 X147.969 Y52.579 E2.6630
G1 X148.235 Y52.668 E2.6710
G1 X148.388 Y52.852 E2.6778
G1 X148.433 Y52.982 E2.6817
G1 X148.388 Y53.112 E2.6856
G1 X148.235 Y53.296 E2.6924
G1 X147.964 Y53.386 E2.7006
G1 X146.869 Y53.441 E2.7318
G1 X146.321 Y53.422 E2.7474
G1 X146.271 Y54.325 E2.7731
G1 X146.224 Y54.700 E2.7838
G1 X146.058 Y55.522 E2.8077
G1 X145.770 Y56.396 E2.8339
G1 X145.665 Y56.651 E2.8417
G1 X145.244 Y57.491 E2.8684
G1 X144.648 Y58.366 E2.8985
G1 X144.054 Y59.043 E2.9241
G1 X143.301 Y59.711 E2.9527
G1 X142.379 Y60.335 E2.9844
G1 X137.310 Y65.403 E3.1882
G1 X137.310 Y78.566 E3.5626
G1 X137.344 Y79.296 E3.5833
G1 X137.383 Y79.644 E3.5933
G1 X137.468 Y80.143 E3.6077
G1 X137.586 Y80.681 E3.6234
G1 X137.886 Y81.614 E3.6512
G1 X138.130 Y82.175 E3.6686
G1 X138.367 Y82.659 E3.6840
G1 X138.807 Y83.393 E3.7083
G1 X139.202 Y83.951 E3.7277
G1 X139.550 Y84.392 E3.7437
G1 X140.153 Y85.057 E3.7692
G1 X140.726 Y85.619 E3.7921
G1 X141.087 Y85.937 E3.8057
G1 X141.399 Y86.178 E3.8170
G1 X141.979 Y86.684 E3.8389
G1 X142.363 Y86.975 E3.8525
G1 X142.899 Y87.505 E3.8740
G1 X143.061 Y87.556 E3.8788
G1 X143.392 Y87.864 E3.8917
G1 X143.433 Y87.982 E3.8952
G1 X143.392 Y88.100 E3.8988
G1 X143.061 Y88.408 E3.9116
G1 X142.971 Y88.436 E3.9143
G1 X132.761 Y88.436 E4.2046
G1 X132.761 Y68.851 E4.7616
G1 X126.881 Y68.851 E4.9288
G1 X126.881 Y88.436 E5.4858
G1 X119.404 Y88.436 E5.6984
G1 X119.404 Y68.851 E6.2553
G1 X113.524 Y68.851 E6.4225
G1 X113.524 Y88.436 E6.9795
G1 X106.047 Y88.436 E7.1921
G1 X106.047 Y68.851 E7.7491
G1 X100.167 Y68.851 E7.9163
G1 X100.167 Y88.436 E8.4732
G1 X87.029 Y88.436 E8.8468
G1 X86.939 Y88.408 E8.8495
G1 X86.608 Y88.100 E8.8624
G1 X86.567 Y87.982 E8.8659
G1 X86.608 Y87.864 E8.8695
G1 X86.939 Y87.556 E8.8824
G1 X87.101 Y87.505 E8.8872
G1 X87.637 Y86.975 E8.9086
G1 X88.021 Y86.684 E8.9223
G1 X88.601 Y86.178 E8.9442
G1 X88.917 Y85.934 E8.9556
G1 X89.627 Y85.246 E8.9837
G1 X89.842 Y85.062 E8.9917
G1 X90.451 Y84.392 E9.0175
G1 X90.989 Y83.693 E9.0426
G1 X91.194 Y83.392 E9.0529
G1 X91.633 Y82.660 E9.0772
G1 X91.913 Y82.089 E9.0953
G1 X92.114 Y81.612 E9.1100
G1 X92.414 Y80.681 E9.1378
G1 X92.532 Y80.143 E9.1535
G1 X92.617 Y79.644 E9.1679
G1 X92.656 Y79.296 E9.1778
G1 X92.690 Y78.566 E9.1986
G1 X92.690 Y65.403 E9.5729
G1 X87.690 Y60.403 E9.7740
G1 X87.690 Y53.434 E9.9722
; feature gap fill
; tool H0.180 W0.400
G1 X87.419 Y52.912 F6000
G92 E0.0000
G1 X87.609 Y53.102 E0.0080 F2400
G1 X87.048 Y53.107 E0.0248
G1 X86.853 Y52.912 E0.0330
G1 X86.288 Y52.912 E0.0500
G1 X86.488 Y53.112 E0.0584
G1 X86.439 Y53.113 E0.0599
G1 X85.915 Y53.106 E0.0756
G1 X85.722 Y52.912 E0.0838
G1 X85.156 Y52.912 E0.1007
G1 X85.342 Y53.098 E0.1085
G1 X84.768 Y53.090 E0.1257
G1 X84.591 Y52.912 E0.1332
G1 X84.025 Y52.912 E0.1502
G1 X84.194 Y53.082 E0.1573
G1 X83.621 Y53.074 E0.1745
G1 X83.459 Y52.912 E0.1813
G1 X82.894 Y52.912 E0.1983
G1 X83.047 Y53.066 E0.2048
G1 X82.474 Y53.058 E0.2219
G1 X82.328 Y52.912 E0.2281
G92 E0.0000
G1 E-3.8000 F2600
G1 X146.303 Y52.964 F6000
G1 E0.1500 F2600
G92 E0.0000
G1 X146.430 Y53.092 E0.0054 F2400
G1 X146.866 Y53.108 E0.0185
G1 X147.005 Y53.101 E0.0226
G1 X146.809 Y52.905 E0.0309
G1 X147.378 Y52.909 E0.0479
G1 X147.543 Y53.074 E0.0549
G1 X147.902 Y53.056 E0.0657
G1 X148.040 Y53.010 E0.0700
G1 X147.964 Y52.929 E0.0735
; feature solid layer
; tool H0.180 W0.380
G1 X145.161 Y53.265 F6000
G92 E0.0000
G1 X145.601 Y53.705 E0.0177 F1920
G1 X145.573 Y54.214 E0.0322
G1 X144.620 Y53.262 E0.0705
G1 X144.079 Y53.258 E0.0859
G1 X145.509 Y54.689 E0.1434
G1 X145.419 Y55.135 E0.1564
G1 X143.539 Y53.255 E0.2320
G1 X142.998 Y53.252 E0.2474
G1 X145.305 Y55.559 E0.3402
G1 X145.172 Y55.964 E0.3523
G1 X142.457 Y53.249 E0.4615
G1 X141.916 Y53.245 E0.4768
G1 X145.025 Y56.360 E0.6020
G1 X144.847 Y56.714 E0.6133
G1 X141.376 Y53.242 E0.7529
G1 X140.835 Y53.239 E0.7683
G1 X144.668 Y57.072 E0.9224
G1 X144.637 Y57.134 E0.9244
G1 X144.457 Y57.398 E0.9335
G1 X140.294 Y53.235 E1.1009
G1 X139.754 Y53.232 E1.1163
G1 X144.239 Y57.717 E1.2967
G1 X144.091 Y57.934 E1.3041
G1 X144.010 Y58.026 E1.3076
G1 X139.213 Y53.229 E1.5005
G1 X138.672 Y53.226 E1.5159
G1 X143.759 Y58.313 E1.7205
G1 X143.554 Y58.546 E1.7293
G1 X143.502 Y58.593 E1.7313
G1 X138.132 Y53.222 E1.9473
G1 X137.914 Y53.221 E1.9535
G1 X137.594 Y53.222 E1.9626
G1 X143.217 Y58.845 E2.1887
G1 X142.932 Y59.098 E2.1995
G1 X137.059 Y53.224 E2.4358
G1 X136.524 Y53.227 E2.4510
G1 X142.620 Y59.323 E2.6961
G1 X142.299 Y59.539 E2.7071
G1 X136.393 Y53.633 E2.9447
G1 X136.393 Y54.171 E2.9600
G1 X141.979 Y59.756 E3.1846
G1 X141.929 Y59.790 E3.1863
G1 X141.702 Y60.017 E3.1954
G1 X136.393 Y54.708 E3.4090
G1 X136.393 Y55.245 E3.4242
G1 X141.433 Y60.286 E3.6269
G1 X141.165 Y60.554 E3.6377
G1 X136.393 Y55.783 E3.8296
G1 X136.393 Y56.320 E3.8449
G1 X140.896 Y60.823 E4.0260
G1 X140.627 Y61.092 E4.0368
G1 X136.393 Y56.858 E4.2071
G1 X136.393 Y57.395 E4.2224
G1 X140.358 Y61.360 E4.3819
G1 X140.090 Y61.629 E4.3927
G1 X136.393 Y57.932 E4.5414
G1 X136.393 Y58.470 E4.5566
G1 X139.821 Y61.898 E4.6945
G1 X139.552 Y62.167 E4.7053
G1 X136.393 Y59.007 E4.8324
G1 X136.393 Y59.545 E4.8477
G1 X139.284 Y62.435 E4.9639
G1 X139.015 Y62.704 E4.9747
G1 X136.393 Y60.082 E5.0802
G1 X136.393 Y60.619 E5.0954
G1 X138.746 Y62.973 E5.1901
G1 X138.478 Y63.241 E5.2009
G1 X136.238 Y61.002 E5.2910
G1 X135.976 Y61.277 E5.3018
G1 X138.209 Y63.510 E5.3916
G1 X137.940 Y63.779 E5.4024
G1 X135.714 Y61.553 E5.4919
G1 X135.452 Y61.828 E5.5027
G1 X137.671 Y64.047 E5.5920
G1 X137.403 Y64.316 E5.6028
G1 X135.190 Y62.104 E5.6918
G1 X134.928 Y62.379 E5.7026
G1 X137.134 Y64.585 E5.7913
G1 X136.865 Y64.854 E5.8021
G1 X134.666 Y62.655 E5.8905
G1 X134.404 Y62.930 E5.9013
G1 X136.607 Y65.133 E5.9899
G1 X136.607 Y65.670 E6.0052
G1 X134.142 Y63.205 E6.1043
G1 X133.881 Y63.481 E6.1151
G1 X136.607 Y66.207 E6.2248
G1 X136.607 Y66.745 E6.2401
G1 X133.619 Y63.756 E6.3602
G1 X133.357 Y64.032 E6.3711
G1 X136.607 Y67.282 E6.5018
G1 X136.607 Y67.820 E6.5171
G1 X133.095 Y64.307 E6.6583
G1 X132.883 Y64.530 E6.6670
G1 X132.780 Y64.530 E6.6700
G1 X136.607 Y68.357 E6.8239
G1 X136.607 Y68.894 E6.8392
G1 X132.242 Y64.530 E7.0147
G1 X131.705 Y64.530 E7.0300
G1 X136.607 Y69.432 E7.2271
G1 X136.607 Y69.969 E7.2424
G1 X131.168 Y64.530 E7.4612
G1 X130.630 Y64.530 E7.4764
G1 X136.607 Y70.507 E7.7168
G1 X136.607 Y71.044 E7.7321
G1 X130.093 Y64.530 E7.9941
G1 X129.555 Y64.530 E8.0094
G1 X133.173 Y68.148 E8.1549
G1 X132.636 Y68.148 E8.1701
G1 X117.770 Y53.282 E8.7680
G1 X117.944 Y53.282 E8.7729
G1 X118.306 Y53.280 E8.7832
G1 X129.029 Y64.004 E9.2145
G1 X129.029 Y63.466 E9.2297
G1 X118.840 Y53.277 E9.6395
G1 X119.374 Y53.273 E9.6547
G1 X129.029 Y62.929 E10.0430
G1 X129.029 Y62.391 E10.0583
G1 X119.908 Y53.270 E10.4252
G1 X120.442 Y53.266 E10.4403
G1 X129.029 Y61.854 E10.7857
G1 X129.029 Y61.317 E10.8010
G1 X120.976 Y53.263 E11.1249
G1 X121.510 Y53.260 E11.1401
G1 X129.029 Y60.779 E11.4425
G1 X129.029 Y60.242 E11.4577
G1 X122.044 Y53.256 E11.7387
G1 X122.578 Y53.253 E11.7539
G1 X129.029 Y59.704 E12.0133
G1 X129.029 Y59.167 E12.0286
G1 X123.112 Y53.249 E12.2666
G1 X123.646 Y53.246 E12.2818
G1 X129.029 Y58.630 E12.4983
G1 X129.029 Y58.092 E12.5136
G1 X124.180 Y53.243 E12.7086
G1 X124.714 Y53.239 E12.7238
G1 X129.029 Y57.555 E12.8973
G1 X129.029 Y57.017 E12.9126
G1 X125.248 Y53.236 E13.0647
G1 X125.782 Y53.233 E13.0799
