; G-Code generated by Simplify3D(R) Version 4.1.2
; Apr 7, 2023 at 5:30:07 PM
; Settings Summary
;   processName,Ender2
;   applyToModels,2023_Palma v16_x2 v3_2_Body1,2023_Palma v16_x2 v3_2_Body1(2),2023_Palma v16_x2 v3_2_Body1(3)
;   profileName,Building Profile
;   profileVersion,2020-12-31 08:14:15
;   baseProfile,Creality Ender 3 Pro (modified)
;   printMaterial,PLA
;   printQuality,Medium
;   printExtruders,
;   extruderName,Primary Extruder
;   extruderToolheadNumber,0
;   extruderDiameter,0.4
;   extruderAutoWidth,0
;   extruderWidth,0.4
;   extrusionMultiplier,1
;   extruderUseRetract,1
;   extruderRetractionDistance,3.8
;   extruderExtraRestartDistance,0.15
;   extruderRetractionZLift,0
;   extruderRetractionSpeed,2600
;   extruderUseCoasting,0
;   extruderCoastingDistance,0.2
;   extruderUseWipe,0
;   extruderWipeDistance,5
;   primaryExtruder,0
;   layerHeight,0.18
;   topSolidLayers,5
;   bottomSolidLayers,3
;   perimeterOutlines,2
;   printPerimetersInsideOut,1
;   startPointOption,2
;   startPointOriginX,0
;   startPointOriginY,0
;   sequentialIslands,0
;   spiralVaseMode,0
;   firstLayerHeightPercentage,100
;   firstLayerWidthPercentage,95
;   firstLayerUnderspeed,0.5
;   useRaft,0
;   raftExtruder,0
;   raftTopLayers,3
;   raftBaseLayers,2
;   raftOffset,5
;   raftSeparationDistance,0.18
;   raftTopInfill,100
;   aboveRaftSpeedMultiplier,0.3
;   useSkirt,0
;   skirtExtruder,0
;   skirtLayers,1
;   skirtOutlines,2
;   skirtOffset,4
;   usePrimePillar,0
;   primePillarExtruder,999
;   primePillarWidth,12
;   primePillarLocation,7
;   primePillarSpeedMultiplier,1
;   useOozeShield,0
;   oozeShieldExtruder,999
;   oozeShieldOffset,2
;   oozeShieldOutlines,1
;   oozeShieldSidewallShape,1
;   oozeShieldSidewallAngle,30
;   oozeShieldSpeedMultiplier,1
;   infillExtruder,0
;   internalInfillPattern,Rectilinear
;   externalInfillPattern,Rectilinear
;   infillPercentage,20
;   outlineOverlapPercentage,15
;   infillExtrusionWidthPercentage,100
;   minInfillLength,5
;   infillLayerInterval,1
;   internalInfillAngles,45,-45
;   overlapInternalInfillAngles,0
;   externalInfillAngles,45,-45
;   generateSupport,0
;   supportExtruder,0
;   supportInfillPercentage,30
;   supportExtraInflation,0
;   supportBaseLayers,0
;   denseSupportExtruder,0
;   denseSupportLayers,0
;   denseSupportInfillPercentage,70
;   supportLayerInterval,1
;   supportHorizontalPartOffset,0.38
;   supportUpperSeparationLayers,1
;   supportLowerSeparationLayers,2
;   supportType,0
;   supportGridSpacing,4
;   maxOverhangAngle,60
;   supportAngles,0
;   temperatureName,Primary Extruder,Heated Bed
;   temperatureNumber,0,0
;   temperatureSetpointCount,1,1
;   temperatureSetpointLayers,1,1
;   temperatureSetpointTemperatures,225,60
;   temperatureStabilizeAtStartup,1,1
;   temperatureHeatedBed,0,1
;   fanLayers,1,2
;   fanSpeeds,0,100
;   blipFanToFullPower,0
;   adjustSpeedForCooling,1
;   minSpeedLayerTime,15
;   minCoolingSpeedSlowdown,20
;   increaseFanForCooling,0
;   minFanLayerTime,45
;   maxCoolingFanSpeed,100
;   increaseFanForBridging,0
;   bridgingFanSpeed,100
;   use5D,1
;   relativeEdistances,0
;   allowEaxisZeroing,1
;   independentExtruderAxes,0
;   includeM10123,0
;   stickySupport,1
;   applyToolheadOffsets,0
;   gcodeXoffset,0
;   gcodeYoffset,0
;   gcodeZoffset,0
;   overrideMachineDefinition,1
;   machineTypeOverride,0
;   strokeXoverride,220
;   strokeYoverride,220
;   strokeZoverride,250
;   originOffsetXoverride,-5
;   originOffsetYoverride,-5
;   originOffsetZoverride,0
;   homeXdirOverride,-1
;   homeYdirOverride,-1
;   homeZdirOverride,-1
;   flipXoverride,1
;   flipYoverride,-1
;   flipZoverride,1
;   toolheadOffsets,0,0|0,0|0,0|0,0|0,0|0,0
;   overrideFirmwareConfiguration,1
;   firmwareTypeOverride,RepRap (Marlin/Repetier/Sprinter)
;   GPXconfigOverride,r2
;   baudRateOverride,115200
;   overridePrinterModels,1
;   printerModelsOverride
;   startingGcode,G28 ; home all axes,G1 X5 Y10 Z0.2 F3000 ; get ready to prime,G92 E0 ; reset extrusion distance,G1 X160 E15 F600 ; prime nozzle,G1 X180 F5000 ; quick wipe
;   layerChangeGcode,M117 Layer [current_layer] of [total_layer_count] ; layer 
;   retractionGcode,
;   toolChangeGcode,
;   endingGcode,G91 ; relative positioning,G0 Z10 ; move z axis up 10mm,G28 X0 ; home X axis,M106 S0 ; turn off cooling fan,M104 S0 ; turn off extruder,M140 S0 ; turn off bed,M84 ; disable motors
;   exportFileFormat,gcode
;   celebration,0
;   celebrationSong,Star Wars
;   postProcessing,
;   defaultSpeed,4800
;   outlineUnderspeed,0.5
;   solidInfillUnderspeed,0.8
;   supportUnderspeed,0.8
;   rapidXYspeed,6000
;   rapidZspeed,1000
;   minBridgingArea,50
;   bridgingExtraInflation,0
;   bridgingExtrusionMultiplier,1
;   bridgingSpeedMultiplier,1
;   useFixedBridgingAngle,0
;   fixedBridgingAngle,0
;   applyBridgingToPerimeters,0
;   filamentDiameters,1.75|1.75|1.75|1.75|1.75|1.75
;   filamentPricesPerKg,17|46|46|46|46|46
;   filamentDensities,1.24|1.25|1.25|1.25|1.25|1.25
;   useMinPrintHeight,0
;   minPrintHeight,0
;   useMaxPrintHeight,0
;   maxPrintHeight,0
;   useDiaphragm,0
;   diaphragmLayerInterval,20
;   robustSlicing,1
;   mergeAllIntoSolid,0
;   onlyRetractWhenCrossingOutline,1
;   retractBetweenLayers,1
;   useRetractionMinTravel,1
;   retractionMinTravel,5
;   retractWhileWiping,0
;   onlyWipeOutlines,0
;   avoidCrossingOutline,0
;   maxMovementDetourFactor,3
;   toolChangeRetractionDistance,12
;   toolChangeExtraRestartDistance,-0.5
;   toolChangeRetractionSpeed,600
;   externalThinWallType,0
;   internalThinWallType,2
;   thinWallAllowedOverlapPercentage,10
;   singleExtrusionMinLength,1
;   singleExtrusionMinPrintingWidthPercentage,50
;   singleExtrusionMaxPrintingWidthPercentage,200
;   singleExtrusionEndpointExtension,0.2
;   horizontalSizeCompensation,0
G90
M82
M106 S0
M140 S60
M190 S60
M104 S225 T0
M109 S225 T0
G28 ; home all axes
G1 X5 Y10 Z0.2 F3000 ; get ready to prime
G92 E0 ; reset extrusion distance
G1 X160 E15 F600 ; prime nozzle
G1 X180 F5000 ; quick wipe
; process Ender2
; layer 1, Z = 0.180
T0
G92 E0.0000
G1 E-3.8000 F2600
M117 Layer 1 of 31 ; layer 
; feature inner perimeter
; tool H0.180 W0.380
G1 Z0.180 F1000
G1 X85.320 Y46.735 F6000
G1 E0.1500 F2600
G92 E0.0000
G1 X118.237 Y46.735 E0.9361 F1800
G1 X130.068 Y46.660 E1.2725
G1 X130.844 Y46.663 E1.2946
G1 X130.844 Y59.071 E1.6474
G1 X134.495 Y59.071 E1.7512
G1 X138.120 Y55.258 E1.9009
G1 X138.120 Y46.663 E2.1453
G1 X138.955 Y46.660 E2.1690
G1 X149.123 Y46.722 E2.4582
G1 X149.027 Y48.321 E2.5038
G1 X148.998 Y48.562 E2.5107
G1 X148.808 Y49.501 E2.5379
G1 X148.487 Y50.468 E2.5669
G1 X148.423 Y50.624 E2.5717
G1 X147.963 Y51.545 E2.6009
G1 X147.344 Y52.459 E2.6323
G1 X146.691 Y53.204 E2.6605
G1 X145.892 Y53.910 E2.6908
G1 X144.886 Y54.588 E2.7253
G1 X139.180 Y60.294 E2.9548
G1 X139.180 Y74.932 E3.3711
G1 X139.218 Y75.753 E3.3944
G1 X139.269 Y76.196 E3.4071
G1 X139.357 Y76.714 E3.4221
G1 X139.495 Y77.345 E3.4404
G1 X139.743 Y78.149 E3.4644
G1 X139.841 Y78.416 E3.4724
G1 X140.108 Y79.032 E3.4915
G1 X140.388 Y79.604 E3.5096
G1 X140.878 Y80.425 E3.5368
G1 X141.326 Y81.059 E3.5589
G1 X141.732 Y81.574 E3.5776
G1 X142.400 Y82.311 E3.6058
G1 X143.087 Y82.986 E3.6333
G1 X143.465 Y83.319 E3.6476
G1 X143.778 Y83.560 E3.6588
G1 X144.464 Y84.162 E3.6847
G1 X144.839 Y84.447 E3.6981
G1 X145.798 Y85.395 E3.7365
G1 X134.899 Y85.395 E4.0464
G1 X134.899 Y63.875 E4.6584
G1 X127.709 Y63.875 E4.8629
G1 X127.709 Y85.395 E5.4748
G1 X120.206 Y85.395 E5.6882
G1 X120.206 Y63.875 E6.3002
G1 X113.016 Y63.875 E6.5046
G1 X113.016 Y85.395 E7.1166
G1 X105.513 Y85.395 E7.3300
G1 X105.513 Y63.875 E7.9419
G1 X98.323 Y63.875 E8.1464
G1 X98.323 Y85.395 E8.7584
G1 X84.202 Y85.395 E9.1599
G1 X85.161 Y84.447 E9.1983
G1 X85.536 Y84.162 E9.2117
G1 X86.222 Y83.560 E9.2376
G1 X86.546 Y83.310 E9.2493
G1 X87.362 Y82.518 E9.2816
G1 X87.587 Y82.326 E9.2900
G1 X88.268 Y81.574 E9.3189
G1 X88.674 Y81.059 E9.3375
G1 X89.122 Y80.425 E9.3596
G1 X89.612 Y79.605 E9.3868
G1 X89.936 Y78.945 E9.4077
G1 X90.160 Y78.413 E9.4241
G1 X90.257 Y78.149 E9.4321
G1 X90.505 Y77.345 E9.4560
G1 X90.643 Y76.714 E9.4744
G1 X90.731 Y76.196 E9.4893
G1 X90.782 Y75.753 E9.5020
G1 X90.820 Y74.932 E9.5254
G1 X90.820 Y60.294 E9.9416
G1 X85.320 Y54.794 E10.1628
G1 X85.320 Y46.735 E10.3920
; feature outer perimeter
G1 X84.940 Y47.273 F6000
G92 E0.0000
G1 X84.133 Y47.281 E0.0230 F1200
G1 X78.732 Y47.206 E0.1766
G1 X78.474 Y47.120 E0.1843
G1 X78.256 Y46.858 E0.1940
G1 X78.229 Y46.780 E0.1963
G1 X78.256 Y46.702 E0.1987
G1 X78.474 Y46.441 E0.2083
G1 X78.731 Y46.355 E0.2161
G1 X118.236 Y46.355 E1.3395
G1 X130.069 Y46.280 E1.6760
G1 X131.224 Y46.285 E1.7088
G1 X131.224 Y58.691 E2.0616
G1 X134.332 Y58.691 E2.1500
G1 X137.740 Y55.106 E2.2907
G1 X137.740 Y46.285 E2.5415
G1 X138.954 Y46.280 E2.5760
G1 X151.269 Y46.355 E2.9262
G1 X151.526 Y46.441 E2.9340
G1 X151.744 Y46.702 E2.9436
G1 X151.771 Y46.780 E2.9460
G1 X151.744 Y46.858 E2.9483
G1 X151.526 Y47.120 E2.9580
G1 X151.264 Y47.207 E2.9659
G1 X149.915 Y47.275 E3.0043
G1 X149.471 Y47.259 E3.0169
G1 X149.406 Y48.356 E3.0482
G1 X149.373 Y48.623 E3.0558
G1 X149.176 Y49.599 E3.0841
G1 X148.843 Y50.600 E3.1141
G1 X148.769 Y50.781 E3.1197
G1 X148.292 Y51.737 E3.1501
G1 X147.646 Y52.692 E3.1829
G1 X146.961 Y53.473 E3.2124
G1 X146.125 Y54.212 E3.2441
G1 X145.129 Y54.883 E3.2783
G1 X139.560 Y60.451 E3.5022
G1 X139.560 Y74.924 E3.9138
G1 X139.597 Y75.723 E3.9365
G1 X139.645 Y76.143 E3.9486
G1 X139.730 Y76.641 E3.9629
G1 X139.863 Y77.248 E3.9806
G1 X140.103 Y78.028 E4.0038
G1 X140.194 Y78.274 E4.0113
G1 X140.454 Y78.873 E4.0298
G1 X140.722 Y79.423 E4.0472
G1 X141.197 Y80.217 E4.0735
G1 X141.631 Y80.832 E4.0949
G1 X142.022 Y81.329 E4.1129
G1 X142.674 Y82.048 E4.1405
G1 X143.346 Y82.708 E4.1673
G1 X143.707 Y83.025 E4.1810
G1 X144.020 Y83.267 E4.1922
G1 X144.705 Y83.868 E4.2181
G1 X145.088 Y84.159 E4.2318
G1 X145.699 Y84.763 E4.2563
G1 X145.794 Y84.793 E4.2591
G1 X146.248 Y85.214 E4.2767
G1 X146.271 Y85.280 E4.2787
G1 X146.248 Y85.346 E4.2807
G1 X145.794 Y85.767 E4.2983
G1 X145.771 Y85.775 E4.2990
G1 X134.519 Y85.775 E4.6190
G1 X134.519 Y64.255 E5.2309
G1 X128.089 Y64.255 E5.4138
G1 X128.089 Y85.775 E6.0258
G1 X119.826 Y85.775 E6.2607
G1 X119.826 Y64.255 E6.8727
G1 X113.396 Y64.255 E7.0556
G1 X113.396 Y85.775 E7.6675
G1 X105.133 Y85.775 E7.9025
G1 X105.133 Y64.255 E8.5145
G1 X98.703 Y64.255 E8.6973
G1 X98.703 Y85.775 E9.3093
G1 X84.229 Y85.775 E9.7209
G1 X84.206 Y85.767 E9.7216
G1 X83.752 Y85.346 E9.7392
G1 X83.729 Y85.280 E9.7412
G1 X83.752 Y85.214 E9.7432
G1 X84.206 Y84.793 E9.7608
G1 X84.301 Y84.763 E9.7636
G1 X84.912 Y84.159 E9.7880
G1 X85.295 Y83.868 E9.8017
G1 X85.980 Y83.267 E9.8276
G1 X86.296 Y83.023 E9.8390
G1 X87.106 Y82.237 E9.8711
G1 X87.322 Y82.053 E9.8792
G1 X87.978 Y81.329 E9.9069
G1 X88.369 Y80.832 E9.9249
G1 X88.803 Y80.217 E9.9463
G1 X89.278 Y79.423 E9.9726
G1 X89.590 Y78.787 E9.9928
G1 X89.807 Y78.274 E10.0086
G1 X89.897 Y78.028 E10.0161
G1 X90.137 Y77.248 E10.0393
G1 X90.270 Y76.641 E10.0569
G1 X90.355 Y76.143 E10.0713
G1 X90.403 Y75.723 E10.0833
G1 X90.440 Y74.924 E10.1061
G1 X90.440 Y60.451 E10.5176
G1 X84.940 Y54.951 E10.7388
G1 X84.940 Y47.273 E10.9572
; feature gap fill
; tool H0.180 W0.400
G1 X84.589 Y46.688 F6000
G92 E0.0000
G1 X84.842 Y46.941 E0.0107 F2400
G1 X84.281 Y46.946 E0.0275
G1 X84.023 Y46.688 E0.0384
G1 X83.457 Y46.688 E0.0554
G1 X83.711 Y46.942 E0.0661
G1 X83.138 Y46.934 E0.0833
G1 X82.892 Y46.688 E0.0937
G1 X82.326 Y46.688 E0.1106
G1 X82.564 Y46.926 E0.1207
G1 X81.990 Y46.918 E0.1379
G1 X81.760 Y46.688 E0.1476
G1 X81.195 Y46.688 E0.1645
G1 X81.417 Y46.910 E0.1739
G1 X80.843 Y46.902 E0.1911
G1 X80.629 Y46.688 E0.2002
G1 X80.063 Y46.688 E0.2171
G1 X80.269 Y46.894 E0.2258
G1 X79.696 Y46.886 E0.2430
G1 X79.498 Y46.688 E0.2514
G1 X78.932 Y46.688 E0.2683
G1 X79.122 Y46.878 E0.2764
G92 E0.0000
G1 E-3.8000 F2600
G1 X149.896 Y46.941 F6000
G1 E0.1500 F2600
G92 E0.0000
G1 X149.632 Y46.678 E0.0111 F2400
G1 X150.202 Y46.681 E0.0282
G1 X150.436 Y46.915 E0.0381
G1 X150.974 Y46.888 E0.0542
G1 X150.771 Y46.685 E0.0628
; feature solid layer
; tool H0.180 W0.380
G1 X148.610 Y47.041 F6000
G92 E0.0000
G1 X148.771 Y47.202 E0.0064 F1920
G1 X148.740 Y47.709 E0.0209
G1 X148.070 Y47.038 E0.0479
G1 X147.529 Y47.035 E0.0632
G1 X148.710 Y48.216 E0.1107
G1 X148.705 Y48.292 E0.1129
G1 X148.679 Y48.511 E0.1192
G1 X148.643 Y48.687 E0.1243
G1 X146.988 Y47.032 E0.1908
G1 X146.447 Y47.028 E0.2062
G1 X148.553 Y49.134 E0.2909
G1 X148.496 Y49.418 E0.2991
G1 X148.447 Y49.565 E0.3035
G1 X145.907 Y47.025 E0.4057
G1 X145.366 Y47.022 E0.4211
G1 X148.313 Y49.968 E0.5396
G1 X148.184 Y50.355 E0.5512
G1 X148.178 Y50.371 E0.5516
G1 X144.825 Y47.018 E0.6865
G1 X144.285 Y47.015 E0.7018
G1 X148.006 Y50.736 E0.8515
G1 X147.827 Y51.095 E0.8629
G1 X143.744 Y47.012 E1.0271
G1 X143.203 Y47.008 E1.0425
G1 X147.641 Y51.446 E1.2209
G1 X147.424 Y51.766 E1.2319
G1 X142.663 Y47.005 E1.4234
G1 X142.122 Y47.002 E1.4388
G1 X147.207 Y52.087 E1.6433
G1 X147.088 Y52.261 E1.6493
G1 X146.974 Y52.392 E1.6542
G1 X141.581 Y46.999 E1.8711
G1 X141.040 Y46.995 E1.8864
G1 X146.723 Y52.678 E2.1150
G1 X146.472 Y52.964 E2.1258
G1 X140.500 Y46.992 E2.3660
G1 X139.959 Y46.989 E2.3814
G1 X146.188 Y53.218 E2.6319
G1 X145.903 Y53.470 E2.6427
G1 X139.418 Y46.985 E2.9035
G1 X138.952 Y46.983 E2.9167
G1 X138.878 Y46.983 E2.9188
G1 X145.608 Y53.712 E3.1895
G1 X145.287 Y53.929 E3.2005
G1 X138.443 Y47.085 E3.4757
G1 X138.443 Y47.622 E3.4910
G1 X144.966 Y54.145 E3.7533
G1 X144.680 Y54.338 E3.7631
G1 X144.650 Y54.367 E3.7643
G1 X138.443 Y48.160 E4.0139
G1 X138.443 Y48.697 E4.0292
G1 X144.382 Y54.636 E4.2681
G1 X144.113 Y54.904 E4.2789
G1 X138.443 Y49.234 E4.5069
G1 X138.443 Y49.772 E4.5222
G1 X143.844 Y55.173 E4.7394
G1 X143.575 Y55.442 E4.7502
G1 X138.443 Y50.309 E4.9566
G1 X138.443 Y50.847 E4.9719
G1 X143.307 Y55.710 E5.1675
G1 X143.038 Y55.979 E5.1783
G1 X138.443 Y51.384 E5.3631
G1 X138.443 Y51.921 E5.3784
G1 X142.769 Y56.248 E5.5524
G1 X142.501 Y56.516 E5.5632
G1 X138.443 Y52.459 E5.7264
G1 X138.443 Y52.996 E5.7417
G1 X142.232 Y56.785 E5.8940
G1 X141.963 Y57.054 E5.9048
G1 X138.443 Y53.534 E6.0464
G1 X138.443 Y54.071 E6.0617
G1 X141.695 Y57.323 E6.1925
G1 X141.426 Y57.591 E6.2033
G1 X138.443 Y54.608 E6.3232
G1 X138.443 Y55.146 E6.3385
G1 X141.157 Y57.860 E6.4477
G1 X140.888 Y58.129 E6.4585
G1 X138.299 Y55.539 E6.5626
G1 X138.037 Y55.814 E6.5735
G1 X140.620 Y58.397 E6.6773
G1 X140.351 Y58.666 E6.6881
G1 X137.775 Y56.090 E6.7918
G1 X137.513 Y56.365 E6.8026
G1 X140.082 Y58.935 E6.9059
G1 X139.814 Y59.203 E6.9167
G1 X137.251 Y56.641 E7.0198
G1 X136.989 Y56.916 E7.0306
G1 X139.545 Y59.472 E7.1334
G1 X139.276 Y59.741 E7.1442
G1 X136.727 Y57.192 E7.2467
G1 X136.465 Y57.467 E7.2575
G1 X139.008 Y60.010 E7.3598
G1 X138.857 Y60.160 E7.3658
G1 X138.857 Y60.396 E7.3726
G1 X136.203 Y57.742 E7.4793
G1 X135.941 Y58.018 E7.4901
G1 X138.857 Y60.934 E7.6074
G1 X138.857 Y61.471 E7.6227
G1 X135.679 Y58.293 E7.7505
G1 X135.417 Y58.569 E7.7613
G1 X138.857 Y62.009 E7.8996
G1 X138.857 Y62.546 E7.9149
G1 X135.155 Y58.844 E8.0638
G1 X134.893 Y59.120 E8.0746
G1 X138.857 Y63.083 E8.2340
G1 X138.857 Y63.621 E8.2492
G1 X134.630 Y59.394 E8.4193
G1 X134.092 Y59.394 E8.4345
G1 X138.857 Y64.158 E8.6262
G1 X138.857 Y64.696 E8.6414
G1 X133.555 Y59.394 E8.8547
G1 X133.017 Y59.394 E8.8700
G1 X138.857 Y65.233 E9.1048
G1 X138.857 Y65.770 E9.1201
G1 X132.480 Y59.394 E9.3765
G1 X131.943 Y59.394 E9.3918
G1 X138.857 Y66.308 E9.6699
G1 X138.857 Y66.845 E9.6852
G1 X131.405 Y59.394 E9.9849
G1 X130.868 Y59.394 E10.0001
G1 X135.026 Y63.552 E10.1674
G1 X134.489 Y63.552 E10.1827
G1 X117.995 Y47.058 E10.8460
G1 X118.239 Y47.058 E10.8529
G1 X118.530 Y47.056 E10.8612
G1 X130.521 Y59.047 E11.3435
G1 X130.521 Y58.510 E11.3587
G1 X119.064 Y47.053 E11.8195
G1 X119.598 Y47.049 E11.8347
G1 X130.521 Y57.972 E12.2740
G1 X130.521 Y57.435 E12.2893
G1 X120.132 Y47.046 E12.7071
G1 X120.666 Y47.042 E12.7223
G1 X130.521 Y56.897 E13.1186
G1 X130.521 Y56.360 E13.1339
G1 X121.200 Y47.039 E13.5088
G1 X121.734 Y47.036 E13.5239
G1 X130.521 Y55.823 E13.8773
