; G-Code generated by Simplify3D(R) Version 4.1.2
; Apr 7, 2023 at 5:29:11 PM
; Settings Summary
;   processName,Ender2
;   applyToModels,2023_Palma v16_x2 v3_2_Body1,2023_Palma v16_x2 v3_2_Body1(2),2023_Palma v16_x2 v3_2_Body1(3)
;   profileName,Building Profile
;   profileVersion,2020-12-31 08:14:15
;   baseProfile,Creality Ender 3 Pro (modified)
;   printMaterial,PLA
;   printQuality,Medium
;   printExtruders,
;   extruderName,Primary Extruder
;   extruderToolheadNumber,0
;   extruderDiameter,0.4
;   extruderAutoWidth,0
;   extruderWidth,0.4
;   extrusionMultiplier,1
;   extruderUseRetract,1
;   extruderRetractionDistance,3.8
;   extruderExtraRestartDistance,0.15
;   extruderRetractionZLift,0
;   extruderRetractionSpeed,2600
;   extruderUseCoasting,0
;   extruderCoastingDistance,0.2
;   extruderUseWipe,0
;   extruderWipeDistance,5
;   primaryExtruder,0
;   layerHeight,0.18
;   topSolidLayers,5
;   bottomSolidLayers,3
;   perimeterOutlines,2
;   printPerimetersInsideOut,1
;   startPointOption,2
;   startPointOriginX,0
;   startPointOriginY,0
;   sequentialIslands,0
;   spiralVaseMode,0
;   firstLayerHeightPercentage,100
;   firstLayerWidthPercentage,95
;   firstLayerUnderspeed,0.5
;   useRaft,0
;   raftExtruder,0
;   raftTopLayers,3
;   raftBaseLayers,2
;   raftOffset,5
;   raftSeparationDistance,0.18
;   raftTopInfill,100
;   aboveRaftSpeedMultiplier,0.3
;   useSkirt,0
;   skirtExtruder,0
;   skirtLayers,1
;   skirtOutlines,2
;   skirtOffset,4
;   usePrimePillar,0
;   primePillarExtruder,999
;   primePillarWidth,12
;   primePillarLocation,7
;   primePillarSpeedMultiplier,1
;   useOozeShield,0
;   oozeShieldExtruder,999
;   oozeShieldOffset,2
;   oozeShieldOutlines,1
;   oozeShieldSidewallShape,1
;   oozeShieldSidewallAngle,30
;   oozeShieldSpeedMultiplier,1
;   infillExtruder,0
;   internalInfillPattern,Rectilinear
;   externalInfillPattern,Rectilinear
;   infillPercentage,20
;   outlineOverlapPercentage,15
;   infillExtrusionWidthPercentage,100
;   minInfillLength,5
;   infillLayerInterval,1
;   internalInfillAngles,45,-45
;   overlapInternalInfillAngles,0
;   externalInfillAngles,45,-45
;   generateSupport,0
;   supportExtruder,0
;   supportInfillPercentage,30
;   supportExtraInflation,0
;   supportBaseLayers,0
;   denseSupportExtruder,0
;   denseSupportLayers,0
;   denseSupportInfillPercentage,70
;   supportLayerInterval,1
;   supportHorizontalPartOffset,0.38
;   supportUpperSeparationLayers,1
;   supportLowerSeparationLayers,2
;   supportType,0
;   supportGridSpacing,4
;   maxOverhangAngle,60
;   supportAngles,0
;   temperatureName,Primary Extruder,Heated Bed
;   temperatureNumber,0,0
;   temperatureSetpointCount,1,1
;   temperatureSetpointLayers,1,1
;   temperatureSetpointTemperatures,225,60
;   temperatureStabilizeAtStartup,1,1
;   temperatureHeatedBed,0,1
;   fanLayers,1,2
;   fanSpeeds,0,100
;   blipFanToFullPower,0
;   adjustSpeedForCooling,1
;   minSpeedLayerTime,15
;   minCoolingSpeedSlowdown,20
;   increaseFanForCooling,0
;   minFanLayerTime,45
;   maxCoolingFanSpeed,100
;   increaseFanForBridging,0
;   bridgingFanSpeed,100
;   use5D,1
;   relativeEdistances,0
;   allowEaxisZeroing,1
;   independentExtruderAxes,0
;   includeM10123,0
;   stickySupport,1
;   applyToolheadOffsets,0
;   gcodeXoffset,0
;   gcodeYoffset,0
;   gcodeZoffset,0
;   overrideMachineDefinition,1
;   machineTypeOverride,0
;   strokeXoverride,220
;   strokeYoverride,220
;   strokeZoverride,250
;   originOffsetXoverride,-5
;   originOffsetYoverride,-5
;   originOffsetZoverride,0
;   homeXdirOverride,-1
;   homeYdirOverride,-1
;   homeZdirOverride,-1
;   flipXoverride,1
;   flipYoverride,-1
;   flipZoverride,1
;   toolheadOffsets,0,0|0,0|0,0|0,0|0,0|0,0
;   overrideFirmwareConfiguration,1
;   firmwareTypeOverride,RepRap (Marlin/Repetier/Sprinter)
;   GPXconfigOverride,r2
;   baudRateOverride,115200
;   overridePrinterModels,1
;   printerModelsOverride
;   startingGcode,G28 ; home all axes,G1 X5 Y10 Z0.2 F3000 ; get ready to prime,G92 E0 ; reset extrusion distance,G1 X160 E15 F600 ; prime nozzle,G1 X180 F5000 ; quick wipe
;   layerChangeGcode,M117 Layer [current_layer] of [total_layer_count] ; layer 
;   retractionGcode,
;   toolChangeGcode,
;   endingGcode,G91 ; relative positioning,G0 Z10 ; move z axis up 10mm,G28 X0 ; home X axis,M106 S0 ; turn off cooling fan,M104 S0 ; turn off extruder,M140 S0 ; turn off bed,M84 ; disable motors
;   exportFileFormat,gcode
;   celebration,0
;   celebrationSong,Star Wars
;   postProcessing,
;   defaultSpeed,4800
;   outlineUnderspeed,0.5
;   solidInfillUnderspeed,0.8
;   supportUnderspeed,0.8
;   rapidXYspeed,6000
;   rapidZspeed,1000
;   minBridgingArea,50
;   bridgingExtraInflation,0
;   bridgingExtrusionMultiplier,1
;   bridgingSpeedMultiplier,1
;   useFixedBridgingAngle,0
;   fixedBridgingAngle,0
;   applyBridgingToPerimeters,0
;   filamentDiameters,1.75|1.75|1.75|1.75|1.75|1.75
;   filamentPricesPerKg,17|46|46|46|46|46
;   filamentDensities,1.24|1.25|1.25|1.25|1.25|1.25
;   useMinPrintHeight,0
;   minPrintHeight,0
;   useMaxPrintHeight,0
;   maxPrintHeight,0
;   useDiaphragm,0
;   diaphragmLayerInterval,20
;   robustSlicing,1
;   mergeAllIntoSolid,0
;   onlyRetractWhenCrossingOutline,1
;   retractBetweenLayers,1
;   useRetractionMinTravel,1
;   retractionMinTravel,5
;   retractWhileWiping,0
;   onlyWipeOutlines,0
;   avoidCrossingOutline,0
;   maxMovementDetourFactor,3
;   toolChangeRetractionDistance,12
;   toolChangeExtraRestartDistance,-0.5
;   toolChangeRetractionSpeed,600
;   externalThinWallType,0
;   internalThinWallType,2
;   thinWallAllowedOverlapPercentage,10
;   singleExtrusionMinLength,1
;   singleExtrusionMinPrintingWidthPercentage,50
;   singleExtrusionMaxPrintingWidthPercentage,200
;   singleExtrusionEndpointExtension,0.2
;   horizontalSizeCompensation,0
G90
M82
M106 S0
M140 S60
M190 S60
M104 S225 T0
M109 S225 T0
G28 ; home all axes
G1 X5 Y10 Z0.2 F3000 ; get ready to prime
G92 E0 ; reset extrusion distance
G1 X160 E15 F600 ; prime nozzle
G1 X180 F5000 ; quick wipe
; process Ender2
; layer 1, Z = 0.180
T0
G92 E0.0000
G1 E-3.8000 F2600
M117 Layer 1 of 33 ; layer 
; feature inner perimeter
; tool H0.180 W0.380
G1 Z0.180 F1000
G1 X82.570 Y40.965 F6000
G1 E0.1500 F2600
G92 E0.0000
G1 X118.531 Y40.965 E1.0226 F1800
G1 X132.337 Y40.881 E1.4152
G1 X132.337 Y54.389 E1.7994
G1 X136.245 Y54.389 E1.9105
G1 X140.170 Y50.261 E2.0725
G1 X140.170 Y40.881 E2.3392
G1 X152.285 Y40.951 E2.6838
G1 X152.143 Y42.954 E2.7409
G1 X151.927 Y44.033 E2.7721
G1 X151.566 Y45.109 E2.8044
G1 X151.010 Y46.248 E2.8405
G1 X150.342 Y47.240 E2.8745
G1 X149.598 Y48.089 E2.9066
G1 X148.716 Y48.865 E2.9400
G1 X147.636 Y49.590 E2.9770
G1 X141.430 Y55.797 E3.2266
G1 X141.430 Y71.745 E3.6801
G1 X141.471 Y72.635 E3.7055
G1 X141.531 Y73.150 E3.7202
G1 X141.619 Y73.667 E3.7351
G1 X141.773 Y74.367 E3.7555
G1 X142.041 Y75.237 E3.7814
G1 X142.147 Y75.527 E3.7902
G1 X142.432 Y76.185 E3.8105
G1 X142.743 Y76.822 E3.8307
G1 X143.268 Y77.703 E3.8599
G1 X143.755 Y78.393 E3.8839
G1 X144.204 Y78.965 E3.9046
G1 X144.920 Y79.757 E3.9349
G1 X145.708 Y80.530 E3.9663
G1 X146.086 Y80.862 E3.9806
G1 X146.398 Y81.103 E3.9918
G1 X147.189 Y81.800 E4.0218
G1 X147.564 Y82.085 E4.0352
G1 X148.297 Y82.810 E4.0645
G1 X148.332 Y82.820 E4.0656
G1 X148.728 Y83.188 E4.0809
G1 X136.656 Y83.188 E4.4242
G1 X136.656 Y59.733 E5.0912
G1 X128.916 Y59.733 E5.3113
G1 X128.916 Y83.188 E5.9783
G1 X120.627 Y83.188 E6.2140
G1 X120.627 Y59.733 E6.8810
G1 X112.887 Y59.733 E7.1011
G1 X112.887 Y83.188 E7.7681
G1 X104.599 Y83.188 E8.0038
G1 X104.599 Y59.733 E8.6708
G1 X96.859 Y59.733 E8.8909
G1 X96.859 Y83.188 E9.5579
G1 X81.281 Y83.180 E10.0009
G1 X81.668 Y82.820 E10.0159
G1 X81.703 Y82.810 E10.0170
G1 X82.436 Y82.085 E10.0463
G1 X82.811 Y81.800 E10.0597
G1 X83.602 Y81.103 E10.0896
G1 X83.925 Y80.854 E10.1013
G1 X84.842 Y79.963 E10.1376
G1 X85.067 Y79.771 E10.1460
G1 X85.796 Y78.965 E10.1769
G1 X86.245 Y78.393 E10.1976
G1 X86.732 Y77.703 E10.2216
G1 X87.257 Y76.823 E10.2508
G1 X87.613 Y76.098 E10.2737
G1 X87.854 Y75.525 E10.2914
G1 X87.959 Y75.237 E10.3001
G1 X88.227 Y74.367 E10.3260
G1 X88.381 Y73.667 E10.3464
G1 X88.469 Y73.150 E10.3613
G1 X88.529 Y72.635 E10.3760
G1 X88.570 Y71.745 E10.4014
G1 X88.570 Y55.797 E10.8549
G1 X82.570 Y49.797 E11.0962
G1 X82.570 Y40.965 E11.3474
; feature outer perimeter
G1 X82.190 Y41.571 F6000
G92 E0.0000
G1 X75.432 Y41.481 E0.1922 F1200
G1 X75.183 Y41.398 E0.1997
G1 X74.901 Y41.059 E0.2122
G1 X74.891 Y41.033 E0.2130
G1 X74.901 Y41.006 E0.2138
G1 X75.183 Y40.668 E0.2263
G1 X75.431 Y40.585 E0.2338
G1 X118.531 Y40.585 E1.4594
G1 X132.717 Y40.499 E1.8628
G1 X132.717 Y54.009 E2.2470
G1 X136.082 Y54.009 E2.3427
G1 X139.790 Y50.109 E2.4958
G1 X139.790 Y40.498 E2.7691
G1 X154.569 Y40.585 E3.1893
G1 X154.817 Y40.668 E3.1968
G1 X155.099 Y41.006 E3.2093
G1 X155.109 Y41.033 E3.2101
G1 X155.099 Y41.059 E3.2109
G1 X154.817 Y41.398 E3.2235
G1 X154.564 Y41.482 E3.2310
G1 X152.962 Y41.563 E3.2767
G1 X152.623 Y41.551 E3.2863
G1 X152.521 Y43.005 E3.3278
G1 X152.295 Y44.131 E3.3604
G1 X151.918 Y45.253 E3.3941
G1 X151.340 Y46.439 E3.4316
G1 X150.644 Y47.473 E3.4670
G1 X149.868 Y48.358 E3.5005
G1 X148.949 Y49.167 E3.5353
G1 X147.879 Y49.885 E3.5720
G1 X141.810 Y55.954 E3.8160
G1 X141.810 Y71.736 E4.2648
G1 X141.850 Y72.604 E4.2896
G1 X141.908 Y73.096 E4.3036
G1 X141.992 Y73.594 E4.3180
G1 X142.140 Y74.270 E4.3377
G1 X142.401 Y75.115 E4.3628
G1 X142.500 Y75.387 E4.3710
G1 X142.777 Y76.026 E4.3909
G1 X143.077 Y76.641 E4.4103
G1 X143.587 Y77.496 E4.4386
G1 X144.060 Y78.166 E4.4620
G1 X144.495 Y78.720 E4.4820
G1 X145.194 Y79.493 E4.5116
G1 X145.967 Y80.251 E4.5424
G1 X146.328 Y80.569 E4.5561
G1 X146.640 Y80.810 E4.5673
G1 X147.430 Y81.506 E4.5972
G1 X147.813 Y81.797 E4.6109
G1 X148.499 Y82.475 E4.6383
G1 X148.528 Y82.484 E4.6392
G1 X149.104 Y83.018 E4.6615
G1 X149.109 Y83.033 E4.6620
G1 X149.104 Y83.047 E4.6624
G1 X148.542 Y83.568 E4.6842
G1 X136.276 Y83.568 E5.0330
G1 X136.276 Y60.113 E5.7000
G1 X129.296 Y60.113 E5.8985
G1 X129.296 Y83.568 E6.5655
G1 X120.247 Y83.568 E6.8228
G1 X120.247 Y60.113 E7.4898
G1 X113.267 Y60.113 E7.6883
G1 X113.267 Y83.568 E8.3553
G1 X104.219 Y83.568 E8.6126
G1 X104.219 Y60.113 E9.2796
G1 X97.239 Y60.113 E9.4781
G1 X97.239 Y83.568 E10.1451
G1 X81.449 Y83.560 E10.5941
G1 X80.896 Y83.047 E10.6155
G1 X80.891 Y83.033 E10.6160
G1 X80.896 Y83.018 E10.6164
G1 X81.472 Y82.484 E10.6387
G1 X81.501 Y82.475 E10.6396
G1 X82.187 Y81.797 E10.6670
G1 X82.570 Y81.506 E10.6807
G1 X83.360 Y80.810 E10.7107
G1 X83.676 Y80.566 E10.7220
G1 X84.586 Y79.682 E10.7581
G1 X84.801 Y79.498 E10.7661
G1 X85.505 Y78.720 E10.7960
G1 X85.940 Y78.166 E10.8160
G1 X86.413 Y77.496 E10.8393
G1 X86.923 Y76.641 E10.8676
G1 X87.267 Y75.941 E10.8898
G1 X87.500 Y75.386 E10.9069
G1 X87.599 Y75.115 E10.9151
G1 X87.860 Y74.270 E10.9403
G1 X88.008 Y73.594 E10.9599
G1 X88.092 Y73.096 E10.9743
G1 X88.150 Y72.604 E10.9884
G1 X88.190 Y71.736 E11.0131
G1 X88.190 Y55.954 E11.4619
G1 X82.190 Y49.954 E11.7032
G1 X82.190 Y41.571 E11.9416
; feature gap fill
; tool H0.180 W0.400
G1 X82.213 Y40.918 F6000
G92 E0.0000
G1 X82.233 Y40.938 E0.0009 F2400
G1 X82.233 Y41.238 E0.0098
G1 X81.964 Y41.235 E0.0179
G1 X81.647 Y40.918 E0.0313
G1 X81.081 Y40.918 E0.0483
G1 X81.391 Y41.227 E0.0613
G1 X80.817 Y41.219 E0.0785
G1 X80.516 Y40.918 E0.0913
G1 X79.950 Y40.918 E0.1082
G1 X80.244 Y41.212 E0.1207
G1 X79.671 Y41.204 E0.1378
G1 X79.384 Y40.918 E0.1500
G1 X78.819 Y40.918 E0.1669
G1 X79.098 Y41.197 E0.1787
G1 X78.524 Y41.189 E0.1959
G1 X78.253 Y40.918 E0.2073
G1 X77.687 Y40.918 E0.2243
G1 X77.951 Y41.182 E0.2354
G1 X77.378 Y41.174 E0.2526
G1 X77.122 Y40.918 E0.2634
G1 X76.556 Y40.918 E0.2804
G1 X76.805 Y41.166 E0.2909
G1 X76.231 Y41.159 E0.3081
G1 X75.990 Y40.918 E0.3183
G1 X75.485 Y40.918 E0.3334
G1 X75.440 Y40.933 E0.3348
G1 X75.658 Y41.151 E0.3441
G92 E0.0000
G1 E-3.8000 F2600
G1 X152.607 Y41.167 F6000
G1 E0.1500 F2600
G92 E0.0000
G1 X152.659 Y41.219 E0.0022 F2400
G1 X152.959 Y41.230 E0.0112
G1 X153.222 Y41.216 E0.0191
G1 X152.914 Y40.908 E0.0321
G1 X153.483 Y40.911 E0.0492
G1 X153.761 Y41.189 E0.0609
G1 X154.299 Y41.162 E0.0771
G1 X154.052 Y40.915 E0.0876
; feature solid layer
; tool H0.180 W0.380
G1 X151.437 Y41.269 F6000
G92 E0.0000
G1 X151.905 Y41.738 E0.0189 F1920
G1 X151.870 Y42.240 E0.0332
G1 X150.896 Y41.266 E0.0723
G1 X150.356 Y41.263 E0.0877
G1 X151.834 Y42.742 E0.1472
G1 X151.823 Y42.911 E0.1520
G1 X151.763 Y43.208 E0.1606
G1 X149.815 Y41.260 E0.2390
G1 X149.274 Y41.257 E0.2543
G1 X151.673 Y43.656 E0.3508
G1 X151.615 Y43.949 E0.3593
G1 X151.568 Y44.088 E0.3635
G1 X148.734 Y41.254 E0.4775
G1 X148.193 Y41.250 E0.4928
G1 X151.433 Y44.490 E0.6231
G1 X151.298 Y44.892 E0.6352
G1 X147.653 Y41.247 E0.7818
G1 X147.112 Y41.244 E0.7972
G1 X151.131 Y45.263 E0.9588
G1 X150.955 Y45.624 E0.9702
G1 X146.572 Y41.241 E1.1465
G1 X146.031 Y41.238 E1.1619
G1 X150.779 Y45.986 E1.3528
G1 X150.730 Y46.087 E1.3560
G1 X150.574 Y46.318 E1.3639
G1 X145.491 Y41.235 E1.5684
G1 X144.950 Y41.232 E1.5837
G1 X150.358 Y46.639 E1.8012
G1 X150.141 Y46.960 E1.8122
G1 X144.409 Y41.228 E2.0427
G1 X143.869 Y41.225 E2.0581
G1 X149.899 Y47.256 E2.3006
G1 X149.648 Y47.542 E2.3115
G1 X143.328 Y41.222 E2.5656
G1 X142.788 Y41.219 E2.5810
G1 X149.397 Y47.828 E2.8468
G1 X149.369 Y47.860 E2.8480
G1 X149.115 Y48.084 E2.8576
G1 X142.247 Y41.216 E3.1338
G1 X141.707 Y41.213 E3.1492
G1 X148.829 Y48.335 E3.4357
G1 X148.544 Y48.587 E3.4465
G1 X141.166 Y41.210 E3.7432
G1 X140.626 Y41.206 E3.7586
G1 X148.225 Y48.806 E4.0642
G1 X147.904 Y49.022 E4.0752
G1 X140.493 Y41.611 E4.3732
G1 X140.493 Y42.149 E4.3885
G1 X147.582 Y49.238 E4.6736
G1 X147.430 Y49.340 E4.6788
G1 X147.288 Y49.481 E4.6845
G1 X140.493 Y42.686 E4.9578
G1 X140.493 Y43.223 E4.9731
G1 X147.020 Y49.750 E5.2356
G1 X146.751 Y50.019 E5.2464
G1 X140.493 Y43.761 E5.4981
G1 X140.493 Y44.298 E5.5133
G1 X146.482 Y50.288 E5.7542
G1 X146.214 Y50.556 E5.7650
G1 X140.493 Y44.836 E5.9951
G1 X140.493 Y45.373 E6.0104
G1 X145.945 Y50.825 E6.2296
G1 X145.676 Y51.094 E6.2404
G1 X140.493 Y45.910 E6.4489
G1 X140.493 Y46.448 E6.4642
G1 X145.408 Y51.362 E6.6618
G1 X145.139 Y51.631 E6.6726
G1 X140.493 Y46.985 E6.8595
G1 X140.493 Y47.523 E6.8748
G1 X144.870 Y51.900 E7.0508
G1 X144.601 Y52.168 E7.0616
G1 X140.493 Y48.060 E7.2268
G1 X140.493 Y48.597 E7.2421
G1 X144.333 Y52.437 E7.3965
G1 X144.064 Y52.706 E7.4073
G1 X140.493 Y49.135 E7.5510
G1 X140.493 Y49.672 E7.5662
G1 X143.795 Y52.975 E7.6990
G1 X143.527 Y53.243 E7.7099
G1 X140.493 Y50.210 E7.8319
G1 X140.493 Y50.390 E7.8370
G1 X140.319 Y50.573 E7.8442
G1 X143.258 Y53.512 E7.9624
G1 X142.989 Y53.781 E7.9732
G1 X140.057 Y50.848 E8.0911
G1 X139.795 Y51.124 E8.1019
G1 X142.721 Y54.049 E8.2196
G1 X142.452 Y54.318 E8.2304
G1 X139.533 Y51.399 E8.3478
G1 X139.271 Y51.675 E8.3586
G1 X142.183 Y54.587 E8.4757
G1 X141.914 Y54.855 E8.4865
G1 X139.009 Y51.950 E8.6033
G1 X138.747 Y52.226 E8.6141
G1 X141.646 Y55.124 E8.7307
G1 X141.377 Y55.393 E8.7415
G1 X138.485 Y52.501 E8.8578
G1 X138.223 Y52.777 E8.8686
G1 X141.107 Y55.663 E8.9847
G1 X141.107 Y56.198 E8.9999
G1 X137.961 Y53.052 E9.1264
G1 X137.699 Y53.327 E9.1372
G1 X141.107 Y56.735 E9.2743
G1 X141.107 Y57.272 E9.2896
G1 X137.438 Y53.603 E9.4371
G1 X137.176 Y53.878 E9.4479
G1 X141.107 Y57.810 E9.6061
G1 X141.107 Y58.347 E9.6213
G1 X136.914 Y54.154 E9.7900
G1 X136.652 Y54.429 E9.8008
G1 X141.107 Y58.885 E9.9800
G1 X141.107 Y59.422 E9.9952
G1 X136.390 Y54.705 E10.1850
G1 X136.383 Y54.712 E10.1852
G1 X135.859 Y54.712 E10.2001
G1 X141.107 Y59.959 E10.4112
G1 X141.107 Y60.497 E10.4265
G1 X135.322 Y54.712 E10.6591
G1 X134.785 Y54.712 E10.6744
G1 X141.107 Y61.034 E10.9287
G1 X141.107 Y61.572 E10.9439
G1 X134.247 Y54.712 E11.2198
G1 X133.710 Y54.712 E11.2351
G1 X141.107 Y62.109 E11.5326
G1 X141.107 Y62.646 E11.5479
G1 X133.172 Y54.712 E11.8670
G1 X132.635 Y54.712 E11.8823
G1 X141.107 Y63.184 E12.2230
G1 X141.107 Y63.721 E12.2383
G1 X136.979 Y59.593 E12.4043
G1 X136.979 Y59.410 E12.4095
G1 X136.796 Y59.410 E12.4147
G1 X132.098 Y54.712 E12.6036
G1 X132.014 Y54.712 E12.6060
G1 X132.014 Y54.628 E12.6084
