; G-Code generated by Simplify3D(R) Version 4.1.1
; Apr 27, 2021 at 8:43:19 AM
; Settings Summary
;   processName,Trideo BOX
;   applyToModels,Left Thumb
;   profileName,Trideo BOX
;   profileVersion,2021-04-15 09:48:16
;   baseProfile,Default
;   printMaterial,PLA
;   printQuality,Fast
;   printExtruders,
;   extruderName,Primary Extruder
;   extruderToolheadNumber,0
;   extruderDiameter,0.4
;   extruderAutoWidth,1
;   extruderWidth,0.48
;   extrusionMultiplier,0.98
;   extruderUseRetract,1
;   extruderRetractionDistance,0.7
;   extruderExtraRestartDistance,0
;   extruderRetractionZLift,0
;   extruderRetractionSpeed,1500
;   extruderUseCoasting,0
;   extruderCoastingDistance,0.2
;   extruderUseWipe,0
;   extruderWipeDistance,5
;   primaryExtruder,0
;   layerHeight,0.3
;   topSolidLayers,3
;   bottomSolidLayers,3
;   perimeterOutlines,2
;   printPerimetersInsideOut,1
;   startPointOption,2
;   startPointOriginX,0
;   startPointOriginY,0
;   sequentialIslands,0
;   spiralVaseMode,0
;   firstLayerHeightPercentage,90
;   firstLayerWidthPercentage,100
;   firstLayerUnderspeed,0.5
;   useRaft,0
;   raftExtruder,0
;   raftTopLayers,3
;   raftBaseLayers,2
;   raftOffset,3
;   raftSeparationDistance,0.14
;   raftTopInfill,100
;   aboveRaftSpeedMultiplier,0.3
;   useSkirt,1
;   skirtExtruder,0
;   skirtLayers,1
;   skirtOutlines,2
;   skirtOffset,4
;   usePrimePillar,0
;   primePillarExtruder,999
;   primePillarWidth,12
;   primePillarLocation,7
;   primePillarSpeedMultiplier,1
;   useOozeShield,0
;   oozeShieldExtruder,999
;   oozeShieldOffset,2
;   oozeShieldOutlines,1
;   oozeShieldSidewallShape,1
;   oozeShieldSidewallAngle,30
;   oozeShieldSpeedMultiplier,1
;   infillExtruder,0
;   internalInfillPattern,Rectilinear
;   externalInfillPattern,Rectilinear
;   infillPercentage,15
;   outlineOverlapPercentage,15
;   infillExtrusionWidthPercentage,100
;   minInfillLength,5
;   infillLayerInterval,1
;   internalInfillAngles,45,-45
;   overlapInternalInfillAngles,0
;   externalInfillAngles,45,-45
;   generateSupport,1
;   supportExtruder,0
;   supportInfillPercentage,25
;   supportExtraInflation,0
;   supportBaseLayers,0
;   denseSupportExtruder,0
;   denseSupportLayers,0
;   denseSupportInfillPercentage,70
;   supportLayerInterval,1
;   supportHorizontalPartOffset,0.3
;   supportUpperSeparationLayers,1
;   supportLowerSeparationLayers,1
;   supportType,0
;   supportGridSpacing,4
;   maxOverhangAngle,45
;   supportAngles,0
;   temperatureName,Primary Extruder,Heated bed
;   temperatureNumber,0,0
;   temperatureSetpointCount,1,1
;   temperatureSetpointLayers,1,1
;   temperatureSetpointTemperatures,190,60
;   temperatureStabilizeAtStartup,1,1
;   temperatureHeatedBed,0,1
;   fanLayers,1,2
;   fanSpeeds,0,100
;   blipFanToFullPower,0
;   adjustSpeedForCooling,1
;   minSpeedLayerTime,15
;   minCoolingSpeedSlowdown,20
;   increaseFanForCooling,0
;   minFanLayerTime,45
;   maxCoolingFanSpeed,100
;   increaseFanForBridging,0
;   bridgingFanSpeed,100
;   use5D,1
;   relativeEdistances,0
;   allowEaxisZeroing,1
;   independentExtruderAxes,0
;   includeM10123,0
;   stickySupport,1
;   applyToolheadOffsets,0
;   gcodeXoffset,0
;   gcodeYoffset,0
;   gcodeZoffset,0
;   overrideMachineDefinition,1
;   machineTypeOverride,0
;   strokeXoverride,200
;   strokeYoverride,200
;   strokeZoverride,200
;   originOffsetXoverride,0
;   originOffsetYoverride,0
;   originOffsetZoverride,0
;   homeXdirOverride,-1
;   homeYdirOverride,-1
;   homeZdirOverride,-1
;   flipXoverride,1
;   flipYoverride,-1
;   flipZoverride,1
;   toolheadOffsets,0,0|0,0|0,0|0,0|0,0|0,0
;   overrideFirmwareConfiguration,0
;   firmwareTypeOverride,RepRap (Marlin/Repetier/Sprinter)
;   GPXconfigOverride,r2
;   baudRateOverride,115200
;   overridePrinterModels,0
;   printerModelsOverride
;   startingGcode,G28 X0 Y0; home XY,G1 X20 Y20,G28 Z0,G1 Z5 F5000; Lift NZ
;   layerChangeGcode,
;   retractionGcode,
;   toolChangeGcode,
;   endingGcode,M104 S0 ; turn off extruder,G28 X0 ; home x,M140 S0 ; turn off bed,M84 ; disable motors,M107 ;
;   exportFileFormat,gcode
;   celebration,0
;   celebrationSong,Looney Toons
;   postProcessing,
;   defaultSpeed,3600
;   outlineUnderspeed,0.5
;   solidInfillUnderspeed,0.8
;   supportUnderspeed,0.8
;   rapidXYspeed,4800
;   rapidZspeed,1002
;   minBridgingArea,50
;   bridgingExtraInflation,0
;   bridgingExtrusionMultiplier,1
;   bridgingSpeedMultiplier,1
;   useFixedBridgingAngle,0
;   fixedBridgingAngle,0
;   applyBridgingToPerimeters,0
;   filamentDiameters,1.75|1.75|1.75|1.75|1.75|1.75
;   filamentPricesPerKg,46|46|46|46|46|46
;   filamentDensities,1.25|1.25|1.25|1.25|1.25|1.25
;   useMinPrintHeight,0
;   minPrintHeight,0
;   useMaxPrintHeight,0
;   maxPrintHeight,0
;   useDiaphragm,0
;   diaphragmLayerInterval,20
;   robustSlicing,1
;   mergeAllIntoSolid,0
;   onlyRetractWhenCrossingOutline,1
;   retractBetweenLayers,1
;   useRetractionMinTravel,0
;   retractionMinTravel,3
;   retractWhileWiping,0
;   onlyWipeOutlines,1
;   avoidCrossingOutline,0
;   maxMovementDetourFactor,3
;   toolChangeRetractionDistance,12
;   toolChangeExtraRestartDistance,-0.5
;   toolChangeRetractionSpeed,600
;   externalThinWallType,0
;   internalThinWallType,2
;   thinWallAllowedOverlapPercentage,10
;   singleExtrusionMinLength,1
;   singleExtrusionMinPrintingWidthPercentage,50
;   singleExtrusionMaxPrintingWidthPercentage,200
;   singleExtrusionEndpointExtension,0.2
;   horizontalSizeCompensation,0
G90
M82
M106 S0
M140 S60
M190 S60
M104 S190 T0
M109 S190 T0
G28 X0 Y0; home XY
G1 X20 Y20
G28 Z0
G1 Z5 F5000; Lift NZ
; process Trideo BOX
; layer 1, Z = 0.270
T0
G92 E0.0000
G1 E-0.7000 F1500
; feature skirt
; tool H0.270 W0.480
G1 Z0.270 F1002
G1 X61.825 Y81.060 F4800
G1 E0.0000 F1500
G92 E0.0000
G1 X74.175 Y81.060 E0.6521 F1792
G1 X76.940 Y83.825 E0.8586
G1 X76.940 Y85.060 E0.9238
G1 X82.175 Y85.060 E1.2003
G1 X84.940 Y87.825 E1.4067
G1 X84.940 Y89.060 E1.4719
G1 X102.175 Y89.060 E2.3820
G1 X104.720 Y91.605 E2.5721
G1 X105.829 Y91.430 E2.6313
G1 X109.138 Y94.256 E2.8611
G1 X109.138 Y105.060 E3.4316
G1 X115.060 Y105.060 E3.7444
G1 X115.060 Y103.825 E3.8096
G1 X116.885 Y102.000 E3.9458
G1 X115.060 Y100.175 E4.0821
G1 X115.060 Y91.825 E4.5230
G1 X117.825 Y89.060 E4.7295
G1 X126.175 Y89.060 E5.1704
G1 X128.940 Y91.825 E5.3769
G1 X128.940 Y100.175 E5.8178
G1 X127.115 Y102.000 E5.9541
G1 X128.940 Y103.825 E6.0904
G1 X128.940 Y112.175 E6.5313
G1 X126.175 Y114.940 E6.7378
G1 X120.940 Y114.940 E7.0142
G1 X120.940 Y116.175 E7.0794
G1 X118.175 Y118.940 E7.2859
G1 X101.825 Y118.940 E8.1492
G1 X100.000 Y117.115 E8.2855
G1 X98.175 Y118.940 E8.4218
G1 X81.825 Y118.940 E9.2852
G1 X79.060 Y116.175 E9.4916
G1 X79.060 Y114.940 E9.5568
G1 X77.825 Y114.940 E9.6221
G1 X75.060 Y112.175 E9.8285
G1 X75.060 Y110.940 E9.8938
G1 X73.825 Y110.940 E9.9590
G1 X71.060 Y108.175 E10.1654
G1 X71.060 Y106.940 E10.2307
G1 X69.825 Y106.940 E10.2959
G1 X67.060 Y104.175 E10.5023
G1 X67.060 Y102.940 E10.5676
G1 X65.825 Y102.940 E10.6328
G1 X63.060 Y100.175 E10.8393
G1 X63.060 Y98.940 E10.9045
G1 X61.825 Y98.940 E10.9697
G1 X59.060 Y96.175 E11.1762
G1 X59.060 Y83.825 E11.8283
G1 X61.825 Y81.060 E12.0348
G92 E0.0000
G1 E-0.7000 F1500
G1 X62.024 Y81.540 F4800
G1 E0.0000 F1500
G92 E0.0000
G1 X73.976 Y81.540 E0.6311 F1792
G1 X76.460 Y84.024 E0.8166
G1 X76.460 Y85.540 E0.8967
G1 X81.976 Y85.540 E1.1880
G1 X84.460 Y88.024 E1.3734
G1 X84.460 Y89.540 E1.4535
G1 X101.976 Y89.540 E2.3784
G1 X104.460 Y92.024 E2.5639
G1 X104.460 Y92.132 E2.5696
G1 X105.685 Y91.938 E2.6351
G1 X108.658 Y94.477 E2.8416
G1 X108.658 Y105.540 E3.4257
G1 X115.540 Y105.540 E3.7891
G1 X115.540 Y104.024 E3.8692
G1 X117.564 Y102.000 E4.0203
G1 X115.540 Y99.976 E4.1714
G1 X115.540 Y92.024 E4.5914
G1 X118.024 Y89.540 E4.7768
G1 X125.976 Y89.540 E5.1968
G1 X128.460 Y92.024 E5.3822
G1 X128.460 Y99.976 E5.8022
G1 X126.436 Y102.000 E5.9533
G1 X128.460 Y104.024 E6.1044
G1 X128.460 Y111.976 E6.5243
G1 X125.976 Y114.460 E6.7098
G1 X120.460 Y114.460 E7.0011
G1 X120.460 Y115.976 E7.0811
G1 X117.976 Y118.460 E7.2666
G1 X102.024 Y118.460 E8.1090
G1 X100.000 Y116.436 E8.2601
G1 X97.976 Y118.460 E8.4112
G1 X82.024 Y118.460 E9.2536
G1 X79.540 Y115.976 E9.4391
G1 X79.540 Y114.460 E9.5191
G1 X78.024 Y114.460 E9.5992
G1 X75.540 Y111.976 E9.7847
G1 X75.540 Y110.460 E9.8647
G1 X74.024 Y110.460 E9.9448
G1 X71.540 Y107.976 E10.1303
G1 X71.540 Y106.460 E10.2103
G1 X70.024 Y106.460 E10.2904
G1 X67.540 Y103.976 E10.4759
G1 X67.540 Y102.460 E10.5559
G1 X66.024 Y102.460 E10.6360
G1 X63.540 Y99.976 E10.8215
G1 X63.540 Y98.460 E10.9015
G1 X62.024 Y98.460 E10.9816
G1 X59.540 Y95.976 E11.1671
G1 X59.540 Y84.024 E11.7982
G1 X62.024 Y81.540 E11.9837
G92 E0.0000
G1 E-0.7000 F1500
; feature inner perimeter
G1 X102.046 Y97.700 F4800
G1 E0.0000 F1500
G92 E0.0000
G1 X102.381 Y97.536 E0.0197 F1344
G1 X102.708 Y97.431 E0.0378
G1 X103.698 Y97.275 E0.0907
G1 X103.698 Y111.297 E0.8312
G1 X102.695 Y111.138 E0.8848
G1 X102.450 Y111.059 E0.8984
G1 X102.346 Y110.990 E0.9050
G1 X102.046 Y110.840 E0.9227
G1 X102.046 Y97.700 E1.6165
; feature outer perimeter
G1 X101.566 Y97.400 F4800
G92 E0.0000
G1 X102.202 Y97.090 E0.0374 F896
G1 X102.596 Y96.963 E0.0592
G1 X104.178 Y96.713 E0.1438
G1 X104.178 Y111.859 E0.9436
G1 X102.584 Y111.606 E1.0288
G1 X102.240 Y111.496 E1.0479
G1 X102.105 Y111.406 E1.0564
G1 X101.566 Y111.137 E1.0882
G1 X101.566 Y97.400 E1.8136
; feature solid layer
G1 X103.198 Y97.767 F4800
G92 E0.0000
G1 X103.290 Y97.859 E0.0069 F1434
G1 X103.290 Y98.538 E0.0427
G1 X102.635 Y97.883 E0.0916
G1 X102.534 Y97.916 E0.0972
G1 X102.454 Y97.955 E0.1019
G1 X102.454 Y98.381 E0.1244
G1 X103.290 Y99.217 E0.1869
G1 X103.290 Y99.896 E0.2227
G1 X102.454 Y99.060 E0.2851
G1 X102.454 Y99.739 E0.3210
G1 X103.290 Y100.574 E0.3834
G1 X103.290 Y101.253 E0.4192
G1 X102.454 Y100.417 E0.4817
G1 X102.454 Y101.096 E0.5175
G1 X103.290 Y101.932 E0.5799
G1 X103.290 Y102.611 E0.6158
G1 X102.454 Y101.775 E0.6782
G1 X102.454 Y102.454 E0.7141
G1 X103.290 Y103.290 E0.7765
G1 X103.290 Y103.969 E0.8123
G1 X102.454 Y103.133 E0.8748
G1 X102.454 Y103.811 E0.9106
G1 X103.290 Y104.647 E0.9730
G1 X103.290 Y105.326 E1.0089
G1 X102.454 Y104.490 E1.0713
G1 X102.454 Y105.169 E1.1071
G1 X103.290 Y106.005 E1.1696
G1 X103.290 Y106.684 E1.2054
G1 X102.454 Y105.848 E1.2678
G1 X102.454 Y106.527 E1.3037
G1 X103.290 Y107.363 E1.3661
G1 X103.290 Y108.042 E1.4020
G1 X102.454 Y107.206 E1.4644
G1 X102.454 Y107.884 E1.5002
G1 X103.290 Y108.720 E1.5627
G1 X103.290 Y109.399 E1.5985
G1 X102.454 Y108.563 E1.6609
G1 X102.454 Y109.242 E1.6968
G1 X103.290 Y110.078 E1.7592
G1 X103.290 Y110.757 E1.7951
G1 X102.454 Y109.921 E1.8575
G92 E0.0000
G1 E-0.7000 F1500
; feature support
G1 X104.968 Y111.520 F4800
G1 E0.0000 F1500
G92 E0.0000
G1 X115.970 Y111.520 E0.5810 F1434
G1 X115.970 Y113.440 E0.6823
G1 X104.030 Y113.440 E1.3128
G92 E0.0000
G1 E-0.7000 F1500
G1 X120.030 Y109.600 F4800
G1 E0.0000 F1500
G92 E0.0000
G1 X123.970 Y109.600 E0.2080 F1434
G1 X123.970 Y107.680 E0.3094
G1 X120.030 Y107.680 E0.5175
G92 E0.0000
G1 E-0.7000 F1500
G1 X120.030 Y96.160 F4800
G1 E0.0000 F1500
G92 E0.0000
G1 X123.970 Y96.160 E0.2080 F1434
G1 X123.970 Y94.240 E0.3094
G1 X120.030 Y94.240 E0.5175
G92 E0.0000
G1 E-0.7000 F1500
G1 X84.030 Y111.520 F4800
G1 E0.0000 F1500
G92 E0.0000
G1 X94.311 Y111.520 E0.5429 F1434
G1 X94.496 Y111.869 E0.5637
G1 X95.970 Y112.343 E0.6455
G1 X95.970 Y113.440 E0.7034
G1 X84.030 Y113.440 E1.3339
G92 E0.0000
G1 E-0.7000 F1500
G1 X80.030 Y109.600 F4800
G1 E0.0000 F1500
G92 E0.0000
G1 X83.970 Y109.600 E0.2080 F1434
G1 X83.970 Y107.680 E0.3094
G1 X80.030 Y107.680 E0.5175
G92 E0.0000
G1 E-0.7000 F1500
G1 X76.030 Y105.760 F4800
G1 E0.0000 F1500
G92 E0.0000
G1 X79.970 Y105.760 E0.2080 F1434
G1 X79.970 Y103.840 E0.3094
G1 X76.030 Y103.840 E0.5175
G92 E0.0000
G1 E-0.7000 F1500
G1 X75.970 Y101.920 F4800
G1 E0.0000 F1500
G92 E0.0000
G1 X72.030 Y101.920 E0.2080 F1434
G1 X72.030 Y100.000 E0.3094
G1 X75.970 Y100.000 E0.5175
G1 X75.970 Y98.080 E0.6189
G1 X72.030 Y98.080 E0.8269
G1 X72.030 Y97.970 E0.8327
G1 X68.030 Y97.970 E1.0439
G1 X68.030 Y96.160 E1.1395
G1 X96.197 Y96.160 E2.6268
G1 X96.435 Y96.086 E2.6400
G1 X99.789 Y95.625 E2.8187
G1 X99.970 Y95.609 E2.8284
G1 X99.970 Y94.240 E2.9006
G1 X68.030 Y94.240 E4.5872
G1 X68.030 Y93.970 E4.6014
G1 X64.030 Y93.970 E4.8127
G1 X64.030 Y92.320 E4.8998
G1 X79.970 Y92.320 E5.7415
G1 X79.970 Y90.400 E5.8429
G1 X64.030 Y90.400 E6.6846
G1 X64.030 Y88.480 E6.7859
G1 X71.970 Y88.480 E7.2052
G1 X71.970 Y86.560 E7.3066
G1 X64.030 Y86.560 E7.7258
G92 E0.0000
G1 E-0.7000 F1500
; layer 2, Z = 0.570
M106 S255
; feature inner perimeter
; tool H0.300 W0.480
G1 Z0.570 F1002
G1 X98.570 Y97.064 F4800
G1 E0.0000 F1500
G92 E0.0000
G1 X99.931 Y96.877 E0.0806 F1626
G1 X103.698 Y96.536 E0.3025
G1 X103.698 Y112.035 E1.2119
G1 X99.870 Y111.688 E1.4374
G1 X98.568 Y111.513 E1.5144
G1 X98.534 Y111.174 E1.5345
G1 X98.894 Y111.049 E1.5568
G1 X99.198 Y110.909 E1.5765
G1 X99.485 Y110.743 E1.5959
G1 X99.753 Y110.553 E1.6152
G1 X100.001 Y110.340 E1.6344
G1 X100.227 Y110.107 E1.6534
G1 X100.428 Y109.855 E1.6723
G1 X100.605 Y109.588 E1.6911
G1 X100.755 Y109.309 E1.7097
G1 X100.879 Y109.020 E1.7282
G1 X100.977 Y108.723 E1.7465
G1 X101.051 Y108.410 E1.7654
G1 X101.125 Y107.815 E1.8006
G1 X101.110 Y107.478 E1.8204
G1 X101.123 Y100.745 E2.2154
G1 X101.066 Y100.253 E2.2444
G1 X100.953 Y99.761 E2.2740
G1 X100.764 Y99.278 E2.3045
G1 X100.509 Y98.831 E2.3347
G1 X100.308 Y98.561 E2.3544
G1 X100.089 Y98.317 E2.3737
G1 X99.868 Y98.112 E2.3913
G1 X99.630 Y97.926 E2.4091
G1 X99.368 Y97.756 E2.4274
G1 X99.004 Y97.572 E2.4514
G1 X98.534 Y97.400 E2.4807
G1 X98.570 Y97.064 E2.5005
; feature outer perimeter
G1 X98.397 Y97.861 F4800
G92 E0.0000
G1 X98.109 Y97.800 E0.0173 F1084
G1 X97.886 Y97.731 E0.0309
G1 X96.427 Y97.561 E0.1171
G1 X95.586 Y97.390 E0.1675
G1 X95.260 Y97.271 E0.1878
G1 X96.606 Y96.849 E0.2706
G1 X99.877 Y96.400 E0.4643
G1 X103.776 Y96.047 E0.6940
G1 X104.178 Y96.018 E0.7176
G1 X104.178 Y112.554 E1.6878
G1 X103.807 Y112.527 E1.7096
G1 X99.817 Y112.165 E1.9447
G1 X97.186 Y111.812 E2.1004
G1 X96.558 Y111.712 E2.1377
G1 X95.279 Y111.301 E2.2165
G1 X95.649 Y111.166 E2.2396
G1 X96.384 Y111.018 E2.2837
G1 X97.886 Y110.841 E2.3724
G1 X98.124 Y110.769 E2.3870
G1 X98.437 Y110.699 E2.4058
G1 X98.715 Y110.603 E2.4230
G1 X98.978 Y110.482 E2.4400
G1 X99.226 Y110.339 E2.4568
G1 X99.458 Y110.174 E2.4735
G1 X99.671 Y109.991 E2.4900
G1 X99.866 Y109.789 E2.5065
G1 X100.040 Y109.572 E2.5228
G1 X100.192 Y109.342 E2.5390
G1 X100.322 Y109.100 E2.5551
G1 X100.430 Y108.850 E2.5711
G1 X100.515 Y108.592 E2.5870
G1 X100.578 Y108.325 E2.6031
G1 X100.643 Y107.796 E2.6344
G1 X100.630 Y107.488 E2.6525
G1 X100.643 Y100.772 E3.0465
G1 X100.593 Y100.335 E3.0723
G1 X100.493 Y99.903 E3.0983
G1 X100.330 Y99.485 E3.1247
G1 X100.107 Y99.094 E3.1510
G1 X99.936 Y98.865 E3.1678
G1 X99.747 Y98.654 E3.1844
G1 X99.556 Y98.478 E3.1997
G1 X99.351 Y98.317 E3.2150
G1 X99.128 Y98.172 E3.2306
G1 X98.812 Y98.013 E3.2513
G1 X98.397 Y97.861 E3.2773
; feature gap fill
G1 X97.924 Y97.324 F4800
G92 E0.0000
G1 X98.151 Y97.097 E0.0189 F2168
G1 X98.157 Y97.048 E0.0217
G1 X97.420 Y97.149 E0.0653
G1 X97.316 Y97.253 E0.0740
G92 E0.0000
G1 E-0.7000 F1500
G1 X97.396 Y111.429 F4800
G1 E0.0000 F1500
G92 E0.0000
G1 X97.531 Y111.294 E0.0112 F2168
G1 X97.970 Y111.242 E0.0371
G1 X98.121 Y111.196 E0.0464
G1 X98.138 Y111.365 E0.0564
G1 X97.995 Y111.509 E0.0683
; feature solid layer
G1 X99.941 Y110.920 F4800
G92 E0.0000
G1 X99.619 Y111.242 E0.0267 F1735
G1 X99.916 Y111.282 E0.0443
G1 X100.229 Y111.311 E0.0628
G1 X103.290 Y108.250 E0.3167
G1 X103.290 Y107.571 E0.3566
G1 X100.730 Y110.131 E0.5689
G1 X100.759 Y110.096 E0.5716
G1 X100.955 Y109.798 E0.5925
G1 X101.123 Y109.486 E0.6133
G1 X101.261 Y109.165 E0.6338
G1 X101.370 Y108.834 E0.6542
G1 X101.377 Y108.805 E0.6560
G1 X103.290 Y106.893 E0.8146
G1 X103.290 Y106.214 E0.8545
G1 X101.514 Y107.989 E1.0018
G1 X101.534 Y107.831 E1.0111
G1 X101.518 Y107.470 E1.0324
G1 X101.519 Y107.306 E1.0420
G1 X103.290 Y105.535 E1.1889
G1 X103.290 Y104.856 E1.2288
