; G-Code generated by Simplify3D(R) Version 4.1.1
; Apr 27, 2021 at 8:44:05 AM
; Settings Summary
;   processName,Trideo BOX
;   applyToModels,Left Thumb
;   profileName,Trideo BOX
;   profileVersion,2021-04-15 09:48:16
;   baseProfile,Default
;   printMaterial,PLA
;   printQuality,Fast
;   printExtruders,
;   extruderName,Primary Extruder
;   extruderToolheadNumber,0
;   extruderDiameter,0.4
;   extruderAutoWidth,1
;   extruderWidth,0.48
;   extrusionMultiplier,0.98
;   extruderUseRetract,1
;   extruderRetractionDistance,0.7
;   extruderExtraRestartDistance,0
;   extruderRetractionZLift,0
;   extruderRetractionSpeed,1500
;   extruderUseCoasting,0
;   extruderCoastingDistance,0.2
;   extruderUseWipe,0
;   extruderWipeDistance,5
;   primaryExtruder,0
;   layerHeight,0.3
;   topSolidLayers,3
;   bottomSolidLayers,3
;   perimeterOutlines,2
;   printPerimetersInsideOut,1
;   startPointOption,2
;   startPointOriginX,0
;   startPointOriginY,0
;   sequentialIslands,0
;   spiralVaseMode,0
;   firstLayerHeightPercentage,90
;   firstLayerWidthPercentage,100
;   firstLayerUnderspeed,0.5
;   useRaft,0
;   raftExtruder,0
;   raftTopLayers,3
;   raftBaseLayers,2
;   raftOffset,3
;   raftSeparationDistance,0.14
;   raftTopInfill,100
;   aboveRaftSpeedMultiplier,0.3
;   useSkirt,1
;   skirtExtruder,0
;   skirtLayers,1
;   skirtOutlines,2
;   skirtOffset,4
;   usePrimePillar,0
;   primePillarExtruder,999
;   primePillarWidth,12
;   primePillarLocation,7
;   primePillarSpeedMultiplier,1
;   useOozeShield,0
;   oozeShieldExtruder,999
;   oozeShieldOffset,2
;   oozeShieldOutlines,1
;   oozeShieldSidewallShape,1
;   oozeShieldSidewallAngle,30
;   oozeShieldSpeedMultiplier,1
;   infillExtruder,0
;   internalInfillPattern,Rectilinear
;   externalInfillPattern,Rectilinear
;   infillPercentage,15
;   outlineOverlapPercentage,15
;   infillExtrusionWidthPercentage,100
;   minInfillLength,5
;   infillLayerInterval,1
;   internalInfillAngles,45,-45
;   overlapInternalInfillAngles,0
;   externalInfillAngles,45,-45
;   generateSupport,1
;   supportExtruder,0
;   supportInfillPercentage,25
;   supportExtraInflation,0
;   supportBaseLayers,0
;   denseSupportExtruder,0
;   denseSupportLayers,0
;   denseSupportInfillPercentage,70
;   supportLayerInterval,1
;   supportHorizontalPartOffset,0.3
;   supportUpperSeparationLayers,1
;   supportLowerSeparationLayers,1
;   supportType,0
;   supportGridSpacing,4
;   maxOverhangAngle,45
;   supportAngles,0
;   temperatureName,Primary Extruder,Heated bed
;   temperatureNumber,0,0
;   temperatureSetpointCount,1,1
;   temperatureSetpointLayers,1,1
;   temperatureSetpointTemperatures,190,60
;   temperatureStabilizeAtStartup,1,1
;   temperatureHeatedBed,0,1
;   fanLayers,1,2
;   fanSpeeds,0,100
;   blipFanToFullPower,0
;   adjustSpeedForCooling,1
;   minSpeedLayerTime,15
;   minCoolingSpeedSlowdown,20
;   increaseFanForCooling,0
;   minFanLayerTime,45
;   maxCoolingFanSpeed,100
;   increaseFanForBridging,0
;   bridgingFanSpeed,100
;   use5D,1
;   relativeEdistances,0
;   allowEaxisZeroing,1
;   independentExtruderAxes,0
;   includeM10123,0
;   stickySupport,1
;   applyToolheadOffsets,0
;   gcodeXoffset,0
;   gcodeYoffset,0
;   gcodeZoffset,0
;   overrideMachineDefinition,1
;   machineTypeOverride,0
;   strokeXoverride,200
;   strokeYoverride,200
;   strokeZoverride,200
;   originOffsetXoverride,0
;   originOffsetYoverride,0
;   originOffsetZoverride,0
;   homeXdirOverride,-1
;   homeYdirOverride,-1
;   homeZdirOverride,-1
;   flipXoverride,1
;   flipYoverride,-1
;   flipZoverride,1
;   toolheadOffsets,0,0|0,0|0,0|0,0|0,0|0,0
;   overrideFirmwareConfiguration,0
;   firmwareTypeOverride,RepRap (Marlin/Repetier/Sprinter)
;   GPXconfigOverride,r2
;   baudRateOverride,115200
;   overridePrinterModels,0
;   printerModelsOverride
;   startingGcode,G28 X0 Y0; home XY,G1 X20 Y20,G28 Z0,G1 Z5 F5000; Lift NZ
;   layerChangeGcode,
;   retractionGcode,
;   toolChangeGcode,
;   endingGcode,M104 S0 ; turn off extruder,G28 X0 ; home x,M140 S0 ; turn off bed,M84 ; disable motors,M107 ;
;   exportFileFormat,gcode
;   celebration,0
;   celebrationSong,Looney Toons
;   postProcessing,
;   defaultSpeed,3600
;   outlineUnderspeed,0.5
;   solidInfillUnderspeed,0.8
;   supportUnderspeed,0.8
;   rapidXYspeed,4800
;   rapidZspeed,1002
;   minBridgingArea,50
;   bridgingExtraInflation,0
;   bridgingExtrusionMultiplier,1
;   bridgingSpeedMultiplier,1
;   useFixedBridgingAngle,0
;   fixedBridgingAngle,0
;   applyBridgingToPerimeters,0
;   filamentDiameters,1.75|1.75|1.75|1.75|1.75|1.75
;   filamentPricesPerKg,46|46|46|46|46|46
;   filamentDensities,1.25|1.25|1.25|1.25|1.25|1.25
;   useMinPrintHeight,0
;   minPrintHeight,0
;   useMaxPrintHeight,0
;   maxPrintHeight,0
;   useDiaphragm,0
;   diaphragmLayerInterval,20
;   robustSlicing,1
;   mergeAllIntoSolid,0
;   onlyRetractWhenCrossingOutline,1
;   retractBetweenLayers,1
;   useRetractionMinTravel,0
;   retractionMinTravel,3
;   retractWhileWiping,0
;   onlyWipeOutlines,1
;   avoidCrossingOutline,0
;   maxMovementDetourFactor,3
;   toolChangeRetractionDistance,12
;   toolChangeExtraRestartDistance,-0.5
;   toolChangeRetractionSpeed,600
;   externalThinWallType,0
;   internalThinWallType,2
;   thinWallAllowedOverlapPercentage,10
;   singleExtrusionMinLength,1
;   singleExtrusionMinPrintingWidthPercentage,50
;   singleExtrusionMaxPrintingWidthPercentage,200
;   singleExtrusionEndpointExtension,0.2
;   horizontalSizeCompensation,0
G90
M82
M106 S0
M140 S60
M190 S60
M104 S190 T0
M109 S190 T0
G28 X0 Y0; home XY
G1 X20 Y20
G28 Z0
G1 Z5 F5000; Lift NZ
; process Trideo BOX
; layer 1, Z = 0.270
T0
G92 E0.0000
G1 E-0.7000 F1500
; feature skirt
; tool H0.270 W0.480
G1 Z0.270 F1002
G1 X65.825 Y83.060 F4800
G1 E0.0000 F1500
G92 E0.0000
G1 X78.175 Y83.060 E0.6521 F1550
G1 X80.940 Y85.825 E0.8586
G1 X80.940 Y87.060 E0.9238
G1 X86.175 Y87.060 E1.2003
G1 X88.940 Y89.825 E1.4067
G1 X88.940 Y91.060 E1.4719
G1 X98.175 Y91.060 E1.9596
G1 X99.891 Y92.776 E2.0878
G1 X99.948 Y92.754 E2.0910
G1 X100.730 Y92.502 E2.1344
G1 X101.085 Y92.417 E2.1536
G1 X105.387 Y91.736 E2.3836
G1 X108.696 Y94.562 E2.6134
G1 X108.696 Y99.060 E2.8509
G1 X114.175 Y99.060 E3.1402
G1 X116.000 Y100.885 E3.2765
G1 X117.825 Y99.060 E3.4128
G1 X126.175 Y99.060 E3.8537
G1 X128.940 Y101.825 E4.0602
G1 X128.940 Y110.175 E4.5011
G1 X126.175 Y112.940 E4.7076
G1 X120.940 Y112.940 E4.9840
G1 X120.940 Y114.175 E5.0492
G1 X118.175 Y116.940 E5.2557
G1 X101.825 Y116.940 E6.1190
G1 X99.778 Y114.893 E6.2719
G1 X99.535 Y114.790 E6.2858
G1 X97.504 Y113.701 E6.4075
G1 X96.940 Y112.758 E6.4655
G1 X96.940 Y114.175 E6.5403
G1 X94.175 Y116.940 E6.7468
G1 X81.825 Y116.940 E7.3989
G1 X79.060 Y114.175 E7.6054
G1 X79.060 Y112.940 E7.6706
G1 X77.825 Y112.940 E7.7358
G1 X75.060 Y110.175 E7.9423
G1 X75.060 Y108.940 E8.0075
G1 X73.825 Y108.940 E8.0727
G1 X71.060 Y106.175 E8.2792
G1 X71.060 Y104.940 E8.3444
G1 X69.825 Y104.940 E8.4096
G1 X67.060 Y102.175 E8.6161
G1 X67.060 Y100.940 E8.6813
G1 X65.825 Y100.940 E8.7465
G1 X63.060 Y98.175 E8.9530
G1 X63.060 Y85.825 E9.6052
G1 X65.825 Y83.060 E9.8116
G92 E0.0000
G1 E-0.7000 F1500
G1 X66.024 Y83.540 F4800
G1 E0.0000 F1500
G92 E0.0000
G1 X77.976 Y83.540 E0.6311 F1550
G1 X80.460 Y86.024 E0.8166
G1 X80.460 Y87.540 E0.8967
G1 X85.976 Y87.540 E1.1880
G1 X88.460 Y90.024 E1.3734
G1 X88.460 Y91.540 E1.4535
G1 X97.976 Y91.540 E1.9560
G1 X99.779 Y93.343 E2.0906
G1 X99.832 Y93.317 E2.0937
G1 X100.111 Y93.205 E2.1096
G1 X100.860 Y92.964 E2.1511
G1 X101.178 Y92.888 E2.1684
G1 X105.244 Y92.245 E2.3858
G1 X108.216 Y94.784 E2.5922
G1 X108.216 Y99.540 E2.8433
G1 X113.976 Y99.540 E3.1475
G1 X116.000 Y101.564 E3.2986
G1 X118.024 Y99.540 E3.4498
G1 X125.976 Y99.540 E3.8697
G1 X128.460 Y102.024 E4.0552
G1 X128.460 Y109.976 E4.4751
G1 X125.976 Y112.460 E4.6606
G1 X120.460 Y112.460 E4.9518
G1 X120.460 Y113.976 E5.0319
G1 X117.976 Y116.460 E5.2174
G1 X102.024 Y116.460 E6.0597
G1 X100.051 Y114.487 E6.2070
G1 X99.743 Y114.356 E6.2247
G1 X97.848 Y113.340 E6.3383
G1 X96.644 Y111.329 E6.4620
G1 X96.644 Y108.066 E6.6343
G1 X96.728 Y107.474 E6.6659
G1 X96.835 Y107.105 E6.6862
G1 X96.826 Y107.047 E6.6893
G1 X96.802 Y106.705 E6.7074
G1 X96.827 Y104.460 E6.8259
G1 X94.896 Y104.460 E6.9279
G1 X96.460 Y106.024 E7.0447
G1 X96.460 Y113.976 E7.4646
G1 X93.976 Y116.460 E7.6501
G1 X82.024 Y116.460 E8.2812
G1 X79.540 Y113.976 E8.4667
G1 X79.540 Y112.460 E8.5467
G1 X78.024 Y112.460 E8.6268
G1 X75.540 Y109.976 E8.8123
G1 X75.540 Y108.460 E8.8924
G1 X74.024 Y108.460 E8.9724
G1 X71.540 Y105.976 E9.1579
G1 X71.540 Y104.460 E9.2380
G1 X70.024 Y104.460 E9.3180
G1 X67.540 Y101.976 E9.5035
G1 X67.540 Y100.460 E9.5836
G1 X66.024 Y100.460 E9.6636
G1 X63.540 Y97.976 E9.8491
G1 X63.540 Y86.024 E10.4802
G1 X66.024 Y83.540 E10.6657
G92 E0.0000
G1 E-0.7000 F1500
G1 X96.055 Y104.940 F4800
G1 E0.0000 F1500
G92 E0.0000
G1 X96.338 Y105.223 E0.0212 F1550
G1 X96.342 Y104.940 E0.0361
G1 X96.055 Y104.940 E0.0513
G92 E0.0000
G1 E-0.7000 F1500
; feature inner perimeter
G1 X101.764 Y106.530 F4800
G1 E0.0000 F1500
G92 E0.0000
G1 X101.829 Y100.691 E0.3083 F1162
G1 X101.798 Y100.143 E0.3373
G1 X101.702 Y99.583 E0.3673
G1 X101.604 Y99.247 E0.3858
G1 X101.604 Y97.971 E0.4532
G1 X101.822 Y97.865 E0.4660
G1 X102.170 Y97.753 E0.4853
G1 X103.256 Y97.581 E0.5433
G1 X103.256 Y110.133 E1.2061
G1 X102.157 Y109.959 E1.2649
G1 X101.891 Y109.874 E1.2796
G1 X101.780 Y109.799 E1.2867
G1 X101.604 Y109.712 E1.2971
G1 X101.604 Y108.467 E1.3628
G1 X101.704 Y108.122 E1.3818
G1 X101.795 Y107.592 E1.4102
G1 X101.832 Y106.974 E1.4428
G1 X101.764 Y106.530 E1.4666
; feature outer perimeter
G1 X101.284 Y106.564 F4800
G92 E0.0000
G1 X101.349 Y100.702 E0.3095 F775
G1 X101.320 Y100.197 E0.3362
G1 X101.233 Y99.691 E0.3633
G1 X101.124 Y99.315 E0.3840
G1 X101.124 Y97.671 E0.4708
G1 X101.643 Y97.419 E0.5013
G1 X102.058 Y97.285 E0.5244
G1 X103.736 Y97.019 E0.6140
G1 X103.736 Y110.695 E1.3362
G1 X102.045 Y110.427 E1.4266
G1 X101.681 Y110.310 E1.4468
G1 X101.539 Y110.216 E1.4558
G1 X101.124 Y110.009 E1.4803
G1 X101.124 Y108.399 E1.5653
G1 X101.236 Y108.014 E1.5864
G1 X101.318 Y107.537 E1.6120
G1 X101.350 Y106.996 E1.6406
G1 X101.284 Y106.564 E1.6637
; feature solid layer
G1 X102.012 Y108.800 F4800
G92 E0.0000
G1 X102.848 Y109.636 E0.0624 F1240
G1 X102.848 Y108.957 E0.0983
G1 X102.103 Y108.212 E0.1539
G1 X102.201 Y107.638 E0.1847
G1 X102.202 Y107.632 E0.1850
G1 X102.848 Y108.279 E0.2333
G1 X102.848 Y107.600 E0.2691
G1 X102.239 Y106.991 E0.3146
G1 X102.242 Y106.955 E0.3165
G1 X102.173 Y106.502 E0.3407
G1 X102.176 Y106.248 E0.3541
G1 X102.848 Y106.921 E0.4043
G1 X102.848 Y106.242 E0.4401
G1 X102.183 Y105.577 E0.4898
G1 X102.190 Y104.906 E0.5252
G1 X102.848 Y105.563 E0.5743
G1 X102.848 Y104.884 E0.6102
G1 X102.198 Y104.234 E0.6588
G1 X102.205 Y103.563 E0.6942
G1 X102.848 Y104.206 E0.7422
G1 X102.848 Y103.527 E0.7781
G1 X102.213 Y102.891 E0.8255
G1 X102.220 Y102.220 E0.8610
G1 X102.848 Y102.848 E0.9079
G1 X102.848 Y102.169 E0.9437
G1 X102.227 Y101.549 E0.9901
G1 X102.235 Y100.877 E1.0255
G1 X102.848 Y101.490 E1.0713
G1 X102.848 Y100.812 E1.1072
G1 X102.208 Y100.172 E1.1549
G1 X102.204 Y100.097 E1.1589
G1 X102.100 Y99.492 E1.1913
G1 X102.056 Y99.341 E1.1996
G1 X102.848 Y100.133 E1.2587
G1 X102.848 Y99.454 E1.2946
G1 X102.012 Y98.618 E1.3570
G1 X102.012 Y98.233 E1.3773
G1 X102.234 Y98.161 E1.3896
G1 X102.848 Y98.775 E1.4355
G1 X102.848 Y98.096 E1.4713
G1 X102.816 Y98.064 E1.4737
G92 E0.0000
G1 E-0.7000 F1500
; feature support
G1 X108.030 Y105.760 F4800
G1 E0.0000 F1500
G92 E0.0000
G1 X111.970 Y105.760 E0.2080 F1240
G1 X111.970 Y107.680 E0.3094
G1 X108.030 Y107.680 E0.5175
G1 X108.030 Y108.030 E0.5360
G1 X104.526 Y108.030 E0.7210
G1 X104.526 Y109.600 E0.8039
G1 X115.970 Y109.600 E1.4082
G1 X115.970 Y111.520 E1.5096
G1 X104.526 Y111.520 E2.1138
G92 E0.0000
G1 E-0.7000 F1500
G1 X120.030 Y107.680 F4800
G1 E0.0000 F1500
G92 E0.0000
G1 X123.970 Y107.680 E0.2080 F1240
G1 X123.970 Y105.760 E0.3094
G1 X120.030 Y105.760 E0.5175
G92 E0.0000
G1 E-0.7000 F1500
G1 X84.030 Y109.600 F4800
G1 E0.0000 F1500
G92 E0.0000
G1 X91.970 Y109.600 E0.4193 F1240
G1 X91.970 Y111.520 E0.5206
G1 X84.030 Y111.520 E0.9399
G92 E0.0000
G1 E-0.7000 F1500
G1 X80.030 Y107.680 F4800
G1 E0.0000 F1500
G92 E0.0000
G1 X83.970 Y107.680 E0.2080 F1240
G1 X83.970 Y105.760 E0.3094
G1 X80.030 Y105.760 E0.5175
G92 E0.0000
G1 E-0.7000 F1500
G1 X79.970 Y103.840 F4800
G1 E0.0000 F1500
G92 E0.0000
G1 X76.030 Y103.840 E0.2080 F1240
G1 X76.030 Y101.920 E0.3094
G1 X79.970 Y101.920 E0.5175
G1 X79.970 Y100.000 E0.6189
G1 X76.030 Y100.000 E0.8269
G1 X76.030 Y99.970 E0.8285
G1 X72.030 Y99.970 E1.0397
G1 X72.030 Y98.080 E1.1395
G1 X79.970 Y98.080 E1.5588
G1 X79.970 Y96.160 E1.6602
G1 X72.030 Y96.160 E2.0794
G1 X72.030 Y95.970 E2.0894
G1 X68.030 Y95.970 E2.3007
G1 X68.030 Y94.240 E2.3920
G1 X83.970 Y94.240 E3.2337
G1 X83.970 Y92.320 E3.3351
G1 X68.030 Y92.320 E4.1768
G1 X68.030 Y90.400 E4.2782
G1 X75.970 Y90.400 E4.6974
G1 X75.970 Y88.480 E4.7988
G1 X68.030 Y88.480 E5.2181
G92 E0.0000
G1 E-0.7000 F1500
G1 X84.030 Y96.160 F4800
G1 E0.0000 F1500
G92 E0.0000
G1 X95.970 Y96.160 E0.6305 F1240
G1 X95.970 Y96.400 E0.6431
G1 X95.871 Y96.413 E0.6484
G1 X94.366 Y96.872 E0.7315
G1 X94.013 Y97.052 E0.7524
G1 X93.667 Y97.705 E0.7915
G1 X94.149 Y98.080 E0.8237
G1 X84.030 Y98.080 E1.3580
G92 E0.0000
G1 E-0.7000 F1500
; layer 2, Z = 0.570
M106 S255
; feature inner perimeter
; tool H0.300 W0.480
G1 Z0.570 F1002
G1 X98.601 Y97.646 F4800
G1 E0.0000 F1500
G92 E0.0000
G1 X98.639 Y97.312 E0.0197 F1383
G1 X99.142 Y97.244 E0.0495
G1 X101.872 Y96.997 E0.2104
G1 X103.256 Y96.884 E0.2918
G1 X103.256 Y110.825 E1.1097
G1 X103.007 Y110.810 E1.1244
G1 X101.974 Y110.727 E1.1852
G1 X99.078 Y110.464 E1.3558
G1 X98.640 Y110.405 E1.3817
G1 X98.606 Y110.066 E1.4017
G1 X99.008 Y109.926 E1.4267
G1 X99.280 Y109.800 E1.4443
G1 X99.548 Y109.645 E1.4625
G1 X99.980 Y109.314 E1.4944
G1 X100.196 Y109.099 E1.5123
G1 X100.382 Y108.875 E1.5294
G1 X100.545 Y108.636 E1.5463
G1 X100.684 Y108.386 E1.5631
G1 X100.799 Y108.124 E1.5799
G1 X100.890 Y107.853 E1.5967
G1 X100.957 Y107.568 E1.6139
G1 X101.021 Y107.039 E1.6451
G1 X101.001 Y106.394 E1.6830
G1 X101.020 Y100.669 E2.0189
G1 X100.971 Y100.227 E2.0450
G1 X100.868 Y99.781 E2.0718
G1 X100.693 Y99.343 E2.0995
G1 X100.457 Y98.943 E2.1267
G1 X100.271 Y98.701 E2.1447
G1 X100.061 Y98.476 E2.1627
G1 X99.662 Y98.146 E2.1931
G1 X99.196 Y97.870 E2.2248
G1 X98.601 Y97.646 E2.2622
; feature outer perimeter
G1 X98.548 Y98.139 F4800
G92 E0.0000
G1 X98.091 Y98.052 E0.0273 F922
G1 X96.051 Y97.815 E0.1478
G1 X94.854 Y97.572 E0.2195
G1 X94.805 Y97.554 E0.2225
G1 X96.038 Y97.177 E0.2981
G1 X99.089 Y96.767 E0.4787
G1 X101.831 Y96.519 E0.6403
G1 X102.993 Y96.424 E0.7087
G1 X103.736 Y96.380 E0.7524
G1 X103.736 Y111.335 E1.6298
G1 X102.973 Y111.289 E1.6747
G1 X101.933 Y111.205 E1.7359
G1 X99.024 Y110.941 E1.9073
G1 X96.194 Y110.561 E2.0748
G1 X96.018 Y110.533 E2.0852
G1 X94.824 Y110.164 E2.1586
G1 X94.942 Y110.120 E2.1660
G1 X95.991 Y109.909 E2.2287
G1 X98.333 Y109.626 E2.3671
G1 X98.586 Y109.564 E2.3824
G1 X98.828 Y109.480 E2.3975
G1 X99.059 Y109.374 E2.4124
G1 X99.281 Y109.245 E2.4274
G1 X99.664 Y108.951 E2.4557
G1 X99.841 Y108.775 E2.4704
G1 X99.998 Y108.586 E2.4848
G1 X100.136 Y108.384 E2.4992
G1 X100.254 Y108.172 E2.5134
G1 X100.351 Y107.950 E2.5276
G1 X100.428 Y107.721 E2.5418
G1 X100.484 Y107.484 E2.5561
G1 X100.540 Y107.018 E2.5836
G1 X100.521 Y106.401 E2.6198
G1 X100.540 Y100.694 E2.9546
G1 X100.497 Y100.308 E2.9775
G1 X100.408 Y99.925 E3.0005
G1 X100.261 Y99.555 E3.0239
G1 X100.059 Y99.212 E3.0472
G1 X99.905 Y99.012 E3.0621
G1 X99.731 Y98.826 E3.0770
G1 X99.385 Y98.540 E3.1034
G1 X98.988 Y98.305 E3.1304
G1 X98.548 Y98.139 E3.1580
; feature gap fill
G1 X97.657 Y97.591 F4800
G92 E0.0000
G1 X97.911 Y97.337 E0.0211 F1845
G1 X97.127 Y97.443 E0.0675
G1 X97.049 Y97.520 E0.0740
G92 E0.0000
G1 E-0.7000 F1500
G1 X97.185 Y110.282 F4800
G1 E0.0000 F1500
G92 E0.0000
G1 X97.306 Y110.161 E0.0101 F1845
G1 X98.078 Y110.068 E0.0557
G1 X97.783 Y110.363 E0.0802
; feature solid layer
G1 X102.535 Y110.363 F4800
