; G-Code generated by Simplify3D(R) Version 4.1.1
; Apr 27, 2021 at 8:45:02 AM
; Settings Summary
;   processName,Trideo BOX
;   applyToModels,Left Thumb
;   profileName,Trideo BOX
;   profileVersion,2021-04-15 09:48:16
;   baseProfile,Default
;   printMaterial,PLA
;   printQuality,Fast
;   printExtruders,
;   extruderName,Primary Extruder
;   extruderToolheadNumber,0
;   extruderDiameter,0.4
;   extruderAutoWidth,1
;   extruderWidth,0.48
;   extrusionMultiplier,0.98
;   extruderUseRetract,1
;   extruderRetractionDistance,0.7
;   extruderExtraRestartDistance,0
;   extruderRetractionZLift,0
;   extruderRetractionSpeed,1500
;   extruderUseCoasting,0
;   extruderCoastingDistance,0.2
;   extruderUseWipe,0
;   extruderWipeDistance,5
;   primaryExtruder,0
;   layerHeight,0.3
;   topSolidLayers,3
;   bottomSolidLayers,3
;   perimeterOutlines,2
;   printPerimetersInsideOut,1
;   startPointOption,2
;   startPointOriginX,0
;   startPointOriginY,0
;   sequentialIslands,0
;   spiralVaseMode,0
;   firstLayerHeightPercentage,90
;   firstLayerWidthPercentage,100
;   firstLayerUnderspeed,0.5
;   useRaft,0
;   raftExtruder,0
;   raftTopLayers,3
;   raftBaseLayers,2
;   raftOffset,3
;   raftSeparationDistance,0.14
;   raftTopInfill,100
;   aboveRaftSpeedMultiplier,0.3
;   useSkirt,1
;   skirtExtruder,0
;   skirtLayers,1
;   skirtOutlines,2
;   skirtOffset,4
;   usePrimePillar,0
;   primePillarExtruder,999
;   primePillarWidth,12
;   primePillarLocation,7
;   primePillarSpeedMultiplier,1
;   useOozeShield,0
;   oozeShieldExtruder,999
;   oozeShieldOffset,2
;   oozeShieldOutlines,1
;   oozeShieldSidewallShape,1
;   oozeShieldSidewallAngle,30
;   oozeShieldSpeedMultiplier,1
;   infillExtruder,0
;   internalInfillPattern,Rectilinear
;   externalInfillPattern,Rectilinear
;   infillPercentage,15
;   outlineOverlapPercentage,15
;   infillExtrusionWidthPercentage,100
;   minInfillLength,5
;   infillLayerInterval,1
;   internalInfillAngles,45,-45
;   overlapInternalInfillAngles,0
;   externalInfillAngles,45,-45
;   generateSupport,1
;   supportExtruder,0
;   supportInfillPercentage,25
;   supportExtraInflation,0
;   supportBaseLayers,0
;   denseSupportExtruder,0
;   denseSupportLayers,0
;   denseSupportInfillPercentage,70
;   supportLayerInterval,1
;   supportHorizontalPartOffset,0.3
;   supportUpperSeparationLayers,1
;   supportLowerSeparationLayers,1
;   supportType,0
;   supportGridSpacing,4
;   maxOverhangAngle,45
;   supportAngles,0
;   temperatureName,Primary Extruder,Heated bed
;   temperatureNumber,0,0
;   temperatureSetpointCount,1,1
;   temperatureSetpointLayers,1,1
;   temperatureSetpointTemperatures,190,60
;   temperatureStabilizeAtStartup,1,1
;   temperatureHeatedBed,0,1
;   fanLayers,1,2
;   fanSpeeds,0,100
;   blipFanToFullPower,0
;   adjustSpeedForCooling,1
;   minSpeedLayerTime,15
;   minCoolingSpeedSlowdown,20
;   increaseFanForCooling,0
;   minFanLayerTime,45
;   maxCoolingFanSpeed,100
;   increaseFanForBridging,0
;   bridgingFanSpeed,100
;   use5D,1
;   relativeEdistances,0
;   allowEaxisZeroing,1
;   independentExtruderAxes,0
;   includeM10123,0
;   stickySupport,1
;   applyToolheadOffsets,0
;   gcodeXoffset,0
;   gcodeYoffset,0
;   gcodeZoffset,0
;   overrideMachineDefinition,1
;   machineTypeOverride,0
;   strokeXoverride,200
;   strokeYoverride,200
;   strokeZoverride,200
;   originOffsetXoverride,0
;   originOffsetYoverride,0
;   originOffsetZoverride,0
;   homeXdirOverride,-1
;   homeYdirOverride,-1
;   homeZdirOverride,-1
;   flipXoverride,1
;   flipYoverride,-1
;   flipZoverride,1
;   toolheadOffsets,0,0|0,0|0,0|0,0|0,0|0,0
;   overrideFirmwareConfiguration,0
;   firmwareTypeOverride,RepRap (Marlin/Repetier/Sprinter)
;   GPXconfigOverride,r2
;   baudRateOverride,115200
;   overridePrinterModels,0
;   printerModelsOverride
;   startingGcode,G28 X0 Y0; home XY,G1 X20 Y20,G28 Z0,G1 Z5 F5000; Lift NZ
;   layerChangeGcode,
;   retractionGcode,
;   toolChangeGcode,
;   endingGcode,M104 S0 ; turn off extruder,G28 X0 ; home x,M140 S0 ; turn off bed,M84 ; disable motors,M107 ;
;   exportFileFormat,gcode
;   celebration,0
;   celebrationSong,Looney Toons
;   postProcessing,
;   defaultSpeed,3600
;   outlineUnderspeed,0.5
;   solidInfillUnderspeed,0.8
;   supportUnderspeed,0.8
;   rapidXYspeed,4800
;   rapidZspeed,1002
;   minBridgingArea,50
;   bridgingExtraInflation,0
;   bridgingExtrusionMultiplier,1
;   bridgingSpeedMultiplier,1
;   useFixedBridgingAngle,0
;   fixedBridgingAngle,0
;   applyBridgingToPerimeters,0
;   filamentDiameters,1.75|1.75|1.75|1.75|1.75|1.75
;   filamentPricesPerKg,46|46|46|46|46|46
;   filamentDensities,1.25|1.25|1.25|1.25|1.25|1.25
;   useMinPrintHeight,0
;   minPrintHeight,0
;   useMaxPrintHeight,0
;   maxPrintHeight,0
;   useDiaphragm,0
;   diaphragmLayerInterval,20
;   robustSlicing,1
;   mergeAllIntoSolid,0
;   onlyRetractWhenCrossingOutline,1
;   retractBetweenLayers,1
;   useRetractionMinTravel,0
;   retractionMinTravel,3
;   retractWhileWiping,0
;   onlyWipeOutlines,1
;   avoidCrossingOutline,0
;   maxMovementDetourFactor,3
;   toolChangeRetractionDistance,12
;   toolChangeExtraRestartDistance,-0.5
;   toolChangeRetractionSpeed,600
;   externalThinWallType,0
;   internalThinWallType,2
;   thinWallAllowedOverlapPercentage,10
;   singleExtrusionMinLength,1
;   singleExtrusionMinPrintingWidthPercentage,50
;   singleExtrusionMaxPrintingWidthPercentage,200
;   singleExtrusionEndpointExtension,0.2
;   horizontalSizeCompensation,0
G90
M82
M106 S0
M140 S60
M190 S60
M104 S190 T0
M109 S190 T0
G28 X0 Y0; home XY
G1 X20 Y20
G28 Z0
G1 Z5 F5000; Lift NZ
; process Trideo BOX
; layer 1, Z = 0.270
T0
G92 E0.0000
G1 E-0.7000 F1500
; feature skirt
; tool H0.270 W0.480
G1 Z0.270 F1002
G1 X55.825 Y79.060 F4800
G1 E0.0000 F1500
G92 E0.0000
G1 X68.175 Y79.060 E0.6521 F1800
G1 X70.940 Y81.825 E0.8586
G1 X70.940 Y83.060 E0.9238
G1 X76.175 Y83.060 E1.2003
G1 X78.940 Y85.825 E1.4067
G1 X78.940 Y87.060 E1.4719
G1 X84.175 Y87.060 E1.7484
G1 X86.940 Y89.825 E1.9549
G1 X86.940 Y91.060 E2.0201
G1 X100.175 Y91.060 E2.7189
G1 X101.108 Y91.993 E2.7886
G1 X101.316 Y91.892 E2.8008
G1 X101.626 Y91.767 E2.8185
G1 X102.343 Y91.537 E2.8582
G1 X102.697 Y91.452 E2.8775
G1 X106.712 Y90.817 E3.0921
G1 X110.021 Y93.643 E3.3219
G1 X110.021 Y100.864 E3.7032
G1 X111.825 Y99.060 E3.8379
G1 X120.175 Y99.060 E4.2788
G1 X122.940 Y101.825 E4.4853
G1 X122.940 Y103.060 E4.5505
G1 X132.175 Y103.060 E5.0381
G1 X134.940 Y105.825 E5.2446
G1 X134.940 Y114.175 E5.6855
G1 X132.175 Y116.940 E5.8920
G1 X122.940 Y116.940 E6.3796
G1 X122.940 Y118.175 E6.4449
G1 X120.175 Y120.940 E6.6513
G1 X103.825 Y120.940 E7.5147
G1 X101.248 Y118.363 E7.7071
G1 X98.940 Y117.163 E7.8445
G1 X98.940 Y118.175 E7.8979
G1 X96.175 Y120.940 E8.1044
G1 X79.825 Y120.940 E8.9677
G1 X77.060 Y118.175 E9.1742
G1 X77.060 Y116.940 E9.2394
G1 X75.825 Y116.940 E9.3046
G1 X73.060 Y114.175 E9.5111
G1 X73.060 Y112.940 E9.5763
G1 X71.825 Y112.940 E9.6415
G1 X69.060 Y110.175 E9.8480
G1 X69.060 Y108.940 E9.9132
G1 X67.825 Y108.940 E9.9784
G1 X65.060 Y106.175 E10.1849
G1 X65.060 Y104.940 E10.2501
G1 X63.825 Y104.940 E10.3154
G1 X61.060 Y102.175 E10.5218
G1 X61.060 Y100.940 E10.5870
G1 X59.825 Y100.940 E10.6523
G1 X57.060 Y98.175 E10.8587
G1 X57.060 Y96.940 E10.9239
G1 X55.825 Y96.940 E10.9892
G1 X53.060 Y94.175 E11.1956
G1 X53.060 Y81.825 E11.8478
G1 X55.825 Y79.060 E12.0542
G92 E0.0000
G1 E-0.7000 F1500
G1 X56.024 Y79.540 F4800
G1 E0.0000 F1500
G92 E0.0000
G1 X67.976 Y79.540 E0.6311 F1800
G1 X70.460 Y82.024 E0.8166
G1 X70.460 Y83.540 E0.8967
G1 X75.976 Y83.540 E1.1880
G1 X78.460 Y86.024 E1.3734
G1 X78.460 Y87.540 E1.4535
G1 X83.976 Y87.540 E1.7448
G1 X86.460 Y90.024 E1.9303
G1 X86.460 Y91.540 E2.0103
G1 X99.976 Y91.540 E2.7240
G1 X101.011 Y92.575 E2.8013
G1 X101.511 Y92.331 E2.8306
G1 X101.789 Y92.219 E2.8465
G1 X102.472 Y91.999 E2.8844
G1 X102.791 Y91.923 E2.9017
G1 X106.569 Y91.325 E3.1037
G1 X109.541 Y93.864 E3.3101
G1 X109.541 Y102.022 E3.7409
G1 X112.024 Y99.540 E3.9262
G1 X119.976 Y99.540 E4.3462
G1 X122.460 Y102.024 E4.5316
G1 X122.460 Y103.540 E4.6117
G1 X131.976 Y103.540 E5.1142
G1 X134.460 Y106.024 E5.2997
G1 X134.460 Y113.976 E5.7196
G1 X131.976 Y116.460 E5.9051
G1 X122.460 Y116.460 E6.4076
G1 X122.460 Y117.976 E6.4876
G1 X119.976 Y120.460 E6.6731
G1 X104.024 Y120.460 E7.5155
G1 X101.540 Y117.976 E7.7009
G1 X101.540 Y117.965 E7.7015
G1 X101.454 Y117.929 E7.7064
G1 X99.201 Y116.758 E7.8405
G1 X99.020 Y116.460 E7.8589
G1 X98.460 Y116.460 E7.8885
G1 X98.460 Y117.976 E7.9686
G1 X95.976 Y120.460 E8.1540
G1 X80.024 Y120.460 E8.9964
G1 X77.540 Y117.976 E9.1819
G1 X77.540 Y116.460 E9.2619
G1 X76.024 Y116.460 E9.3420
G1 X73.540 Y113.976 E9.5275
G1 X73.540 Y112.460 E9.6075
G1 X72.024 Y112.460 E9.6876
G1 X69.540 Y109.976 E9.8731
G1 X69.540 Y108.460 E9.9531
G1 X68.024 Y108.460 E10.0332
G1 X65.540 Y105.976 E10.2187
G1 X65.540 Y104.460 E10.2987
G1 X64.024 Y104.460 E10.3788
G1 X61.540 Y101.976 E10.5643
G1 X61.540 Y100.460 E10.6444
G1 X60.024 Y100.460 E10.7244
G1 X57.540 Y97.976 E10.9099
G1 X57.540 Y96.460 E10.9900
G1 X56.024 Y96.460 E11.0700
G1 X53.540 Y93.976 E11.2555
G1 X53.540 Y82.024 E11.8866
G1 X56.024 Y79.540 E12.0721
G92 E0.0000
G1 E-0.7000 F1500
G1 X121.060 Y89.825 F4800
G1 E0.0000 F1500
G92 E0.0000
G1 X123.825 Y87.060 E0.2065 F1800
G1 X132.175 Y87.060 E0.6474
G1 X134.940 Y89.825 E0.8539
G1 X134.940 Y98.175 E1.2948
G1 X132.175 Y100.940 E1.5013
G1 X123.825 Y100.940 E1.9422
G1 X121.060 Y98.175 E2.1487
G1 X121.060 Y89.825 E2.5896
G92 E0.0000
G1 E-0.7000 F1500
G1 X121.540 Y90.024 F4800
G1 E0.0000 F1500
G92 E0.0000
G1 X124.024 Y87.540 E0.1855 F1800
G1 X131.976 Y87.540 E0.6054
G1 X134.460 Y90.024 E0.7909
G1 X134.460 Y97.976 E1.2108
G1 X131.976 Y100.460 E1.3963
G1 X124.024 Y100.460 E1.8162
G1 X121.540 Y97.976 E2.0017
G1 X121.540 Y90.024 E2.4216
G92 E0.0000
G1 E-0.7000 F1500
; feature inner perimeter
G1 X104.581 Y96.662 F4800
G1 E0.0000 F1500
G92 E0.0000
G1 X104.581 Y113.624 E0.8957 F1350
G1 X103.772 Y113.496 E0.9390
G1 X103.566 Y113.430 E0.9504
G1 X103.478 Y113.371 E0.9560
G1 X102.929 Y113.098 E0.9883
G1 X102.929 Y97.157 E1.8301
G1 X103.500 Y96.879 E1.8636
G1 X103.783 Y96.788 E1.8793
G1 X104.581 Y96.662 E1.9219
; feature outer perimeter
G1 X105.061 Y96.100 F4800
G92 E0.0000
G1 X105.061 Y114.186 E0.9550 F900
G1 X103.660 Y113.964 E1.0300
G1 X103.356 Y113.866 E1.0468
G1 X103.237 Y113.787 E1.0544
G1 X102.449 Y113.395 E1.1008
G1 X102.449 Y96.857 E1.9741
G1 X103.321 Y96.433 E2.0253
G1 X103.671 Y96.320 E2.0447
G1 X105.061 Y96.100 E2.1190
; feature solid layer
G1 X103.961 Y97.173 F4800
G92 E0.0000
G1 X104.173 Y97.385 E0.0158 F1440
G1 X104.173 Y98.064 E0.0517
G1 X103.461 Y97.352 E0.1049
G1 X103.337 Y97.412 E0.1121
G1 X103.337 Y97.907 E0.1383
G1 X104.173 Y98.743 E0.2007
G1 X104.173 Y99.422 E0.2365
G1 X103.337 Y98.586 E0.2990
G1 X103.337 Y99.264 E0.3348
G1 X104.173 Y100.100 E0.3972
G1 X104.173 Y100.779 E0.4331
G1 X103.337 Y99.943 E0.4955
G1 X103.337 Y100.622 E0.5313
G1 X104.173 Y101.458 E0.5938
G1 X104.173 Y102.137 E0.6296
G1 X103.337 Y101.301 E0.6920
G1 X103.337 Y101.980 E0.7279
G1 X104.173 Y102.816 E0.7903
G1 X104.173 Y103.495 E0.8261
G1 X103.337 Y102.659 E0.8886
G1 X103.337 Y103.337 E0.9244
G1 X104.173 Y104.173 E0.9868
G1 X104.173 Y104.852 E1.0227
G1 X103.337 Y104.016 E1.0851
G1 X103.337 Y104.695 E1.1210
G1 X104.173 Y105.531 E1.1834
G1 X104.173 Y106.210 E1.2192
G1 X103.337 Y105.374 E1.2817
G1 X103.337 Y106.053 E1.3175
G1 X104.173 Y106.889 E1.3799
G1 X104.173 Y107.567 E1.4158
G1 X103.337 Y106.731 E1.4782
G1 X103.337 Y107.410 E1.5141
G1 X104.173 Y108.246 E1.5765
G1 X104.173 Y108.925 E1.6123
G1 X103.337 Y108.089 E1.6748
G1 X103.337 Y108.768 E1.7106
G1 X104.173 Y109.604 E1.7730
G1 X104.173 Y110.283 E1.8089
G1 X103.337 Y109.447 E1.8713
G1 X103.337 Y110.126 E1.9071
G1 X104.173 Y110.962 E1.9696
G1 X104.173 Y111.640 E2.0054
G1 X103.337 Y110.804 E2.0678
G1 X103.337 Y111.483 E2.1037
G1 X104.173 Y112.319 E2.1661
G1 X104.173 Y112.998 E2.2020
G1 X103.337 Y112.162 E2.2644
G1 X103.337 Y112.841 E2.3002
G1 X103.346 Y112.849 E2.3009
G92 E0.0000
G1 E-0.7000 F1500
; feature support
G1 X106.030 Y113.440 F4800
G1 E0.0000 F1500
G92 E0.0000
G1 X117.970 Y113.440 E0.6305 F1440
G1 X117.970 Y115.360 E0.7319
G1 X106.030 Y115.360 E1.3623
G92 E0.0000
G1 E-0.7000 F1500
G1 X98.030 Y111.520 F4800
G1 E0.0000 F1500
G92 E0.0000
G1 X99.144 Y111.520 E0.0588 F1440
G1 X99.337 Y111.322 E0.0734
G1 X99.508 Y111.108 E0.0879
G1 X99.659 Y110.880 E0.1023
G1 X99.788 Y110.641 E0.1167
G1 X99.895 Y110.392 E0.1310
G1 X99.978 Y110.136 E0.1452
G1 X100.038 Y109.876 E0.1593
G1 X100.072 Y109.622 E0.1728
G1 X100.072 Y109.600 E0.1740
G1 X98.030 Y109.600 E0.2818
G92 E0.0000
G1 E-0.7000 F1500
G1 X114.030 Y107.680 F4800
G1 E0.0000 F1500
G92 E0.0000
G1 X117.970 Y107.680 E0.2080 F1440
G1 X117.970 Y105.760 E0.3094
G1 X114.030 Y105.760 E0.5175
G92 E0.0000
G1 E-0.7000 F1500
G1 X122.030 Y109.600 F4800
G1 E0.0000 F1500
G92 E0.0000
G1 X129.970 Y109.600 E0.4193 F1440
G1 X129.970 Y111.520 E0.5206
G1 X122.030 Y111.520 E0.9399
G92 E0.0000
G1 E-0.7000 F1500
G1 X126.030 Y94.240 F4800
G1 E0.0000 F1500
G92 E0.0000
G1 X129.970 Y94.240 E0.2080 F1440
G1 X129.970 Y92.320 E0.3094
G1 X126.030 Y92.320 E0.5175
G92 E0.0000
G1 E-0.7000 F1500
G1 X78.030 Y96.160 F4800
G1 E0.0000 F1500
G92 E0.0000
G1 X95.413 Y96.160 E0.9179 F1440
G1 X95.368 Y96.182 E0.9206
G1 X94.992 Y96.891 E0.9630
G1 X95.518 Y97.299 E0.9981
G1 X96.851 Y97.784 E1.0730
G1 X97.305 Y97.851 E1.0972
G1 X97.595 Y97.911 E1.1128
G1 X97.866 Y97.988 E1.1278
G1 X97.970 Y98.028 E1.1336
G1 X97.970 Y98.080 E1.1364
G1 X78.030 Y98.080 E2.1893
G92 E0.0000
G1 E-0.7000 F1500
G1 X73.970 Y103.840 F4800
G1 E0.0000 F1500
G92 E0.0000
G1 X70.030 Y103.840 E0.2080 F1440
G1 X70.030 Y101.920 E0.3094
G1 X73.970 Y101.920 E0.5175
G1 X73.970 Y100.000 E0.6189
G1 X70.030 Y100.000 E0.8269
G1 X70.030 Y99.970 E0.8285
G1 X66.030 Y99.970 E1.0397
G1 X66.030 Y98.080 E1.1395
G1 X73.970 Y98.080 E1.5588
G1 X73.970 Y96.160 E1.6602
G1 X66.030 Y96.160 E2.0794
G1 X66.030 Y95.970 E2.0894
G1 X62.030 Y95.970 E2.3007
G1 X62.030 Y94.240 E2.3920
G1 X81.970 Y94.240 E3.4449
G1 X81.970 Y92.320 E3.5463
G1 X62.030 Y92.320 E4.5992
G1 X62.030 Y91.970 E4.6177
G1 X58.030 Y91.970 E4.8289
G1 X58.030 Y90.400 E4.9118
G1 X73.970 Y90.400 E5.7535
G1 X73.970 Y88.480 E5.8549
G1 X58.030 Y88.480 E6.6966
G1 X58.030 Y86.560 E6.7980
G1 X65.970 Y86.560 E7.2172
G1 X65.970 Y84.640 E7.3186
G1 X58.030 Y84.640 E7.7379
G92 E0.0000
G1 E-0.7000 F1500
G1 X74.030 Y105.760 F4800
G1 E0.0000 F1500
G92 E0.0000
G1 X77.970 Y105.760 E0.2080 F1440
G1 X77.970 Y107.680 E0.3094
G1 X74.030 Y107.680 E0.5175
G92 E0.0000
G1 E-0.7000 F1500
G1 X78.030 Y109.600 F4800
G1 E0.0000 F1500
G92 E0.0000
G1 X81.970 Y109.600 E0.2080 F1440
G1 X81.970 Y111.520 E0.3094
G1 X78.030 Y111.520 E0.5175
G92 E0.0000
G1 E-0.7000 F1500
G1 X82.030 Y113.440 F4800
G1 E0.0000 F1500
G92 E0.0000
G1 X93.970 Y113.440 E0.6305 F1440
G1 X93.970 Y115.360 E0.7319
G1 X82.030 Y115.360 E1.3623
G92 E0.0000
G1 E-0.7000 F1500
; layer 2, Z = 0.570
M106 S255
; feature inner perimeter
; tool H0.300 W0.480
G1 Z0.570 F1002
G1 X98.507 Y113.402 F4800
G1 E0.0000 F1500
G92 E0.0000
G1 X98.709 Y113.321 E0.0127 F2085
G1 X99.072 Y113.135 E0.0367
G1 X99.410 Y112.920 E0.0602
G1 X99.716 Y112.689 E0.0827
G1 X100.008 Y112.439 E0.1053
G1 X100.282 Y112.156 E0.1283
G1 X100.527 Y111.851 E0.1513
G1 X100.741 Y111.528 E0.1740
G1 X100.924 Y111.189 E0.1966
G1 X101.075 Y110.837 E0.2191
G1 X101.194 Y110.473 E0.2415
G1 X101.279 Y110.101 E0.2640
G1 X101.332 Y109.707 E0.2873
G1 X101.341 Y100.921 E0.8028
G1 X101.302 Y100.322 E0.8380
G1 X101.163 Y99.705 E0.8751
G1 X100.935 Y99.116 E0.9122
G1 X100.624 Y98.572 E0.9489
G1 X100.381 Y98.246 E0.9728
G1 X100.115 Y97.951 E0.9961
G1 X99.849 Y97.705 E1.0173
G1 X99.574 Y97.487 E1.0380
G1 X99.282 Y97.279 E1.0590
G1 X98.960 Y97.090 E1.0809
G1 X98.500 Y96.869 E1.1108
G1 X98.546 Y96.555 E1.1294
G1 X99.065 Y96.473 E1.1602
G1 X101.506 Y96.144 E1.3048
G1 X104.581 Y95.866 E1.4859
G1 X104.581 Y114.420 E2.5745
G1 X101.456 Y114.136 E2.7587
G1 X99.241 Y113.839 E2.8898
G1 X98.544 Y113.729 E2.9312
G1 X98.507 Y113.402 E2.9505
; feature outer perimeter
