; G-Code generated by Simplify3D(R) Version 4.1.1
; Apr 27, 2021 at 8:44:23 AM
; Settings Summary
;   processName,Trideo BOX
;   applyToModels,Left Thumb
;   profileName,Trideo BOX
;   profileVersion,2021-04-15 09:48:16
;   baseProfile,Default
;   printMaterial,PLA
;   printQuality,Fast
;   printExtruders,
;   extruderName,Primary Extruder
;   extruderToolheadNumber,0
;   extruderDiameter,0.4
;   extruderAutoWidth,1
;   extruderWidth,0.48
;   extrusionMultiplier,0.98
;   extruderUseRetract,1
;   extruderRetractionDistance,0.7
;   extruderExtraRestartDistance,0
;   extruderRetractionZLift,0
;   extruderRetractionSpeed,1500
;   extruderUseCoasting,0
;   extruderCoastingDistance,0.2
;   extruderUseWipe,0
;   extruderWipeDistance,5
;   primaryExtruder,0
;   layerHeight,0.3
;   topSolidLayers,3
;   bottomSolidLayers,3
;   perimeterOutlines,2
;   printPerimetersInsideOut,1
;   startPointOption,2
;   startPointOriginX,0
;   startPointOriginY,0
;   sequentialIslands,0
;   spiralVaseMode,0
;   firstLayerHeightPercentage,90
;   firstLayerWidthPercentage,100
;   firstLayerUnderspeed,0.5
;   useRaft,0
;   raftExtruder,0
;   raftTopLayers,3
;   raftBaseLayers,2
;   raftOffset,3
;   raftSeparationDistance,0.14
;   raftTopInfill,100
;   aboveRaftSpeedMultiplier,0.3
;   useSkirt,1
;   skirtExtruder,0
;   skirtLayers,1
;   skirtOutlines,2
;   skirtOffset,4
;   usePrimePillar,0
;   primePillarExtruder,999
;   primePillarWidth,12
;   primePillarLocation,7
;   primePillarSpeedMultiplier,1
;   useOozeShield,0
;   oozeShieldExtruder,999
;   oozeShieldOffset,2
;   oozeShieldOutlines,1
;   oozeShieldSidewallShape,1
;   oozeShieldSidewallAngle,30
;   oozeShieldSpeedMultiplier,1
;   infillExtruder,0
;   internalInfillPattern,Rectilinear
;   externalInfillPattern,Rectilinear
;   infillPercentage,15
;   outlineOverlapPercentage,15
;   infillExtrusionWidthPercentage,100
;   minInfillLength,5
;   infillLayerInterval,1
;   internalInfillAngles,45,-45
;   overlapInternalInfillAngles,0
;   externalInfillAngles,45,-45
;   generateSupport,1
;   supportExtruder,0
;   supportInfillPercentage,25
;   supportExtraInflation,0
;   supportBaseLayers,0
;   denseSupportExtruder,0
;   denseSupportLayers,0
;   denseSupportInfillPercentage,70
;   supportLayerInterval,1
;   supportHorizontalPartOffset,0.3
;   supportUpperSeparationLayers,1
;   supportLowerSeparationLayers,1
;   supportType,0
;   supportGridSpacing,4
;   maxOverhangAngle,45
;   supportAngles,0
;   temperatureName,Primary Extruder,Heated bed
;   temperatureNumber,0,0
;   temperatureSetpointCount,1,1
;   temperatureSetpointLayers,1,1
;   temperatureSetpointTemperatures,190,60
;   temperatureStabilizeAtStartup,1,1
;   temperatureHeatedBed,0,1
;   fanLayers,1,2
;   fanSpeeds,0,100
;   blipFanToFullPower,0
;   adjustSpeedForCooling,1
;   minSpeedLayerTime,15
;   minCoolingSpeedSlowdown,20
;   increaseFanForCooling,0
;   minFanLayerTime,45
;   maxCoolingFanSpeed,100
;   increaseFanForBridging,0
;   bridgingFanSpeed,100
;   use5D,1
;   relativeEdistances,0
;   allowEaxisZeroing,1
;   independentExtruderAxes,0
;   includeM10123,0
;   stickySupport,1
;   applyToolheadOffsets,0
;   gcodeXoffset,0
;   gcodeYoffset,0
;   gcodeZoffset,0
;   overrideMachineDefinition,1
;   machineTypeOverride,0
;   strokeXoverride,200
;   strokeYoverride,200
;   strokeZoverride,200
;   originOffsetXoverride,0
;   originOffsetYoverride,0
;   originOffsetZoverride,0
;   homeXdirOverride,-1
;   homeYdirOverride,-1
;   homeZdirOverride,-1
;   flipXoverride,1
;   flipYoverride,-1
;   flipZoverride,1
;   toolheadOffsets,0,0|0,0|0,0|0,0|0,0|0,0
;   overrideFirmwareConfiguration,0
;   firmwareTypeOverride,RepRap (Marlin/Repetier/Sprinter)
;   GPXconfigOverride,r2
;   baudRateOverride,115200
;   overridePrinterModels,0
;   printerModelsOverride
;   startingGcode,G28 X0 Y0; home XY,G1 X20 Y20,G28 Z0,G1 Z5 F5000; Lift NZ
;   layerChangeGcode,
;   retractionGcode,
;   toolChangeGcode,
;   endingGcode,M104 S0 ; turn off extruder,G28 X0 ; home x,M140 S0 ; turn off bed,M84 ; disable motors,M107 ;
;   exportFileFormat,gcode
;   celebration,0
;   celebrationSong,Looney Toons
;   postProcessing,
;   defaultSpeed,3600
;   outlineUnderspeed,0.5
;   solidInfillUnderspeed,0.8
;   supportUnderspeed,0.8
;   rapidXYspeed,4800
;   rapidZspeed,1002
;   minBridgingArea,50
;   bridgingExtraInflation,0
;   bridgingExtrusionMultiplier,1
;   bridgingSpeedMultiplier,1
;   useFixedBridgingAngle,0
;   fixedBridgingAngle,0
;   applyBridgingToPerimeters,0
;   filamentDiameters,1.75|1.75|1.75|1.75|1.75|1.75
;   filamentPricesPerKg,46|46|46|46|46|46
;   filamentDensities,1.25|1.25|1.25|1.25|1.25|1.25
;   useMinPrintHeight,0
;   minPrintHeight,0
;   useMaxPrintHeight,0
;   maxPrintHeight,0
;   useDiaphragm,0
;   diaphragmLayerInterval,20
;   robustSlicing,1
;   mergeAllIntoSolid,0
;   onlyRetractWhenCrossingOutline,1
;   retractBetweenLayers,1
;   useRetractionMinTravel,0
;   retractionMinTravel,3
;   retractWhileWiping,0
;   onlyWipeOutlines,1
;   avoidCrossingOutline,0
;   maxMovementDetourFactor,3
;   toolChangeRetractionDistance,12
;   toolChangeExtraRestartDistance,-0.5
;   toolChangeRetractionSpeed,600
;   externalThinWallType,0
;   internalThinWallType,2
;   thinWallAllowedOverlapPercentage,10
;   singleExtrusionMinLength,1
;   singleExtrusionMinPrintingWidthPercentage,50
;   singleExtrusionMaxPrintingWidthPercentage,200
;   singleExtrusionEndpointExtension,0.2
;   horizontalSizeCompensation,0
G90
M82
M106 S0
M140 S60
M190 S60
M104 S190 T0
M109 S190 T0
G28 X0 Y0; home XY
G1 X20 Y20
G28 Z0
G1 Z5 F5000; Lift NZ
; process Trideo BOX
; layer 1, Z = 0.270
T0
G92 E0.0000
G1 E-0.7000 F1500
; feature skirt
; tool H0.270 W0.480
G1 Z0.270 F1002
G1 X59.825 Y81.060 F4800
G1 E0.0000 F1500
G92 E0.0000
G1 X72.175 Y81.060 E0.6521 F1800
G1 X74.940 Y83.825 E0.8586
G1 X74.940 Y85.060 E0.9238
G1 X80.175 Y85.060 E1.2003
G1 X82.940 Y87.825 E1.4067
G1 X82.940 Y89.060 E1.4719
G1 X100.175 Y89.060 E2.3820
G1 X102.789 Y91.674 E2.5772
G1 X106.271 Y91.123 E2.7634
G1 X109.580 Y93.949 E2.9931
G1 X109.580 Y105.060 E3.5798
G1 X121.060 Y105.060 E4.1860
G1 X121.060 Y103.825 E4.2513
G1 X121.945 Y102.940 E4.3173
G1 X119.825 Y102.940 E4.4293
G1 X117.060 Y100.175 E4.6358
G1 X117.060 Y91.825 E5.0767
G1 X119.825 Y89.060 E5.2831
G1 X128.175 Y89.060 E5.7241
G1 X130.940 Y91.825 E5.9305
G1 X130.940 Y100.175 E6.3715
G1 X130.055 Y101.060 E6.4375
G1 X132.175 Y101.060 E6.5495
G1 X134.940 Y103.825 E6.7560
G1 X134.940 Y112.175 E7.1969
G1 X132.175 Y114.940 E7.4034
G1 X126.940 Y114.940 E7.6798
G1 X126.940 Y116.175 E7.7450
G1 X124.175 Y118.940 E7.9515
G1 X103.825 Y118.940 E9.0260
G1 X102.611 Y117.726 E9.1167
G1 X102.148 Y117.653 E9.1415
G1 X101.796 Y117.569 E9.1606
G1 X101.057 Y117.331 E9.2015
G1 X100.682 Y117.175 E9.2230
G1 X98.883 Y116.232 E9.3302
G1 X96.175 Y118.940 E9.5325
G1 X79.825 Y118.940 E10.3958
G1 X77.060 Y116.175 E10.6023
G1 X77.060 Y114.940 E10.6675
G1 X75.825 Y114.940 E10.7327
G1 X73.060 Y112.175 E10.9392
G1 X73.060 Y110.940 E11.0044
G1 X71.825 Y110.940 E11.0696
G1 X69.060 Y108.175 E11.2761
G1 X69.060 Y106.940 E11.3413
G1 X67.825 Y106.940 E11.4065
G1 X65.060 Y104.175 E11.6130
G1 X65.060 Y102.940 E11.6782
G1 X63.825 Y102.940 E11.7434
G1 X61.060 Y100.175 E11.9499
G1 X61.060 Y98.940 E12.0151
G1 X59.825 Y98.940 E12.0804
G1 X57.060 Y96.175 E12.2868
G1 X57.060 Y83.825 E12.9390
G1 X59.825 Y81.060 E13.1454
G92 E0.0000
G1 E-0.7000 F1500
G1 X60.024 Y81.540 F4800
G1 E0.0000 F1500
G92 E0.0000
G1 X71.976 Y81.540 E0.6311 F1800
G1 X74.460 Y84.024 E0.8166
G1 X74.460 Y85.540 E0.8967
G1 X79.976 Y85.540 E1.1880
G1 X82.460 Y88.024 E1.3734
G1 X82.460 Y89.540 E1.4535
G1 X99.976 Y89.540 E2.3784
G1 X102.460 Y92.024 E2.5639
G1 X102.460 Y92.212 E2.5739
G1 X106.127 Y91.632 E2.7699
G1 X109.100 Y94.171 E2.9763
G1 X109.100 Y105.540 E3.5767
G1 X121.540 Y105.540 E4.2336
G1 X121.540 Y104.024 E4.3136
G1 X123.104 Y102.460 E4.4304
G1 X120.024 Y102.460 E4.5930
G1 X117.540 Y99.976 E4.7785
G1 X117.540 Y92.024 E5.1984
G1 X120.024 Y89.540 E5.3839
G1 X127.976 Y89.540 E5.8038
G1 X130.460 Y92.024 E5.9893
G1 X130.460 Y99.976 E6.4092
G1 X128.896 Y101.540 E6.5260
G1 X131.976 Y101.540 E6.6887
G1 X134.460 Y104.024 E6.8741
G1 X134.460 Y111.976 E7.2940
G1 X131.976 Y114.460 E7.4795
G1 X126.460 Y114.460 E7.7708
G1 X126.460 Y115.976 E7.8509
G1 X123.976 Y118.460 E8.0363
G1 X104.024 Y118.460 E9.0899
G1 X102.840 Y117.276 E9.1783
G1 X102.241 Y117.181 E9.2103
G1 X101.925 Y117.106 E9.2275
G1 X101.223 Y116.881 E9.2664
G1 X100.887 Y116.740 E9.2857
G1 X98.752 Y115.621 E9.4129
G1 X98.460 Y115.139 E9.4427
G1 X98.460 Y115.976 E9.4869
G1 X95.976 Y118.460 E9.6724
G1 X80.024 Y118.460 E10.5148
G1 X77.540 Y115.976 E10.7003
G1 X77.540 Y114.460 E10.7803
G1 X76.024 Y114.460 E10.8604
G1 X73.540 Y111.976 E11.0459
G1 X73.540 Y110.460 E11.1259
G1 X72.024 Y110.460 E11.2060
G1 X69.540 Y107.976 E11.3915
G1 X69.540 Y106.460 E11.4715
G1 X68.024 Y106.460 E11.5516
G1 X65.540 Y103.976 E11.7371
G1 X65.540 Y102.460 E11.8171
G1 X64.024 Y102.460 E11.8972
G1 X61.540 Y99.976 E12.0827
G1 X61.540 Y98.460 E12.1627
G1 X60.024 Y98.460 E12.2428
G1 X57.540 Y95.976 E12.4283
G1 X57.540 Y84.024 E13.0594
G1 X60.024 Y81.540 E13.2449
G92 E0.0000
G1 E-0.7000 F1500
; feature inner perimeter
G1 X102.488 Y97.428 F4800
G1 E0.0000 F1500
G92 E0.0000
G1 X102.941 Y97.208 E0.0266 F1350
G1 X103.245 Y97.110 E0.0435
G1 X104.140 Y96.968 E0.0913
G1 X104.140 Y112.461 E0.9094
G1 X103.234 Y112.317 E0.9578
G1 X103.008 Y112.244 E0.9703
G1 X102.912 Y112.180 E0.9764
G1 X102.488 Y111.969 E1.0014
G1 X102.488 Y97.428 E1.7692
; feature outer perimeter
G1 X102.008 Y97.128 F4800
G92 E0.0000
G1 X102.762 Y96.761 E0.0443 F900
G1 X103.134 Y96.642 E0.0649
G1 X104.620 Y96.406 E0.1444
G1 X104.620 Y113.023 E1.0218
G1 X103.122 Y112.785 E1.1018
G1 X102.798 Y112.681 E1.1198
G1 X102.671 Y112.597 E1.1279
G1 X102.008 Y112.266 E1.1670
G1 X102.008 Y97.128 E1.9663
; feature solid layer
G1 X103.579 Y97.470 F4800
G92 E0.0000
G1 X103.732 Y97.622 E0.0114 F1440
G1 X103.732 Y98.301 E0.0472
G1 X103.043 Y97.612 E0.0987
G1 X102.896 Y97.684 E0.1073
G1 X102.896 Y98.144 E0.1316
G1 X103.732 Y98.980 E0.1940
G1 X103.732 Y99.659 E0.2299
G1 X102.896 Y98.823 E0.2923
G1 X102.896 Y99.501 E0.3281
G1 X103.732 Y100.337 E0.3906
G1 X103.732 Y101.016 E0.4264
G1 X102.896 Y100.180 E0.4888
G1 X102.896 Y100.859 E0.5247
G1 X103.732 Y101.695 E0.5871
G1 X103.732 Y102.374 E0.6229
G1 X102.896 Y101.538 E0.6854
G1 X102.896 Y102.217 E0.7212
G1 X103.732 Y103.053 E0.7836
G1 X103.732 Y103.732 E0.8195
G1 X102.896 Y102.896 E0.8819
G1 X102.896 Y103.574 E0.9178
G1 X103.732 Y104.410 E0.9802
G1 X103.732 Y105.089 E1.0160
G1 X102.896 Y104.253 E1.0785
G1 X102.896 Y104.932 E1.1143
G1 X103.732 Y105.768 E1.1767
G1 X103.732 Y106.447 E1.2126
G1 X102.896 Y105.611 E1.2750
G1 X102.896 Y106.290 E1.3108
G1 X103.732 Y107.126 E1.3733
G1 X103.732 Y107.805 E1.4091
G1 X102.896 Y106.969 E1.4715
G1 X102.896 Y107.647 E1.5074
G1 X103.732 Y108.483 E1.5698
G1 X103.732 Y109.162 E1.6057
G1 X102.896 Y108.326 E1.6681
G1 X102.896 Y109.005 E1.7039
G1 X103.732 Y109.841 E1.7664
G1 X103.732 Y110.520 E1.8022
G1 X102.896 Y109.684 E1.8646
G1 X102.896 Y110.363 E1.9005
G1 X103.732 Y111.199 E1.9629
G1 X103.732 Y111.877 E1.9988
G1 X102.896 Y111.041 E2.0612
G92 E0.0000
G1 E-0.7000 F1500
; feature support
G1 X106.030 Y111.520 F4800
G1 E0.0000 F1500
G92 E0.0000
G1 X121.970 Y111.520 E0.8417 F1440
G1 X121.970 Y113.440 E0.9431
G1 X106.030 Y113.440 E1.7848
G92 E0.0000
G1 E-0.7000 F1500
G1 X98.030 Y109.600 F4800
G1 E0.0000 F1500
G92 E0.0000
G1 X99.747 Y109.600 E0.0906 F1440
G1 X99.797 Y109.483 E0.0974
G1 X99.870 Y109.259 E0.1098
G1 X99.922 Y109.031 E0.1222
G1 X99.954 Y108.797 E0.1346
G1 X99.966 Y108.551 E0.1476
G1 X99.966 Y107.680 E0.1936
G1 X98.030 Y107.680 E0.2958
G92 E0.0000
G1 E-0.7000 F1500
G1 X98.030 Y101.920 F4800
G1 E0.0000 F1500
G92 E0.0000
G1 X99.966 Y101.920 E0.1022 F1440
G1 X99.966 Y100.885 E0.1569
G1 X99.935 Y100.481 E0.1783
G1 X99.849 Y100.103 E0.1988
G1 X99.810 Y100.000 E0.2046
G1 X98.030 Y100.000 E0.2985
G92 E0.0000
G1 E-0.7000 F1500
G1 X82.030 Y111.520 F4800
G1 E0.0000 F1500
G92 E0.0000
G1 X93.970 Y111.520 E0.6305 F1440
G1 X93.970 Y113.440 E0.7319
G1 X82.030 Y113.440 E1.3623
G92 E0.0000
G1 E-0.7000 F1500
G1 X78.030 Y109.600 F4800
G1 E0.0000 F1500
G92 E0.0000
G1 X81.970 Y109.600 E0.2080 F1440
G1 X81.970 Y107.680 E0.3094
G1 X78.030 Y107.680 E0.5175
G92 E0.0000
G1 E-0.7000 F1500
G1 X74.030 Y105.760 F4800
G1 E0.0000 F1500
G92 E0.0000
G1 X77.970 Y105.760 E0.2080 F1440
G1 X77.970 Y103.840 E0.3094
G1 X74.030 Y103.840 E0.5175
G92 E0.0000
G1 E-0.7000 F1500
G1 X73.970 Y101.920 F4800
G1 E0.0000 F1500
G92 E0.0000
G1 X70.030 Y101.920 E0.2080 F1440
G1 X70.030 Y100.000 E0.3094
G1 X73.970 Y100.000 E0.5175
G1 X73.970 Y98.080 E0.6189
G1 X70.030 Y98.080 E0.8269
G1 X70.030 Y97.970 E0.8327
G1 X66.030 Y97.970 E1.0439
G1 X66.030 Y96.160 E1.1395
G1 X95.740 Y96.160 E2.7083
G1 X96.965 Y95.766 E2.7763
G1 X97.874 Y95.622 E2.8249
G1 X97.970 Y95.609 E2.8300
G1 X97.970 Y94.240 E2.9023
G1 X66.030 Y94.240 E4.5888
G1 X66.030 Y93.970 E4.6031
G1 X62.030 Y93.970 E4.8143
G1 X62.030 Y92.320 E4.9014
G1 X77.970 Y92.320 E5.7431
G1 X77.970 Y90.400 E5.8445
G1 X62.030 Y90.400 E6.6862
G1 X62.030 Y88.480 E6.7876
G1 X69.970 Y88.480 E7.2068
G1 X69.970 Y86.560 E7.3082
G1 X62.030 Y86.560 E7.7275
G92 E0.0000
G1 E-0.7000 F1500
G1 X122.030 Y94.240 F4800
G1 E0.0000 F1500
G92 E0.0000
G1 X125.970 Y94.240 E0.2080 F1440
G1 X125.970 Y96.160 E0.3094
G1 X122.030 Y96.160 E0.5175
G92 E0.0000
G1 E-0.7000 F1500
G1 X126.030 Y107.680 F4800
G1 E0.0000 F1500
G92 E0.0000
G1 X129.970 Y107.680 E0.2080 F1440
G1 X129.970 Y109.600 E0.3094
G1 X126.030 Y109.600 E0.5175
G92 E0.0000
G1 E-0.7000 F1500
; layer 2, Z = 0.570
M106 S255
; feature inner perimeter
; tool H0.300 W0.480
G1 Z0.570 F1002
G1 X104.140 Y113.228 F4800
G1 E0.0000 F1500
G92 E0.0000
G1 X100.663 Y112.912 E0.2048 F1789
G1 X98.511 Y112.624 E0.3322
G1 X98.466 Y112.297 E0.3515
G1 X99.109 Y112.022 E0.3925
G1 X99.434 Y111.835 E0.4146
G1 X99.731 Y111.625 E0.4359
G1 X100.005 Y111.390 E0.4571
G1 X100.254 Y111.132 E0.4781
G1 X100.478 Y110.853 E0.4991
G1 X100.673 Y110.558 E0.5198
G1 X100.839 Y110.249 E0.5404
G1 X100.977 Y109.928 E0.5610
G1 X101.085 Y109.596 E0.5814
G1 X101.163 Y109.256 E0.6019
G1 X101.209 Y108.913 E0.6222
G1 X101.226 Y108.583 E0.6416
G1 X101.226 Y100.837 E1.0961
G1 X101.184 Y100.293 E1.1281
G1 X101.058 Y99.735 E1.1616
G1 X100.850 Y99.197 E1.1955
G1 X100.567 Y98.702 E1.2289
G1 X100.345 Y98.403 E1.2508
G1 X100.102 Y98.134 E1.2720
G1 X99.857 Y97.907 E1.2916
G1 X99.594 Y97.702 E1.3112
G1 X99.311 Y97.519 E1.3310
G1 X99.007 Y97.357 E1.3512
G1 X98.469 Y97.137 E1.3853
G1 X98.511 Y96.808 E1.4048
G1 X100.718 Y96.511 E1.5354
G1 X104.140 Y96.201 E1.7370
G1 X104.140 Y113.228 E2.7360
; feature outer perimeter
G1 X104.620 Y113.753 F4800
G92 E0.0000
G1 X100.609 Y113.389 E0.2363 F1193
G1 X98.179 Y113.063 E0.3801
G1 X97.096 Y112.891 E0.4445
G1 X95.712 Y112.447 E0.5297
G1 X96.355 Y112.212 E0.5699
G1 X96.777 Y112.127 E0.5952
G1 X97.665 Y112.022 E0.6476
G1 X98.306 Y111.844 E0.6867
G1 X98.894 Y111.592 E0.7242
G1 X99.175 Y111.430 E0.7432
G1 X99.435 Y111.246 E0.7619
G1 X99.675 Y111.040 E0.7805
G1 X99.894 Y110.814 E0.7989
G1 X100.089 Y110.570 E0.8173
G1 X100.260 Y110.312 E0.8355
G1 X100.407 Y110.040 E0.8536
G1 X100.528 Y109.758 E0.8716
G1 X100.622 Y109.467 E0.8895
G1 X100.691 Y109.170 E0.9074
G1 X100.731 Y108.869 E0.9252
G1 X100.746 Y108.571 E0.9427
G1 X100.746 Y100.855 E1.3954
G1 X100.708 Y100.364 E1.4243
G1 X100.598 Y99.875 E1.4537
G1 X100.415 Y99.404 E1.4834
G1 X100.164 Y98.965 E1.5130
G1 X99.973 Y98.708 E1.5318
G1 X99.760 Y98.471 E1.5505
G1 X99.546 Y98.273 E1.5676
G1 X99.315 Y98.093 E1.5848
G1 X99.067 Y97.933 E1.6021
G1 X98.803 Y97.792 E1.6197
G1 X98.258 Y97.569 E1.6542
G1 X97.664 Y97.407 E1.6904
G1 X96.803 Y97.306 E1.7412
G1 X96.318 Y97.208 E1.7703
G1 X95.713 Y96.988 E1.8080
G1 X97.146 Y96.527 E1.8964
G1 X97.987 Y96.394 E1.9463
G1 X100.665 Y96.034 E2.1048
G1 X104.620 Y95.676 E2.3378
G1 X104.620 Y113.753 E3.3985
; feature gap fill
G1 X97.764 Y112.418 F4800
G92 E0.0000
G1 X97.621 Y112.562 E0.0119 F2385
G92 E0.0000
