; G-Code generated by Simplify3D(R) Version 4.1.1
; Apr 25, 2021 at 7:18:28 PM
; Settings Summary
;   processName,Trideo BOX
;   applyToModels,AtomicLabCover
;   profileName,Trideo BOX
;   profileVersion,2021-04-15 09:48:16
;   baseProfile,Default
;   printMaterial,PLA
;   printQuality,Fast
;   printExtruders,
;   extruderName,Primary Extruder
;   extruderToolheadNumber,0
;   extruderDiameter,0.4
;   extruderAutoWidth,1
;   extruderWidth,0.48
;   extrusionMultiplier,0.98
;   extruderUseRetract,1
;   extruderRetractionDistance,0.7
;   extruderExtraRestartDistance,0
;   extruderRetractionZLift,0
;   extruderRetractionSpeed,1500
;   extruderUseCoasting,0
;   extruderCoastingDistance,0.2
;   extruderUseWipe,0
;   extruderWipeDistance,5
;   primaryExtruder,0
;   layerHeight,0.3
;   topSolidLayers,3
;   bottomSolidLayers,3
;   perimeterOutlines,2
;   printPerimetersInsideOut,1
;   startPointOption,2
;   startPointOriginX,0
;   startPointOriginY,0
;   sequentialIslands,0
;   spiralVaseMode,0
;   firstLayerHeightPercentage,90
;   firstLayerWidthPercentage,100
;   firstLayerUnderspeed,0.5
;   useRaft,0
;   raftExtruder,0
;   raftTopLayers,3
;   raftBaseLayers,2
;   raftOffset,3
;   raftSeparationDistance,0.14
;   raftTopInfill,100
;   aboveRaftSpeedMultiplier,0.3
;   useSkirt,1
;   skirtExtruder,0
;   skirtLayers,1
;   skirtOutlines,2
;   skirtOffset,4
;   usePrimePillar,0
;   primePillarExtruder,999
;   primePillarWidth,12
;   primePillarLocation,7
;   primePillarSpeedMultiplier,1
;   useOozeShield,0
;   oozeShieldExtruder,999
;   oozeShieldOffset,2
;   oozeShieldOutlines,1
;   oozeShieldSidewallShape,1
;   oozeShieldSidewallAngle,30
;   oozeShieldSpeedMultiplier,1
;   infillExtruder,0
;   internalInfillPattern,Rectilinear
;   externalInfillPattern,Rectilinear
;   infillPercentage,15
;   outlineOverlapPercentage,15
;   infillExtrusionWidthPercentage,100
;   minInfillLength,5
;   infillLayerInterval,1
;   internalInfillAngles,45,-45
;   overlapInternalInfillAngles,0
;   externalInfillAngles,45,-45
;   generateSupport,1
;   supportExtruder,0
;   supportInfillPercentage,25
;   supportExtraInflation,0
;   supportBaseLayers,0
;   denseSupportExtruder,0
;   denseSupportLayers,0
;   denseSupportInfillPercentage,70
;   supportLayerInterval,1
;   supportHorizontalPartOffset,0.3
;   supportUpperSeparationLayers,1
;   supportLowerSeparationLayers,1
;   supportType,0
;   supportGridSpacing,4
;   maxOverhangAngle,45
;   supportAngles,0
;   temperatureName,Primary Extruder,Heated bed
;   temperatureNumber,0,0
;   temperatureSetpointCount,1,1
;   temperatureSetpointLayers,1,1
;   temperatureSetpointTemperatures,190,60
;   temperatureStabilizeAtStartup,1,1
;   temperatureHeatedBed,0,1
;   fanLayers,1,2
;   fanSpeeds,0,100
;   blipFanToFullPower,0
;   adjustSpeedForCooling,1
;   minSpeedLayerTime,15
;   minCoolingSpeedSlowdown,20
;   increaseFanForCooling,0
;   minFanLayerTime,45
;   maxCoolingFanSpeed,100
;   increaseFanForBridging,0
;   bridgingFanSpeed,100
;   use5D,1
;   relativeEdistances,0
;   allowEaxisZeroing,1
;   independentExtruderAxes,0
;   includeM10123,0
;   stickySupport,1
;   applyToolheadOffsets,0
;   gcodeXoffset,0
;   gcodeYoffset,0
;   gcodeZoffset,0
;   overrideMachineDefinition,1
;   machineTypeOverride,0
;   strokeXoverride,200
;   strokeYoverride,200
;   strokeZoverride,200
;   originOffsetXoverride,0
;   originOffsetYoverride,0
;   originOffsetZoverride,0
;   homeXdirOverride,-1
;   homeYdirOverride,-1
;   homeZdirOverride,-1
;   flipXoverride,1
;   flipYoverride,-1
;   flipZoverride,1
;   toolheadOffsets,0,0|0,0|0,0|0,0|0,0|0,0
;   overrideFirmwareConfiguration,0
;   firmwareTypeOverride,RepRap (Marlin/Repetier/Sprinter)
;   GPXconfigOverride,r2
;   baudRateOverride,115200
;   overridePrinterModels,0
;   printerModelsOverride
;   startingGcode,G28 X0 Y0; home XY,G1 X20 Y20,G28 Z0,G1 Z5 F5000; Lift NZ
;   layerChangeGcode,
;   retractionGcode,
;   toolChangeGcode,
;   endingGcode,M104 S0 ; turn off extruder,G28 X0 ; home x,M140 S0 ; turn off bed,M84 ; disable motors,M107 ;
;   exportFileFormat,gcode
;   celebration,0
;   celebrationSong,Looney Toons
;   postProcessing,
;   defaultSpeed,3600
;   outlineUnderspeed,0.5
;   solidInfillUnderspeed,0.8
;   supportUnderspeed,0.8
;   rapidXYspeed,4800
;   rapidZspeed,1002
;   minBridgingArea,50
;   bridgingExtraInflation,0
;   bridgingExtrusionMultiplier,1
;   bridgingSpeedMultiplier,1
;   useFixedBridgingAngle,0
;   fixedBridgingAngle,0
;   applyBridgingToPerimeters,0
;   filamentDiameters,1.75|1.75|1.75|1.75|1.75|1.75
;   filamentPricesPerKg,46|46|46|46|46|46
;   filamentDensities,1.25|1.25|1.25|1.25|1.25|1.25
;   useMinPrintHeight,0
;   minPrintHeight,0
;   useMaxPrintHeight,0
;   maxPrintHeight,0
;   useDiaphragm,0
;   diaphragmLayerInterval,20
;   robustSlicing,1
;   mergeAllIntoSolid,0
;   onlyRetractWhenCrossingOutline,1
;   retractBetweenLayers,1
;   useRetractionMinTravel,0
;   retractionMinTravel,3
;   retractWhileWiping,0
;   onlyWipeOutlines,1
;   avoidCrossingOutline,0
;   maxMovementDetourFactor,3
;   toolChangeRetractionDistance,12
;   toolChangeExtraRestartDistance,-0.5
;   toolChangeRetractionSpeed,600
;   externalThinWallType,0
;   internalThinWallType,2
;   thinWallAllowedOverlapPercentage,10
;   singleExtrusionMinLength,1
;   singleExtrusionMinPrintingWidthPercentage,50
;   singleExtrusionMaxPrintingWidthPercentage,200
;   singleExtrusionEndpointExtension,0.2
;   horizontalSizeCompensation,0
G90
M82
M106 S0
M140 S60
M190 S60
M104 S190 T0
M109 S190 T0
G28 X0 Y0; home XY
G1 X20 Y20
G28 Z0
G1 Z5 F5000; Lift NZ
; process Trideo BOX
; layer 1, Z = 0.270
T0
G92 E0.0000
G1 E-0.7000 F1500
; feature skirt
; tool H0.270 W0.480
G1 Z0.270 F1002
G1 X72.165 Y88.530 F4800
G1 E0.0000 F1500
G92 E0.0000
G1 X127.835 Y88.530 E2.9396 F1800
G1 X130.600 Y91.295 E3.1461
G1 X130.600 Y99.205 E3.5638
G1 X127.835 Y101.970 E3.7702
G1 X115.258 Y101.970 E4.4344
G1 X114.258 Y100.970 E4.5090
G1 X108.940 Y100.970 E4.7898
G1 X108.940 Y104.175 E4.9591
G1 X106.175 Y106.940 E5.1655
G1 X104.940 Y106.940 E5.2308
G1 X104.940 Y108.175 E5.2960
G1 X102.175 Y110.940 E5.5024
G1 X93.825 Y110.940 E5.9434
G1 X91.060 Y108.175 E6.1498
G1 X91.060 Y100.970 E6.5303
G1 X85.742 Y100.970 E6.8111
G1 X84.742 Y101.970 E6.8858
G1 X72.165 Y101.970 E7.5499
G1 X69.400 Y99.205 E7.7564
G1 X69.400 Y91.295 E8.1741
G1 X72.165 Y88.530 E8.3805
G92 E0.0000
G1 E-0.7000 F1500
G1 X72.364 Y89.010 F4800
G1 E0.0000 F1500
G92 E0.0000
G1 X127.636 Y89.010 E2.9186 F1800
G1 X130.120 Y91.494 E3.1041
G1 X130.120 Y99.006 E3.5008
G1 X127.636 Y101.490 E3.6862
G1 X115.456 Y101.490 E4.3294
G1 X114.456 Y100.490 E4.4041
G1 X108.460 Y100.490 E4.7207
G1 X108.460 Y103.976 E4.9048
G1 X105.976 Y106.460 E5.0903
G1 X104.460 Y106.460 E5.1703
G1 X104.460 Y107.976 E5.2504
G1 X101.976 Y110.460 E5.4359
G1 X94.024 Y110.460 E5.8558
G1 X91.540 Y107.976 E6.0413
G1 X91.540 Y100.490 E6.4366
G1 X85.543 Y100.490 E6.7532
G1 X84.543 Y101.490 E6.8279
G1 X72.364 Y101.490 E7.4710
G1 X69.880 Y99.006 E7.6565
G1 X69.880 Y91.494 E8.0532
G1 X72.364 Y89.010 E8.2386
G92 E0.0000
G1 E-0.7000 F1500
; feature inner perimeter
G1 X74.840 Y93.970 F4800
G1 E0.0000 F1500
G92 E0.0000
G1 X125.160 Y93.970 E2.6571 F1350
G1 X125.160 Y96.530 E2.7923
G1 X117.933 Y96.530 E3.1739
G1 X117.933 Y95.530 E3.2267
G1 X82.067 Y95.530 E5.1205
G1 X82.067 Y96.530 E5.1733
G1 X74.840 Y96.530 E5.5550
G1 X74.840 Y93.970 E5.6901
; feature outer perimeter
G1 X74.360 Y93.490 F4800
G92 E0.0000
G1 X125.640 Y93.490 E2.7078 F900
G1 X125.640 Y97.010 E2.8936
G1 X117.453 Y97.010 E3.3260
G1 X117.453 Y96.010 E3.3788
G1 X82.547 Y96.010 E5.2219
G1 X82.547 Y97.010 E5.2747
G1 X74.360 Y97.010 E5.7070
G1 X74.360 Y93.490 E5.8929
; feature solid layer
G1 X75.757 Y96.122 F4800
G92 E0.0000
G1 X75.248 Y95.613 E0.0380 F1440
G1 X75.248 Y94.934 E0.0739
G1 X76.436 Y96.122 E0.1626
G1 X77.115 Y96.122 E0.1984
G1 X75.371 Y94.378 E0.3287
G1 X76.050 Y94.378 E0.3645
G1 X77.794 Y96.122 E0.4948
G1 X78.473 Y96.122 E0.5306
G1 X76.729 Y94.378 E0.6608
G1 X77.407 Y94.378 E0.6967
G1 X79.151 Y96.122 E0.8269
G1 X79.830 Y96.122 E0.8628
G1 X78.086 Y94.378 E0.9930
G1 X78.765 Y94.378 E1.0288
G1 X80.509 Y96.122 E1.1591
G1 X81.188 Y96.122 E1.1949
G1 X79.444 Y94.378 E1.3252
G1 X80.123 Y94.378 E1.3610
G1 X81.659 Y95.914 E1.4757
G1 X81.659 Y95.236 E1.5116
G1 X80.802 Y94.378 E1.5756
G1 X81.480 Y94.378 E1.6115
G1 X82.224 Y95.122 E1.6670
G1 X82.903 Y95.122 E1.7029
G1 X82.159 Y94.378 E1.7584
G1 X82.838 Y94.378 E1.7943
G1 X83.582 Y95.122 E1.8498
G1 X84.261 Y95.122 E1.8857
G1 X83.517 Y94.378 E1.9412
G1 X84.196 Y94.378 E1.9771
G1 X84.940 Y95.122 E2.0326
G1 X85.618 Y95.122 E2.0685
G1 X84.874 Y94.378 E2.1240
G1 X85.553 Y94.378 E2.1599
G1 X86.297 Y95.122 E2.2154
G1 X86.976 Y95.122 E2.2513
G1 X86.232 Y94.378 E2.3068
G1 X86.911 Y94.378 E2.3427
G1 X87.655 Y95.122 E2.3982
G1 X88.334 Y95.122 E2.4341
G1 X87.590 Y94.378 E2.4896
G1 X88.269 Y94.378 E2.5255
G1 X89.013 Y95.122 E2.5810
G1 X89.691 Y95.122 E2.6169
G1 X88.947 Y94.378 E2.6724
G1 X89.626 Y94.378 E2.7083
G1 X90.370 Y95.122 E2.7638
G1 X91.049 Y95.122 E2.7997
G1 X90.305 Y94.378 E2.8553
G1 X90.984 Y94.378 E2.8911
G1 X91.728 Y95.122 E2.9467
G1 X92.407 Y95.122 E2.9825
G1 X91.663 Y94.378 E3.0381
G1 X92.342 Y94.378 E3.0739
G1 X93.086 Y95.122 E3.1295
G1 X93.764 Y95.122 E3.1653
G1 X93.020 Y94.378 E3.2209
G1 X93.699 Y94.378 E3.2567
G1 X94.443 Y95.122 E3.3123
G1 X95.122 Y95.122 E3.3481
G1 X94.378 Y94.378 E3.4037
G1 X95.057 Y94.378 E3.4395
G1 X95.801 Y95.122 E3.4951
G1 X96.480 Y95.122 E3.5309
G1 X95.736 Y94.378 E3.5865
G1 X96.414 Y94.378 E3.6223
G1 X97.158 Y95.122 E3.6779
G1 X97.837 Y95.122 E3.7137
G1 X97.093 Y94.378 E3.7693
G1 X97.772 Y94.378 E3.8051
G1 X98.516 Y95.122 E3.8607
G1 X99.195 Y95.122 E3.8965
G1 X98.451 Y94.378 E3.9521
G1 X99.130 Y94.378 E3.9879
G1 X99.874 Y95.122 E4.0435
G1 X100.553 Y95.122 E4.0793
G1 X99.809 Y94.378 E4.1349
G1 X100.487 Y94.378 E4.1707
G1 X101.231 Y95.122 E4.2263
G1 X101.910 Y95.122 E4.2621
G1 X101.166 Y94.378 E4.3177
G1 X101.845 Y94.378 E4.3535
G1 X102.589 Y95.122 E4.4091
G1 X103.268 Y95.122 E4.4450
G1 X102.524 Y94.378 E4.5005
G1 X103.203 Y94.378 E4.5364
G1 X103.947 Y95.122 E4.5919
G1 X104.626 Y95.122 E4.6278
G1 X103.882 Y94.378 E4.6833
G1 X104.560 Y94.378 E4.7192
G1 X105.304 Y95.122 E4.7747
G1 X105.983 Y95.122 E4.8106
G1 X105.239 Y94.378 E4.8661
G1 X105.918 Y94.378 E4.9020
G1 X106.662 Y95.122 E4.9575
G1 X107.341 Y95.122 E4.9934
G1 X106.597 Y94.378 E5.0489
G1 X107.276 Y94.378 E5.0848
G1 X108.020 Y95.122 E5.1403
G1 X108.698 Y95.122 E5.1762
G1 X107.954 Y94.378 E5.2317
G1 X108.633 Y94.378 E5.2676
G1 X109.377 Y95.122 E5.3231
G1 X110.056 Y95.122 E5.3590
G1 X109.312 Y94.378 E5.4145
G1 X109.991 Y94.378 E5.4504
G1 X110.735 Y95.122 E5.5059
G1 X111.414 Y95.122 E5.5418
G1 X110.670 Y94.378 E5.5973
G1 X111.349 Y94.378 E5.6332
G1 X112.093 Y95.122 E5.6888
G1 X112.771 Y95.122 E5.7246
G1 X112.027 Y94.378 E5.7802
G1 X112.706 Y94.378 E5.8160
G1 X113.450 Y95.122 E5.8716
G1 X114.129 Y95.122 E5.9074
G1 X113.385 Y94.378 E5.9630
G1 X114.064 Y94.378 E5.9988
G1 X114.808 Y95.122 E6.0544
G1 X115.487 Y95.122 E6.0902
G1 X114.743 Y94.378 E6.1458
G1 X115.422 Y94.378 E6.1816
G1 X116.166 Y95.122 E6.2372
G1 X116.844 Y95.122 E6.2730
G1 X116.100 Y94.378 E6.3286
G1 X116.779 Y94.378 E6.3644
G1 X117.523 Y95.122 E6.4200
G1 X118.202 Y95.122 E6.4558
G1 X117.458 Y94.378 E6.5114
G1 X118.137 Y94.378 E6.5472
G1 X119.881 Y96.122 E6.6775
G1 X120.560 Y96.122 E6.7133
G1 X118.816 Y94.378 E6.8435
G1 X119.494 Y94.378 E6.8794
G1 X121.238 Y96.122 E7.0096
G1 X121.917 Y96.122 E7.0455
G1 X120.173 Y94.378 E7.1757
G1 X120.852 Y94.378 E7.2115
G1 X122.596 Y96.122 E7.3418
G1 X123.275 Y96.122 E7.3776
G1 X121.531 Y94.378 E7.5079
G1 X122.210 Y94.378 E7.5437
G1 X123.954 Y96.122 E7.6739
G1 X124.633 Y96.122 E7.7098
G1 X122.889 Y94.378 E7.8400
G1 X123.567 Y94.378 E7.8759
G1 X124.752 Y95.563 E7.9643
G1 X124.752 Y94.884 E8.0002
G1 X124.246 Y94.378 E8.0379
G1 X118.341 Y95.261 F4800
G92 E0.0000
G1 X119.202 Y96.122 E0.0643 F1440
G1 X118.523 Y96.122 E0.1002
G1 X118.341 Y95.939 E0.1138
G92 E0.0000
G1 E-0.7000 F1500
; feature support
G1 X99.970 Y105.840 F4800
G1 E0.0000 F1500
G92 E0.0000
G1 X96.030 Y105.840 E0.2080 F1440
G1 X96.030 Y103.920 E0.3094
G1 X99.970 Y103.920 E0.5175
G1 X99.970 Y102.000 E0.6189
G1 X96.030 Y102.000 E0.8269
G1 X96.030 Y100.080 E0.9283
G1 X103.970 Y100.080 E1.3476
G1 X103.970 Y98.160 E1.4489
G1 X96.030 Y98.160 E1.8682
G92 E0.0000
G1 E-0.7000 F1500
; layer 2, Z = 0.570
M106 S255
; feature inner perimeter
; tool H0.300 W0.480
G1 Z0.570 F1002
G1 X82.673 Y96.530 F4800
G1 E0.0000 F1500
G92 E0.0000
G1 X74.893 Y96.530 E0.4565 F1817
G1 X74.893 Y93.970 E0.6066
G1 X125.107 Y93.970 E3.5527
G1 X125.107 Y96.530 E3.7029
G1 X117.326 Y96.530 E4.1594
G1 X117.326 Y95.530 E4.2181
G1 X82.673 Y95.530 E6.2512
G1 X82.673 Y96.530 E6.3099
; feature outer perimeter
G1 X83.153 Y97.010 F4800
G92 E0.0000
G1 X74.413 Y97.010 E0.5128 F1211
G1 X74.413 Y93.490 E0.7193
G1 X125.587 Y93.490 E3.7217
G1 X125.587 Y97.010 E3.9282
G1 X116.846 Y97.010 E4.4410
G1 X116.846 Y96.010 E4.4997
G1 X83.153 Y96.010 E6.4765
G1 X83.153 Y97.010 E6.5351
; feature solid layer
G1 X82.265 Y96.013 F4800
G92 E0.0000
G1 X82.156 Y96.122 E0.0091 F1938
G1 X81.477 Y96.122 E0.0489
G1 X82.265 Y95.334 E0.1143
G1 X82.265 Y95.122 E0.1267
G1 X82.477 Y95.122 E0.1392
G1 X83.221 Y94.378 E0.2009
G1 X82.542 Y94.378 E0.2407
G1 X80.798 Y96.122 E0.3854
G1 X80.119 Y96.122 E0.4252
G1 X81.863 Y94.378 E0.5700
G1 X81.184 Y94.378 E0.6098
G1 X79.440 Y96.122 E0.7545
G1 X78.762 Y96.122 E0.7943
G1 X80.506 Y94.378 E0.9390
G1 X79.827 Y94.378 E0.9788
G1 X78.083 Y96.122 E1.1235
G1 X77.404 Y96.122 E1.1634
G1 X79.148 Y94.378 E1.3081
G1 X78.469 Y94.378 E1.3479
G1 X76.725 Y96.122 E1.4926
G1 X76.046 Y96.122 E1.5324
G1 X77.790 Y94.378 E1.6771
G1 X77.111 Y94.378 E1.7170
G1 X75.367 Y96.122 E1.8617
G1 X75.301 Y96.122 E1.8656
G1 X75.301 Y95.509 E1.9015
G1 X76.433 Y94.378 E1.9954
G1 X75.754 Y94.378 E2.0352
G1 X75.301 Y94.831 E2.0727
G1 X83.156 Y95.122 F4800
G92 E0.0000
G1 X83.900 Y94.378 E0.0617 F1938
G1 X84.579 Y94.378 E0.1016
G1 X83.835 Y95.122 E0.1633
G1 X84.513 Y95.122 E0.2031
G1 X85.257 Y94.378 E0.2649
G1 X85.936 Y94.378 E0.3047
G1 X85.192 Y95.122 E0.3664
G1 X85.871 Y95.122 E0.4062
G1 X86.615 Y94.378 E0.4680
G1 X87.294 Y94.378 E0.5078
G1 X86.550 Y95.122 E0.5695
G1 X87.229 Y95.122 E0.6094
G1 X87.973 Y94.378 E0.6711
G1 X88.651 Y94.378 E0.7109
G1 X87.907 Y95.122 E0.7726
G1 X88.586 Y95.122 E0.8125
G1 X89.330 Y94.378 E0.8742
G1 X90.009 Y94.378 E0.9140
G1 X89.265 Y95.122 E0.9758
G1 X89.944 Y95.122 E1.0156
G1 X90.688 Y94.378 E1.0773
G1 X91.367 Y94.378 E1.1172
G1 X90.623 Y95.122 E1.1789
G1 X91.302 Y95.122 E1.2187
G1 X92.046 Y94.378 E1.2804
G1 X92.724 Y94.378 E1.3203
G1 X91.980 Y95.122 E1.3820
G1 X92.659 Y95.122 E1.4218
G1 X93.403 Y94.378 E1.4836
G1 X94.082 Y94.378 E1.5234
G1 X93.338 Y95.122 E1.5851
G1 X94.017 Y95.122 E1.6249
G1 X94.761 Y94.378 E1.6867
G1 X95.440 Y94.378 E1.7265
G1 X94.696 Y95.122 E1.7882
G1 X95.375 Y95.122 E1.8281
G1 X96.119 Y94.378 E1.8898
G1 X96.797 Y94.378 E1.9296
G1 X96.053 Y95.122 E1.9914
G1 X96.732 Y95.122 E2.0312
G1 X97.476 Y94.378 E2.0929
G1 X98.155 Y94.378 E2.1327
G1 X97.411 Y95.122 E2.1945
G1 X98.090 Y95.122 E2.2343
G1 X98.834 Y94.378 E2.2960
G1 X99.513 Y94.378 E2.3359
G1 X98.769 Y95.122 E2.3976
G1 X99.447 Y95.122 E2.4374
G1 X100.191 Y94.378 E2.4992
G1 X100.870 Y94.378 E2.5390
G1 X100.126 Y95.122 E2.6007
G1 X100.805 Y95.122 E2.6405
G1 X101.549 Y94.378 E2.7023
G1 X102.228 Y94.378 E2.7421
G1 X101.484 Y95.122 E2.8038
G1 X102.163 Y95.122 E2.8437
G1 X102.907 Y94.378 E2.9054
G1 X103.586 Y94.378 E2.9452
G1 X102.842 Y95.122 E3.0069
G1 X103.520 Y95.122 E3.0468
G1 X104.264 Y94.378 E3.1085
G1 X104.943 Y94.378 E3.1483
G1 X104.199 Y95.122 E3.2101
G1 X104.878 Y95.122 E3.2499
G1 X105.622 Y94.378 E3.3116
G1 X106.301 Y94.378 E3.3515
G1 X105.557 Y95.122 E3.4132
G1 X106.236 Y95.122 E3.4530
G1 X106.980 Y94.378 E3.5147
G1 X107.659 Y94.378 E3.5546
G1 X106.915 Y95.122 E3.6163
G1 X107.593 Y95.122 E3.6561
G1 X108.337 Y94.378 E3.7179
G1 X109.016 Y94.378 E3.7577
G1 X108.272 Y95.122 E3.8194
G1 X108.951 Y95.122 E3.8592
