; G-Code generated by Simplify3D(R) Version 4.1.1
; Apr 25, 2021 at 7:18:53 PM
; Settings Summary
;   processName,Trideo BOX
;   applyToModels,AtomicLabCover
;   profileName,Trideo BOX
;   profileVersion,2021-04-15 09:48:16
;   baseProfile,Default
;   printMaterial,PLA
;   printQuality,Fast
;   printExtruders,
;   extruderName,Primary Extruder
;   extruderToolheadNumber,0
;   extruderDiameter,0.4
;   extruderAutoWidth,1
;   extruderWidth,0.48
;   extrusionMultiplier,0.98
;   extruderUseRetract,1
;   extruderRetractionDistance,0.7
;   extruderExtraRestartDistance,0
;   extruderRetractionZLift,0
;   extruderRetractionSpeed,1500
;   extruderUseCoasting,0
;   extruderCoastingDistance,0.2
;   extruderUseWipe,0
;   extruderWipeDistance,5
;   primaryExtruder,0
;   layerHeight,0.3
;   topSolidLayers,3
;   bottomSolidLayers,3
;   perimeterOutlines,2
;   printPerimetersInsideOut,1
;   startPointOption,2
;   startPointOriginX,0
;   startPointOriginY,0
;   sequentialIslands,0
;   spiralVaseMode,0
;   firstLayerHeightPercentage,90
;   firstLayerWidthPercentage,100
;   firstLayerUnderspeed,0.5
;   useRaft,0
;   raftExtruder,0
;   raftTopLayers,3
;   raftBaseLayers,2
;   raftOffset,3
;   raftSeparationDistance,0.14
;   raftTopInfill,100
;   aboveRaftSpeedMultiplier,0.3
;   useSkirt,1
;   skirtExtruder,0
;   skirtLayers,1
;   skirtOutlines,2
;   skirtOffset,4
;   usePrimePillar,0
;   primePillarExtruder,999
;   primePillarWidth,12
;   primePillarLocation,7
;   primePillarSpeedMultiplier,1
;   useOozeShield,0
;   oozeShieldExtruder,999
;   oozeShieldOffset,2
;   oozeShieldOutlines,1
;   oozeShieldSidewallShape,1
;   oozeShieldSidewallAngle,30
;   oozeShieldSpeedMultiplier,1
;   infillExtruder,0
;   internalInfillPattern,Rectilinear
;   externalInfillPattern,Rectilinear
;   infillPercentage,15
;   outlineOverlapPercentage,15
;   infillExtrusionWidthPercentage,100
;   minInfillLength,5
;   infillLayerInterval,1
;   internalInfillAngles,45,-45
;   overlapInternalInfillAngles,0
;   externalInfillAngles,45,-45
;   generateSupport,1
;   supportExtruder,0
;   supportInfillPercentage,25
;   supportExtraInflation,0
;   supportBaseLayers,0
;   denseSupportExtruder,0
;   denseSupportLayers,0
;   denseSupportInfillPercentage,70
;   supportLayerInterval,1
;   supportHorizontalPartOffset,0.3
;   supportUpperSeparationLayers,1
;   supportLowerSeparationLayers,1
;   supportType,0
;   supportGridSpacing,4
;   maxOverhangAngle,45
;   supportAngles,0
;   temperatureName,Primary Extruder,Heated bed
;   temperatureNumber,0,0
;   temperatureSetpointCount,1,1
;   temperatureSetpointLayers,1,1
;   temperatureSetpointTemperatures,190,60
;   temperatureStabilizeAtStartup,1,1
;   temperatureHeatedBed,0,1
;   fanLayers,1,2
;   fanSpeeds,0,100
;   blipFanToFullPower,0
;   adjustSpeedForCooling,1
;   minSpeedLayerTime,15
;   minCoolingSpeedSlowdown,20
;   increaseFanForCooling,0
;   minFanLayerTime,45
;   maxCoolingFanSpeed,100
;   increaseFanForBridging,0
;   bridgingFanSpeed,100
;   use5D,1
;   relativeEdistances,0
;   allowEaxisZeroing,1
;   independentExtruderAxes,0
;   includeM10123,0
;   stickySupport,1
;   applyToolheadOffsets,0
;   gcodeXoffset,0
;   gcodeYoffset,0
;   gcodeZoffset,0
;   overrideMachineDefinition,1
;   machineTypeOverride,0
;   strokeXoverride,200
;   strokeYoverride,200
;   strokeZoverride,200
;   originOffsetXoverride,0
;   originOffsetYoverride,0
;   originOffsetZoverride,0
;   homeXdirOverride,-1
;   homeYdirOverride,-1
;   homeZdirOverride,-1
;   flipXoverride,1
;   flipYoverride,-1
;   flipZoverride,1
;   toolheadOffsets,0,0|0,0|0,0|0,0|0,0|0,0
;   overrideFirmwareConfiguration,0
;   firmwareTypeOverride,RepRap (Marlin/Repetier/Sprinter)
;   GPXconfigOverride,r2
;   baudRateOverride,115200
;   overridePrinterModels,0
;   printerModelsOverride
;   startingGcode,G28 X0 Y0; home XY,G1 X20 Y20,G28 Z0,G1 Z5 F5000; Lift NZ
;   layerChangeGcode,
;   retractionGcode,
;   toolChangeGcode,
;   endingGcode,M104 S0 ; turn off extruder,G28 X0 ; home x,M140 S0 ; turn off bed,M84 ; disable motors,M107 ;
;   exportFileFormat,gcode
;   celebration,0
;   celebrationSong,Looney Toons
;   postProcessing,
;   defaultSpeed,3600
;   outlineUnderspeed,0.5
;   solidInfillUnderspeed,0.8
;   supportUnderspeed,0.8
;   rapidXYspeed,4800
;   rapidZspeed,1002
;   minBridgingArea,50
;   bridgingExtraInflation,0
;   bridgingExtrusionMultiplier,1
;   bridgingSpeedMultiplier,1
;   useFixedBridgingAngle,0
;   fixedBridgingAngle,0
;   applyBridgingToPerimeters,0
;   filamentDiameters,1.75|1.75|1.75|1.75|1.75|1.75
;   filamentPricesPerKg,46|46|46|46|46|46
;   filamentDensities,1.25|1.25|1.25|1.25|1.25|1.25
;   useMinPrintHeight,0
;   minPrintHeight,0
;   useMaxPrintHeight,0
;   maxPrintHeight,0
;   useDiaphragm,0
;   diaphragmLayerInterval,20
;   robustSlicing,1
;   mergeAllIntoSolid,0
;   onlyRetractWhenCrossingOutline,1
;   retractBetweenLayers,1
;   useRetractionMinTravel,0
;   retractionMinTravel,3
;   retractWhileWiping,0
;   onlyWipeOutlines,1
;   avoidCrossingOutline,0
;   maxMovementDetourFactor,3
;   toolChangeRetractionDistance,12
;   toolChangeExtraRestartDistance,-0.5
;   toolChangeRetractionSpeed,600
;   externalThinWallType,0
;   internalThinWallType,2
;   thinWallAllowedOverlapPercentage,10
;   singleExtrusionMinLength,1
;   singleExtrusionMinPrintingWidthPercentage,50
;   singleExtrusionMaxPrintingWidthPercentage,200
;   singleExtrusionEndpointExtension,0.2
;   horizontalSizeCompensation,0
G90
M82
M106 S0
M140 S60
M190 S60
M104 S190 T0
M109 S190 T0
G28 X0 Y0; home XY
G1 X20 Y20
G28 Z0
G1 Z5 F5000; Lift NZ
; process Trideo BOX
; layer 1, Z = 0.270
T0
G92 E0.0000
G1 E-0.7000 F1500
; feature skirt
; tool H0.270 W0.480
G1 Z0.270 F1002
G1 X69.574 Y87.855 F4800
G1 E0.0000 F1500
G92 E0.0000
G1 X130.426 Y87.855 E3.2132 F1800
G1 X133.191 Y90.620 E3.4196
G1 X133.190 Y98.930 E3.8585
G1 X130.426 Y101.695 E4.0649
G1 X123.420 Y101.695 E4.4348
G1 X122.175 Y102.940 E4.5278
G1 X113.825 Y102.940 E4.9687
G1 X112.000 Y101.115 E5.1050
G1 X110.175 Y102.940 E5.2413
G1 X108.940 Y102.940 E5.3065
G1 X108.940 Y108.175 E5.5829
G1 X106.175 Y110.940 E5.7894
G1 X93.825 Y110.940 E6.4415
G1 X91.060 Y108.175 E6.6480
G1 X91.060 Y102.940 E6.9245
G1 X89.825 Y102.940 E6.9897
G1 X88.000 Y101.115 E7.1259
G1 X86.175 Y102.940 E7.2622
G1 X77.825 Y102.940 E7.7031
G1 X76.580 Y101.695 E7.7961
G1 X69.574 Y101.695 E8.1660
G1 X66.810 Y98.930 E8.3725
G1 X66.809 Y90.620 E8.8113
G1 X69.574 Y87.855 E9.0178
G92 E0.0000
G1 E-0.7000 F1500
G1 X69.773 Y88.335 F4800
G1 E0.0000 F1500
G92 E0.0000
G1 X130.227 Y88.335 E3.1922 F1800
G1 X132.711 Y90.819 E3.3777
G1 X132.710 Y98.731 E3.7955
G1 X130.227 Y101.215 E3.9809
G1 X123.221 Y101.215 E4.3509
G1 X121.976 Y102.460 E4.4438
G1 X114.024 Y102.460 E4.8638
G1 X112.000 Y100.436 E5.0149
G1 X109.976 Y102.460 E5.1660
G1 X108.460 Y102.460 E5.2461
G1 X108.460 Y107.976 E5.5373
G1 X105.976 Y110.460 E5.7228
G1 X94.024 Y110.460 E6.3540
G1 X91.540 Y107.976 E6.5394
G1 X91.540 Y102.460 E6.8307
G1 X90.024 Y102.460 E6.9108
G1 X88.000 Y100.436 E7.0619
G1 X85.976 Y102.460 E7.2130
G1 X78.024 Y102.460 E7.6329
G1 X76.779 Y101.215 E7.7259
G1 X69.773 Y101.215 E8.0958
G1 X67.290 Y98.731 E8.2813
G1 X67.289 Y90.819 E8.6991
G1 X69.773 Y88.335 E8.8846
G92 E0.0000
G1 E-0.7000 F1500
; feature inner perimeter
G1 X72.249 Y93.295 F4800
G1 E0.0000 F1500
G92 E0.0000
G1 X127.751 Y93.295 E2.9307 F1350
G1 X127.751 Y96.255 E3.0870
G1 X119.683 Y96.255 E3.5130
G1 X119.683 Y95.155 E3.5711
G1 X80.317 Y95.155 E5.6497
G1 X80.317 Y96.255 E5.7078
G1 X72.249 Y96.255 E6.1338
G1 X72.249 Y93.295 E6.2901
; feature outer perimeter
G1 X71.769 Y92.815 F4800
G92 E0.0000
G1 X128.231 Y92.815 E2.9814 F900
G1 X128.230 Y96.735 E3.1883
G1 X119.203 Y96.735 E3.6651
G1 X119.203 Y95.635 E3.7231
G1 X80.797 Y95.635 E5.7511
G1 X80.797 Y96.735 E5.8092
G1 X71.769 Y96.735 E6.2859
G1 X71.769 Y92.815 E6.4929
; feature solid layer
G1 X72.657 Y95.737 F4800
G92 E0.0000
G1 X72.767 Y95.847 E0.0082 F1440
G1 X73.446 Y95.847 E0.0440
G1 X72.657 Y95.059 E0.1029
G1 X72.657 Y94.380 E0.1387
G1 X74.125 Y95.847 E0.2483
G1 X74.804 Y95.847 E0.2841
G1 X72.660 Y93.703 E0.4443
G1 X73.338 Y93.703 E0.4801
G1 X75.482 Y95.847 E0.6402
G1 X76.161 Y95.847 E0.6760
G1 X74.017 Y93.703 E0.8362
G1 X74.696 Y93.703 E0.8720
G1 X76.840 Y95.847 E1.0321
G1 X77.519 Y95.847 E1.0679
G1 X75.375 Y93.703 E1.2280
G1 X76.054 Y93.703 E1.2639
G1 X78.198 Y95.847 E1.4240
G1 X78.876 Y95.847 E1.4598
G1 X76.732 Y93.703 E1.6199
G1 X77.411 Y93.703 E1.6558
G1 X79.555 Y95.847 E1.8159
G1 X79.909 Y95.847 E1.8346
G1 X79.909 Y95.522 E1.8517
G1 X78.090 Y93.703 E1.9876
G1 X78.769 Y93.703 E2.0234
G1 X79.909 Y94.843 E2.1086
G1 X79.909 Y94.747 E2.1136
G1 X80.492 Y94.747 E2.1444
G1 X79.448 Y93.703 E2.2224
G1 X80.127 Y93.703 E2.2582
G1 X81.171 Y94.747 E2.3362
G1 X81.849 Y94.747 E2.3720
G1 X80.805 Y93.703 E2.4500
G1 X81.484 Y93.703 E2.4858
G1 X82.528 Y94.747 E2.5638
G1 X83.207 Y94.747 E2.5996
G1 X82.163 Y93.703 E2.6776
G1 X82.842 Y93.703 E2.7134
G1 X83.886 Y94.747 E2.7914
G1 X84.565 Y94.747 E2.8272
G1 X83.521 Y93.703 E2.9052
G1 X84.199 Y93.703 E2.9411
G1 X85.243 Y94.747 E3.0190
G1 X85.922 Y94.747 E3.0549
G1 X84.878 Y93.703 E3.1328
G1 X85.557 Y93.703 E3.1687
G1 X86.601 Y94.747 E3.2466
G1 X87.280 Y94.747 E3.2825
G1 X86.236 Y93.703 E3.3604
G1 X86.915 Y93.703 E3.3963
G1 X87.959 Y94.747 E3.4742
G1 X88.638 Y94.747 E3.5101
G1 X87.594 Y93.703 E3.5880
G1 X88.272 Y93.703 E3.6239
G1 X89.316 Y94.747 E3.7018
G1 X89.995 Y94.747 E3.7377
G1 X88.951 Y93.703 E3.8157
G1 X89.630 Y93.703 E3.8515
G1 X90.674 Y94.747 E3.9295
G1 X91.353 Y94.747 E3.9653
G1 X90.309 Y93.703 E4.0433
G1 X90.988 Y93.703 E4.0791
G1 X92.032 Y94.747 E4.1571
G1 X92.711 Y94.747 E4.1929
G1 X91.667 Y93.703 E4.2709
G1 X92.345 Y93.703 E4.3067
G1 X93.389 Y94.747 E4.3847
G1 X94.068 Y94.747 E4.4205
G1 X93.024 Y93.703 E4.4985
G1 X93.703 Y93.703 E4.5343
G1 X94.747 Y94.747 E4.6123
G1 X95.426 Y94.747 E4.6481
G1 X94.382 Y93.703 E4.7261
G1 X95.061 Y93.703 E4.7619
G1 X96.105 Y94.747 E4.8399
G1 X96.783 Y94.747 E4.8758
G1 X95.739 Y93.703 E4.9537
G1 X96.418 Y93.703 E4.9896
G1 X97.462 Y94.747 E5.0675
G1 X98.141 Y94.747 E5.1034
G1 X97.097 Y93.703 E5.1813
G1 X97.776 Y93.703 E5.2172
G1 X98.820 Y94.747 E5.2951
G1 X99.499 Y94.747 E5.3310
G1 X98.455 Y93.703 E5.4089
G1 X99.134 Y93.703 E5.4448
G1 X100.178 Y94.747 E5.5227
G1 X100.856 Y94.747 E5.5586
G1 X99.812 Y93.703 E5.6365
G1 X100.491 Y93.703 E5.6724
G1 X101.535 Y94.747 E5.7504
G1 X102.214 Y94.747 E5.7862
G1 X101.170 Y93.703 E5.8642
G1 X101.849 Y93.703 E5.9000
G1 X102.893 Y94.747 E5.9780
G1 X103.572 Y94.747 E6.0138
G1 X102.528 Y93.703 E6.0918
G1 X103.207 Y93.703 E6.1276
G1 X104.251 Y94.747 E6.2056
G1 X104.929 Y94.747 E6.2414
G1 X103.885 Y93.703 E6.3194
G1 X104.564 Y93.703 E6.3552
G1 X105.608 Y94.747 E6.4332
G1 X106.287 Y94.747 E6.4690
G1 X105.243 Y93.703 E6.5470
G1 X105.922 Y93.703 E6.5828
G1 X106.966 Y94.747 E6.6608
G1 X107.645 Y94.747 E6.6966
G1 X106.601 Y93.703 E6.7746
G1 X107.279 Y93.703 E6.8105
G1 X108.323 Y94.747 E6.8884
G1 X109.002 Y94.747 E6.9243
G1 X107.958 Y93.703 E7.0022
G1 X108.637 Y93.703 E7.0381
G1 X109.681 Y94.747 E7.1160
G1 X110.360 Y94.747 E7.1519
G1 X109.316 Y93.703 E7.2298
G1 X109.995 Y93.703 E7.2657
G1 X111.039 Y94.747 E7.3436
G1 X111.718 Y94.747 E7.3795
G1 X110.674 Y93.703 E7.4574
G1 X111.352 Y93.703 E7.4933
G1 X112.396 Y94.747 E7.5713
G1 X113.075 Y94.747 E7.6071
G1 X112.031 Y93.703 E7.6851
G1 X112.710 Y93.703 E7.7209
G1 X113.754 Y94.747 E7.7989
G1 X114.433 Y94.747 E7.8347
G1 X113.389 Y93.703 E7.9127
G1 X114.068 Y93.703 E7.9485
G1 X115.112 Y94.747 E8.0265
G1 X115.791 Y94.747 E8.0623
G1 X114.747 Y93.703 E8.1403
G1 X115.425 Y93.703 E8.1761
G1 X116.469 Y94.747 E8.2541
G1 X117.148 Y94.747 E8.2899
G1 X116.104 Y93.703 E8.3679
G1 X116.783 Y93.703 E8.4037
G1 X117.827 Y94.747 E8.4817
G1 X118.506 Y94.747 E8.5175
G1 X117.462 Y93.703 E8.5955
G1 X118.141 Y93.703 E8.6313
G1 X119.185 Y94.747 E8.7093
G1 X119.863 Y94.747 E8.7452
G1 X118.819 Y93.703 E8.8231
G1 X119.498 Y93.703 E8.8590
G1 X121.642 Y95.847 E9.0191
G1 X122.321 Y95.847 E9.0549
G1 X120.177 Y93.703 E9.2150
G1 X120.856 Y93.703 E9.2509
G1 X123.000 Y95.847 E9.4110
G1 X123.679 Y95.847 E9.4468
G1 X121.535 Y93.703 E9.6069
G1 X122.214 Y93.703 E9.6428
G1 X124.358 Y95.847 E9.8029
G1 X125.036 Y95.847 E9.8387
G1 X122.892 Y93.703 E9.9988
G1 X123.571 Y93.703 E10.0347
G1 X125.715 Y95.847 E10.1948
G1 X126.394 Y95.847 E10.2306
G1 X124.250 Y93.703 E10.3907
G1 X124.929 Y93.703 E10.4266
G1 X127.073 Y95.847 E10.5867
G1 X127.343 Y95.847 E10.6009
G1 X127.343 Y95.438 E10.6225
G1 X125.608 Y93.703 E10.7520
G1 X126.286 Y93.703 E10.7879
G1 X127.343 Y94.759 E10.8668
G1 X127.343 Y94.080 E10.9026
G1 X126.965 Y93.703 E10.9308
G1 X120.091 Y94.974 F4800
G92 E0.0000
G1 X120.963 Y95.847 E0.0652 F1440
G1 X120.285 Y95.847 E0.1010
G1 X120.091 Y95.653 E0.1155
G92 E0.0000
G1 E-0.7000 F1500
; feature support
G1 X103.970 Y105.760 F4800
G1 E0.0000 F1500
G92 E0.0000
G1 X96.030 Y105.760 E0.4193 F1440
G1 X96.030 Y103.840 E0.5206
G1 X103.970 Y103.840 E0.9399
G1 X103.970 Y101.920 E1.0413
G1 X96.030 Y101.920 E1.4606
G1 X96.030 Y100.000 E1.5619
G1 X103.970 Y100.000 E1.9812
G1 X103.970 Y98.080 E2.0826
G1 X96.030 Y98.080 E2.5018
G92 E0.0000
G1 E-0.7000 F1500
; layer 2, Z = 0.570
M106 S255
; feature inner perimeter
; tool H0.300 W0.480
G1 Z0.570 F1002
G1 X80.923 Y96.255 F4800
G1 E0.0000 F1500
G92 E0.0000
G1 X72.303 Y96.255 E0.5058 F2182
G1 X72.303 Y93.295 E0.6794
G1 X127.697 Y93.295 E3.9295
G1 X127.697 Y96.255 E4.1031
G1 X119.076 Y96.255 E4.6089
G1 X119.076 Y95.155 E4.6735
G1 X80.923 Y95.155 E6.9119
G1 X80.923 Y96.255 E6.9765
; feature outer perimeter
G1 X81.403 Y96.735 F4800
G92 E0.0000
G1 X71.823 Y96.735 E0.5621 F1455
G1 X71.823 Y92.815 E0.7921
G1 X128.177 Y92.815 E4.0984
G1 X128.177 Y96.735 E4.3284
G1 X118.596 Y96.735 E4.8906
G1 X118.596 Y95.635 E4.9551
G1 X81.403 Y95.635 E7.1372
G1 X81.403 Y96.735 E7.2018
; feature solid layer
G1 X80.515 Y95.726 F4800
G92 E0.0000
G1 X80.394 Y95.847 E0.0100 F2328
G1 X79.715 Y95.847 E0.0499
G1 X80.515 Y95.047 E0.1162
G1 X80.515 Y94.747 E0.1338
G1 X80.815 Y94.747 E0.1515
G1 X81.859 Y93.703 E0.2381
G1 X81.181 Y93.703 E0.2779
G1 X79.037 Y95.847 E0.4558
G1 X78.358 Y95.847 E0.4956
G1 X80.502 Y93.703 E0.6735
G1 X79.823 Y93.703 E0.7133
G1 X77.679 Y95.847 E0.8912
G1 X77.000 Y95.847 E0.9311
G1 X79.144 Y93.703 E1.1090
G1 X78.465 Y93.703 E1.1488
G1 X76.321 Y95.847 E1.3267
G1 X75.643 Y95.847 E1.3665
G1 X77.787 Y93.703 E1.5444
G1 X77.108 Y93.703 E1.5842
G1 X74.964 Y95.847 E1.7621
G1 X74.285 Y95.847 E1.8019
G1 X76.429 Y93.703 E1.9798
G1 X75.750 Y93.703 E2.0197
G1 X73.606 Y95.847 E2.1976
G1 X72.927 Y95.847 E2.2374
G1 X75.071 Y93.703 E2.4153
G1 X74.392 Y93.703 E2.4551
G1 X72.711 Y95.385 E2.5946
G1 X72.711 Y94.706 E2.6345
G1 X73.714 Y93.703 E2.7177
G1 X73.035 Y93.703 E2.7575
G1 X72.711 Y94.027 E2.7844
G1 X81.494 Y94.747 F4800
G92 E0.0000
G1 X82.538 Y93.703 E0.0866 F2328
G1 X83.217 Y93.703 E0.1265
G1 X82.173 Y94.747 E0.2131
G1 X82.852 Y94.747 E0.2529
G1 X83.896 Y93.703 E0.3395
G1 X84.575 Y93.703 E0.3794
G1 X83.531 Y94.747 E0.4660
G1 X84.210 Y94.747 E0.5058
G1 X85.254 Y93.703 E0.5924
G1 X85.932 Y93.703 E0.6323
G1 X84.888 Y94.747 E0.7189
G1 X85.567 Y94.747 E0.7587
G1 X86.611 Y93.703 E0.8453
G1 X87.290 Y93.703 E0.8852
G1 X86.246 Y94.747 E0.9718
G1 X86.925 Y94.747 E1.0116
G1 X87.969 Y93.703 E1.0982
G1 X88.648 Y93.703 E1.1381
G1 X87.604 Y94.747 E1.2247
G1 X88.282 Y94.747 E1.2645
G1 X89.326 Y93.703 E1.3511
G1 X90.005 Y93.703 E1.3910
G1 X88.961 Y94.747 E1.4776
G1 X89.640 Y94.747 E1.5174
G1 X90.684 Y93.703 E1.6040
G1 X91.363 Y93.703 E1.6439
G1 X90.319 Y94.747 E1.7305
G1 X90.998 Y94.747 E1.7703
G1 X92.042 Y93.703 E1.8569
G1 X92.721 Y93.703 E1.8968
G1 X91.677 Y94.747 E1.9834
G1 X92.355 Y94.747 E2.0232
G1 X93.399 Y93.703 E2.1098
G1 X94.078 Y93.703 E2.1497
G1 X93.034 Y94.747 E2.2363
G1 X93.713 Y94.747 E2.2761
G1 X94.757 Y93.703 E2.3627
G1 X95.436 Y93.703 E2.4026
G1 X94.392 Y94.747 E2.4892
G1 X95.071 Y94.747 E2.5290
G1 X96.115 Y93.703 E2.6156
G1 X96.794 Y93.703 E2.6555
G1 X95.750 Y94.747 E2.7421
G1 X96.428 Y94.747 E2.7819
G1 X97.472 Y93.703 E2.8685
G1 X98.151 Y93.703 E2.9084
