; G-Code generated by Simplify3D(R) Version 4.1.1
; Apr 25, 2021 at 7:19:23 PM
; Settings Summary
;   processName,Trideo BOX
;   applyToModels,AtomicLabCover
;   profileName,Trideo BOX
;   profileVersion,2021-04-15 09:48:16
;   baseProfile,Default
;   printMaterial,PLA
;   printQuality,Fast
;   printExtruders,
;   extruderName,Primary Extruder
;   extruderToolheadNumber,0
;   extruderDiameter,0.4
;   extruderAutoWidth,1
;   extruderWidth,0.48
;   extrusionMultiplier,0.98
;   extruderUseRetract,1
;   extruderRetractionDistance,0.7
;   extruderExtraRestartDistance,0
;   extruderRetractionZLift,0
;   extruderRetractionSpeed,1500
;   extruderUseCoasting,0
;   extruderCoastingDistance,0.2
;   extruderUseWipe,0
;   extruderWipeDistance,5
;   primaryExtruder,0
;   layerHeight,0.3
;   topSolidLayers,3
;   bottomSolidLayers,3
;   perimeterOutlines,2
;   printPerimetersInsideOut,1
;   startPointOption,2
;   startPointOriginX,0
;   startPointOriginY,0
;   sequentialIslands,0
;   spiralVaseMode,0
;   firstLayerHeightPercentage,90
;   firstLayerWidthPercentage,100
;   firstLayerUnderspeed,0.5
;   useRaft,0
;   raftExtruder,0
;   raftTopLayers,3
;   raftBaseLayers,2
;   raftOffset,3
;   raftSeparationDistance,0.14
;   raftTopInfill,100
;   aboveRaftSpeedMultiplier,0.3
;   useSkirt,1
;   skirtExtruder,0
;   skirtLayers,1
;   skirtOutlines,2
;   skirtOffset,4
;   usePrimePillar,0
;   primePillarExtruder,999
;   primePillarWidth,12
;   primePillarLocation,7
;   primePillarSpeedMultiplier,1
;   useOozeShield,0
;   oozeShieldExtruder,999
;   oozeShieldOffset,2
;   oozeShieldOutlines,1
;   oozeShieldSidewallShape,1
;   oozeShieldSidewallAngle,30
;   oozeShieldSpeedMultiplier,1
;   infillExtruder,0
;   internalInfillPattern,Rectilinear
;   externalInfillPattern,Rectilinear
;   infillPercentage,15
;   outlineOverlapPercentage,15
;   infillExtrusionWidthPercentage,100
;   minInfillLength,5
;   infillLayerInterval,1
;   internalInfillAngles,45,-45
;   overlapInternalInfillAngles,0
;   externalInfillAngles,45,-45
;   generateSupport,1
;   supportExtruder,0
;   supportInfillPercentage,25
;   supportExtraInflation,0
;   supportBaseLayers,0
;   denseSupportExtruder,0
;   denseSupportLayers,0
;   denseSupportInfillPercentage,70
;   supportLayerInterval,1
;   supportHorizontalPartOffset,0.3
;   supportUpperSeparationLayers,1
;   supportLowerSeparationLayers,1
;   supportType,0
;   supportGridSpacing,4
;   maxOverhangAngle,45
;   supportAngles,0
;   temperatureName,Primary Extruder,Heated bed
;   temperatureNumber,0,0
;   temperatureSetpointCount,1,1
;   temperatureSetpointLayers,1,1
;   temperatureSetpointTemperatures,190,60
;   temperatureStabilizeAtStartup,1,1
;   temperatureHeatedBed,0,1
;   fanLayers,1,2
;   fanSpeeds,0,100
;   blipFanToFullPower,0
;   adjustSpeedForCooling,1
;   minSpeedLayerTime,15
;   minCoolingSpeedSlowdown,20
;   increaseFanForCooling,0
;   minFanLayerTime,45
;   maxCoolingFanSpeed,100
;   increaseFanForBridging,0
;   bridgingFanSpeed,100
;   use5D,1
;   relativeEdistances,0
;   allowEaxisZeroing,1
;   independentExtruderAxes,0
;   includeM10123,0
;   stickySupport,1
;   applyToolheadOffsets,0
;   gcodeXoffset,0
;   gcodeYoffset,0
;   gcodeZoffset,0
;   overrideMachineDefinition,1
;   machineTypeOverride,0
;   strokeXoverride,200
;   strokeYoverride,200
;   strokeZoverride,200
;   originOffsetXoverride,0
;   originOffsetYoverride,0
;   originOffsetZoverride,0
;   homeXdirOverride,-1
;   homeYdirOverride,-1
;   homeZdirOverride,-1
;   flipXoverride,1
;   flipYoverride,-1
;   flipZoverride,1
;   toolheadOffsets,0,0|0,0|0,0|0,0|0,0|0,0
;   overrideFirmwareConfiguration,0
;   firmwareTypeOverride,RepRap (Marlin/Repetier/Sprinter)
;   GPXconfigOverride,r2
;   baudRateOverride,115200
;   overridePrinterModels,0
;   printerModelsOverride
;   startingGcode,G28 X0 Y0; home XY,G1 X20 Y20,G28 Z0,G1 Z5 F5000; Lift NZ
;   layerChangeGcode,
;   retractionGcode,
;   toolChangeGcode,
;   endingGcode,M104 S0 ; turn off extruder,G28 X0 ; home x,M140 S0 ; turn off bed,M84 ; disable motors,M107 ;
;   exportFileFormat,gcode
;   celebration,0
;   celebrationSong,Looney Toons
;   postProcessing,
;   defaultSpeed,3600
;   outlineUnderspeed,0.5
;   solidInfillUnderspeed,0.8
;   supportUnderspeed,0.8
;   rapidXYspeed,4800
;   rapidZspeed,1002
;   minBridgingArea,50
;   bridgingExtraInflation,0
;   bridgingExtrusionMultiplier,1
;   bridgingSpeedMultiplier,1
;   useFixedBridgingAngle,0
;   fixedBridgingAngle,0
;   applyBridgingToPerimeters,0
;   filamentDiameters,1.75|1.75|1.75|1.75|1.75|1.75
;   filamentPricesPerKg,46|46|46|46|46|46
;   filamentDensities,1.25|1.25|1.25|1.25|1.25|1.25
;   useMinPrintHeight,0
;   minPrintHeight,0
;   useMaxPrintHeight,0
;   maxPrintHeight,0
;   useDiaphragm,0
;   diaphragmLayerInterval,20
;   robustSlicing,1
;   mergeAllIntoSolid,0
;   onlyRetractWhenCrossingOutline,1
;   retractBetweenLayers,1
;   useRetractionMinTravel,0
;   retractionMinTravel,3
;   retractWhileWiping,0
;   onlyWipeOutlines,1
;   avoidCrossingOutline,0
;   maxMovementDetourFactor,3
;   toolChangeRetractionDistance,12
;   toolChangeExtraRestartDistance,-0.5
;   toolChangeRetractionSpeed,600
;   externalThinWallType,0
;   internalThinWallType,2
;   thinWallAllowedOverlapPercentage,10
;   singleExtrusionMinLength,1
;   singleExtrusionMinPrintingWidthPercentage,50
;   singleExtrusionMaxPrintingWidthPercentage,200
;   singleExtrusionEndpointExtension,0.2
;   horizontalSizeCompensation,0
G90
M82
M106 S0
M140 S60
M190 S60
M104 S190 T0
M109 S190 T0
G28 X0 Y0; home XY
G1 X20 Y20
G28 Z0
G1 Z5 F5000; Lift NZ
; process Trideo BOX
; layer 1, Z = 0.270
T0
G92 E0.0000
G1 E-0.7000 F1500
; feature skirt
; tool H0.270 W0.480
G1 Z0.270 F1002
G1 X66.984 Y87.180 F4800
G1 E0.0000 F1500
G92 E0.0000
G1 X133.016 Y87.180 E3.4868 F1800
G1 X135.781 Y89.945 E3.6932
G1 X135.781 Y98.655 E4.1532
G1 X133.016 Y101.420 E4.3596
G1 X118.758 Y101.420 E5.1125
G1 X117.558 Y100.220 E5.2021
G1 X106.940 Y100.220 E5.7628
G1 X106.940 Y106.175 E6.0772
G1 X104.175 Y108.940 E6.2837
G1 X95.825 Y108.940 E6.7246
G1 X93.060 Y106.175 E6.9311
G1 X93.060 Y100.220 E7.2456
G1 X82.442 Y100.220 E7.8062
G1 X81.242 Y101.420 E7.8958
G1 X66.984 Y101.420 E8.6487
G1 X64.219 Y98.655 E8.8552
G1 X64.219 Y89.945 E9.3151
G1 X66.984 Y87.180 E9.5216
G92 E0.0000
G1 E-0.7000 F1500
G1 X67.183 Y87.660 F4800
G1 E0.0000 F1500
G92 E0.0000
G1 X132.817 Y87.660 E3.4658 F1800
G1 X135.301 Y90.144 E3.6512
G1 X135.301 Y98.456 E4.0902
G1 X132.817 Y100.940 E4.2756
G1 X118.956 Y100.940 E5.0075
G1 X117.756 Y99.740 E5.0972
G1 X106.460 Y99.740 E5.6937
G1 X106.460 Y105.976 E6.0229
G1 X103.976 Y108.460 E6.2084
G1 X96.024 Y108.460 E6.6283
G1 X93.540 Y105.976 E6.8138
G1 X93.540 Y99.740 E7.1431
G1 X82.243 Y99.740 E7.7396
G1 X81.043 Y100.940 E7.8292
G1 X67.183 Y100.940 E8.5611
G1 X64.699 Y98.456 E8.7466
G1 X64.699 Y90.144 E9.1855
G1 X67.183 Y87.660 E9.3710
G92 E0.0000
G1 E-0.7000 F1500
; feature inner perimeter
G1 X69.659 Y92.620 F4800
G1 E0.0000 F1500
G92 E0.0000
G1 X130.341 Y92.620 E3.2042 F1350
G1 X130.341 Y95.980 E3.3817
G1 X121.433 Y95.980 E3.8521
G1 X121.433 Y94.780 E3.9154
G1 X78.567 Y94.780 E6.1789
G1 X78.567 Y95.980 E6.2423
G1 X69.659 Y95.980 E6.7126
G1 X69.659 Y92.620 E6.8901
; feature outer perimeter
G1 X69.179 Y92.140 F4800
G92 E0.0000
G1 X130.821 Y92.140 E3.2549 F900
G1 X130.821 Y96.460 E3.4830
G1 X120.953 Y96.460 E4.0041
G1 X120.953 Y95.260 E4.0675
G1 X79.047 Y95.260 E6.2803
G1 X79.047 Y96.460 E6.3436
G1 X69.179 Y96.460 E6.8647
G1 X69.179 Y92.140 E7.0928
; feature solid layer
G1 X70.067 Y95.183 F4800
G92 E0.0000
G1 X70.456 Y95.572 E0.0290 F1440
G1 X71.134 Y95.572 E0.0649
G1 X70.067 Y94.505 E0.1446
G1 X70.067 Y93.826 E0.1804
G1 X71.813 Y95.572 E0.3108
G1 X72.492 Y95.572 E0.3467
G1 X70.067 Y93.147 E0.5278
G1 X70.067 Y93.028 E0.5340
G1 X70.627 Y93.028 E0.5636
G1 X73.171 Y95.572 E0.7536
G1 X73.850 Y95.572 E0.7894
G1 X71.306 Y93.028 E0.9794
G1 X71.985 Y93.028 E1.0152
G1 X74.529 Y95.572 E1.2052
G1 X75.207 Y95.572 E1.2411
G1 X72.663 Y93.028 E1.4310
G1 X73.342 Y93.028 E1.4669
G1 X75.886 Y95.572 E1.6569
G1 X76.565 Y95.572 E1.6927
G1 X74.021 Y93.028 E1.8827
G1 X74.700 Y93.028 E1.9185
G1 X77.244 Y95.572 E2.1085
G1 X77.923 Y95.572 E2.1443
G1 X75.379 Y93.028 E2.3343
G1 X76.057 Y93.028 E2.3702
G1 X78.159 Y95.130 E2.5271
G1 X78.159 Y94.451 E2.5629
G1 X76.736 Y93.028 E2.6692
G1 X77.415 Y93.028 E2.7050
G1 X78.759 Y94.372 E2.8054
G1 X79.438 Y94.372 E2.8413
G1 X78.094 Y93.028 E2.9416
G1 X78.773 Y93.028 E2.9775
G1 X80.117 Y94.372 E3.0778
G1 X80.796 Y94.372 E3.1137
G1 X79.452 Y93.028 E3.2140
G1 X80.130 Y93.028 E3.2499
G1 X81.474 Y94.372 E3.3502
G1 X82.153 Y94.372 E3.3861
G1 X80.809 Y93.028 E3.4864
G1 X81.488 Y93.028 E3.5223
G1 X82.832 Y94.372 E3.6227
G1 X83.511 Y94.372 E3.6585
G1 X82.167 Y93.028 E3.7589
G1 X82.846 Y93.028 E3.7947
G1 X84.190 Y94.372 E3.8951
G1 X84.869 Y94.372 E3.9309
G1 X83.525 Y93.028 E4.0313
G1 X84.203 Y93.028 E4.0671
G1 X85.547 Y94.372 E4.1675
G1 X86.226 Y94.372 E4.2033
G1 X84.882 Y93.028 E4.3037
G1 X85.561 Y93.028 E4.3395
G1 X86.905 Y94.372 E4.4399
G1 X87.584 Y94.372 E4.4758
G1 X86.240 Y93.028 E4.5761
G1 X86.919 Y93.028 E4.6120
G1 X88.263 Y94.372 E4.7123
G1 X88.941 Y94.372 E4.7482
G1 X87.597 Y93.028 E4.8485
G1 X88.276 Y93.028 E4.8844
G1 X89.620 Y94.372 E4.9847
G1 X90.299 Y94.372 E5.0206
G1 X88.955 Y93.028 E5.1210
G1 X89.634 Y93.028 E5.1568
G1 X90.978 Y94.372 E5.2572
G1 X91.657 Y94.372 E5.2930
G1 X90.313 Y93.028 E5.3934
G1 X90.992 Y93.028 E5.4292
G1 X92.336 Y94.372 E5.5296
G1 X93.014 Y94.372 E5.5654
G1 X91.670 Y93.028 E5.6658
G1 X92.349 Y93.028 E5.7016
G1 X93.693 Y94.372 E5.8020
G1 X94.372 Y94.372 E5.8378
G1 X93.028 Y93.028 E5.9382
G1 X93.707 Y93.028 E5.9741
G1 X95.051 Y94.372 E6.0744
G1 X95.730 Y94.372 E6.1103
G1 X94.386 Y93.028 E6.2106
G1 X95.064 Y93.028 E6.2465
G1 X96.408 Y94.372 E6.3468
G1 X97.087 Y94.372 E6.3827
G1 X95.743 Y93.028 E6.4830
G1 X96.422 Y93.028 E6.5189
G1 X97.766 Y94.372 E6.6193
G1 X98.445 Y94.372 E6.6551
G1 X97.101 Y93.028 E6.7555
G1 X97.780 Y93.028 E6.7913
G1 X99.124 Y94.372 E6.8917
G1 X99.803 Y94.372 E6.9275
G1 X98.459 Y93.028 E7.0279
G1 X99.137 Y93.028 E7.0637
G1 X100.481 Y94.372 E7.1641
G1 X101.160 Y94.372 E7.1999
G1 X99.816 Y93.028 E7.3003
G1 X100.495 Y93.028 E7.3361
G1 X101.839 Y94.372 E7.4365
G1 X102.518 Y94.372 E7.4723
G1 X101.174 Y93.028 E7.5727
G1 X101.853 Y93.028 E7.6086
G1 X103.197 Y94.372 E7.7089
G1 X103.876 Y94.372 E7.7448
G1 X102.532 Y93.028 E7.8451
G1 X103.210 Y93.028 E7.8810
G1 X104.554 Y94.372 E7.9813
G1 X105.233 Y94.372 E8.0172
G1 X103.889 Y93.028 E8.1175
G1 X104.568 Y93.028 E8.1534
G1 X105.912 Y94.372 E8.2538
G1 X106.591 Y94.372 E8.2896
G1 X105.247 Y93.028 E8.3900
G1 X105.926 Y93.028 E8.4258
G1 X107.270 Y94.372 E8.5262
G1 X107.948 Y94.372 E8.5620
G1 X106.604 Y93.028 E8.6624
G1 X107.283 Y93.028 E8.6982
G1 X108.627 Y94.372 E8.7986
G1 X109.306 Y94.372 E8.8344
G1 X107.962 Y93.028 E8.9348
G1 X108.641 Y93.028 E8.9706
G1 X109.985 Y94.372 E9.0710
G1 X110.664 Y94.372 E9.1069
G1 X109.320 Y93.028 E9.2072
G1 X109.999 Y93.028 E9.2431
G1 X111.343 Y94.372 E9.3434
G1 X112.021 Y94.372 E9.3793
G1 X110.677 Y93.028 E9.4796
G1 X111.356 Y93.028 E9.5155
G1 X112.700 Y94.372 E9.6158
G1 X113.379 Y94.372 E9.6517
G1 X112.035 Y93.028 E9.7521
G1 X112.714 Y93.028 E9.7879
G1 X114.058 Y94.372 E9.8883
G1 X114.737 Y94.372 E9.9241
G1 X113.393 Y93.028 E10.0245
G1 X114.072 Y93.028 E10.0603
G1 X115.416 Y94.372 E10.1607
G1 X116.094 Y94.372 E10.1965
G1 X114.750 Y93.028 E10.2969
G1 X115.429 Y93.028 E10.3327
G1 X116.773 Y94.372 E10.4331
G1 X117.452 Y94.372 E10.4689
G1 X116.108 Y93.028 E10.5693
G1 X116.787 Y93.028 E10.6051
G1 X118.131 Y94.372 E10.7055
G1 X118.810 Y94.372 E10.7414
G1 X117.466 Y93.028 E10.8417
G1 X118.144 Y93.028 E10.8776
G1 X119.488 Y94.372 E10.9779
G1 X120.167 Y94.372 E11.0138
G1 X118.823 Y93.028 E11.1141
G1 X119.502 Y93.028 E11.1500
G1 X120.846 Y94.372 E11.2503
G1 X121.525 Y94.372 E11.2862
G1 X120.181 Y93.028 E11.3866
G1 X120.860 Y93.028 E11.4224
G1 X123.404 Y95.572 E11.6124
G1 X124.083 Y95.572 E11.6482
G1 X121.539 Y93.028 E11.8382
G1 X122.217 Y93.028 E11.8740
G1 X124.761 Y95.572 E12.0640
G1 X125.440 Y95.572 E12.0999
G1 X122.896 Y93.028 E12.2898
G1 X123.575 Y93.028 E12.3257
G1 X126.119 Y95.572 E12.5157
G1 X126.798 Y95.572 E12.5515
G1 X124.254 Y93.028 E12.7415
G1 X124.933 Y93.028 E12.7773
G1 X127.477 Y95.572 E12.9673
G1 X128.155 Y95.572 E13.0031
G1 X125.611 Y93.028 E13.1931
G1 X126.290 Y93.028 E13.2290
G1 X128.834 Y95.572 E13.4189
G1 X129.513 Y95.572 E13.4548
G1 X126.969 Y93.028 E13.6447
G1 X127.648 Y93.028 E13.6806
G1 X129.933 Y95.313 E13.8512
G1 X129.933 Y94.634 E13.8871
G1 X128.327 Y93.028 E14.0070
G1 X129.006 Y93.028 E14.0429
G1 X129.933 Y93.955 E14.1121
G1 X129.933 Y93.277 E14.1480
G1 X129.684 Y93.028 E14.1665
G1 X121.841 Y94.688 F4800
G92 E0.0000
G1 X122.725 Y95.572 E0.0660 F1440
G1 X122.046 Y95.572 E0.1019
G1 X121.841 Y95.367 E0.1172
G92 E0.0000
G1 E-0.7000 F1500
; feature support
G1 X101.970 Y103.840 F4800
G1 E0.0000 F1500
G92 E0.0000
G1 X98.030 Y103.840 E0.2080 F1440
G1 X98.030 Y101.920 E0.3094
G1 X101.970 Y101.920 E0.5175
G1 X101.970 Y100.000 E0.6189
G1 X98.030 Y100.000 E0.8269
G1 X98.030 Y98.080 E0.9283
G1 X101.970 Y98.080 E1.1363
G1 X101.970 Y96.160 E1.2377
G1 X98.030 Y96.160 E1.4458
G92 E0.0000
G1 E-0.7000 F1500
; layer 2, Z = 0.570
M106 S255
; feature inner perimeter
; tool H0.300 W0.480
G1 Z0.570 F1002
G1 X79.173 Y95.980 F4800
G1 E0.0000 F1500
G92 E0.0000
G1 X69.712 Y95.980 E0.5551 F2452
G1 X69.712 Y92.620 E0.7522
G1 X130.288 Y92.620 E4.3062
G1 X130.288 Y95.980 E4.5034
G1 X120.826 Y95.980 E5.0585
G1 X120.826 Y94.780 E5.1289
G1 X79.173 Y94.780 E7.5727
G1 X79.173 Y95.980 E7.6431
; feature outer perimeter
G1 X79.653 Y96.460 F4800
G92 E0.0000
G1 X69.232 Y96.460 E0.6114 F1635
G1 X69.232 Y92.140 E0.8649
G1 X130.768 Y92.140 E4.4752
G1 X130.768 Y96.460 E4.7287
G1 X120.346 Y96.460 E5.3401
G1 X120.346 Y95.260 E5.4105
G1 X79.653 Y95.260 E7.7980
G1 X79.653 Y96.460 E7.8684
; feature solid layer
G1 X78.765 Y95.440 F4800
G92 E0.0000
G1 X78.633 Y95.572 E0.0110 F2616
G1 X77.954 Y95.572 E0.0508
G1 X78.765 Y94.761 E0.1181
G1 X78.765 Y94.372 E0.1409
G1 X79.154 Y94.372 E0.1637
G1 X80.498 Y93.028 E0.2753
G1 X79.819 Y93.028 E0.3151
G1 X77.275 Y95.572 E0.5262
G1 X76.596 Y95.572 E0.5660
G1 X79.140 Y93.028 E0.7771
G1 X78.462 Y93.028 E0.8169
G1 X75.918 Y95.572 E1.0280
G1 X75.239 Y95.572 E1.0678
G1 X77.783 Y93.028 E1.2789
G1 X77.104 Y93.028 E1.3187
G1 X74.560 Y95.572 E1.5298
G1 X73.881 Y95.572 E1.5696
G1 X76.425 Y93.028 E1.7807
G1 X75.746 Y93.028 E1.8205
G1 X73.202 Y95.572 E2.0316
G1 X72.523 Y95.572 E2.0715
G1 X75.067 Y93.028 E2.2825
G1 X74.389 Y93.028 E2.3224
G1 X71.845 Y95.572 E2.5334
G1 X71.166 Y95.572 E2.5733
G1 X73.710 Y93.028 E2.7844
G1 X73.031 Y93.028 E2.8242
G1 X70.487 Y95.572 E3.0353
G1 X70.120 Y95.572 E3.0568
G1 X70.120 Y95.260 E3.0751
G1 X72.352 Y93.028 E3.2603
G1 X71.673 Y93.028 E3.3001
G1 X70.120 Y94.581 E3.4290
G1 X70.120 Y93.902 E3.4688
G1 X70.994 Y93.028 E3.5413
G1 X70.316 Y93.028 E3.5811
G1 X70.120 Y93.223 E3.5974
G1 X79.833 Y94.372 F4800
G92 E0.0000
G1 X81.177 Y93.028 E0.1115 F2616
G1 X81.856 Y93.028 E0.1513
G1 X80.512 Y94.372 E0.2629
G1 X81.190 Y94.372 E0.3027
G1 X82.534 Y93.028 E0.4142
G1 X83.213 Y93.028 E0.4540
G1 X81.869 Y94.372 E0.5655
G1 X82.548 Y94.372 E0.6054
G1 X83.892 Y93.028 E0.7169
G1 X84.571 Y93.028 E0.7567
G1 X83.227 Y94.372 E0.8682
G1 X83.906 Y94.372 E0.9081
G1 X85.250 Y93.028 E1.0196
G1 X85.929 Y93.028 E1.0594
G1 X84.585 Y94.372 E1.1709
G1 X85.263 Y94.372 E1.2107
G1 X86.607 Y93.028 E1.3223
G1 X87.286 Y93.028 E1.3621
G1 X85.942 Y94.372 E1.4736
G1 X86.621 Y94.372 E1.5134
G1 X87.965 Y93.028 E1.6249
G1 X88.644 Y93.028 E1.6648
G1 X87.300 Y94.372 E1.7763
G1 X87.979 Y94.372 E1.8161
G1 X89.323 Y93.028 E1.9276
G1 X90.001 Y93.028 E1.9675
G1 X88.657 Y94.372 E2.0790
G1 X89.336 Y94.372 E2.1188
G1 X90.680 Y93.028 E2.2303
G1 X91.359 Y93.028 E2.2701
G1 X90.015 Y94.372 E2.3817
G1 X90.694 Y94.372 E2.4215
G1 X92.038 Y93.028 E2.5330
G1 X92.717 Y93.028 E2.5728
G1 X91.373 Y94.372 E2.6843
G1 X92.052 Y94.372 E2.7242
G1 X93.396 Y93.028 E2.8357
G1 X94.074 Y93.028 E2.8755
G1 X92.730 Y94.372 E2.9870
