; G-Code generated by Simplify3D(R) Version 4.1.1
; Apr 25, 2021 at 7:16:52 PM
; Settings Summary
;   processName,Trideo BOX
;   applyToModels,AtomicLabCover
;   profileName,Trideo BOX
;   profileVersion,2021-04-15 09:48:16
;   baseProfile,Default
;   printMaterial,PLA
;   printQuality,Fast
;   printExtruders,
;   extruderName,Primary Extruder
;   extruderToolheadNumber,0
;   extruderDiameter,0.4
;   extruderAutoWidth,1
;   extruderWidth,0.48
;   extrusionMultiplier,0.98
;   extruderUseRetract,1
;   extruderRetractionDistance,0.7
;   extruderExtraRestartDistance,0
;   extruderRetractionZLift,0
;   extruderRetractionSpeed,1500
;   extruderUseCoasting,0
;   extruderCoastingDistance,0.2
;   extruderUseWipe,0
;   extruderWipeDistance,5
;   primaryExtruder,0
;   layerHeight,0.3
;   topSolidLayers,3
;   bottomSolidLayers,3
;   perimeterOutlines,2
;   printPerimetersInsideOut,1
;   startPointOption,2
;   startPointOriginX,0
;   startPointOriginY,0
;   sequentialIslands,0
;   spiralVaseMode,0
;   firstLayerHeightPercentage,90
;   firstLayerWidthPercentage,100
;   firstLayerUnderspeed,0.5
;   useRaft,0
;   raftExtruder,0
;   raftTopLayers,3
;   raftBaseLayers,2
;   raftOffset,3
;   raftSeparationDistance,0.14
;   raftTopInfill,100
;   aboveRaftSpeedMultiplier,0.3
;   useSkirt,1
;   skirtExtruder,0
;   skirtLayers,1
;   skirtOutlines,2
;   skirtOffset,4
;   usePrimePillar,0
;   primePillarExtruder,999
;   primePillarWidth,12
;   primePillarLocation,7
;   primePillarSpeedMultiplier,1
;   useOozeShield,0
;   oozeShieldExtruder,999
;   oozeShieldOffset,2
;   oozeShieldOutlines,1
;   oozeShieldSidewallShape,1
;   oozeShieldSidewallAngle,30
;   oozeShieldSpeedMultiplier,1
;   infillExtruder,0
;   internalInfillPattern,Rectilinear
;   externalInfillPattern,Rectilinear
;   infillPercentage,15
;   outlineOverlapPercentage,15
;   infillExtrusionWidthPercentage,100
;   minInfillLength,5
;   infillLayerInterval,1
;   internalInfillAngles,45,-45
;   overlapInternalInfillAngles,0
;   externalInfillAngles,45,-45
;   generateSupport,1
;   supportExtruder,0
;   supportInfillPercentage,25
;   supportExtraInflation,0
;   supportBaseLayers,0
;   denseSupportExtruder,0
;   denseSupportLayers,0
;   denseSupportInfillPercentage,70
;   supportLayerInterval,1
;   supportHorizontalPartOffset,0.3
;   supportUpperSeparationLayers,1
;   supportLowerSeparationLayers,1
;   supportType,0
;   supportGridSpacing,4
;   maxOverhangAngle,45
;   supportAngles,0
;   temperatureName,Primary Extruder,Heated bed
;   temperatureNumber,0,0
;   temperatureSetpointCount,1,1
;   temperatureSetpointLayers,1,1
;   temperatureSetpointTemperatures,190,60
;   temperatureStabilizeAtStartup,1,1
;   temperatureHeatedBed,0,1
;   fanLayers,1,2
;   fanSpeeds,0,100
;   blipFanToFullPower,0
;   adjustSpeedForCooling,1
;   minSpeedLayerTime,15
;   minCoolingSpeedSlowdown,20
;   increaseFanForCooling,0
;   minFanLayerTime,45
;   maxCoolingFanSpeed,100
;   increaseFanForBridging,0
;   bridgingFanSpeed,100
;   use5D,1
;   relativeEdistances,0
;   allowEaxisZeroing,1
;   independentExtruderAxes,0
;   includeM10123,0
;   stickySupport,1
;   applyToolheadOffsets,0
;   gcodeXoffset,0
;   gcodeYoffset,0
;   gcodeZoffset,0
;   overrideMachineDefinition,1
;   machineTypeOverride,0
;   strokeXoverride,200
;   strokeYoverride,200
;   strokeZoverride,200
;   originOffsetXoverride,0
;   originOffsetYoverride,0
;   originOffsetZoverride,0
;   homeXdirOverride,-1
;   homeYdirOverride,-1
;   homeZdirOverride,-1
;   flipXoverride,1
;   flipYoverride,-1
;   flipZoverride,1
;   toolheadOffsets,0,0|0,0|0,0|0,0|0,0|0,0
;   overrideFirmwareConfiguration,0
;   firmwareTypeOverride,RepRap (Marlin/Repetier/Sprinter)
;   GPXconfigOverride,r2
;   baudRateOverride,115200
;   overridePrinterModels,0
;   printerModelsOverride
;   startingGcode,G28 X0 Y0; home XY,G1 X20 Y20,G28 Z0,G1 Z5 F5000; Lift NZ
;   layerChangeGcode,
;   retractionGcode,
;   toolChangeGcode,
;   endingGcode,M104 S0 ; turn off extruder,G28 X0 ; home x,M140 S0 ; turn off bed,M84 ; disable motors,M107 ;
;   exportFileFormat,gcode
;   celebration,0
;   celebrationSong,Looney Toons
;   postProcessing,
;   defaultSpeed,3600
;   outlineUnderspeed,0.5
;   solidInfillUnderspeed,0.8
;   supportUnderspeed,0.8
;   rapidXYspeed,4800
;   rapidZspeed,1002
;   minBridgingArea,50
;   bridgingExtraInflation,0
;   bridgingExtrusionMultiplier,1
;   bridgingSpeedMultiplier,1
;   useFixedBridgingAngle,0
;   fixedBridgingAngle,0
;   applyBridgingToPerimeters,0
;   filamentDiameters,1.75|1.75|1.75|1.75|1.75|1.75
;   filamentPricesPerKg,46|46|46|46|46|46
;   filamentDensities,1.25|1.25|1.25|1.25|1.25|1.25
;   useMinPrintHeight,0
;   minPrintHeight,0
;   useMaxPrintHeight,0
;   maxPrintHeight,0
;   useDiaphragm,0
;   diaphragmLayerInterval,20
;   robustSlicing,1
;   mergeAllIntoSolid,0
;   onlyRetractWhenCrossingOutline,1
;   retractBetweenLayers,1
;   useRetractionMinTravel,0
;   retractionMinTravel,3
;   retractWhileWiping,0
;   onlyWipeOutlines,1
;   avoidCrossingOutline,0
;   maxMovementDetourFactor,3
;   toolChangeRetractionDistance,12
;   toolChangeExtraRestartDistance,-0.5
;   toolChangeRetractionSpeed,600
;   externalThinWallType,0
;   internalThinWallType,2
;   thinWallAllowedOverlapPercentage,10
;   singleExtrusionMinLength,1
;   singleExtrusionMinPrintingWidthPercentage,50
;   singleExtrusionMaxPrintingWidthPercentage,200
;   singleExtrusionEndpointExtension,0.2
;   horizontalSizeCompensation,0
G90
M82
M106 S0
M140 S60
M190 S60
M104 S190 T0
M109 S190 T0
G28 X0 Y0; home XY
G1 X20 Y20
G28 Z0
G1 Z5 F5000; Lift NZ
; process Trideo BOX
; layer 1, Z = 0.270
T0
G92 E0.0000
G1 E-0.7000 F1500
; feature skirt
; tool H0.270 W0.480
G1 Z0.270 F1002
G1 X74.755 Y89.205 F4800
G1 E0.0000 F1500
G92 E0.0000
G1 X125.245 Y89.205 E2.6660 F1800
G1 X128.009 Y91.970 E2.8725
G1 X128.009 Y99.480 E3.2691
G1 X125.245 Y102.245 E3.4755
G1 X113.508 Y102.245 E4.0953
G1 X112.608 Y101.345 E4.1625
G1 X106.940 Y101.345 E4.4618
G1 X106.940 Y108.175 E4.8224
G1 X104.175 Y110.940 E5.0289
G1 X95.825 Y110.940 E5.4698
G1 X93.060 Y108.175 E5.6763
G1 X93.060 Y101.345 E6.0369
G1 X87.392 Y101.345 E6.3362
G1 X86.492 Y102.245 E6.4034
G1 X74.755 Y102.245 E7.0232
G1 X71.991 Y99.480 E7.2296
G1 X71.991 Y91.970 E7.6262
G1 X74.755 Y89.205 E7.8327
G92 E0.0000
G1 E-0.7000 F1500
G1 X74.954 Y89.685 F4800
G1 E0.0000 F1500
G92 E0.0000
G1 X125.046 Y89.685 E2.6450 F1800
G1 X127.529 Y92.169 E2.8305
G1 X127.529 Y99.281 E3.2061
G1 X125.046 Y101.765 E3.3915
G1 X113.706 Y101.765 E3.9903
G1 X112.806 Y100.865 E4.0575
G1 X106.460 Y100.865 E4.3926
G1 X106.460 Y107.976 E4.7681
G1 X103.976 Y110.460 E4.9536
G1 X96.024 Y110.460 E5.3735
G1 X93.540 Y107.976 E5.5590
G1 X93.540 Y100.865 E5.9345
G1 X87.193 Y100.865 E6.2696
G1 X86.293 Y101.765 E6.3368
G1 X74.954 Y101.765 E6.9356
G1 X72.471 Y99.281 E7.1211
G1 X72.471 Y92.169 E7.4966
G1 X74.954 Y89.685 E7.6821
G92 E0.0000
G1 E-0.7000 F1500
; feature inner perimeter
G1 X77.431 Y94.645 F4800
G1 E0.0000 F1500
G92 E0.0000
G1 X122.569 Y94.645 E2.3835 F1350
G1 X122.569 Y96.805 E2.4976
G1 X116.183 Y96.805 E2.8348
G1 X116.183 Y95.905 E2.8823
G1 X83.817 Y95.905 E4.5914
G1 X83.817 Y96.805 E4.6389
G1 X77.431 Y96.805 E4.9761
G1 X77.431 Y94.645 E5.0902
; feature outer perimeter
G1 X76.951 Y94.165 F4800
G92 E0.0000
G1 X123.049 Y94.165 E2.4342 F900
G1 X123.049 Y97.285 E2.5989
G1 X115.703 Y97.285 E2.9869
G1 X115.703 Y96.385 E3.0344
G1 X84.297 Y96.385 E4.6927
G1 X84.297 Y97.285 E4.7403
G1 X76.951 Y97.285 E5.1282
G1 X76.951 Y94.165 E5.2929
; feature solid layer
G1 X78.069 Y96.397 F4800
G92 E0.0000
G1 X77.839 Y96.167 E0.0172 F1440
G1 X77.839 Y95.488 E0.0530
G1 X78.748 Y96.397 E0.1209
G1 X79.426 Y96.397 E0.1568
G1 X78.082 Y95.053 E0.2571
G1 X78.761 Y95.053 E0.2930
G1 X80.105 Y96.397 E0.3933
G1 X80.784 Y96.397 E0.4292
G1 X79.440 Y95.053 E0.5296
G1 X80.119 Y95.053 E0.5654
G1 X81.463 Y96.397 E0.6658
G1 X82.142 Y96.397 E0.7016
G1 X80.798 Y95.053 E0.8020
G1 X81.477 Y95.053 E0.8378
G1 X82.821 Y96.397 E0.9382
G1 X83.409 Y96.397 E0.9693
G1 X83.409 Y96.307 E0.9740
G1 X82.155 Y95.053 E1.0676
G1 X82.834 Y95.053 E1.1035
G1 X83.409 Y95.628 E1.1464
G1 X83.409 Y95.497 E1.1533
G1 X83.957 Y95.497 E1.1823
G1 X83.513 Y95.053 E1.2154
G1 X84.192 Y95.053 E1.2513
G1 X84.636 Y95.497 E1.2844
G1 X85.315 Y95.497 E1.3203
G1 X84.871 Y95.053 E1.3534
G1 X85.549 Y95.053 E1.3893
G1 X85.993 Y95.497 E1.4224
G1 X86.672 Y95.497 E1.4583
G1 X86.228 Y95.053 E1.4914
G1 X86.907 Y95.053 E1.5273
G1 X87.351 Y95.497 E1.5604
G1 X88.030 Y95.497 E1.5963
G1 X87.586 Y95.053 E1.6294
G1 X88.265 Y95.053 E1.6653
G1 X88.709 Y95.497 E1.6984
G1 X89.388 Y95.497 E1.7343
G1 X88.944 Y95.053 E1.7674
G1 X89.622 Y95.053 E1.8033
G1 X90.066 Y95.497 E1.8364
G1 X90.745 Y95.497 E1.8723
G1 X90.301 Y95.053 E1.9054
G1 X90.980 Y95.053 E1.9413
G1 X91.424 Y95.497 E1.9744
G1 X92.103 Y95.497 E2.0103
G1 X91.659 Y95.053 E2.0434
G1 X92.338 Y95.053 E2.0793
G1 X92.782 Y95.497 E2.1124
G1 X93.461 Y95.497 E2.1483
G1 X93.017 Y95.053 E2.1814
G1 X93.695 Y95.053 E2.2173
G1 X94.139 Y95.497 E2.2504
G1 X94.818 Y95.497 E2.2863
G1 X94.374 Y95.053 E2.3194
G1 X95.053 Y95.053 E2.3553
G1 X95.497 Y95.497 E2.3884
G1 X96.176 Y95.497 E2.4243
G1 X95.732 Y95.053 E2.4574
G1 X96.411 Y95.053 E2.4933
G1 X96.855 Y95.497 E2.5264
G1 X97.533 Y95.497 E2.5623
G1 X97.089 Y95.053 E2.5954
G1 X97.768 Y95.053 E2.6313
G1 X98.212 Y95.497 E2.6644
G1 X98.891 Y95.497 E2.7003
G1 X98.447 Y95.053 E2.7334
G1 X99.126 Y95.053 E2.7693
G1 X99.570 Y95.497 E2.8024
G1 X100.249 Y95.497 E2.8383
G1 X99.805 Y95.053 E2.8714
G1 X100.484 Y95.053 E2.9073
G1 X100.928 Y95.497 E2.9404
G1 X101.606 Y95.497 E2.9763
G1 X101.162 Y95.053 E3.0094
G1 X101.841 Y95.053 E3.0453
G1 X102.285 Y95.497 E3.0784
G1 X102.964 Y95.497 E3.1143
G1 X102.520 Y95.053 E3.1474
G1 X103.199 Y95.053 E3.1833
G1 X103.643 Y95.497 E3.2164
G1 X104.322 Y95.497 E3.2523
G1 X103.878 Y95.053 E3.2854
G1 X104.557 Y95.053 E3.3213
G1 X105.001 Y95.497 E3.3544
G1 X105.679 Y95.497 E3.3903
G1 X105.235 Y95.053 E3.4234
G1 X105.914 Y95.053 E3.4593
G1 X106.358 Y95.497 E3.4924
G1 X107.037 Y95.497 E3.5283
G1 X106.593 Y95.053 E3.5614
G1 X107.272 Y95.053 E3.5973
G1 X107.716 Y95.497 E3.6304
G1 X108.395 Y95.497 E3.6663
G1 X107.951 Y95.053 E3.6994
G1 X108.629 Y95.053 E3.7353
G1 X109.073 Y95.497 E3.7684
G1 X109.752 Y95.497 E3.8043
G1 X109.308 Y95.053 E3.8374
G1 X109.987 Y95.053 E3.8733
G1 X110.431 Y95.497 E3.9064
G1 X111.110 Y95.497 E3.9423
G1 X110.666 Y95.053 E3.9754
G1 X111.345 Y95.053 E4.0113
G1 X111.789 Y95.497 E4.0444
G1 X112.468 Y95.497 E4.0803
G1 X112.024 Y95.053 E4.1134
G1 X112.702 Y95.053 E4.1493
G1 X113.146 Y95.497 E4.1824
G1 X113.825 Y95.497 E4.2183
G1 X113.381 Y95.053 E4.2514
G1 X114.060 Y95.053 E4.2873
G1 X114.504 Y95.497 E4.3204
G1 X115.183 Y95.497 E4.3563
G1 X114.739 Y95.053 E4.3894
G1 X115.418 Y95.053 E4.4253
G1 X115.862 Y95.497 E4.4584
G1 X116.541 Y95.497 E4.4943
G1 X116.097 Y95.053 E4.5274
G1 X116.775 Y95.053 E4.5633
G1 X118.119 Y96.397 E4.6637
G1 X118.798 Y96.397 E4.6995
G1 X117.454 Y95.053 E4.7999
G1 X118.133 Y95.053 E4.8357
G1 X119.477 Y96.397 E4.9361
G1 X120.156 Y96.397 E4.9719
G1 X118.812 Y95.053 E5.0723
G1 X119.491 Y95.053 E5.1081
G1 X120.835 Y96.397 E5.2085
G1 X121.513 Y96.397 E5.2443
G1 X120.169 Y95.053 E5.3447
G1 X120.848 Y95.053 E5.3805
G1 X122.161 Y96.366 E5.4786
G1 X122.161 Y95.687 E5.5144
G1 X121.527 Y95.053 E5.5618
G1 X116.591 Y95.547 F4800
G92 E0.0000
G1 X117.441 Y96.397 E0.0635 F1440
G1 X116.762 Y96.397 E0.0993
G1 X116.591 Y96.226 E0.1121
G92 E0.0000
G1 E-0.7000 F1500
; feature support
G1 X101.970 Y105.840 F4800
G1 E0.0000 F1500
G92 E0.0000
G1 X98.030 Y105.840 E0.2080 F1440
G1 X98.030 Y103.920 E0.3094
G1 X101.970 Y103.920 E0.5175
G1 X101.970 Y102.000 E0.6189
G1 X98.030 Y102.000 E0.8269
G1 X98.030 Y100.080 E0.9283
G1 X101.970 Y100.080 E1.1363
G1 X101.970 Y98.160 E1.2377
G1 X98.030 Y98.160 E1.4458
G92 E0.0000
G1 E-0.7000 F1500
; layer 2, Z = 0.570
M106 S255
; feature inner perimeter
; tool H0.300 W0.480
G1 Z0.570 F1002
G1 X84.423 Y96.805 F4800
G1 E0.0000 F1500
G92 E0.0000
G1 X77.484 Y96.805 E0.4071 F1496
G1 X77.484 Y94.645 E0.5339
G1 X122.516 Y94.645 E3.1759
G1 X122.516 Y96.805 E3.3027
G1 X115.576 Y96.805 E3.7099
G1 X115.576 Y95.905 E3.7627
G1 X84.423 Y95.905 E5.5904
G1 X84.423 Y96.805 E5.6432
; feature outer perimeter
G1 X84.903 Y96.385 F4800
G92 E0.0000
G1 X84.903 Y97.285 E0.0528 F997
G1 X77.004 Y97.285 E0.5163
G1 X77.004 Y94.165 E0.6993
G1 X122.996 Y94.165 E3.3977
G1 X122.996 Y97.285 E3.5808
G1 X115.096 Y97.285 E4.0443
G1 X115.096 Y96.385 E4.0971
G1 X84.903 Y96.385 E5.8685
; feature solid layer
G1 X84.015 Y96.299 F4800
G92 E0.0000
G1 X83.917 Y96.397 E0.0081 F1595
G1 X83.238 Y96.397 E0.0480
G1 X84.015 Y95.620 E0.1124
G1 X84.015 Y95.497 E0.1196
G1 X84.138 Y95.497 E0.1269
G1 X84.582 Y95.053 E0.1637
G1 X83.904 Y95.053 E0.2035
G1 X82.560 Y96.397 E0.3151
G1 X81.881 Y96.397 E0.3549
G1 X83.225 Y95.053 E0.4664
G1 X82.546 Y95.053 E0.5062
G1 X81.202 Y96.397 E0.6177
G1 X80.523 Y96.397 E0.6576
G1 X81.867 Y95.053 E0.7691
G1 X81.188 Y95.053 E0.8089
G1 X79.844 Y96.397 E0.9204
G1 X79.165 Y96.397 E0.9603
G1 X80.509 Y95.053 E1.0718
G1 X79.831 Y95.053 E1.1116
G1 X78.487 Y96.397 E1.2231
G1 X77.892 Y96.397 E1.2580
G1 X77.892 Y96.313 E1.2629
G1 X79.152 Y95.053 E1.3675
G1 X78.473 Y95.053 E1.4073
G1 X77.892 Y95.634 E1.4555
G1 X84.817 Y95.497 F4800
G92 E0.0000
G1 X85.261 Y95.053 E0.0368 F1595
G1 X85.940 Y95.053 E0.0767
G1 X85.496 Y95.497 E0.1135
G1 X86.175 Y95.497 E0.1533
G1 X86.619 Y95.053 E0.1902
G1 X87.298 Y95.053 E0.2300
G1 X86.854 Y95.497 E0.2668
G1 X87.532 Y95.497 E0.3067
G1 X87.976 Y95.053 E0.3435
G1 X88.655 Y95.053 E0.3833
G1 X88.211 Y95.497 E0.4202
G1 X88.890 Y95.497 E0.4600
G1 X89.334 Y95.053 E0.4968
G1 X90.013 Y95.053 E0.5367
G1 X89.569 Y95.497 E0.5735
G1 X90.248 Y95.497 E0.6133
G1 X90.692 Y95.053 E0.6502
G1 X91.371 Y95.053 E0.6900
G1 X90.927 Y95.497 E0.7268
G1 X91.605 Y95.497 E0.7667
G1 X92.049 Y95.053 E0.8035
G1 X92.728 Y95.053 E0.8433
G1 X92.284 Y95.497 E0.8802
G1 X92.963 Y95.497 E0.9200
G1 X93.407 Y95.053 E0.9568
G1 X94.086 Y95.053 E0.9967
G1 X93.642 Y95.497 E1.0335
G1 X94.321 Y95.497 E1.0733
G1 X94.765 Y95.053 E1.1102
G1 X95.444 Y95.053 E1.1500
G1 X95.000 Y95.497 E1.1868
G1 X95.678 Y95.497 E1.2267
G1 X96.122 Y95.053 E1.2635
G1 X96.801 Y95.053 E1.3033
G1 X96.357 Y95.497 E1.3402
G1 X97.036 Y95.497 E1.3800
G1 X97.480 Y95.053 E1.4168
G1 X98.159 Y95.053 E1.4567
G1 X97.715 Y95.497 E1.4935
G1 X98.394 Y95.497 E1.5333
G1 X98.838 Y95.053 E1.5702
G1 X99.516 Y95.053 E1.6100
G1 X99.072 Y95.497 E1.6469
G1 X99.751 Y95.497 E1.6867
G1 X100.195 Y95.053 E1.7235
G1 X100.874 Y95.053 E1.7633
G1 X100.430 Y95.497 E1.8002
G1 X101.109 Y95.497 E1.8400
G1 X101.553 Y95.053 E1.8769
G1 X102.232 Y95.053 E1.9167
G1 X101.788 Y95.497 E1.9535
G1 X102.467 Y95.497 E1.9933
G1 X102.911 Y95.053 E2.0302
G1 X103.589 Y95.053 E2.0700
G1 X103.145 Y95.497 E2.1069
G1 X103.824 Y95.497 E2.1467
G1 X104.268 Y95.053 E2.1835
G1 X104.947 Y95.053 E2.2233
G1 X104.503 Y95.497 E2.2602
G1 X105.182 Y95.497 E2.3000
G1 X105.626 Y95.053 E2.3369
G1 X106.305 Y95.053 E2.3767
G1 X105.861 Y95.497 E2.4135
G1 X106.540 Y95.497 E2.4534
G1 X106.984 Y95.053 E2.4902
G1 X107.662 Y95.053 E2.5300
G1 X107.218 Y95.497 E2.5669
G1 X107.897 Y95.497 E2.6067
G1 X108.341 Y95.053 E2.6435
G1 X109.020 Y95.053 E2.6834
G1 X108.576 Y95.497 E2.7202
G1 X109.255 Y95.497 E2.7600
G1 X109.699 Y95.053 E2.7969
G1 X110.378 Y95.053 E2.8367
G1 X109.934 Y95.497 E2.8735
G1 X110.612 Y95.497 E2.9134
G1 X111.056 Y95.053 E2.9502
G1 X111.735 Y95.053 E2.9900
G1 X111.291 Y95.497 E3.0269
G1 X111.970 Y95.497 E3.0667
G1 X112.414 Y95.053 E3.1035
G1 X113.093 Y95.053 E3.1434
G1 X112.649 Y95.497 E3.1802
G1 X113.328 Y95.497 E3.2200
G1 X113.772 Y95.053 E3.2569
G1 X114.451 Y95.053 E3.2967
G1 X114.007 Y95.497 E3.3335
G1 X114.685 Y95.497 E3.3734
G1 X115.129 Y95.053 E3.4102
G1 X115.808 Y95.053 E3.4500
G1 X115.364 Y95.497 E3.4869
G1 X115.984 Y95.497 E3.5232
G1 X115.984 Y95.556 E3.5267
G1 X116.487 Y95.053 E3.5684
G1 X117.166 Y95.053 E3.6083
G1 X115.984 Y96.235 E3.7063
G1 X115.984 Y96.397 E3.7158
G1 X116.501 Y96.397 E3.7461
G1 X117.845 Y95.053 E3.8577
G1 X118.523 Y95.053 E3.8975
