; G-Code generated by Simplify3D(R) Version 4.1.1
; Apr 25, 2021 at 7:20:24 PM
; Settings Summary
;   processName,Trideo BOX
;   applyToModels,AtomicLabCover,AtomicLabCover(2),AtomicLabCover(3)
;   profileName,Trideo BOX
;   profileVersion,2021-04-15 09:48:16
;   baseProfile,Default
;   printMaterial,PLA
;   printQuality,Fast
;   printExtruders,
;   extruderName,Primary Extruder
;   extruderToolheadNumber,0
;   extruderDiameter,0.4
;   extruderAutoWidth,1
;   extruderWidth,0.48
;   extrusionMultiplier,0.98
;   extruderUseRetract,1
;   extruderRetractionDistance,0.7
;   extruderExtraRestartDistance,0
;   extruderRetractionZLift,0
;   extruderRetractionSpeed,1500
;   extruderUseCoasting,0
;   extruderCoastingDistance,0.2
;   extruderUseWipe,0
;   extruderWipeDistance,5
;   primaryExtruder,0
;   layerHeight,0.3
;   topSolidLayers,3
;   bottomSolidLayers,3
;   perimeterOutlines,2
;   printPerimetersInsideOut,1
;   startPointOption,2
;   startPointOriginX,0
;   startPointOriginY,0
;   sequentialIslands,0
;   spiralVaseMode,0
;   firstLayerHeightPercentage,90
;   firstLayerWidthPercentage,100
;   firstLayerUnderspeed,0.5
;   useRaft,0
;   raftExtruder,0
;   raftTopLayers,3
;   raftBaseLayers,2
;   raftOffset,3
;   raftSeparationDistance,0.14
;   raftTopInfill,100
;   aboveRaftSpeedMultiplier,0.3
;   useSkirt,1
;   skirtExtruder,0
;   skirtLayers,1
;   skirtOutlines,2
;   skirtOffset,4
;   usePrimePillar,0
;   primePillarExtruder,999
;   primePillarWidth,12
;   primePillarLocation,7
;   primePillarSpeedMultiplier,1
;   useOozeShield,0
;   oozeShieldExtruder,999
;   oozeShieldOffset,2
;   oozeShieldOutlines,1
;   oozeShieldSidewallShape,1
;   oozeShieldSidewallAngle,30
;   oozeShieldSpeedMultiplier,1
;   infillExtruder,0
;   internalInfillPattern,Rectilinear
;   externalInfillPattern,Rectilinear
;   infillPercentage,15
;   outlineOverlapPercentage,15
;   infillExtrusionWidthPercentage,100
;   minInfillLength,5
;   infillLayerInterval,1
;   internalInfillAngles,45,-45
;   overlapInternalInfillAngles,0
;   externalInfillAngles,45,-45
;   generateSupport,1
;   supportExtruder,0
;   supportInfillPercentage,25
;   supportExtraInflation,0
;   supportBaseLayers,0
;   denseSupportExtruder,0
;   denseSupportLayers,0
;   denseSupportInfillPercentage,70
;   supportLayerInterval,1
;   supportHorizontalPartOffset,0.3
;   supportUpperSeparationLayers,1
;   supportLowerSeparationLayers,1
;   supportType,0
;   supportGridSpacing,4
;   maxOverhangAngle,45
;   supportAngles,0
;   temperatureName,Primary Extruder,Heated bed
;   temperatureNumber,0,0
;   temperatureSetpointCount,1,1
;   temperatureSetpointLayers,1,1
;   temperatureSetpointTemperatures,190,60
;   temperatureStabilizeAtStartup,1,1
;   temperatureHeatedBed,0,1
;   fanLayers,1,2
;   fanSpeeds,0,100
;   blipFanToFullPower,0
;   adjustSpeedForCooling,1
;   minSpeedLayerTime,15
;   minCoolingSpeedSlowdown,20
;   increaseFanForCooling,0
;   minFanLayerTime,45
;   maxCoolingFanSpeed,100
;   increaseFanForBridging,0
;   bridgingFanSpeed,100
;   use5D,1
;   relativeEdistances,0
;   allowEaxisZeroing,1
;   independentExtruderAxes,0
;   includeM10123,0
;   stickySupport,1
;   applyToolheadOffsets,0
;   gcodeXoffset,0
;   gcodeYoffset,0
;   gcodeZoffset,0
;   overrideMachineDefinition,1
;   machineTypeOverride,0
;   strokeXoverride,200
;   strokeYoverride,200
;   strokeZoverride,200
;   originOffsetXoverride,0
;   originOffsetYoverride,0
;   originOffsetZoverride,0
;   homeXdirOverride,-1
;   homeYdirOverride,-1
;   homeZdirOverride,-1
;   flipXoverride,1
;   flipYoverride,-1
;   flipZoverride,1
;   toolheadOffsets,0,0|0,0|0,0|0,0|0,0|0,0
;   overrideFirmwareConfiguration,0
;   firmwareTypeOverride,RepRap (Marlin/Repetier/Sprinter)
;   GPXconfigOverride,r2
;   baudRateOverride,115200
;   overridePrinterModels,0
;   printerModelsOverride
;   startingGcode,G28 X0 Y0; home XY,G1 X20 Y20,G28 Z0,G1 Z5 F5000; Lift NZ
;   layerChangeGcode,
;   retractionGcode,
;   toolChangeGcode,
;   endingGcode,M104 S0 ; turn off extruder,G28 X0 ; home x,M140 S0 ; turn off bed,M84 ; disable motors,M107 ;
;   exportFileFormat,gcode
;   celebration,0
;   celebrationSong,Looney Toons
;   postProcessing,
;   defaultSpeed,3600
;   outlineUnderspeed,0.5
;   solidInfillUnderspeed,0.8
;   supportUnderspeed,0.8
;   rapidXYspeed,4800
;   rapidZspeed,1002
;   minBridgingArea,50
;   bridgingExtraInflation,0
;   bridgingExtrusionMultiplier,1
;   bridgingSpeedMultiplier,1
;   useFixedBridgingAngle,0
;   fixedBridgingAngle,0
;   applyBridgingToPerimeters,0
;   filamentDiameters,1.75|1.75|1.75|1.75|1.75|1.75
;   filamentPricesPerKg,46|46|46|46|46|46
;   filamentDensities,1.25|1.25|1.25|1.25|1.25|1.25
;   useMinPrintHeight,0
;   minPrintHeight,0
;   useMaxPrintHeight,0
;   maxPrintHeight,0
;   useDiaphragm,0
;   diaphragmLayerInterval,20
;   robustSlicing,1
;   mergeAllIntoSolid,0
;   onlyRetractWhenCrossingOutline,1
;   retractBetweenLayers,1
;   useRetractionMinTravel,0
;   retractionMinTravel,3
;   retractWhileWiping,0
;   onlyWipeOutlines,1
;   avoidCrossingOutline,0
;   maxMovementDetourFactor,3
;   toolChangeRetractionDistance,12
;   toolChangeExtraRestartDistance,-0.5
;   toolChangeRetractionSpeed,600
;   externalThinWallType,0
;   internalThinWallType,2
;   thinWallAllowedOverlapPercentage,10
;   singleExtrusionMinLength,1
;   singleExtrusionMinPrintingWidthPercentage,50
;   singleExtrusionMaxPrintingWidthPercentage,200
;   singleExtrusionEndpointExtension,0.2
;   horizontalSizeCompensation,0
G90
M82
M106 S0
M140 S60
M190 S60
M104 S190 T0
M109 S190 T0
G28 X0 Y0; home XY
G1 X20 Y20
G28 Z0
G1 Z5 F5000; Lift NZ
; process Trideo BOX
; layer 1, Z = 0.270
T0
G92 E0.0000
G1 E-0.7000 F1500
; feature skirt
; tool H0.270 W0.480
G1 Z0.270 F1002
G1 X72.165 Y70.030 F4800
G1 E0.0000 F1500
G92 E0.0000
G1 X127.835 Y70.030 E2.9396 F1800
G1 X130.600 Y72.795 E3.1461
G1 X130.600 Y80.705 E3.5638
G1 X127.835 Y83.470 E3.7702
G1 X115.258 Y83.470 E4.4344
G1 X114.258 Y82.470 E4.5090
G1 X108.940 Y82.470 E4.7898
G1 X108.940 Y85.675 E4.9591
G1 X106.175 Y88.440 E5.1655
G1 X104.940 Y88.440 E5.2308
G1 X104.940 Y88.530 E5.2355
G1 X127.835 Y88.530 E6.4445
G1 X130.600 Y91.295 E6.6509
G1 X130.600 Y99.205 E7.0686
G1 X127.835 Y101.970 E7.2751
G1 X115.258 Y101.970 E7.9392
G1 X114.258 Y100.970 E8.0139
G1 X108.940 Y100.970 E8.2947
G1 X108.940 Y104.175 E8.4639
G1 X106.175 Y106.940 E8.6704
G1 X104.940 Y106.940 E8.7356
G1 X104.940 Y107.030 E8.7404
G1 X127.835 Y107.030 E9.9493
G1 X130.600 Y109.795 E10.1558
G1 X130.600 Y117.705 E10.5735
G1 X127.835 Y120.470 E10.7799
G1 X115.258 Y120.470 E11.4441
G1 X114.258 Y119.470 E11.5188
G1 X108.940 Y119.470 E11.7995
G1 X108.940 Y122.675 E11.9688
G1 X106.175 Y125.440 E12.1753
G1 X104.940 Y125.440 E12.2405
G1 X104.940 Y126.675 E12.3057
G1 X102.175 Y129.440 E12.5122
G1 X93.825 Y129.440 E12.9531
G1 X91.060 Y126.675 E13.1596
G1 X91.060 Y119.470 E13.5400
G1 X85.742 Y119.470 E13.8208
G1 X84.742 Y120.470 E13.8955
G1 X72.165 Y120.470 E14.5596
G1 X69.400 Y117.705 E14.7661
G1 X69.400 Y109.795 E15.1838
G1 X72.165 Y107.030 E15.3903
G1 X91.060 Y107.030 E16.3880
G1 X91.060 Y100.970 E16.7080
G1 X85.742 Y100.970 E16.9888
G1 X84.742 Y101.970 E17.0635
G1 X72.165 Y101.970 E17.7276
G1 X69.400 Y99.205 E17.9341
G1 X69.400 Y91.295 E18.3517
G1 X72.165 Y88.530 E18.5582
G1 X91.060 Y88.530 E19.5559
G1 X91.060 Y82.470 E19.8759
G1 X85.742 Y82.470 E20.1567
G1 X84.742 Y83.470 E20.2314
G1 X72.165 Y83.470 E20.8955
G1 X69.400 Y80.705 E21.1020
G1 X69.400 Y72.795 E21.5197
G1 X72.165 Y70.030 E21.7262
G92 E0.0000
G1 E-0.7000 F1500
G1 X72.364 Y70.510 F4800
G1 E0.0000 F1500
G92 E0.0000
G1 X127.636 Y70.510 E2.9186 F1800
G1 X130.120 Y72.994 E3.1041
G1 X130.120 Y80.506 E3.5008
G1 X127.636 Y82.990 E3.6862
G1 X115.456 Y82.990 E4.3294
G1 X114.456 Y81.990 E4.4041
G1 X108.460 Y81.990 E4.7207
G1 X108.460 Y85.476 E4.9048
G1 X105.976 Y87.960 E5.0902
G1 X104.460 Y87.960 E5.1703
G1 X104.460 Y89.010 E5.2258
G1 X127.636 Y89.010 E6.4496
G1 X130.120 Y91.494 E6.6350
G1 X130.120 Y99.006 E7.0317
G1 X127.636 Y101.490 E7.2172
G1 X115.456 Y101.490 E7.8603
G1 X114.456 Y100.490 E7.9350
G1 X108.460 Y100.490 E8.2516
G1 X108.460 Y103.976 E8.4357
G1 X105.976 Y106.460 E8.6212
G1 X104.460 Y106.460 E8.7013
G1 X104.460 Y107.510 E8.7567
G1 X127.636 Y107.510 E9.9805
G1 X130.120 Y109.994 E10.1660
G1 X130.120 Y117.506 E10.5627
G1 X127.636 Y119.990 E10.7481
G1 X115.456 Y119.990 E11.3913
G1 X114.456 Y118.990 E11.4660
G1 X108.460 Y118.990 E11.7826
G1 X108.460 Y122.476 E11.9667
G1 X105.976 Y124.960 E12.1522
G1 X104.460 Y124.960 E12.2322
G1 X104.460 Y126.476 E12.3123
G1 X101.976 Y128.960 E12.4978
G1 X94.024 Y128.960 E12.9177
G1 X91.540 Y126.476 E13.1032
G1 X91.540 Y118.990 E13.4985
G1 X85.543 Y118.990 E13.8151
G1 X84.543 Y119.990 E13.8898
G1 X72.364 Y119.990 E14.5329
G1 X69.880 Y117.506 E14.7184
G1 X69.880 Y109.994 E15.1151
G1 X72.364 Y107.510 E15.3006
G1 X91.540 Y107.510 E16.3131
G1 X91.540 Y100.490 E16.6838
G1 X85.543 Y100.490 E17.0005
G1 X84.543 Y101.490 E17.0751
G1 X72.364 Y101.490 E17.7183
G1 X69.880 Y99.006 E17.9037
G1 X69.880 Y91.494 E18.3004
G1 X72.364 Y89.010 E18.4859
G1 X91.540 Y89.010 E19.4985
G1 X91.540 Y81.990 E19.8692
G1 X85.543 Y81.990 E20.1858
G1 X84.543 Y82.990 E20.2605
G1 X72.364 Y82.990 E20.9036
G1 X69.880 Y80.506 E21.0891
G1 X69.880 Y72.994 E21.4858
G1 X72.364 Y70.510 E21.6713
G92 E0.0000
G1 E-0.7000 F1500
; feature inner perimeter
G1 X74.840 Y75.470 F4800
G1 E0.0000 F1500
G92 E0.0000
G1 X125.160 Y75.470 E2.6571 F1350
G1 X125.160 Y78.030 E2.7923
G1 X117.933 Y78.030 E3.1739
G1 X117.933 Y77.030 E3.2267
G1 X82.067 Y77.030 E5.1205
G1 X82.067 Y78.030 E5.1733
G1 X74.840 Y78.030 E5.5550
G1 X74.840 Y75.470 E5.6901
; feature outer perimeter
G1 X74.360 Y74.990 F4800
G92 E0.0000
G1 X125.640 Y74.990 E2.7078 F900
G1 X125.640 Y78.510 E2.8936
G1 X117.453 Y78.510 E3.3260
G1 X117.453 Y77.510 E3.3788
G1 X82.547 Y77.510 E5.2219
G1 X82.547 Y78.510 E5.2747
G1 X74.360 Y78.510 E5.7070
G1 X74.360 Y74.990 E5.8929
; feature solid layer
G1 X75.586 Y77.622 F4800
G92 E0.0000
G1 X75.248 Y77.284 E0.0252 F1440
G1 X75.248 Y76.606 E0.0610
G1 X76.264 Y77.622 E0.1369
G1 X76.943 Y77.622 E0.1728
G1 X75.248 Y75.927 E0.2994
G1 X75.248 Y75.878 E0.3020
G1 X75.878 Y75.878 E0.3352
G1 X77.622 Y77.622 E0.4655
G1 X78.301 Y77.622 E0.5013
G1 X76.557 Y75.878 E0.6315
G1 X77.236 Y75.878 E0.6674
G1 X78.980 Y77.622 E0.7976
G1 X79.658 Y77.622 E0.8335
G1 X77.914 Y75.878 E0.9637
G1 X78.593 Y75.878 E0.9995
G1 X80.337 Y77.622 E1.1298
G1 X81.016 Y77.622 E1.1656
G1 X79.272 Y75.878 E1.2958
G1 X79.951 Y75.878 E1.3317
G1 X81.659 Y77.586 E1.4592
G1 X81.659 Y76.907 E1.4951
G1 X80.630 Y75.878 E1.5720
G1 X81.309 Y75.878 E1.6078
G1 X82.053 Y76.622 E1.6634
G1 X82.731 Y76.622 E1.6992
G1 X81.987 Y75.878 E1.7548
G1 X82.666 Y75.878 E1.7906
G1 X83.410 Y76.622 E1.8462
G1 X84.089 Y76.622 E1.8820
G1 X83.345 Y75.878 E1.9376
G1 X84.024 Y75.878 E1.9734
G1 X84.768 Y76.622 E2.0290
G1 X85.447 Y76.622 E2.0648
G1 X84.703 Y75.878 E2.1204
G1 X85.382 Y75.878 E2.1562
G1 X86.126 Y76.622 E2.2118
G1 X86.804 Y76.622 E2.2476
G1 X86.060 Y75.878 E2.3032
G1 X86.739 Y75.878 E2.3390
G1 X87.483 Y76.622 E2.3946
G1 X88.162 Y76.622 E2.4304
G1 X87.418 Y75.878 E2.4860
G1 X88.097 Y75.878 E2.5218
G1 X88.841 Y76.622 E2.5774
G1 X89.520 Y76.622 E2.6132
G1 X88.776 Y75.878 E2.6688
G1 X89.454 Y75.878 E2.7046
G1 X90.198 Y76.622 E2.7602
G1 X90.877 Y76.622 E2.7960
G1 X90.133 Y75.878 E2.8516
G1 X90.812 Y75.878 E2.8874
G1 X91.556 Y76.622 E2.9430
G1 X92.235 Y76.622 E2.9788
G1 X91.491 Y75.878 E3.0344
G1 X92.170 Y75.878 E3.0702
G1 X92.914 Y76.622 E3.1258
G1 X93.593 Y76.622 E3.1617
G1 X92.849 Y75.878 E3.2172
G1 X93.527 Y75.878 E3.2531
G1 X94.271 Y76.622 E3.3086
G1 X94.950 Y76.622 E3.3445
G1 X94.206 Y75.878 E3.4000
G1 X94.885 Y75.878 E3.4359
G1 X95.629 Y76.622 E3.4914
G1 X96.308 Y76.622 E3.5273
G1 X95.564 Y75.878 E3.5828
G1 X96.243 Y75.878 E3.6187
G1 X96.987 Y76.622 E3.6742
G1 X97.666 Y76.622 E3.7101
G1 X96.922 Y75.878 E3.7656
G1 X97.600 Y75.878 E3.8015
G1 X98.344 Y76.622 E3.8570
G1 X99.023 Y76.622 E3.8929
G1 X98.279 Y75.878 E3.9484
G1 X98.958 Y75.878 E3.9843
G1 X99.702 Y76.622 E4.0398
G1 X100.381 Y76.622 E4.0757
G1 X99.637 Y75.878 E4.1312
G1 X100.316 Y75.878 E4.1671
G1 X101.060 Y76.622 E4.2226
G1 X101.738 Y76.622 E4.2585
G1 X100.994 Y75.878 E4.3140
G1 X101.673 Y75.878 E4.3499
G1 X102.417 Y76.622 E4.4055
G1 X103.096 Y76.622 E4.4413
G1 X102.352 Y75.878 E4.4969
G1 X103.031 Y75.878 E4.5327
G1 X103.775 Y76.622 E4.5883
G1 X104.454 Y76.622 E4.6241
G1 X103.710 Y75.878 E4.6797
G1 X104.389 Y75.878 E4.7155
G1 X105.133 Y76.622 E4.7711
G1 X105.811 Y76.622 E4.8069
G1 X105.067 Y75.878 E4.8625
G1 X105.746 Y75.878 E4.8983
G1 X106.490 Y76.622 E4.9539
G1 X107.169 Y76.622 E4.9897
G1 X106.425 Y75.878 E5.0453
G1 X107.104 Y75.878 E5.0811
G1 X107.848 Y76.622 E5.1367
G1 X108.527 Y76.622 E5.1725
G1 X107.783 Y75.878 E5.2281
G1 X108.461 Y75.878 E5.2639
G1 X109.205 Y76.622 E5.3195
G1 X109.884 Y76.622 E5.3553
G1 X109.140 Y75.878 E5.4109
G1 X109.819 Y75.878 E5.4467
G1 X110.563 Y76.622 E5.5023
G1 X111.242 Y76.622 E5.5381
G1 X110.498 Y75.878 E5.5937
G1 X111.177 Y75.878 E5.6295
G1 X111.921 Y76.622 E5.6851
G1 X112.600 Y76.622 E5.7209
G1 X111.856 Y75.878 E5.7765
G1 X112.534 Y75.878 E5.8123
G1 X113.278 Y76.622 E5.8679
G1 X113.957 Y76.622 E5.9037
G1 X113.213 Y75.878 E5.9593
G1 X113.892 Y75.878 E5.9952
G1 X114.636 Y76.622 E6.0507
G1 X115.315 Y76.622 E6.0866
G1 X114.571 Y75.878 E6.1421
G1 X115.250 Y75.878 E6.1780
G1 X115.994 Y76.622 E6.2335
G1 X116.673 Y76.622 E6.2694
G1 X115.929 Y75.878 E6.3249
G1 X116.607 Y75.878 E6.3608
G1 X117.351 Y76.622 E6.4163
G1 X118.030 Y76.622 E6.4522
G1 X117.286 Y75.878 E6.5077
G1 X117.965 Y75.878 E6.5436
G1 X119.709 Y77.622 E6.6738
G1 X120.388 Y77.622 E6.7096
G1 X118.644 Y75.878 E6.8399
G1 X119.323 Y75.878 E6.8757
G1 X121.067 Y77.622 E7.0060
G1 X121.745 Y77.622 E7.0418
G1 X120.001 Y75.878 E7.1720
G1 X120.680 Y75.878 E7.2079
G1 X122.424 Y77.622 E7.3381
G1 X123.103 Y77.622 E7.3740
G1 X121.359 Y75.878 E7.5042
G1 X122.038 Y75.878 E7.5400
G1 X123.782 Y77.622 E7.6703
G1 X124.461 Y77.622 E7.7061
G1 X122.717 Y75.878 E7.8363
G1 X123.396 Y75.878 E7.8722
G1 X124.752 Y77.234 E7.9735
G1 X124.752 Y76.556 E8.0093
G1 X124.074 Y75.878 E8.0599
G1 X118.341 Y76.932 F4800
G92 E0.0000
G1 X119.030 Y77.622 E0.0515 F1440
G1 X118.351 Y77.622 E0.0873
G1 X118.341 Y77.611 E0.0881
G92 E0.0000
G1 E-0.7000 F1500
; feature inner perimeter
G1 X125.160 Y93.970 F4800
G1 E0.0000 F1500
G92 E0.0000
G1 X125.160 Y96.530 E0.1352 F1350
G1 X117.933 Y96.530 E0.5168
G1 X117.933 Y95.530 E0.5696
G1 X82.067 Y95.530 E2.4634
G1 X82.067 Y96.530 E2.5162
G1 X74.840 Y96.530 E2.8979
G1 X74.840 Y93.970 E3.0330
G1 X125.160 Y93.970 E5.6901
; feature outer perimeter
G1 X125.640 Y93.490 F4800
G92 E0.0000
G1 X125.640 Y97.010 E0.1859 F900
G1 X117.453 Y97.010 E0.6182
G1 X117.453 Y96.010 E0.6710
G1 X82.547 Y96.010 E2.5141
G1 X82.547 Y97.010 E2.5669
G1 X74.360 Y97.010 E2.9992
G1 X74.360 Y93.490 E3.1851
G1 X125.640 Y93.490 E5.8929
; feature solid layer
G1 X124.246 Y94.378 F4800
G92 E0.0000
G1 X124.752 Y94.884 E0.0378 F1440
G1 X124.752 Y95.563 E0.0736
G1 X123.567 Y94.378 E0.1621
G1 X122.889 Y94.378 E0.1979
G1 X124.633 Y96.122 E0.3282
G1 X123.954 Y96.122 E0.3640
G1 X122.210 Y94.378 E0.4942
G1 X121.531 Y94.378 E0.5301
G1 X123.275 Y96.122 E0.6603
G1 X122.596 Y96.122 E0.6962
G1 X120.852 Y94.378 E0.8264
G1 X120.173 Y94.378 E0.8622
G1 X121.917 Y96.122 E0.9925
G1 X121.238 Y96.122 E1.0283
G1 X119.494 Y94.378 E1.1585
G1 X118.816 Y94.378 E1.1944
G1 X120.560 Y96.122 E1.3246
G1 X119.881 Y96.122 E1.3605
G1 X118.137 Y94.378 E1.4907
G1 X117.458 Y94.378 E1.5265
G1 X118.202 Y95.122 E1.5821
G1 X117.523 Y95.122 E1.6179
G1 X116.779 Y94.378 E1.6735
G1 X116.100 Y94.378 E1.7093
G1 X116.844 Y95.122 E1.7649
G1 X116.166 Y95.122 E1.8007
G1 X115.422 Y94.378 E1.8563
G1 X114.743 Y94.378 E1.8922
G1 X115.487 Y95.122 E1.9477
G1 X114.808 Y95.122 E1.9836
G1 X114.064 Y94.378 E2.0391
G1 X113.385 Y94.378 E2.0750
G1 X114.129 Y95.122 E2.1305
G1 X113.450 Y95.122 E2.1664
G1 X112.706 Y94.378 E2.2219
G1 X112.027 Y94.378 E2.2578
G1 X112.771 Y95.122 E2.3133
G1 X112.093 Y95.122 E2.3492
