; G-Code generated by Simplify3D(R) Version 4.1.1
; Apr 25, 2021 at 7:20:07 PM
; Settings Summary
;   processName,Trideo BOX
;   applyToModels,AtomicLabCover,AtomicLabCover(2),AtomicLabCover(3)
;   profileName,Trideo BOX
;   profileVersion,2021-04-15 09:48:16
;   baseProfile,Default
;   printMaterial,PLA
;   printQuality,Fast
;   printExtruders,
;   extruderName,Primary Extruder
;   extruderToolheadNumber,0
;   extruderDiameter,0.4
;   extruderAutoWidth,1
;   extruderWidth,0.48
;   extrusionMultiplier,0.98
;   extruderUseRetract,1
;   extruderRetractionDistance,0.7
;   extruderExtraRestartDistance,0
;   extruderRetractionZLift,0
;   extruderRetractionSpeed,1500
;   extruderUseCoasting,0
;   extruderCoastingDistance,0.2
;   extruderUseWipe,0
;   extruderWipeDistance,5
;   primaryExtruder,0
;   layerHeight,0.3
;   topSolidLayers,3
;   bottomSolidLayers,3
;   perimeterOutlines,2
;   printPerimetersInsideOut,1
;   startPointOption,2
;   startPointOriginX,0
;   startPointOriginY,0
;   sequentialIslands,0
;   spiralVaseMode,0
;   firstLayerHeightPercentage,90
;   firstLayerWidthPercentage,100
;   firstLayerUnderspeed,0.5
;   useRaft,0
;   raftExtruder,0
;   raftTopLayers,3
;   raftBaseLayers,2
;   raftOffset,3
;   raftSeparationDistance,0.14
;   raftTopInfill,100
;   aboveRaftSpeedMultiplier,0.3
;   useSkirt,1
;   skirtExtruder,0
;   skirtLayers,1
;   skirtOutlines,2
;   skirtOffset,4
;   usePrimePillar,0
;   primePillarExtruder,999
;   primePillarWidth,12
;   primePillarLocation,7
;   primePillarSpeedMultiplier,1
;   useOozeShield,0
;   oozeShieldExtruder,999
;   oozeShieldOffset,2
;   oozeShieldOutlines,1
;   oozeShieldSidewallShape,1
;   oozeShieldSidewallAngle,30
;   oozeShieldSpeedMultiplier,1
;   infillExtruder,0
;   internalInfillPattern,Rectilinear
;   externalInfillPattern,Rectilinear
;   infillPercentage,15
;   outlineOverlapPercentage,15
;   infillExtrusionWidthPercentage,100
;   minInfillLength,5
;   infillLayerInterval,1
;   internalInfillAngles,45,-45
;   overlapInternalInfillAngles,0
;   externalInfillAngles,45,-45
;   generateSupport,1
;   supportExtruder,0
;   supportInfillPercentage,25
;   supportExtraInflation,0
;   supportBaseLayers,0
;   denseSupportExtruder,0
;   denseSupportLayers,0
;   denseSupportInfillPercentage,70
;   supportLayerInterval,1
;   supportHorizontalPartOffset,0.3
;   supportUpperSeparationLayers,1
;   supportLowerSeparationLayers,1
;   supportType,0
;   supportGridSpacing,4
;   maxOverhangAngle,45
;   supportAngles,0
;   temperatureName,Primary Extruder,Heated bed
;   temperatureNumber,0,0
;   temperatureSetpointCount,1,1
;   temperatureSetpointLayers,1,1
;   temperatureSetpointTemperatures,190,60
;   temperatureStabilizeAtStartup,1,1
;   temperatureHeatedBed,0,1
;   fanLayers,1,2
;   fanSpeeds,0,100
;   blipFanToFullPower,0
;   adjustSpeedForCooling,1
;   minSpeedLayerTime,15
;   minCoolingSpeedSlowdown,20
;   increaseFanForCooling,0
;   minFanLayerTime,45
;   maxCoolingFanSpeed,100
;   increaseFanForBridging,0
;   bridgingFanSpeed,100
;   use5D,1
;   relativeEdistances,0
;   allowEaxisZeroing,1
;   independentExtruderAxes,0
;   includeM10123,0
;   stickySupport,1
;   applyToolheadOffsets,0
;   gcodeXoffset,0
;   gcodeYoffset,0
;   gcodeZoffset,0
;   overrideMachineDefinition,1
;   machineTypeOverride,0
;   strokeXoverride,200
;   strokeYoverride,200
;   strokeZoverride,200
;   originOffsetXoverride,0
;   originOffsetYoverride,0
;   originOffsetZoverride,0
;   homeXdirOverride,-1
;   homeYdirOverride,-1
;   homeZdirOverride,-1
;   flipXoverride,1
;   flipYoverride,-1
;   flipZoverride,1
;   toolheadOffsets,0,0|0,0|0,0|0,0|0,0|0,0
;   overrideFirmwareConfiguration,0
;   firmwareTypeOverride,RepRap (Marlin/Repetier/Sprinter)
;   GPXconfigOverride,r2
;   baudRateOverride,115200
;   overridePrinterModels,0
;   printerModelsOverride
;   startingGcode,G28 X0 Y0; home XY,G1 X20 Y20,G28 Z0,G1 Z5 F5000; Lift NZ
;   layerChangeGcode,
;   retractionGcode,
;   toolChangeGcode,
;   endingGcode,M104 S0 ; turn off extruder,G28 X0 ; home x,M140 S0 ; turn off bed,M84 ; disable motors,M107 ;
;   exportFileFormat,gcode
;   celebration,0
;   celebrationSong,Looney Toons
;   postProcessing,
;   defaultSpeed,3600
;   outlineUnderspeed,0.5
;   solidInfillUnderspeed,0.8
;   supportUnderspeed,0.8
;   rapidXYspeed,4800
;   rapidZspeed,1002
;   minBridgingArea,50
;   bridgingExtraInflation,0
;   bridgingExtrusionMultiplier,1
;   bridgingSpeedMultiplier,1
;   useFixedBridgingAngle,0
;   fixedBridgingAngle,0
;   applyBridgingToPerimeters,0
;   filamentDiameters,1.75|1.75|1.75|1.75|1.75|1.75
;   filamentPricesPerKg,46|46|46|46|46|46
;   filamentDensities,1.25|1.25|1.25|1.25|1.25|1.25
;   useMinPrintHeight,0
;   minPrintHeight,0
;   useMaxPrintHeight,0
;   maxPrintHeight,0
;   useDiaphragm,0
;   diaphragmLayerInterval,20
;   robustSlicing,1
;   mergeAllIntoSolid,0
;   onlyRetractWhenCrossingOutline,1
;   retractBetweenLayers,1
;   useRetractionMinTravel,0
;   retractionMinTravel,3
;   retractWhileWiping,0
;   onlyWipeOutlines,1
;   avoidCrossingOutline,0
;   maxMovementDetourFactor,3
;   toolChangeRetractionDistance,12
;   toolChangeExtraRestartDistance,-0.5
;   toolChangeRetractionSpeed,600
;   externalThinWallType,0
;   internalThinWallType,2
;   thinWallAllowedOverlapPercentage,10
;   singleExtrusionMinLength,1
;   singleExtrusionMinPrintingWidthPercentage,50
;   singleExtrusionMaxPrintingWidthPercentage,200
;   singleExtrusionEndpointExtension,0.2
;   horizontalSizeCompensation,0
G90
M82
M106 S0
M140 S60
M190 S60
M104 S190 T0
M109 S190 T0
G28 X0 Y0; home XY
G1 X20 Y20
G28 Z0
G1 Z5 F5000; Lift NZ
; process Trideo BOX
; layer 1, Z = 0.270
T0
G92 E0.0000
G1 E-0.7000 F1500
; feature skirt
; tool H0.270 W0.480
G1 Z0.270 F1002
G1 X69.574 Y68.005 F4800
G1 E0.0000 F1500
G92 E0.0000
G1 X130.426 Y68.005 E3.2132 F1800
G1 X133.190 Y70.770 E3.4196
G1 X133.190 Y79.080 E3.8585
G1 X130.426 Y81.845 E4.0649
G1 X123.420 Y81.845 E4.4348
G1 X122.175 Y83.090 E4.5278
G1 X113.825 Y83.090 E4.9687
G1 X112.000 Y81.265 E5.1050
G1 X110.175 Y83.090 E5.2413
G1 X108.940 Y83.090 E5.3065
G1 X108.940 Y87.855 E5.5581
G1 X130.426 Y87.855 E6.6926
G1 X133.190 Y90.620 E6.8991
G1 X133.190 Y98.930 E7.3379
G1 X130.426 Y101.695 E7.5444
G1 X123.420 Y101.695 E7.9143
G1 X122.175 Y102.940 E8.0073
G1 X113.825 Y102.940 E8.4482
G1 X112.000 Y101.115 E8.5845
G1 X110.175 Y102.940 E8.7207
G1 X108.940 Y102.940 E8.7860
G1 X108.940 Y107.705 E9.0376
G1 X130.426 Y107.705 E10.1721
G1 X133.190 Y110.470 E10.3786
G1 X133.190 Y118.780 E10.8174
G1 X130.426 Y121.545 E11.0238
G1 X123.420 Y121.545 E11.3938
G1 X122.175 Y122.790 E11.4867
G1 X113.825 Y122.790 E11.9277
G1 X112.000 Y120.965 E12.0639
G1 X110.175 Y122.790 E12.2002
G1 X108.940 Y122.790 E12.2654
G1 X108.940 Y128.025 E12.5419
G1 X106.175 Y130.790 E12.7483
G1 X93.825 Y130.790 E13.4005
G1 X91.060 Y128.025 E13.6069
G1 X91.060 Y122.790 E13.8834
G1 X89.825 Y122.790 E13.9486
G1 X88.000 Y120.965 E14.0849
G1 X86.175 Y122.790 E14.2211
G1 X77.825 Y122.790 E14.6621
G1 X76.580 Y121.545 E14.7550
G1 X69.574 Y121.545 E15.1250
G1 X66.810 Y118.780 E15.3314
G1 X66.809 Y110.470 E15.7702
G1 X69.574 Y107.705 E15.9767
G1 X91.060 Y107.705 E17.1112
G1 X91.060 Y102.940 E17.3628
G1 X89.825 Y102.940 E17.4281
G1 X88.000 Y101.115 E17.5643
G1 X86.175 Y102.940 E17.7006
G1 X77.825 Y102.940 E18.1415
G1 X76.580 Y101.695 E18.2345
G1 X69.574 Y101.695 E18.6044
G1 X66.810 Y98.930 E18.8109
G1 X66.809 Y90.620 E19.2497
G1 X69.574 Y87.855 E19.4562
G1 X91.060 Y87.855 E20.5907
G1 X91.060 Y83.090 E20.8423
G1 X89.825 Y83.090 E20.9075
G1 X88.000 Y81.265 E21.0438
G1 X86.175 Y83.090 E21.1801
G1 X77.825 Y83.090 E21.6210
G1 X76.580 Y81.845 E21.7140
G1 X69.574 Y81.845 E22.0839
G1 X66.810 Y79.080 E22.2904
G1 X66.809 Y70.770 E22.7292
G1 X69.574 Y68.005 E22.9356
G92 E0.0000
G1 E-0.7000 F1500
G1 X69.773 Y68.485 F4800
G1 E0.0000 F1500
G92 E0.0000
G1 X130.227 Y68.485 E3.1922 F1800
G1 X132.710 Y70.969 E3.3777
G1 X132.710 Y78.881 E3.7955
G1 X130.227 Y81.365 E3.9809
G1 X123.221 Y81.365 E4.3509
G1 X121.976 Y82.610 E4.4438
G1 X114.024 Y82.610 E4.8637
G1 X112.000 Y80.586 E5.0149
G1 X109.976 Y82.610 E5.1660
G1 X108.460 Y82.610 E5.2461
G1 X108.460 Y88.126 E5.5373
G1 X108.251 Y88.335 E5.5529
G1 X130.227 Y88.335 E6.7133
G1 X132.710 Y90.819 E6.8988
G1 X132.710 Y98.731 E7.3166
G1 X130.227 Y101.215 E7.5021
G1 X123.221 Y101.215 E7.8720
G1 X121.976 Y102.460 E7.9650
G1 X114.024 Y102.460 E8.3849
G1 X112.000 Y100.436 E8.5360
G1 X109.976 Y102.460 E8.6871
G1 X108.460 Y102.460 E8.7672
G1 X108.460 Y107.976 E9.0585
G1 X108.251 Y108.185 E9.0741
G1 X130.227 Y108.185 E10.2345
G1 X132.710 Y110.669 E10.4199
G1 X132.710 Y118.581 E10.8377
G1 X130.227 Y121.065 E11.0232
G1 X123.221 Y121.065 E11.3931
G1 X121.976 Y122.310 E11.4861
G1 X114.024 Y122.310 E11.9060
G1 X112.000 Y120.286 E12.0572
G1 X109.976 Y122.310 E12.2083
G1 X108.460 Y122.310 E12.2883
G1 X108.460 Y127.826 E12.5796
G1 X105.976 Y130.310 E12.7651
G1 X94.024 Y130.310 E13.3962
G1 X91.540 Y127.826 E13.5817
G1 X91.540 Y122.310 E13.8730
G1 X90.024 Y122.310 E13.9531
G1 X88.000 Y120.286 E14.1042
G1 X85.976 Y122.310 E14.2553
G1 X78.024 Y122.310 E14.6752
G1 X76.779 Y121.065 E14.7682
G1 X69.773 Y121.065 E15.1381
G1 X67.290 Y118.581 E15.3236
G1 X67.289 Y110.669 E15.7414
G1 X69.773 Y108.185 E15.9269
G1 X91.749 Y108.185 E17.0873
G1 X91.540 Y107.976 E17.1029
G1 X91.540 Y102.460 E17.3941
G1 X90.024 Y102.460 E17.4742
G1 X88.000 Y100.436 E17.6253
G1 X85.976 Y102.460 E17.7764
G1 X78.024 Y102.460 E18.1964
G1 X76.779 Y101.215 E18.2893
G1 X69.773 Y101.215 E18.6593
G1 X67.290 Y98.731 E18.8447
G1 X67.289 Y90.819 E19.2625
G1 X69.773 Y88.335 E19.4480
G1 X91.749 Y88.335 E20.6084
G1 X91.540 Y88.126 E20.6240
G1 X91.540 Y82.610 E20.9153
G1 X90.024 Y82.610 E20.9953
G1 X88.000 Y80.586 E21.1465
G1 X85.976 Y82.610 E21.2976
G1 X78.024 Y82.610 E21.7175
G1 X76.779 Y81.365 E21.8105
G1 X69.773 Y81.365 E22.1804
G1 X67.290 Y78.881 E22.3659
G1 X67.289 Y70.969 E22.7837
G1 X69.773 Y68.485 E22.9692
G92 E0.0000
G1 E-0.7000 F1500
; feature inner perimeter
G1 X72.249 Y73.445 F4800
G1 E0.0000 F1500
G92 E0.0000
G1 X127.751 Y73.445 E2.9307 F1350
G1 X127.750 Y76.405 E3.0870
G1 X119.683 Y76.405 E3.5130
G1 X119.683 Y75.305 E3.5711
G1 X80.317 Y75.305 E5.6497
G1 X80.317 Y76.405 E5.7078
G1 X72.249 Y76.405 E6.1338
G1 X72.249 Y73.445 E6.2901
; feature outer perimeter
G1 X71.769 Y72.965 F4800
G92 E0.0000
G1 X128.231 Y72.965 E2.9814 F900
G1 X128.230 Y76.885 E3.1883
G1 X119.203 Y76.885 E3.6650
G1 X119.203 Y75.785 E3.7231
G1 X80.797 Y75.785 E5.7511
G1 X80.797 Y76.885 E5.8092
G1 X71.769 Y76.885 E6.2859
G1 X71.769 Y72.965 E6.4929
; feature solid layer
G1 X73.282 Y75.997 F4800
G92 E0.0000
G1 X72.657 Y75.373 E0.0466 F1440
G1 X72.657 Y74.694 E0.0825
G1 X73.961 Y75.997 E0.1798
G1 X74.639 Y75.997 E0.2156
G1 X72.657 Y74.015 E0.3636
G1 X72.657 Y73.853 E0.3722
G1 X73.174 Y73.853 E0.3994
G1 X75.318 Y75.997 E0.5596
G1 X75.997 Y75.997 E0.5954
G1 X73.853 Y73.853 E0.7555
G1 X74.532 Y73.853 E0.7913
G1 X76.676 Y75.997 E0.9514
G1 X77.355 Y75.997 E0.9873
G1 X75.211 Y73.853 E1.1474
G1 X75.889 Y73.853 E1.1832
G1 X78.033 Y75.997 E1.3433
G1 X78.712 Y75.997 E1.3792
G1 X76.568 Y73.853 E1.5393
G1 X77.247 Y73.853 E1.5751
G1 X79.391 Y75.997 E1.7352
G1 X79.909 Y75.997 E1.7626
G1 X79.909 Y75.836 E1.7711
G1 X77.926 Y73.853 E1.9192
G1 X78.605 Y73.853 E1.9550
G1 X79.909 Y75.157 E2.0524
G1 X79.909 Y74.897 E2.0662
G1 X80.328 Y74.897 E2.0883
G1 X79.284 Y73.853 E2.1662
G1 X79.962 Y73.853 E2.2021
G1 X81.006 Y74.897 E2.2800
G1 X81.685 Y74.897 E2.3159
G1 X80.641 Y73.853 E2.3938
G1 X81.320 Y73.853 E2.4297
G1 X82.364 Y74.897 E2.5076
G1 X83.043 Y74.897 E2.5435
G1 X81.999 Y73.853 E2.6215
G1 X82.678 Y73.853 E2.6573
G1 X83.722 Y74.897 E2.7353
G1 X84.401 Y74.897 E2.7711
G1 X83.357 Y73.853 E2.8491
G1 X84.035 Y73.853 E2.8849
G1 X85.079 Y74.897 E2.9629
G1 X85.758 Y74.897 E2.9987
G1 X84.714 Y73.853 E3.0767
G1 X85.393 Y73.853 E3.1125
G1 X86.437 Y74.897 E3.1905
G1 X87.116 Y74.897 E3.2263
G1 X86.072 Y73.853 E3.3043
G1 X86.751 Y73.853 E3.3401
G1 X87.795 Y74.897 E3.4181
G1 X88.473 Y74.897 E3.4539
G1 X87.429 Y73.853 E3.5319
G1 X88.108 Y73.853 E3.5677
G1 X89.152 Y74.897 E3.6457
G1 X89.831 Y74.897 E3.6816
G1 X88.787 Y73.853 E3.7595
G1 X89.466 Y73.853 E3.7954
G1 X90.510 Y74.897 E3.8733
G1 X91.189 Y74.897 E3.9092
G1 X90.145 Y73.853 E3.9871
G1 X90.824 Y73.853 E4.0230
G1 X91.868 Y74.897 E4.1009
G1 X92.546 Y74.897 E4.1368
G1 X91.502 Y73.853 E4.2147
G1 X92.181 Y73.853 E4.2506
G1 X93.225 Y74.897 E4.3285
G1 X93.904 Y74.897 E4.3644
G1 X92.860 Y73.853 E4.4423
G1 X93.539 Y73.853 E4.4782
G1 X94.583 Y74.897 E4.5562
G1 X95.262 Y74.897 E4.5920
G1 X94.218 Y73.853 E4.6700
G1 X94.897 Y73.853 E4.7058
G1 X95.941 Y74.897 E4.7838
G1 X96.619 Y74.897 E4.8196
G1 X95.575 Y73.853 E4.8976
G1 X96.254 Y73.853 E4.9334
G1 X97.298 Y74.897 E5.0114
G1 X97.977 Y74.897 E5.0472
G1 X96.933 Y73.853 E5.1252
G1 X97.612 Y73.853 E5.1610
G1 X98.656 Y74.897 E5.2390
G1 X99.335 Y74.897 E5.2748
G1 X98.291 Y73.853 E5.3528
G1 X98.969 Y73.853 E5.3886
G1 X100.013 Y74.897 E5.4666
G1 X100.692 Y74.897 E5.5024
G1 X99.648 Y73.853 E5.5804
G1 X100.327 Y73.853 E5.6163
G1 X101.371 Y74.897 E5.6942
G1 X102.050 Y74.897 E5.7301
G1 X101.006 Y73.853 E5.8080
G1 X101.685 Y73.853 E5.8439
G1 X102.729 Y74.897 E5.9218
G1 X103.408 Y74.897 E5.9577
G1 X102.364 Y73.853 E6.0356
G1 X103.042 Y73.853 E6.0715
G1 X104.086 Y74.897 E6.1494
G1 X104.765 Y74.897 E6.1853
G1 X103.721 Y73.853 E6.2632
G1 X104.400 Y73.853 E6.2991
G1 X105.444 Y74.897 E6.3771
G1 X106.123 Y74.897 E6.4129
G1 X105.079 Y73.853 E6.4909
G1 X105.758 Y73.853 E6.5267
G1 X106.802 Y74.897 E6.6047
G1 X107.480 Y74.897 E6.6405
G1 X106.436 Y73.853 E6.7185
G1 X107.115 Y73.853 E6.7543
G1 X108.159 Y74.897 E6.8323
G1 X108.838 Y74.897 E6.8681
G1 X107.794 Y73.853 E6.9461
G1 X108.473 Y73.853 E6.9819
G1 X109.517 Y74.897 E7.0599
G1 X110.196 Y74.897 E7.0957
G1 X109.152 Y73.853 E7.1737
G1 X109.831 Y73.853 E7.2095
G1 X110.875 Y74.897 E7.2875
G1 X111.553 Y74.897 E7.3233
G1 X110.509 Y73.853 E7.4013
G1 X111.188 Y73.853 E7.4371
G1 X112.232 Y74.897 E7.5151
G1 X112.911 Y74.897 E7.5510
G1 X111.867 Y73.853 E7.6289
G1 X112.546 Y73.853 E7.6648
G1 X113.590 Y74.897 E7.7427
G1 X114.269 Y74.897 E7.7786
G1 X113.225 Y73.853 E7.8565
G1 X113.904 Y73.853 E7.8924
G1 X114.948 Y74.897 E7.9703
G1 X115.626 Y74.897 E8.0062
G1 X114.582 Y73.853 E8.0841
G1 X115.261 Y73.853 E8.1200
G1 X116.305 Y74.897 E8.1979
G1 X116.984 Y74.897 E8.2338
G1 X115.940 Y73.853 E8.3118
G1 X116.619 Y73.853 E8.3476
G1 X117.663 Y74.897 E8.4256
G1 X118.342 Y74.897 E8.4614
G1 X117.298 Y73.853 E8.5394
G1 X117.976 Y73.853 E8.5752
G1 X119.020 Y74.897 E8.6532
G1 X119.699 Y74.897 E8.6890
G1 X118.655 Y73.853 E8.7670
G1 X119.334 Y73.853 E8.8028
G1 X121.478 Y75.997 E8.9629
G1 X122.157 Y75.997 E8.9988
G1 X120.013 Y73.853 E9.1589
G1 X120.692 Y73.853 E9.1947
G1 X122.836 Y75.997 E9.3548
G1 X123.515 Y75.997 E9.3907
G1 X121.371 Y73.853 E9.5508
G1 X122.049 Y73.853 E9.5866
G1 X124.193 Y75.997 E9.7467
G1 X124.872 Y75.997 E9.7826
G1 X122.728 Y73.853 E9.9427
G1 X123.407 Y73.853 E9.9785
G1 X125.551 Y75.997 E10.1386
G1 X126.230 Y75.997 E10.1745
G1 X124.086 Y73.853 E10.3346
G1 X124.765 Y73.853 E10.3704
G1 X126.909 Y75.997 E10.5305
G1 X127.342 Y75.997 E10.5534
G1 X127.342 Y75.752 E10.5664
G1 X125.444 Y73.853 E10.7082
G1 X126.122 Y73.853 E10.7440
G1 X127.342 Y75.073 E10.8351
G1 X127.342 Y74.394 E10.8710
G1 X126.801 Y73.853 E10.9114
G1 X120.091 Y75.288 F4800
G92 E0.0000
G1 X120.799 Y75.997 E0.0529 F1440
G1 X120.120 Y75.997 E0.0888
G1 X120.091 Y75.967 E0.0910
G92 E0.0000
G1 E-0.7000 F1500
; feature inner perimeter
G1 X127.751 Y93.295 F4800
G1 E0.0000 F1500
G92 E0.0000
G1 X127.750 Y96.255 E0.1563 F1350
G1 X119.683 Y96.255 E0.5823
G1 X119.683 Y95.155 E0.6404
G1 X80.317 Y95.155 E2.7190
G1 X80.317 Y96.255 E2.7771
G1 X72.249 Y96.255 E3.2031
G1 X72.249 Y93.295 E3.3594
G1 X127.751 Y93.295 E6.2901
; feature outer perimeter
G1 X128.231 Y92.815 F4800
G92 E0.0000
G1 X128.230 Y96.735 E0.2070 F900
G1 X119.203 Y96.735 E0.6837
G1 X119.203 Y95.635 E0.7418
G1 X80.797 Y95.635 E2.7697
G1 X80.797 Y96.735 E2.8278
G1 X71.769 Y96.735 E3.3045
G1 X71.769 Y92.815 E3.5115
