; G-Code generated by Simplify3D(R) Version 4.1.1
; Apr 25, 2021 at 7:19:42 PM
; Settings Summary
;   processName,Trideo BOX
;   applyToModels,AtomicLabCover,AtomicLabCover(2),AtomicLabCover(3)
;   profileName,Trideo BOX
;   profileVersion,2021-04-15 09:48:16
;   baseProfile,Default
;   printMaterial,PLA
;   printQuality,Fast
;   printExtruders,
;   extruderName,Primary Extruder
;   extruderToolheadNumber,0
;   extruderDiameter,0.4
;   extruderAutoWidth,1
;   extruderWidth,0.48
;   extrusionMultiplier,0.98
;   extruderUseRetract,1
;   extruderRetractionDistance,0.7
;   extruderExtraRestartDistance,0
;   extruderRetractionZLift,0
;   extruderRetractionSpeed,1500
;   extruderUseCoasting,0
;   extruderCoastingDistance,0.2
;   extruderUseWipe,0
;   extruderWipeDistance,5
;   primaryExtruder,0
;   layerHeight,0.3
;   topSolidLayers,3
;   bottomSolidLayers,3
;   perimeterOutlines,2
;   printPerimetersInsideOut,1
;   startPointOption,2
;   startPointOriginX,0
;   startPointOriginY,0
;   sequentialIslands,0
;   spiralVaseMode,0
;   firstLayerHeightPercentage,90
;   firstLayerWidthPercentage,100
;   firstLayerUnderspeed,0.5
;   useRaft,0
;   raftExtruder,0
;   raftTopLayers,3
;   raftBaseLayers,2
;   raftOffset,3
;   raftSeparationDistance,0.14
;   raftTopInfill,100
;   aboveRaftSpeedMultiplier,0.3
;   useSkirt,1
;   skirtExtruder,0
;   skirtLayers,1
;   skirtOutlines,2
;   skirtOffset,4
;   usePrimePillar,0
;   primePillarExtruder,999
;   primePillarWidth,12
;   primePillarLocation,7
;   primePillarSpeedMultiplier,1
;   useOozeShield,0
;   oozeShieldExtruder,999
;   oozeShieldOffset,2
;   oozeShieldOutlines,1
;   oozeShieldSidewallShape,1
;   oozeShieldSidewallAngle,30
;   oozeShieldSpeedMultiplier,1
;   infillExtruder,0
;   internalInfillPattern,Rectilinear
;   externalInfillPattern,Rectilinear
;   infillPercentage,15
;   outlineOverlapPercentage,15
;   infillExtrusionWidthPercentage,100
;   minInfillLength,5
;   infillLayerInterval,1
;   internalInfillAngles,45,-45
;   overlapInternalInfillAngles,0
;   externalInfillAngles,45,-45
;   generateSupport,1
;   supportExtruder,0
;   supportInfillPercentage,25
;   supportExtraInflation,0
;   supportBaseLayers,0
;   denseSupportExtruder,0
;   denseSupportLayers,0
;   denseSupportInfillPercentage,70
;   supportLayerInterval,1
;   supportHorizontalPartOffset,0.3
;   supportUpperSeparationLayers,1
;   supportLowerSeparationLayers,1
;   supportType,0
;   supportGridSpacing,4
;   maxOverhangAngle,45
;   supportAngles,0
;   temperatureName,Primary Extruder,Heated bed
;   temperatureNumber,0,0
;   temperatureSetpointCount,1,1
;   temperatureSetpointLayers,1,1
;   temperatureSetpointTemperatures,190,60
;   temperatureStabilizeAtStartup,1,1
;   temperatureHeatedBed,0,1
;   fanLayers,1,2
;   fanSpeeds,0,100
;   blipFanToFullPower,0
;   adjustSpeedForCooling,1
;   minSpeedLayerTime,15
;   minCoolingSpeedSlowdown,20
;   increaseFanForCooling,0
;   minFanLayerTime,45
;   maxCoolingFanSpeed,100
;   increaseFanForBridging,0
;   bridgingFanSpeed,100
;   use5D,1
;   relativeEdistances,0
;   allowEaxisZeroing,1
;   independentExtruderAxes,0
;   includeM10123,0
;   stickySupport,1
;   applyToolheadOffsets,0
;   gcodeXoffset,0
;   gcodeYoffset,0
;   gcodeZoffset,0
;   overrideMachineDefinition,1
;   machineTypeOverride,0
;   strokeXoverride,200
;   strokeYoverride,200
;   strokeZoverride,200
;   originOffsetXoverride,0
;   originOffsetYoverride,0
;   originOffsetZoverride,0
;   homeXdirOverride,-1
;   homeYdirOverride,-1
;   homeZdirOverride,-1
;   flipXoverride,1
;   flipYoverride,-1
;   flipZoverride,1
;   toolheadOffsets,0,0|0,0|0,0|0,0|0,0|0,0
;   overrideFirmwareConfiguration,0
;   firmwareTypeOverride,RepRap (Marlin/Repetier/Sprinter)
;   GPXconfigOverride,r2
;   baudRateOverride,115200
;   overridePrinterModels,0
;   printerModelsOverride
;   startingGcode,G28 X0 Y0; home XY,G1 X20 Y20,G28 Z0,G1 Z5 F5000; Lift NZ
;   layerChangeGcode,
;   retractionGcode,
;   toolChangeGcode,
;   endingGcode,M104 S0 ; turn off extruder,G28 X0 ; home x,M140 S0 ; turn off bed,M84 ; disable motors,M107 ;
;   exportFileFormat,gcode
;   celebration,0
;   celebrationSong,Looney Toons
;   postProcessing,
;   defaultSpeed,3600
;   outlineUnderspeed,0.5
;   solidInfillUnderspeed,0.8
;   supportUnderspeed,0.8
;   rapidXYspeed,4800
;   rapidZspeed,1002
;   minBridgingArea,50
;   bridgingExtraInflation,0
;   bridgingExtrusionMultiplier,1
;   bridgingSpeedMultiplier,1
;   useFixedBridgingAngle,0
;   fixedBridgingAngle,0
;   applyBridgingToPerimeters,0
;   filamentDiameters,1.75|1.75|1.75|1.75|1.75|1.75
;   filamentPricesPerKg,46|46|46|46|46|46
;   filamentDensities,1.25|1.25|1.25|1.25|1.25|1.25
;   useMinPrintHeight,0
;   minPrintHeight,0
;   useMaxPrintHeight,0
;   maxPrintHeight,0
;   useDiaphragm,0
;   diaphragmLayerInterval,20
;   robustSlicing,1
;   mergeAllIntoSolid,0
;   onlyRetractWhenCrossingOutline,1
;   retractBetweenLayers,1
;   useRetractionMinTravel,0
;   retractionMinTravel,3
;   retractWhileWiping,0
;   onlyWipeOutlines,1
;   avoidCrossingOutline,0
;   maxMovementDetourFactor,3
;   toolChangeRetractionDistance,12
;   toolChangeExtraRestartDistance,-0.5
;   toolChangeRetractionSpeed,600
;   externalThinWallType,0
;   internalThinWallType,2
;   thinWallAllowedOverlapPercentage,10
;   singleExtrusionMinLength,1
;   singleExtrusionMinPrintingWidthPercentage,50
;   singleExtrusionMaxPrintingWidthPercentage,200
;   singleExtrusionEndpointExtension,0.2
;   horizontalSizeCompensation,0
G90
M82
M106 S0
M140 S60
M190 S60
M104 S190 T0
M109 S190 T0
G28 X0 Y0; home XY
G1 X20 Y20
G28 Z0
G1 Z5 F5000; Lift NZ
; process Trideo BOX
; layer 1, Z = 0.270
T0
G92 E0.0000
G1 E-0.7000 F1500
; feature skirt
; tool H0.270 W0.480
G1 Z0.270 F1002
G1 X67.183 Y66.460 F4800
G1 E0.0000 F1500
G92 E0.0000
G1 X132.817 Y66.460 E3.4658 F1800
G1 X135.301 Y68.944 E3.6512
G1 X135.301 Y77.256 E4.0902
G1 X132.817 Y79.740 E4.2756
G1 X118.956 Y79.740 E5.0075
G1 X117.756 Y78.540 E5.0972
G1 X106.460 Y78.540 E5.6936
G1 X106.460 Y84.776 E6.0229
G1 X103.976 Y87.260 E6.2084
G1 X96.024 Y87.260 E6.6283
G1 X93.540 Y84.776 E6.8138
G1 X93.540 Y78.540 E7.1431
G1 X82.243 Y78.540 E7.7396
G1 X81.043 Y79.740 E7.8292
G1 X67.183 Y79.740 E8.5611
G1 X64.699 Y77.256 E8.7466
G1 X64.699 Y68.944 E9.1855
G1 X67.183 Y66.460 E9.3710
G92 E0.0000
G1 E-0.7000 F1500
G1 X66.984 Y65.980 F4800
G1 E0.0000 F1500
G92 E0.0000
G1 X133.016 Y65.980 E3.4868 F1800
G1 X135.781 Y68.745 E3.6932
G1 X135.781 Y77.455 E4.1532
G1 X133.016 Y80.220 E4.3596
G1 X118.758 Y80.220 E5.1125
G1 X117.558 Y79.020 E5.2021
G1 X106.940 Y79.020 E5.7628
G1 X106.940 Y84.975 E6.0772
G1 X104.735 Y87.180 E6.2419
G1 X133.016 Y87.180 E7.7352
G1 X135.781 Y89.945 E7.9417
G1 X135.781 Y98.655 E8.4016
G1 X133.016 Y101.420 E8.6081
G1 X118.758 Y101.420 E9.3610
G1 X117.558 Y100.220 E9.4506
G1 X106.940 Y100.220 E10.0113
G1 X106.940 Y106.175 E10.3257
G1 X104.735 Y108.380 E10.4904
G1 X133.016 Y108.380 E11.9837
G1 X135.781 Y111.145 E12.1902
G1 X135.781 Y119.855 E12.6501
G1 X133.016 Y122.620 E12.8566
G1 X118.758 Y122.620 E13.6095
G1 X117.558 Y121.420 E13.6991
G1 X106.940 Y121.420 E14.2598
G1 X106.940 Y127.375 E14.5742
G1 X104.175 Y130.140 E14.7807
G1 X95.825 Y130.140 E15.2216
G1 X93.060 Y127.375 E15.4281
G1 X93.060 Y121.420 E15.7425
G1 X82.442 Y121.420 E16.3032
G1 X81.242 Y122.620 E16.3928
G1 X66.984 Y122.620 E17.1457
G1 X64.219 Y119.855 E17.3522
G1 X64.219 Y111.145 E17.8121
G1 X66.984 Y108.380 E18.0186
G1 X95.265 Y108.380 E19.5119
G1 X93.060 Y106.175 E19.6766
G1 X93.060 Y100.220 E19.9910
G1 X82.442 Y100.220 E20.5517
G1 X81.242 Y101.420 E20.6413
G1 X66.984 Y101.420 E21.3942
G1 X64.219 Y98.655 E21.6007
G1 X64.219 Y89.945 E22.0606
G1 X66.984 Y87.180 E22.2671
G1 X95.265 Y87.180 E23.7604
G1 X93.060 Y84.975 E23.9251
G1 X93.060 Y79.020 E24.2395
G1 X82.442 Y79.020 E24.8002
G1 X81.242 Y80.220 E24.8898
G1 X66.984 Y80.220 E25.6427
G1 X64.219 Y77.455 E25.8492
G1 X64.219 Y68.745 E26.3091
G1 X66.984 Y65.980 E26.5156
G92 E0.0000
G1 E-0.7000 F1500
G1 X67.183 Y87.660 F4800
G1 E0.0000 F1500
G92 E0.0000
G1 X132.817 Y87.660 E3.4658 F1800
G1 X135.301 Y90.144 E3.6512
G1 X135.301 Y98.456 E4.0902
G1 X132.817 Y100.940 E4.2756
G1 X118.956 Y100.940 E5.0075
G1 X117.756 Y99.740 E5.0972
G1 X106.460 Y99.740 E5.6936
G1 X106.460 Y105.976 E6.0229
G1 X103.976 Y108.460 E6.2084
G1 X96.024 Y108.460 E6.6283
G1 X93.540 Y105.976 E6.8138
G1 X93.540 Y99.740 E7.1431
G1 X82.243 Y99.740 E7.7396
G1 X81.043 Y100.940 E7.8292
G1 X67.183 Y100.940 E8.5611
G1 X64.699 Y98.456 E8.7466
G1 X64.699 Y90.144 E9.1855
G1 X67.183 Y87.660 E9.3710
G92 E0.0000
G1 E-0.7000 F1500
G1 X67.183 Y108.860 F4800
G1 E0.0000 F1500
G92 E0.0000
G1 X132.817 Y108.860 E3.4658 F1800
G1 X135.301 Y111.344 E3.6512
G1 X135.301 Y119.656 E4.0902
G1 X132.817 Y122.140 E4.2756
G1 X118.956 Y122.140 E5.0075
G1 X117.756 Y120.940 E5.0972
G1 X106.460 Y120.940 E5.6936
G1 X106.460 Y127.176 E6.0229
G1 X103.976 Y129.660 E6.2084
G1 X96.024 Y129.660 E6.6283
G1 X93.540 Y127.176 E6.8138
G1 X93.540 Y120.940 E7.1431
G1 X82.243 Y120.940 E7.7396
G1 X81.043 Y122.140 E7.8292
G1 X67.183 Y122.140 E8.5611
G1 X64.699 Y119.656 E8.7466
G1 X64.699 Y111.344 E9.1855
G1 X67.183 Y108.860 E9.3710
G92 E0.0000
G1 E-0.7000 F1500
; feature inner perimeter
G1 X69.659 Y74.780 F4800
G1 E0.0000 F1500
G92 E0.0000
G1 X69.659 Y71.420 E0.1774 F1350
G1 X130.341 Y71.420 E3.3817
G1 X130.341 Y74.780 E3.5591
G1 X121.433 Y74.780 E4.0295
G1 X121.433 Y73.580 E4.0928
G1 X78.567 Y73.580 E6.3563
G1 X78.567 Y74.780 E6.4197
G1 X69.659 Y74.780 E6.8901
; feature outer perimeter
G1 X69.179 Y75.260 F4800
G92 E0.0000
G1 X69.179 Y70.940 E0.2281 F900
G1 X130.821 Y70.940 E3.4830
G1 X130.821 Y75.260 E3.7112
G1 X120.953 Y75.260 E4.2322
G1 X120.953 Y74.060 E4.2956
G1 X79.047 Y74.060 E6.5084
G1 X79.047 Y75.260 E6.5717
G1 X69.179 Y75.260 E7.0928
; feature solid layer
G1 X70.067 Y74.140 F4800
G92 E0.0000
G1 X70.299 Y74.372 E0.0173 F1440
G1 X70.978 Y74.372 E0.0532
G1 X70.067 Y73.461 E0.1212
G1 X70.067 Y72.782 E0.1570
G1 X71.657 Y74.372 E0.2758
G1 X72.336 Y74.372 E0.3116
G1 X70.067 Y72.103 E0.4810
G1 X70.067 Y71.828 E0.4955
G1 X70.470 Y71.828 E0.5169
G1 X73.014 Y74.372 E0.7068
G1 X73.693 Y74.372 E0.7427
G1 X71.149 Y71.828 E0.9326
G1 X71.828 Y71.828 E0.9685
G1 X74.372 Y74.372 E1.1585
G1 X75.051 Y74.372 E1.1943
G1 X72.507 Y71.828 E1.3843
G1 X73.186 Y71.828 E1.4201
G1 X75.730 Y74.372 E1.6101
G1 X76.408 Y74.372 E1.6459
G1 X73.864 Y71.828 E1.8359
G1 X74.543 Y71.828 E1.8718
G1 X77.087 Y74.372 E2.0617
G1 X77.766 Y74.372 E2.0976
G1 X75.222 Y71.828 E2.2876
G1 X75.901 Y71.828 E2.3234
G1 X78.159 Y74.086 E2.4920
G1 X78.159 Y73.407 E2.5279
G1 X76.580 Y71.828 E2.6458
G1 X77.259 Y71.828 E2.6817
G1 X78.603 Y73.172 E2.7820
G1 X79.281 Y73.172 E2.8179
G1 X77.937 Y71.828 E2.9182
G1 X78.616 Y71.828 E2.9541
G1 X79.960 Y73.172 E3.0544
G1 X80.639 Y73.172 E3.0903
G1 X79.295 Y71.828 E3.1906
G1 X79.974 Y71.828 E3.2265
G1 X81.318 Y73.172 E3.3268
G1 X81.997 Y73.172 E3.3627
G1 X80.653 Y71.828 E3.4631
G1 X81.332 Y71.828 E3.4989
G1 X82.676 Y73.172 E3.5993
G1 X83.354 Y73.172 E3.6351
G1 X82.010 Y71.828 E3.7355
G1 X82.689 Y71.828 E3.7713
G1 X84.033 Y73.172 E3.8717
G1 X84.712 Y73.172 E3.9075
G1 X83.368 Y71.828 E4.0079
G1 X84.047 Y71.828 E4.0437
G1 X85.391 Y73.172 E4.1441
G1 X86.070 Y73.172 E4.1799
G1 X84.726 Y71.828 E4.2803
G1 X85.404 Y71.828 E4.3161
G1 X86.748 Y73.172 E4.4165
G1 X87.427 Y73.172 E4.4524
G1 X86.083 Y71.828 E4.5527
G1 X86.762 Y71.828 E4.5886
G1 X88.106 Y73.172 E4.6889
G1 X88.785 Y73.172 E4.7248
G1 X87.441 Y71.828 E4.8251
G1 X88.120 Y71.828 E4.8610
G1 X89.464 Y73.172 E4.9613
G1 X90.143 Y73.172 E4.9972
G1 X88.799 Y71.828 E5.0976
G1 X89.477 Y71.828 E5.1334
G1 X90.821 Y73.172 E5.2338
G1 X91.500 Y73.172 E5.2696
G1 X90.156 Y71.828 E5.3700
G1 X90.835 Y71.828 E5.4058
G1 X92.179 Y73.172 E5.5062
G1 X92.858 Y73.172 E5.5420
G1 X91.514 Y71.828 E5.6424
G1 X92.193 Y71.828 E5.6782
G1 X93.537 Y73.172 E5.7786
G1 X94.215 Y73.172 E5.8144
G1 X92.871 Y71.828 E5.9148
G1 X93.550 Y71.828 E5.9506
G1 X94.894 Y73.172 E6.0510
G1 X95.573 Y73.172 E6.0869
G1 X94.229 Y71.828 E6.1872
G1 X94.908 Y71.828 E6.2231
G1 X96.252 Y73.172 E6.3234
G1 X96.931 Y73.172 E6.3593
G1 X95.587 Y71.828 E6.4596
G1 X96.266 Y71.828 E6.4955
G1 X97.610 Y73.172 E6.5958
G1 X98.288 Y73.172 E6.6317
G1 X96.944 Y71.828 E6.7320
G1 X97.623 Y71.828 E6.7679
G1 X98.967 Y73.172 E6.8683
G1 X99.646 Y73.172 E6.9041
G1 X98.302 Y71.828 E7.0045
G1 X98.981 Y71.828 E7.0403
G1 X100.325 Y73.172 E7.1407
G1 X101.004 Y73.172 E7.1765
G1 X99.660 Y71.828 E7.2769
G1 X100.339 Y71.828 E7.3127
G1 X101.683 Y73.172 E7.4131
G1 X102.361 Y73.172 E7.4489
G1 X101.017 Y71.828 E7.5493
G1 X101.696 Y71.828 E7.5851
G1 X103.040 Y73.172 E7.6855
G1 X103.719 Y73.172 E7.7213
G1 X102.375 Y71.828 E7.8217
G1 X103.054 Y71.828 E7.8576
G1 X104.398 Y73.172 E7.9579
G1 X105.077 Y73.172 E7.9938
G1 X103.733 Y71.828 E8.0941
G1 X104.411 Y71.828 E8.1300
G1 X105.755 Y73.172 E8.2303
G1 X106.434 Y73.172 E8.2662
G1 X105.090 Y71.828 E8.3665
G1 X105.769 Y71.828 E8.4024
G1 X107.113 Y73.172 E8.5028
G1 X107.792 Y73.172 E8.5386
G1 X106.448 Y71.828 E8.6390
G1 X107.127 Y71.828 E8.6748
G1 X108.471 Y73.172 E8.7752
G1 X109.150 Y73.172 E8.8110
G1 X107.806 Y71.828 E8.9114
G1 X108.484 Y71.828 E8.9472
G1 X109.828 Y73.172 E9.0476
G1 X110.507 Y73.172 E9.0834
G1 X109.163 Y71.828 E9.1838
G1 X109.842 Y71.828 E9.2196
G1 X111.186 Y73.172 E9.3200
G1 X111.865 Y73.172 E9.3558
G1 X110.521 Y71.828 E9.4562
G1 X111.200 Y71.828 E9.4921
G1 X112.544 Y73.172 E9.5924
G1 X113.223 Y73.172 E9.6283
G1 X111.879 Y71.828 E9.7286
G1 X112.557 Y71.828 E9.7645
G1 X113.901 Y73.172 E9.8648
G1 X114.580 Y73.172 E9.9007
G1 X113.236 Y71.828 E10.0010
G1 X113.915 Y71.828 E10.0369
G1 X115.259 Y73.172 E10.1372
G1 X115.938 Y73.172 E10.1731
G1 X114.594 Y71.828 E10.2735
G1 X115.273 Y71.828 E10.3093
G1 X116.617 Y73.172 E10.4097
G1 X117.295 Y73.172 E10.4455
G1 X115.951 Y71.828 E10.5459
G1 X116.630 Y71.828 E10.5817
G1 X117.974 Y73.172 E10.6821
G1 X118.653 Y73.172 E10.7179
G1 X117.309 Y71.828 E10.8183
G1 X117.988 Y71.828 E10.8541
G1 X119.332 Y73.172 E10.9545
G1 X120.011 Y73.172 E10.9903
G1 X118.667 Y71.828 E11.0907
G1 X119.346 Y71.828 E11.1265
G1 X120.690 Y73.172 E11.2269
G1 X121.368 Y73.172 E11.2628
G1 X120.024 Y71.828 E11.3631
G1 X120.703 Y71.828 E11.3990
G1 X123.247 Y74.372 E11.5889
G1 X123.926 Y74.372 E11.6248
G1 X121.382 Y71.828 E11.8148
G1 X122.061 Y71.828 E11.8506
G1 X124.605 Y74.372 E12.0406
G1 X125.284 Y74.372 E12.0764
G1 X122.740 Y71.828 E12.2664
G1 X123.419 Y71.828 E12.3022
G1 X125.962 Y74.372 E12.4922
G1 X126.641 Y74.372 E12.5281
G1 X124.097 Y71.828 E12.7180
G1 X124.776 Y71.828 E12.7539
G1 X127.320 Y74.372 E12.9438
G1 X127.999 Y74.372 E12.9797
G1 X125.455 Y71.828 E13.1697
G1 X126.134 Y71.828 E13.2055
G1 X128.678 Y74.372 E13.3955
G1 X129.357 Y74.372 E13.4313
G1 X126.813 Y71.828 E13.6213
G1 X127.491 Y71.828 E13.6571
G1 X129.933 Y74.270 E13.8395
G1 X129.933 Y73.591 E13.8753
G1 X128.170 Y71.828 E14.0070
G1 X128.849 Y71.828 E14.0428
G1 X129.933 Y72.912 E14.1237
G1 X129.933 Y72.233 E14.1596
G1 X129.528 Y71.828 E14.1898
G1 X121.841 Y73.644 F4800
G92 E0.0000
G1 X122.568 Y74.372 E0.0543 F1440
G1 X121.890 Y74.372 E0.0902
G1 X121.841 Y74.323 E0.0938
G92 E0.0000
G1 E-0.7000 F1500
; feature inner perimeter
G1 X130.341 Y92.620 F4800
G1 E0.0000 F1500
G92 E0.0000
G1 X130.341 Y95.980 E0.1774 F1350
G1 X121.433 Y95.980 E0.6478
G1 X121.433 Y94.780 E0.7112
G1 X78.567 Y94.780 E2.9746
G1 X78.567 Y95.980 E3.0380
G1 X69.659 Y95.980 E3.5084
G1 X69.659 Y92.620 E3.6858
G1 X130.341 Y92.620 E6.8901
; feature outer perimeter
G1 X130.821 Y92.140 F4800
G92 E0.0000
G1 X130.821 Y96.460 E0.2281 F900
G1 X120.953 Y96.460 E0.7492
G1 X120.953 Y95.260 E0.8126
G1 X79.047 Y95.260 E3.0253
G1 X79.047 Y96.460 E3.0887
G1 X69.179 Y96.460 E3.6098
G1 X69.179 Y92.140 E3.8379
G1 X130.821 Y92.140 E7.0928
; feature solid layer
G1 X129.684 Y93.028 F4800
G92 E0.0000
G1 X129.933 Y93.277 E0.0186 F1440
G1 X129.933 Y93.955 E0.0544
G1 X129.006 Y93.028 E0.1237
G1 X128.327 Y93.028 E0.1595
G1 X129.933 Y94.634 E0.2795
G1 X129.933 Y95.313 E0.3153
G1 X127.648 Y93.028 E0.4859
G1 X126.969 Y93.028 E0.5218
