; G-Code generated by Simplify3D(R) Version 4.1.1
; Apr 25, 2021 at 7:20:47 PM
; Settings Summary
;   processName,Trideo BOX
;   applyToModels,AtomicLabCover,AtomicLabCover(2),AtomicLabCover(3)
;   profileName,Trideo BOX
;   profileVersion,2021-04-15 09:48:16
;   baseProfile,Default
;   printMaterial,PLA
;   printQuality,Fast
;   printExtruders,
;   extruderName,Primary Extruder
;   extruderToolheadNumber,0
;   extruderDiameter,0.4
;   extruderAutoWidth,1
;   extruderWidth,0.48
;   extrusionMultiplier,0.98
;   extruderUseRetract,1
;   extruderRetractionDistance,0.7
;   extruderExtraRestartDistance,0
;   extruderRetractionZLift,0
;   extruderRetractionSpeed,1500
;   extruderUseCoasting,0
;   extruderCoastingDistance,0.2
;   extruderUseWipe,0
;   extruderWipeDistance,5
;   primaryExtruder,0
;   layerHeight,0.3
;   topSolidLayers,3
;   bottomSolidLayers,3
;   perimeterOutlines,2
;   printPerimetersInsideOut,1
;   startPointOption,2
;   startPointOriginX,0
;   startPointOriginY,0
;   sequentialIslands,0
;   spiralVaseMode,0
;   firstLayerHeightPercentage,90
;   firstLayerWidthPercentage,100
;   firstLayerUnderspeed,0.5
;   useRaft,0
;   raftExtruder,0
;   raftTopLayers,3
;   raftBaseLayers,2
;   raftOffset,3
;   raftSeparationDistance,0.14
;   raftTopInfill,100
;   aboveRaftSpeedMultiplier,0.3
;   useSkirt,1
;   skirtExtruder,0
;   skirtLayers,1
;   skirtOutlines,2
;   skirtOffset,4
;   usePrimePillar,0
;   primePillarExtruder,999
;   primePillarWidth,12
;   primePillarLocation,7
;   primePillarSpeedMultiplier,1
;   useOozeShield,0
;   oozeShieldExtruder,999
;   oozeShieldOffset,2
;   oozeShieldOutlines,1
;   oozeShieldSidewallShape,1
;   oozeShieldSidewallAngle,30
;   oozeShieldSpeedMultiplier,1
;   infillExtruder,0
;   internalInfillPattern,Rectilinear
;   externalInfillPattern,Rectilinear
;   infillPercentage,15
;   outlineOverlapPercentage,15
;   infillExtrusionWidthPercentage,100
;   minInfillLength,5
;   infillLayerInterval,1
;   internalInfillAngles,45,-45
;   overlapInternalInfillAngles,0
;   externalInfillAngles,45,-45
;   generateSupport,1
;   supportExtruder,0
;   supportInfillPercentage,25
;   supportExtraInflation,0
;   supportBaseLayers,0
;   denseSupportExtruder,0
;   denseSupportLayers,0
;   denseSupportInfillPercentage,70
;   supportLayerInterval,1
;   supportHorizontalPartOffset,0.3
;   supportUpperSeparationLayers,1
;   supportLowerSeparationLayers,1
;   supportType,0
;   supportGridSpacing,4
;   maxOverhangAngle,45
;   supportAngles,0
;   temperatureName,Primary Extruder,Heated bed
;   temperatureNumber,0,0
;   temperatureSetpointCount,1,1
;   temperatureSetpointLayers,1,1
;   temperatureSetpointTemperatures,190,60
;   temperatureStabilizeAtStartup,1,1
;   temperatureHeatedBed,0,1
;   fanLayers,1,2
;   fanSpeeds,0,100
;   blipFanToFullPower,0
;   adjustSpeedForCooling,1
;   minSpeedLayerTime,15
;   minCoolingSpeedSlowdown,20
;   increaseFanForCooling,0
;   minFanLayerTime,45
;   maxCoolingFanSpeed,100
;   increaseFanForBridging,0
;   bridgingFanSpeed,100
;   use5D,1
;   relativeEdistances,0
;   allowEaxisZeroing,1
;   independentExtruderAxes,0
;   includeM10123,0
;   stickySupport,1
;   applyToolheadOffsets,0
;   gcodeXoffset,0
;   gcodeYoffset,0
;   gcodeZoffset,0
;   overrideMachineDefinition,1
;   machineTypeOverride,0
;   strokeXoverride,200
;   strokeYoverride,200
;   strokeZoverride,200
;   originOffsetXoverride,0
;   originOffsetYoverride,0
;   originOffsetZoverride,0
;   homeXdirOverride,-1
;   homeYdirOverride,-1
;   homeZdirOverride,-1
;   flipXoverride,1
;   flipYoverride,-1
;   flipZoverride,1
;   toolheadOffsets,0,0|0,0|0,0|0,0|0,0|0,0
;   overrideFirmwareConfiguration,0
;   firmwareTypeOverride,RepRap (Marlin/Repetier/Sprinter)
;   GPXconfigOverride,r2
;   baudRateOverride,115200
;   overridePrinterModels,0
;   printerModelsOverride
;   startingGcode,G28 X0 Y0; home XY,G1 X20 Y20,G28 Z0,G1 Z5 F5000; Lift NZ
;   layerChangeGcode,
;   retractionGcode,
;   toolChangeGcode,
;   endingGcode,M104 S0 ; turn off extruder,G28 X0 ; home x,M140 S0 ; turn off bed,M84 ; disable motors,M107 ;
;   exportFileFormat,gcode
;   celebration,0
;   celebrationSong,Looney Toons
;   postProcessing,
;   defaultSpeed,3600
;   outlineUnderspeed,0.5
;   solidInfillUnderspeed,0.8
;   supportUnderspeed,0.8
;   rapidXYspeed,4800
;   rapidZspeed,1002
;   minBridgingArea,50
;   bridgingExtraInflation,0
;   bridgingExtrusionMultiplier,1
;   bridgingSpeedMultiplier,1
;   useFixedBridgingAngle,0
;   fixedBridgingAngle,0
;   applyBridgingToPerimeters,0
;   filamentDiameters,1.75|1.75|1.75|1.75|1.75|1.75
;   filamentPricesPerKg,46|46|46|46|46|46
;   filamentDensities,1.25|1.25|1.25|1.25|1.25|1.25
;   useMinPrintHeight,0
;   minPrintHeight,0
;   useMaxPrintHeight,0
;   maxPrintHeight,0
;   useDiaphragm,0
;   diaphragmLayerInterval,20
;   robustSlicing,1
;   mergeAllIntoSolid,0
;   onlyRetractWhenCrossingOutline,1
;   retractBetweenLayers,1
;   useRetractionMinTravel,0
;   retractionMinTravel,3
;   retractWhileWiping,0
;   onlyWipeOutlines,1
;   avoidCrossingOutline,0
;   maxMovementDetourFactor,3
;   toolChangeRetractionDistance,12
;   toolChangeExtraRestartDistance,-0.5
;   toolChangeRetractionSpeed,600
;   externalThinWallType,0
;   internalThinWallType,2
;   thinWallAllowedOverlapPercentage,10
;   singleExtrusionMinLength,1
;   singleExtrusionMinPrintingWidthPercentage,50
;   singleExtrusionMaxPrintingWidthPercentage,200
;   singleExtrusionEndpointExtension,0.2
;   horizontalSizeCompensation,0
G90
M82
M106 S0
M140 S60
M190 S60
M104 S190 T0
M109 S190 T0
G28 X0 Y0; home XY
G1 X20 Y20
G28 Z0
G1 Z5 F5000; Lift NZ
; process Trideo BOX
; layer 1, Z = 0.270
T0
G92 E0.0000
G1 E-0.7000 F1500
; feature skirt
; tool H0.270 W0.480
G1 Z0.270 F1002
G1 X74.755 Y72.055 F4800
G1 E0.0000 F1500
G92 E0.0000
G1 X125.245 Y72.055 E2.6660 F1800
G1 X128.009 Y74.820 E2.8725
G1 X128.009 Y82.330 E3.2691
G1 X125.245 Y85.095 E3.4755
G1 X113.508 Y85.095 E4.0953
G1 X112.608 Y84.195 E4.1625
G1 X106.940 Y84.195 E4.4618
G1 X106.940 Y89.205 E4.7263
G1 X125.245 Y89.205 E5.6929
G1 X128.009 Y91.970 E5.8993
G1 X128.009 Y99.480 E6.2959
G1 X125.245 Y102.245 E6.5024
G1 X113.508 Y102.245 E7.1221
G1 X112.608 Y101.345 E7.1893
G1 X106.940 Y101.345 E7.4886
G1 X106.940 Y106.355 E7.7531
G1 X125.245 Y106.355 E8.7197
G1 X128.009 Y109.120 E8.9262
G1 X128.009 Y116.630 E9.3227
G1 X125.245 Y119.395 E9.5292
G1 X113.508 Y119.395 E10.1490
G1 X112.608 Y118.495 E10.2162
G1 X106.940 Y118.495 E10.5154
G1 X106.940 Y125.325 E10.8761
G1 X104.175 Y128.090 E11.0826
G1 X95.825 Y128.090 E11.5235
G1 X93.060 Y125.325 E11.7300
G1 X93.060 Y118.495 E12.0906
G1 X87.392 Y118.495 E12.3899
G1 X86.492 Y119.395 E12.4571
G1 X74.755 Y119.395 E13.0768
G1 X71.991 Y116.630 E13.2833
G1 X71.991 Y109.120 E13.6799
G1 X74.755 Y106.355 E13.8864
G1 X93.060 Y106.355 E14.8529
G1 X93.060 Y101.345 E15.1175
G1 X87.392 Y101.345 E15.4167
G1 X86.492 Y102.245 E15.4839
G1 X74.755 Y102.245 E16.1037
G1 X71.991 Y99.480 E16.3102
G1 X71.991 Y91.970 E16.7067
G1 X74.755 Y89.205 E16.9132
G1 X93.060 Y89.205 E17.8797
G1 X93.060 Y84.195 E18.1443
G1 X87.392 Y84.195 E18.4436
G1 X86.492 Y85.095 E18.5108
G1 X74.755 Y85.095 E19.1305
G1 X71.991 Y82.330 E19.3370
G1 X71.991 Y74.820 E19.7336
G1 X74.755 Y72.055 E19.9400
G92 E0.0000
G1 E-0.7000 F1500
G1 X74.954 Y72.535 F4800
G1 E0.0000 F1500
G92 E0.0000
G1 X125.046 Y72.535 E2.6450 F1800
G1 X127.529 Y75.019 E2.8305
G1 X127.529 Y82.131 E3.2061
G1 X125.046 Y84.615 E3.3915
G1 X113.706 Y84.615 E3.9903
G1 X112.806 Y83.715 E4.0575
G1 X106.460 Y83.715 E4.3926
G1 X106.460 Y89.685 E4.7079
G1 X125.046 Y89.685 E5.6893
G1 X127.529 Y92.169 E5.8747
G1 X127.529 Y99.281 E6.2503
G1 X125.046 Y101.765 E6.4358
G1 X113.706 Y101.765 E7.0345
G1 X112.806 Y100.865 E7.1017
G1 X106.460 Y100.865 E7.4369
G1 X106.460 Y106.835 E7.7521
G1 X125.046 Y106.835 E8.7335
G1 X127.529 Y109.319 E8.9190
G1 X127.529 Y116.431 E9.2945
G1 X125.046 Y118.915 E9.4800
G1 X113.706 Y118.915 E10.0788
G1 X112.806 Y118.015 E10.1460
G1 X106.460 Y118.015 E10.4811
G1 X106.460 Y125.126 E10.8566
G1 X103.976 Y127.610 E11.0421
G1 X96.024 Y127.610 E11.4620
G1 X93.540 Y125.126 E11.6475
G1 X93.540 Y118.015 E12.0230
G1 X87.193 Y118.015 E12.3581
G1 X86.293 Y118.915 E12.4253
G1 X74.954 Y118.915 E13.0240
G1 X72.471 Y116.431 E13.2095
G1 X72.471 Y109.319 E13.5851
G1 X74.954 Y106.835 E13.7706
G1 X93.540 Y106.835 E14.7520
G1 X93.540 Y100.865 E15.0672
G1 X87.193 Y100.865 E15.4023
G1 X86.293 Y101.765 E15.4695
G1 X74.954 Y101.765 E16.0683
G1 X72.471 Y99.281 E16.2538
G1 X72.471 Y92.169 E16.6293
G1 X74.954 Y89.685 E16.8148
G1 X93.540 Y89.685 E17.7962
G1 X93.540 Y83.715 E18.1114
G1 X87.193 Y83.715 E18.4466
G1 X86.293 Y84.615 E18.5138
G1 X74.954 Y84.615 E19.1125
G1 X72.471 Y82.131 E19.2980
G1 X72.471 Y75.019 E19.6736
G1 X74.954 Y72.535 E19.8590
G92 E0.0000
G1 E-0.7000 F1500
; feature inner perimeter
G1 X77.431 Y77.495 F4800
G1 E0.0000 F1500
G92 E0.0000
G1 X122.569 Y77.495 E2.3835 F1350
G1 X122.569 Y79.655 E2.4976
G1 X116.183 Y79.655 E2.8348
G1 X116.183 Y78.755 E2.8823
G1 X83.817 Y78.755 E4.5914
G1 X83.817 Y79.655 E4.6389
G1 X77.431 Y79.655 E4.9761
G1 X77.431 Y77.495 E5.0902
; feature outer perimeter
G1 X76.951 Y77.015 F4800
G92 E0.0000
G1 X123.049 Y77.015 E2.4342 F900
G1 X123.049 Y80.135 E2.5989
G1 X115.703 Y80.135 E2.9869
G1 X115.703 Y79.235 E3.0344
G1 X84.297 Y79.235 E4.6927
G1 X84.297 Y80.135 E4.7403
G1 X76.951 Y80.135 E5.1282
G1 X76.951 Y77.015 E5.2929
; feature solid layer
G1 X77.839 Y79.196 F4800
G92 E0.0000
G1 X77.889 Y79.247 E0.0038 F1440
G1 X78.568 Y79.247 E0.0396
G1 X77.839 Y78.517 E0.0941
G1 X77.839 Y77.903 E0.1266
G1 X77.903 Y77.903 E0.1300
G1 X79.247 Y79.247 E0.2303
G1 X79.926 Y79.247 E0.2662
G1 X78.582 Y77.903 E0.3665
G1 X79.261 Y77.903 E0.4024
G1 X80.605 Y79.247 E0.5027
G1 X81.283 Y79.247 E0.5386
G1 X79.939 Y77.903 E0.6390
G1 X80.618 Y77.903 E0.6748
G1 X81.962 Y79.247 E0.7752
G1 X82.641 Y79.247 E0.8110
G1 X81.297 Y77.903 E0.9114
G1 X81.976 Y77.903 E0.9472
G1 X83.320 Y79.247 E1.0476
G1 X83.409 Y79.247 E1.0523
G1 X83.409 Y78.657 E1.0834
G1 X82.655 Y77.903 E1.1397
G1 X83.334 Y77.903 E1.1756
G1 X83.778 Y78.347 E1.2087
G1 X84.456 Y78.347 E1.2446
G1 X84.012 Y77.903 E1.2778
G1 X84.691 Y77.903 E1.3136
G1 X85.135 Y78.347 E1.3468
G1 X85.814 Y78.347 E1.3826
G1 X85.370 Y77.903 E1.4158
G1 X86.049 Y77.903 E1.4516
G1 X86.493 Y78.347 E1.4848
G1 X87.172 Y78.347 E1.5206
G1 X86.728 Y77.903 E1.5538
G1 X87.407 Y77.903 E1.5896
G1 X87.851 Y78.347 E1.6228
G1 X88.529 Y78.347 E1.6586
G1 X88.085 Y77.903 E1.6918
G1 X88.764 Y77.903 E1.7276
G1 X89.208 Y78.347 E1.7608
G1 X89.887 Y78.347 E1.7966
G1 X89.443 Y77.903 E1.8298
G1 X90.122 Y77.903 E1.8656
G1 X90.566 Y78.347 E1.8988
G1 X91.245 Y78.347 E1.9346
G1 X90.801 Y77.903 E1.9678
G1 X91.479 Y77.903 E2.0036
G1 X91.923 Y78.347 E2.0368
G1 X92.602 Y78.347 E2.0726
G1 X92.158 Y77.903 E2.1058
G1 X92.837 Y77.903 E2.1416
G1 X93.281 Y78.347 E2.1748
G1 X93.960 Y78.347 E2.2106
G1 X93.516 Y77.903 E2.2438
G1 X94.195 Y77.903 E2.2796
G1 X94.639 Y78.347 E2.3128
G1 X95.318 Y78.347 E2.3486
G1 X94.874 Y77.903 E2.3818
G1 X95.552 Y77.903 E2.4176
G1 X95.996 Y78.347 E2.4508
G1 X96.675 Y78.347 E2.4866
G1 X96.231 Y77.903 E2.5198
G1 X96.910 Y77.903 E2.5556
G1 X97.354 Y78.347 E2.5888
G1 X98.033 Y78.347 E2.6246
G1 X97.589 Y77.903 E2.6578
G1 X98.268 Y77.903 E2.6936
G1 X98.712 Y78.347 E2.7268
G1 X99.391 Y78.347 E2.7626
G1 X98.947 Y77.903 E2.7958
G1 X99.625 Y77.903 E2.8316
G1 X100.069 Y78.347 E2.8648
G1 X100.748 Y78.347 E2.9006
G1 X100.304 Y77.903 E2.9338
G1 X100.983 Y77.903 E2.9696
G1 X101.427 Y78.347 E3.0028
G1 X102.106 Y78.347 E3.0386
G1 X101.662 Y77.903 E3.0718
G1 X102.341 Y77.903 E3.1076
G1 X102.785 Y78.347 E3.1408
G1 X103.463 Y78.347 E3.1766
G1 X103.019 Y77.903 E3.2098
G1 X103.698 Y77.903 E3.2456
G1 X104.142 Y78.347 E3.2788
G1 X104.821 Y78.347 E3.3146
G1 X104.377 Y77.903 E3.3478
G1 X105.056 Y77.903 E3.3836
G1 X105.500 Y78.347 E3.4168
G1 X106.179 Y78.347 E3.4526
G1 X105.735 Y77.903 E3.4858
G1 X106.414 Y77.903 E3.5216
G1 X106.858 Y78.347 E3.5548
G1 X107.536 Y78.347 E3.5906
G1 X107.092 Y77.903 E3.6238
G1 X107.771 Y77.903 E3.6596
G1 X108.215 Y78.347 E3.6928
G1 X108.894 Y78.347 E3.7286
G1 X108.450 Y77.903 E3.7618
G1 X109.129 Y77.903 E3.7976
G1 X109.573 Y78.347 E3.8308
G1 X110.252 Y78.347 E3.8666
G1 X109.808 Y77.903 E3.8998
G1 X110.486 Y77.903 E3.9356
G1 X110.930 Y78.347 E3.9688
G1 X111.609 Y78.347 E4.0046
G1 X111.165 Y77.903 E4.0378
G1 X111.844 Y77.903 E4.0736
G1 X112.288 Y78.347 E4.1068
G1 X112.967 Y78.347 E4.1426
G1 X112.523 Y77.903 E4.1758
G1 X113.202 Y77.903 E4.2116
G1 X113.646 Y78.347 E4.2448
G1 X114.325 Y78.347 E4.2806
G1 X113.881 Y77.903 E4.3138
G1 X114.559 Y77.903 E4.3496
G1 X115.003 Y78.347 E4.3828
G1 X115.682 Y78.347 E4.4186
G1 X115.238 Y77.903 E4.4518
G1 X115.917 Y77.903 E4.4876
G1 X116.361 Y78.347 E4.5208
G1 X116.591 Y78.347 E4.5329
G1 X116.591 Y78.577 E4.5450
G1 X117.261 Y79.247 E4.5951
G1 X117.940 Y79.247 E4.6309
G1 X116.596 Y77.903 E4.7313
G1 X117.275 Y77.903 E4.7671
G1 X118.619 Y79.247 E4.8675
G1 X119.298 Y79.247 E4.9033
G1 X117.954 Y77.903 E5.0037
G1 X118.632 Y77.903 E5.0395
G1 X119.976 Y79.247 E5.1399
G1 X120.655 Y79.247 E5.1758
G1 X119.311 Y77.903 E5.2761
G1 X119.990 Y77.903 E5.3120
G1 X121.334 Y79.247 E5.4123
G1 X122.013 Y79.247 E5.4482
G1 X120.669 Y77.903 E5.5485
G1 X121.348 Y77.903 E5.5844
G1 X122.161 Y78.717 E5.6451
G1 X122.161 Y78.038 E5.6810
G1 X122.026 Y77.903 E5.6911
G92 E0.0000
G1 E-0.7000 F1500
; feature inner perimeter
G1 X122.569 Y94.645 F4800
G1 E0.0000 F1500
G92 E0.0000
G1 X122.569 Y96.805 E0.1141 F1350
G1 X116.183 Y96.805 E0.4513
G1 X116.183 Y95.905 E0.4988
G1 X83.817 Y95.905 E2.2078
G1 X83.817 Y96.805 E2.2554
G1 X77.431 Y96.805 E2.5926
G1 X77.431 Y94.645 E2.7067
G1 X122.569 Y94.645 E5.0902
; feature outer perimeter
G1 X123.049 Y94.165 F4800
G92 E0.0000
G1 X123.049 Y97.285 E0.1647 F900
G1 X115.703 Y97.285 E0.5527
G1 X115.703 Y96.385 E0.6002
G1 X84.297 Y96.385 E2.2585
G1 X84.297 Y97.285 E2.3061
G1 X76.951 Y97.285 E2.6940
G1 X76.951 Y94.165 E2.8587
G1 X123.049 Y94.165 E5.2929
; feature solid layer
G1 X121.527 Y95.053 F4800
G92 E0.0000
G1 X122.161 Y95.687 E0.0474 F1440
G1 X122.161 Y96.366 E0.0832
G1 X120.848 Y95.053 E0.1813
G1 X120.169 Y95.053 E0.2171
G1 X121.513 Y96.397 E0.3175
G1 X120.835 Y96.397 E0.3533
G1 X119.491 Y95.053 E0.4537
G1 X118.812 Y95.053 E0.4895
G1 X120.156 Y96.397 E0.5899
G1 X119.477 Y96.397 E0.6257
G1 X118.133 Y95.053 E0.7261
G1 X117.454 Y95.053 E0.7620
G1 X118.798 Y96.397 E0.8623
G1 X118.119 Y96.397 E0.8982
G1 X116.775 Y95.053 E0.9985
G1 X116.097 Y95.053 E1.0344
G1 X116.541 Y95.497 E1.0675
G1 X115.862 Y95.497 E1.1034
G1 X115.418 Y95.053 E1.1365
G1 X114.739 Y95.053 E1.1724
G1 X115.183 Y95.497 E1.2055
G1 X114.504 Y95.497 E1.2414
G1 X114.060 Y95.053 E1.2745
G1 X113.381 Y95.053 E1.3104
G1 X113.825 Y95.497 E1.3435
G1 X113.146 Y95.497 E1.3794
G1 X112.702 Y95.053 E1.4125
G1 X112.024 Y95.053 E1.4484
G1 X112.468 Y95.497 E1.4815
G1 X111.789 Y95.497 E1.5174
G1 X111.345 Y95.053 E1.5505
G1 X110.666 Y95.053 E1.5864
G1 X111.110 Y95.497 E1.6195
G1 X110.431 Y95.497 E1.6554
G1 X109.987 Y95.053 E1.6885
G1 X109.308 Y95.053 E1.7244
G1 X109.752 Y95.497 E1.7575
G1 X109.073 Y95.497 E1.7934
G1 X108.629 Y95.053 E1.8265
G1 X107.951 Y95.053 E1.8624
G1 X108.395 Y95.497 E1.8955
G1 X107.716 Y95.497 E1.9314
G1 X107.272 Y95.053 E1.9645
G1 X106.593 Y95.053 E2.0004
G1 X107.037 Y95.497 E2.0335
G1 X106.358 Y95.497 E2.0694
G1 X105.914 Y95.053 E2.1025
G1 X105.235 Y95.053 E2.1384
G1 X105.679 Y95.497 E2.1715
G1 X105.001 Y95.497 E2.2074
G1 X104.557 Y95.053 E2.2405
G1 X103.878 Y95.053 E2.2764
G1 X104.322 Y95.497 E2.3095
G1 X103.643 Y95.497 E2.3454
G1 X103.199 Y95.053 E2.3785
G1 X102.520 Y95.053 E2.4144
G1 X102.964 Y95.497 E2.4475
G1 X102.285 Y95.497 E2.4834
G1 X101.841 Y95.053 E2.5165
G1 X101.162 Y95.053 E2.5524
G1 X101.606 Y95.497 E2.5855
G1 X100.928 Y95.497 E2.6214
G1 X100.484 Y95.053 E2.6545
G1 X99.805 Y95.053 E2.6904
G1 X100.249 Y95.497 E2.7235
G1 X99.570 Y95.497 E2.7594
G1 X99.126 Y95.053 E2.7925
G1 X98.447 Y95.053 E2.8284
G1 X98.891 Y95.497 E2.8615
G1 X98.212 Y95.497 E2.8974
G1 X97.768 Y95.053 E2.9305
G1 X97.089 Y95.053 E2.9664
