; G-Code generated by Simplify3D(R) Version 4.1.1
; Apr 27, 2021 at 9:13:55 AM
; Settings Summary
;   processName,Trideo BOX
;   applyToModels,Right Palm
;   profileName,Trideo BOX
;   profileVersion,2021-04-15 09:48:16
;   baseProfile,Default
;   printMaterial,PLA
;   printQuality,Fast
;   printExtruders,
;   extruderName,Primary Extruder
;   extruderToolheadNumber,0
;   extruderDiameter,0.4
;   extruderAutoWidth,1
;   extruderWidth,0.48
;   extrusionMultiplier,0.98
;   extruderUseRetract,1
;   extruderRetractionDistance,0.7
;   extruderExtraRestartDistance,0
;   extruderRetractionZLift,0
;   extruderRetractionSpeed,1500
;   extruderUseCoasting,0
;   extruderCoastingDistance,0.2
;   extruderUseWipe,0
;   extruderWipeDistance,5
;   primaryExtruder,0
;   layerHeight,0.3
;   topSolidLayers,3
;   bottomSolidLayers,3
;   perimeterOutlines,2
;   printPerimetersInsideOut,1
;   startPointOption,2
;   startPointOriginX,0
;   startPointOriginY,0
;   sequentialIslands,0
;   spiralVaseMode,0
;   firstLayerHeightPercentage,90
;   firstLayerWidthPercentage,100
;   firstLayerUnderspeed,0.5
;   useRaft,0
;   raftExtruder,0
;   raftTopLayers,3
;   raftBaseLayers,2
;   raftOffset,3
;   raftSeparationDistance,0.14
;   raftTopInfill,100
;   aboveRaftSpeedMultiplier,0.3
;   useSkirt,1
;   skirtExtruder,0
;   skirtLayers,1
;   skirtOutlines,2
;   skirtOffset,4
;   usePrimePillar,0
;   primePillarExtruder,999
;   primePillarWidth,12
;   primePillarLocation,7
;   primePillarSpeedMultiplier,1
;   useOozeShield,0
;   oozeShieldExtruder,999
;   oozeShieldOffset,2
;   oozeShieldOutlines,1
;   oozeShieldSidewallShape,1
;   oozeShieldSidewallAngle,30
;   oozeShieldSpeedMultiplier,1
;   infillExtruder,0
;   internalInfillPattern,Rectilinear
;   externalInfillPattern,Rectilinear
;   infillPercentage,15
;   outlineOverlapPercentage,15
;   infillExtrusionWidthPercentage,100
;   minInfillLength,5
;   infillLayerInterval,1
;   internalInfillAngles,45,-45
;   overlapInternalInfillAngles,0
;   externalInfillAngles,45,-45
;   generateSupport,1
;   supportExtruder,0
;   supportInfillPercentage,25
;   supportExtraInflation,0
;   supportBaseLayers,0
;   denseSupportExtruder,0
;   denseSupportLayers,0
;   denseSupportInfillPercentage,70
;   supportLayerInterval,1
;   supportHorizontalPartOffset,0.3
;   supportUpperSeparationLayers,1
;   supportLowerSeparationLayers,1
;   supportType,0
;   supportGridSpacing,4
;   maxOverhangAngle,45
;   supportAngles,0
;   temperatureName,Primary Extruder,Heated bed
;   temperatureNumber,0,0
;   temperatureSetpointCount,1,1
;   temperatureSetpointLayers,1,1
;   temperatureSetpointTemperatures,190,60
;   temperatureStabilizeAtStartup,1,1
;   temperatureHeatedBed,0,1
;   fanLayers,1,2
;   fanSpeeds,0,100
;   blipFanToFullPower,0
;   adjustSpeedForCooling,1
;   minSpeedLayerTime,15
;   minCoolingSpeedSlowdown,20
;   increaseFanForCooling,0
;   minFanLayerTime,45
;   maxCoolingFanSpeed,100
;   increaseFanForBridging,0
;   bridgingFanSpeed,100
;   use5D,1
;   relativeEdistances,0
;   allowEaxisZeroing,1
;   independentExtruderAxes,0
;   includeM10123,0
;   stickySupport,1
;   applyToolheadOffsets,0
;   gcodeXoffset,0
;   gcodeYoffset,0
;   gcodeZoffset,0
;   overrideMachineDefinition,1
;   machineTypeOverride,0
;   strokeXoverride,200
;   strokeYoverride,200
;   strokeZoverride,200
;   originOffsetXoverride,0
;   originOffsetYoverride,0
;   originOffsetZoverride,0
;   homeXdirOverride,-1
;   homeYdirOverride,-1
;   homeZdirOverride,-1
;   flipXoverride,1
;   flipYoverride,-1
;   flipZoverride,1
;   toolheadOffsets,0,0|0,0|0,0|0,0|0,0|0,0
;   overrideFirmwareConfiguration,0
;   firmwareTypeOverride,RepRap (Marlin/Repetier/Sprinter)
;   GPXconfigOverride,r2
;   baudRateOverride,115200
;   overridePrinterModels,0
;   printerModelsOverride
;   startingGcode,G28 X0 Y0; home XY,G1 X20 Y20,G28 Z0,G1 Z5 F5000; Lift NZ
;   layerChangeGcode,
;   retractionGcode,
;   toolChangeGcode,
;   endingGcode,M104 S0 ; turn off extruder,G28 X0 ; home x,M140 S0 ; turn off bed,M84 ; disable motors,M107 ;
;   exportFileFormat,gcode
;   celebration,0
;   celebrationSong,Looney Toons
;   postProcessing,
;   defaultSpeed,3600
;   outlineUnderspeed,0.5
;   solidInfillUnderspeed,0.8
;   supportUnderspeed,0.8
;   rapidXYspeed,4800
;   rapidZspeed,1002
;   minBridgingArea,50
;   bridgingExtraInflation,0
;   bridgingExtrusionMultiplier,1
;   bridgingSpeedMultiplier,1
;   useFixedBridgingAngle,0
;   fixedBridgingAngle,0
;   applyBridgingToPerimeters,0
;   filamentDiameters,1.75|1.75|1.75|1.75|1.75|1.75
;   filamentPricesPerKg,46|46|46|46|46|46
;   filamentDensities,1.25|1.25|1.25|1.25|1.25|1.25
;   useMinPrintHeight,0
;   minPrintHeight,0
;   useMaxPrintHeight,0
;   maxPrintHeight,0
;   useDiaphragm,0
;   diaphragmLayerInterval,20
;   robustSlicing,1
;   mergeAllIntoSolid,0
;   onlyRetractWhenCrossingOutline,1
;   retractBetweenLayers,1
;   useRetractionMinTravel,0
;   retractionMinTravel,3
;   retractWhileWiping,0
;   onlyWipeOutlines,1
;   avoidCrossingOutline,0
;   maxMovementDetourFactor,3
;   toolChangeRetractionDistance,12
;   toolChangeExtraRestartDistance,-0.5
;   toolChangeRetractionSpeed,600
;   externalThinWallType,0
;   internalThinWallType,2
;   thinWallAllowedOverlapPercentage,10
;   singleExtrusionMinLength,1
;   singleExtrusionMinPrintingWidthPercentage,50
;   singleExtrusionMaxPrintingWidthPercentage,200
;   singleExtrusionEndpointExtension,0.2
;   horizontalSizeCompensation,0
G90
M82
M106 S0
M140 S60
M190 S60
M104 S190 T0
M109 S190 T0
G28 X0 Y0; home XY
G1 X20 Y20
G28 Z0
G1 Z5 F5000; Lift NZ
; process Trideo BOX
; layer 1, Z = 0.270
T0
G92 E0.0000
G1 E-0.7000 F1500
; feature skirt
; tool H0.270 W0.480
G1 Z0.270 F1002
G1 X65.425 Y75.260 F4800
G1 E0.0000 F1500
G92 E0.0000
G1 X80.575 Y75.260 E0.8000 F1800
G1 X83.340 Y78.025 E1.0065
G1 X83.340 Y87.181 E1.4899
G1 X137.232 Y87.181 E4.3356
G1 X139.676 Y88.899 E4.4934
G1 X141.083 Y92.815 E4.7131
G1 X141.118 Y92.920 E4.7189
G1 X141.520 Y94.230 E4.7913
G1 X141.541 Y94.304 E4.7953
G1 X141.891 Y95.593 E4.8659
G1 X141.911 Y95.670 E4.8701
G1 X142.214 Y96.957 E4.9399
G1 X142.232 Y97.038 E4.9443
G1 X142.301 Y97.386 E4.9630
G1 X144.540 Y99.625 E5.1302
G1 X144.540 Y111.175 E5.7401
G1 X141.775 Y113.940 E5.9466
G1 X141.176 Y113.940 E5.9782
G1 X140.940 Y114.322 E6.0019
G1 X140.940 Y114.481 E6.0103
G1 X140.684 Y114.737 E6.0294
G1 X139.542 Y116.585 E6.1441
G1 X139.409 Y116.778 E6.1565
G1 X138.395 Y118.104 E6.2447
G1 X138.242 Y118.285 E6.2572
G1 X137.057 Y119.548 E6.3486
G1 X136.890 Y119.709 E6.3609
G1 X135.530 Y120.900 E6.4563
G1 X135.357 Y121.038 E6.4680
G1 X133.819 Y122.148 E6.5682
G1 X133.647 Y122.262 E6.5790
G1 X131.931 Y123.286 E6.6846
G1 X131.765 Y123.376 E6.6945
G1 X129.871 Y124.311 E6.8061
G1 X129.717 Y124.380 E6.8150
G1 X127.719 Y125.195 E6.9289
G1 X127.579 Y125.247 E6.9368
G1 X125.254 Y126.026 E7.0663
G1 X125.120 Y126.067 E7.0737
G1 X122.696 Y126.723 E7.2063
G1 X122.578 Y126.751 E7.2127
G1 X119.992 Y127.310 E7.3524
G1 X119.885 Y127.330 E7.3582
G1 X117.146 Y127.790 E7.5048
G1 X117.048 Y127.805 E7.5101
G1 X114.174 Y128.164 E7.6630
G1 X114.083 Y128.173 E7.6678
G1 X111.098 Y128.430 E7.8260
G1 X111.014 Y128.436 E7.8304
G1 X107.951 Y128.590 E7.9924
G1 X107.870 Y128.592 E7.9967
G1 X104.767 Y128.642 E8.1606
G1 X104.687 Y128.642 E8.1648
G1 X101.584 Y128.587 E8.3286
G1 X101.504 Y128.584 E8.3329
G1 X98.441 Y128.426 E8.4948
G1 X98.357 Y128.420 E8.4993
G1 X95.373 Y128.158 E8.6574
G1 X95.283 Y128.149 E8.6622
G1 X92.422 Y127.787 E8.8145
G1 X92.350 Y127.777 E8.8183
G1 X90.951 Y127.556 E8.8931
G1 X90.900 Y127.548 E8.8959
G1 X89.535 Y127.302 E8.9691
G1 X89.454 Y127.286 E8.9735
G1 X86.879 Y126.728 E9.1126
G1 X86.762 Y126.700 E9.1189
G1 X84.339 Y126.043 E9.2515
G1 X84.210 Y126.005 E9.2586
G1 X81.957 Y125.255 E9.3840
G1 X81.816 Y125.203 E9.3919
G1 X79.739 Y124.361 E9.5103
G1 X79.585 Y124.292 E9.5191
G1 X77.686 Y123.360 E9.6309
G1 X77.522 Y123.271 E9.6407
G1 X75.801 Y122.251 E9.7464
G1 X75.631 Y122.139 E9.7571
G1 X74.087 Y121.034 E9.8574
G1 X73.915 Y120.898 E9.8689
G1 X72.548 Y119.713 E9.9645
G1 X72.382 Y119.554 E9.9766
G1 X71.189 Y118.296 E10.0681
G1 X71.036 Y118.117 E10.0806
G1 X70.589 Y117.540 E10.1191
G1 X69.025 Y117.540 E10.2017
G1 X66.260 Y114.775 E10.4082
G1 X66.260 Y103.147 E11.0222
G1 X66.234 Y103.118 E11.0243
G1 X66.260 Y102.903 E11.0357
G1 X66.260 Y99.921 E11.1932
G1 X66.681 Y99.500 E11.2246
G1 X66.857 Y98.406 E11.2831
G1 X66.873 Y98.319 E11.2877
G1 X67.129 Y97.035 E11.3569
G1 X67.147 Y96.953 E11.3613
G1 X67.388 Y95.940 E11.4163
G1 X65.425 Y95.940 E11.5199
G1 X62.660 Y93.175 E11.7264
G1 X62.660 Y78.025 E12.5264
G1 X65.425 Y75.260 E12.7329
G92 E0.0000
G1 E-0.7000 F1500
G1 X65.624 Y75.740 F4800
G1 E0.0000 F1500
G92 E0.0000
G1 X80.376 Y75.740 E0.7790 F1800
G1 X82.860 Y78.224 E0.9645
G1 X82.860 Y87.661 E1.4628
G1 X137.080 Y87.661 E4.3258
G1 X139.275 Y89.204 E4.4675
G1 X140.629 Y92.972 E4.6789
G1 X140.660 Y93.067 E4.6842
G1 X141.060 Y94.367 E4.7560
G1 X141.079 Y94.433 E4.7597
G1 X141.427 Y95.715 E4.8298
G1 X141.445 Y95.785 E4.8336
G1 X141.746 Y97.063 E4.9029
G1 X141.762 Y97.136 E4.9069
G1 X141.858 Y97.622 E4.9330
G1 X144.060 Y99.824 E5.0974
G1 X144.060 Y110.976 E5.6863
G1 X141.576 Y113.460 E5.8718
G1 X140.909 Y113.460 E5.9071
G1 X140.460 Y114.186 E5.9521
G1 X140.460 Y114.282 E5.9572
G1 X140.305 Y114.437 E5.9688
G1 X139.140 Y116.322 E6.0858
G1 X139.021 Y116.496 E6.0969
G1 X138.021 Y117.803 E6.1838
G1 X137.883 Y117.965 E6.1950
G1 X136.715 Y119.211 E6.2853
G1 X136.565 Y119.356 E6.2963
G1 X135.222 Y120.532 E6.3905
G1 X135.066 Y120.655 E6.4010
G1 X133.547 Y121.753 E6.5000
G1 X133.392 Y121.855 E6.5098
G1 X131.693 Y122.869 E6.6142
G1 X131.544 Y122.950 E6.6232
G1 X129.666 Y123.877 E6.7338
G1 X129.528 Y123.939 E6.7418
G1 X127.545 Y124.747 E6.8548
G1 X127.419 Y124.794 E6.8619
G1 X125.108 Y125.569 E6.9907
G1 X124.988 Y125.605 E6.9973
G1 X122.577 Y126.258 E7.1292
G1 X122.471 Y126.283 E7.1349
G1 X119.896 Y126.839 E7.2740
G1 X119.800 Y126.858 E7.2792
G1 X117.071 Y127.316 E7.4253
G1 X116.983 Y127.329 E7.4300
G1 X114.119 Y127.687 E7.5824
G1 X114.038 Y127.695 E7.5867
G1 X111.062 Y127.952 E7.7445
G1 X110.986 Y127.957 E7.7485
G1 X107.931 Y128.110 E7.9100
G1 X107.859 Y128.113 E7.9138
G1 X104.763 Y128.162 E8.0773
G1 X104.692 Y128.162 E8.0811
G1 X101.597 Y128.107 E8.2445
G1 X101.524 Y128.105 E8.2483
G1 X98.470 Y127.946 E8.4098
G1 X98.395 Y127.941 E8.4138
G1 X95.420 Y127.680 E8.5715
G1 X95.339 Y127.672 E8.5758
G1 X92.486 Y127.312 E8.7276
G1 X92.421 Y127.302 E8.7311
G1 X91.028 Y127.083 E8.8056
G1 X90.983 Y127.075 E8.8080
G1 X89.624 Y126.830 E8.8809
G1 X89.551 Y126.816 E8.8848
G1 X86.987 Y126.260 E9.0233
G1 X86.882 Y126.235 E9.0291
G1 X84.471 Y125.582 E9.1610
G1 X84.355 Y125.547 E9.1673
G1 X82.116 Y124.802 E9.2919
G1 X81.989 Y124.755 E9.2991
G1 X79.927 Y123.919 E9.4166
G1 X79.789 Y123.858 E9.4245
G1 X77.906 Y122.933 E9.5353
G1 X77.759 Y122.854 E9.5442
G1 X76.055 Y121.843 E9.6488
G1 X75.902 Y121.743 E9.6584
G1 X74.376 Y120.650 E9.7575
G1 X74.221 Y120.528 E9.7679
G1 X72.872 Y119.358 E9.8623
G1 X72.722 Y119.215 E9.8732
G1 X71.546 Y117.975 E9.9634
G1 X71.408 Y117.814 E9.9746
G1 X70.824 Y117.060 E10.0250
G1 X69.224 Y117.060 E10.1095
G1 X66.740 Y114.576 E10.2950
G1 X66.740 Y102.965 E10.9081
G1 X66.737 Y102.961 E10.9084
G1 X66.740 Y102.932 E10.9099
G1 X66.740 Y100.119 E11.0584
G1 X67.130 Y99.729 E11.0875
G1 X67.330 Y98.487 E11.1540
G1 X67.344 Y98.409 E11.1582
G1 X67.599 Y97.134 E11.2268
G1 X67.615 Y97.060 E11.2308
G1 X67.919 Y95.781 E11.3002
G1 X67.937 Y95.710 E11.3041
G1 X68.005 Y95.460 E11.3178
G1 X65.624 Y95.460 E11.4436
G1 X63.140 Y92.976 E11.6290
G1 X63.140 Y78.224 E12.4080
G1 X65.624 Y75.740 E12.5935
G92 E0.0000
G1 E-0.7000 F1500
; feature inner perimeter
G1 X74.135 Y92.621 F4800
G1 E0.0000 F1500
G92 E0.0000
G1 X135.240 Y92.621 E3.2266 F1350
G1 X135.525 Y93.376 E3.2692
G1 X135.937 Y94.581 E3.3364
G1 X136.305 Y95.779 E3.4026
G1 X136.628 Y96.969 E3.4677
G1 X136.906 Y98.151 E3.5318
G1 X137.140 Y99.325 E3.5951
G1 X137.326 Y100.491 E3.6574
G1 X137.370 Y100.856 E3.6768
G1 X71.987 Y100.856 E7.1293
G1 X72.031 Y100.493 E7.1486
G1 X72.218 Y99.329 E7.2108
G1 X72.453 Y98.156 E7.2740
G1 X72.733 Y96.974 E7.3381
G1 X73.060 Y95.784 E7.4033
G1 X73.431 Y94.587 E7.4695
G1 X73.882 Y93.288 E7.5421
G1 X74.135 Y92.621 E7.5798
; feature outer perimeter
G1 X73.804 Y92.141 F4800
G92 E0.0000
G1 X135.573 Y92.141 E3.2616 F900
G1 X135.977 Y93.214 E3.3222
G1 X136.394 Y94.433 E3.3902
G1 X136.766 Y95.645 E3.4572
G1 X137.093 Y96.851 E3.5231
G1 X137.376 Y98.049 E3.5881
G1 X137.612 Y99.240 E3.6523
G1 X137.802 Y100.424 E3.7156
G1 X137.912 Y101.336 E3.7640
G1 X71.446 Y101.336 E7.2737
G1 X71.556 Y100.426 E7.3221
G1 X71.746 Y99.244 E7.3853
G1 X71.984 Y98.053 E7.4494
G1 X72.268 Y96.855 E7.5144
G1 X72.599 Y95.649 E7.5804
G1 X72.975 Y94.437 E7.6475
G1 X73.431 Y93.124 E7.7209
G1 X73.804 Y92.141 E7.7764
; feature solid layer
G1 X72.616 Y100.448 F4800
G92 E0.0000
G1 X72.474 Y100.306 E0.0106 F1440
G1 X72.568 Y99.721 E0.0418
G1 X73.295 Y100.448 E0.0961
G1 X73.974 Y100.448 E0.1319
G1 X72.671 Y99.145 E0.2292
G1 X72.784 Y98.580 E0.2596
G1 X74.652 Y100.448 E0.3991
G1 X75.331 Y100.448 E0.4350
G1 X72.904 Y98.021 E0.6162
G1 X73.035 Y97.472 E0.6460
G1 X76.010 Y100.448 E0.8682
G1 X76.689 Y100.448 E0.9040
G1 X73.169 Y96.928 E1.1669
G1 X73.315 Y96.395 E1.1960
G1 X77.368 Y100.448 E1.4987
G1 X78.046 Y100.448 E1.5345
G1 X73.462 Y95.863 E1.8768
G1 X73.623 Y95.345 E1.9055
G1 X78.725 Y100.448 E2.2865
G1 X79.404 Y100.448 E2.3224
G1 X73.783 Y94.827 E2.7421
G1 X73.818 Y94.714 E2.7484
G1 X73.955 Y94.320 E2.7704
G1 X80.083 Y100.448 E3.2280
G1 X80.762 Y100.448 E3.2638
G1 X74.130 Y93.816 E3.7590
G1 X74.265 Y93.428 E3.7808
G1 X74.308 Y93.315 E3.7871
G1 X81.441 Y100.448 E4.3198
G1 X82.119 Y100.448 E4.3556
G1 X74.700 Y93.029 E4.9096
G1 X75.379 Y93.029 E4.9455
G1 X82.798 Y100.448 E5.4995
G1 X83.477 Y100.448 E5.5353
G1 X76.058 Y93.029 E6.0893
G1 X76.737 Y93.029 E6.1252
G1 X84.156 Y100.448 E6.6792
G1 X84.835 Y100.448 E6.7151
G1 X77.416 Y93.029 E7.2691
G1 X78.095 Y93.029 E7.3049
G1 X85.514 Y100.448 E7.8589
G1 X86.192 Y100.448 E7.8948
G1 X78.773 Y93.029 E8.4488
G1 X79.452 Y93.029 E8.4847
G1 X86.871 Y100.448 E9.0387
G1 X87.550 Y100.448 E9.0745
G1 X80.131 Y93.029 E9.6285
G1 X80.810 Y93.029 E9.6644
G1 X88.229 Y100.448 E10.2184
G1 X88.908 Y100.448 E10.2543
G1 X81.489 Y93.029 E10.8083
G1 X82.167 Y93.029 E10.8441
G1 X89.586 Y100.448 E11.3981
G1 X90.265 Y100.448 E11.4340
G1 X82.846 Y93.029 E11.9880
G1 X83.525 Y93.029 E12.0238
G1 X90.944 Y100.448 E12.5779
G1 X91.623 Y100.448 E12.6137
G1 X84.204 Y93.029 E13.1677
G1 X84.883 Y93.029 E13.2036
G1 X92.302 Y100.448 E13.7576
G1 X92.981 Y100.448 E13.7934
G1 X85.562 Y93.029 E14.3475
G1 X86.240 Y93.029 E14.3833
G1 X93.659 Y100.448 E14.9373
G1 X94.338 Y100.448 E14.9732
G1 X86.919 Y93.029 E15.5272
G1 X87.598 Y93.029 E15.5630
G1 X95.017 Y100.448 E16.1171
G1 X95.696 Y100.448 E16.1529
G1 X88.277 Y93.029 E16.7069
G1 X88.956 Y93.029 E16.7428
G1 X96.375 Y100.448 E17.2968
G1 X97.054 Y100.448 E17.3326
G1 X89.635 Y93.029 E17.8867
G1 X90.313 Y93.029 E17.9225
G1 X97.732 Y100.448 E18.4765
G1 X98.411 Y100.448 E18.5124
G1 X90.992 Y93.029 E19.0664
G1 X91.671 Y93.029 E19.1022
G1 X99.090 Y100.448 E19.6562
G1 X99.769 Y100.448 E19.6921
G1 X92.350 Y93.029 E20.2461
G1 X93.029 Y93.029 E20.2820
G1 X100.448 Y100.448 E20.8360
G1 X101.126 Y100.448 E20.8718
G1 X93.707 Y93.029 E21.4258
G1 X94.386 Y93.029 E21.4617
G1 X101.805 Y100.448 E22.0157
G1 X102.484 Y100.448 E22.0516
G1 X95.065 Y93.029 E22.6056
G1 X95.744 Y93.029 E22.6414
G1 X103.163 Y100.448 E23.1954
G1 X103.842 Y100.448 E23.2313
G1 X96.423 Y93.029 E23.7853
G1 X97.102 Y93.029 E23.8211
G1 X104.521 Y100.448 E24.3752
G1 X105.199 Y100.448 E24.4110
G1 X97.780 Y93.029 E24.9650
G1 X98.459 Y93.029 E25.0009
G1 X105.878 Y100.448 E25.5549
G1 X106.557 Y100.448 E25.5907
G1 X99.138 Y93.029 E26.1448
G1 X99.817 Y93.029 E26.1806
G1 X107.236 Y100.448 E26.7346
G1 X107.915 Y100.448 E26.7705
G1 X100.496 Y93.029 E27.3245
G1 X101.174 Y93.029 E27.3603
G1 X108.594 Y100.448 E27.9144
G1 X109.272 Y100.448 E27.9502
G1 X101.853 Y93.029 E28.5042
