; G-Code generated by Simplify3D(R) Version 4.1.1
; Apr 28, 2021 at 7:10:06 PM
; Settings Summary
;   processName,Trideo BOX
;   applyToModels,connector bicep fingers,connector w screw
;   profileName,Trideo BOX
;   profileVersion,2021-04-15 09:48:16
;   baseProfile,Default
;   printMaterial,PLA
;   printQuality,Fast
;   printExtruders,
;   extruderName,Primary Extruder
;   extruderToolheadNumber,0
;   extruderDiameter,0.4
;   extruderAutoWidth,1
;   extruderWidth,0.48
;   extrusionMultiplier,0.98
;   extruderUseRetract,1
;   extruderRetractionDistance,0.7
;   extruderExtraRestartDistance,0
;   extruderRetractionZLift,0
;   extruderRetractionSpeed,1500
;   extruderUseCoasting,0
;   extruderCoastingDistance,0.2
;   extruderUseWipe,0
;   extruderWipeDistance,5
;   primaryExtruder,0
;   layerHeight,0.3
;   topSolidLayers,3
;   bottomSolidLayers,3
;   perimeterOutlines,2
;   printPerimetersInsideOut,1
;   startPointOption,2
;   startPointOriginX,0
;   startPointOriginY,0
;   sequentialIslands,0
;   spiralVaseMode,0
;   firstLayerHeightPercentage,90
;   firstLayerWidthPercentage,100
;   firstLayerUnderspeed,0.5
;   useRaft,0
;   raftExtruder,0
;   raftTopLayers,3
;   raftBaseLayers,2
;   raftOffset,3
;   raftSeparationDistance,0.14
;   raftTopInfill,100
;   aboveRaftSpeedMultiplier,0.3
;   useSkirt,1
;   skirtExtruder,0
;   skirtLayers,1
;   skirtOutlines,2
;   skirtOffset,4
;   usePrimePillar,0
;   primePillarExtruder,999
;   primePillarWidth,12
;   primePillarLocation,7
;   primePillarSpeedMultiplier,1
;   useOozeShield,0
;   oozeShieldExtruder,999
;   oozeShieldOffset,2
;   oozeShieldOutlines,1
;   oozeShieldSidewallShape,1
;   oozeShieldSidewallAngle,30
;   oozeShieldSpeedMultiplier,1
;   infillExtruder,0
;   internalInfillPattern,Rectilinear
;   externalInfillPattern,Rectilinear
;   infillPercentage,15
;   outlineOverlapPercentage,15
;   infillExtrusionWidthPercentage,100
;   minInfillLength,5
;   infillLayerInterval,1
;   internalInfillAngles,45,-45
;   overlapInternalInfillAngles,0
;   externalInfillAngles,45,-45
;   generateSupport,1
;   supportExtruder,0
;   supportInfillPercentage,25
;   supportExtraInflation,0
;   supportBaseLayers,0
;   denseSupportExtruder,0
;   denseSupportLayers,0
;   denseSupportInfillPercentage,70
;   supportLayerInterval,1
;   supportHorizontalPartOffset,0.3
;   supportUpperSeparationLayers,1
;   supportLowerSeparationLayers,1
;   supportType,0
;   supportGridSpacing,4
;   maxOverhangAngle,45
;   supportAngles,0
;   temperatureName,Primary Extruder,Heated bed
;   temperatureNumber,0,0
;   temperatureSetpointCount,1,1
;   temperatureSetpointLayers,1,1
;   temperatureSetpointTemperatures,190,60
;   temperatureStabilizeAtStartup,1,1
;   temperatureHeatedBed,0,1
;   fanLayers,1,2
;   fanSpeeds,0,100
;   blipFanToFullPower,0
;   adjustSpeedForCooling,1
;   minSpeedLayerTime,15
;   minCoolingSpeedSlowdown,20
;   increaseFanForCooling,0
;   minFanLayerTime,45
;   maxCoolingFanSpeed,100
;   increaseFanForBridging,0
;   bridgingFanSpeed,100
;   use5D,1
;   relativeEdistances,0
;   allowEaxisZeroing,1
;   independentExtruderAxes,0
;   includeM10123,0
;   stickySupport,1
;   applyToolheadOffsets,0
;   gcodeXoffset,0
;   gcodeYoffset,0
;   gcodeZoffset,0
;   overrideMachineDefinition,1
;   machineTypeOverride,0
;   strokeXoverride,200
;   strokeYoverride,200
;   strokeZoverride,200
;   originOffsetXoverride,0
;   originOffsetYoverride,0
;   originOffsetZoverride,0
;   homeXdirOverride,-1
;   homeYdirOverride,-1
;   homeZdirOverride,-1
;   flipXoverride,1
;   flipYoverride,-1
;   flipZoverride,1
;   toolheadOffsets,0,0|0,0|0,0|0,0|0,0|0,0
;   overrideFirmwareConfiguration,0
;   firmwareTypeOverride,RepRap (Marlin/Repetier/Sprinter)
;   GPXconfigOverride,r2
;   baudRateOverride,115200
;   overridePrinterModels,0
;   printerModelsOverride
;   startingGcode,G28 X0 Y0; home XY,G1 X20 Y20,G28 Z0,G1 Z5 F5000; Lift NZ
;   layerChangeGcode,
;   retractionGcode,
;   toolChangeGcode,
;   endingGcode,M104 S0 ; turn off extruder,G28 X0 ; home x,M140 S0 ; turn off bed,M84 ; disable motors,M107 ;
;   exportFileFormat,gcode
;   celebration,0
;   celebrationSong,Looney Toons
;   postProcessing,
;   defaultSpeed,3600
;   outlineUnderspeed,0.5
;   solidInfillUnderspeed,0.8
;   supportUnderspeed,0.8
;   rapidXYspeed,4800
;   rapidZspeed,1002
;   minBridgingArea,50
;   bridgingExtraInflation,0
;   bridgingExtrusionMultiplier,1
;   bridgingSpeedMultiplier,1
;   useFixedBridgingAngle,0
;   fixedBridgingAngle,0
;   applyBridgingToPerimeters,0
;   filamentDiameters,1.75|1.75|1.75|1.75|1.75|1.75
;   filamentPricesPerKg,46|46|46|46|46|46
;   filamentDensities,1.25|1.25|1.25|1.25|1.25|1.25
;   useMinPrintHeight,0
;   minPrintHeight,0
;   useMaxPrintHeight,0
;   maxPrintHeight,0
;   useDiaphragm,0
;   diaphragmLayerInterval,20
;   robustSlicing,1
;   mergeAllIntoSolid,0
;   onlyRetractWhenCrossingOutline,1
;   retractBetweenLayers,1
;   useRetractionMinTravel,0
;   retractionMinTravel,3
;   retractWhileWiping,0
;   onlyWipeOutlines,1
;   avoidCrossingOutline,0
;   maxMovementDetourFactor,3
;   toolChangeRetractionDistance,12
;   toolChangeExtraRestartDistance,-0.5
;   toolChangeRetractionSpeed,600
;   externalThinWallType,0
;   internalThinWallType,2
;   thinWallAllowedOverlapPercentage,10
;   singleExtrusionMinLength,1
;   singleExtrusionMinPrintingWidthPercentage,50
;   singleExtrusionMaxPrintingWidthPercentage,200
;   singleExtrusionEndpointExtension,0.2
;   horizontalSizeCompensation,0
G90
M82
M106 S0
M140 S60
M190 S60
M104 S190 T0
M109 S190 T0
G28 X0 Y0; home XY
G1 X20 Y20
G28 Z0
G1 Z5 F5000; Lift NZ
; process Trideo BOX
; layer 1, Z = 0.270
T0
G92 E0.0000
G1 E-0.7000 F1500
; feature skirt
; tool H0.270 W0.480
G1 Z0.270 F1002
G1 X74.101 Y5.834 F4800
G1 E0.0000 F1500
G92 E0.0000
G1 X76.511 Y4.538 E0.1445 F1800
G1 X77.646 Y4.252 E0.2063
G1 X95.057 Y4.252 E1.1257
G1 X97.877 Y7.462 E1.3513
G1 X97.636 Y9.319 E1.4502
G1 X97.636 Y23.809 E2.2153
G1 X96.301 Y26.045 E2.3528
G1 X93.931 Y27.323 E2.4950
G1 X93.164 Y27.580 E2.5377
G1 X92.920 Y27.617 E2.5507
G1 X92.920 Y48.676 E3.6627
G1 X93.406 Y49.148 E3.6984
G1 X95.728 Y51.225 E3.8629
G1 X95.770 Y51.264 E3.8659
G1 X97.838 Y53.206 E4.0157
G1 X97.920 Y53.288 E4.0219
G1 X98.958 Y54.364 E4.1008
G1 X99.030 Y54.442 E4.1064
G1 X100.032 Y55.578 E4.1864
G1 X100.129 Y55.696 E4.1945
G1 X101.927 Y58.023 E4.3498
G1 X102.037 Y58.176 E4.3597
G1 X103.645 Y60.642 E4.5152
G1 X103.732 Y60.785 E4.5240
G1 X105.144 Y63.325 E4.6774
G1 X105.206 Y63.445 E4.6846
G1 X105.986 Y65.060 E4.7793
G1 X108.694 Y65.060 E4.9223
G1 X111.459 Y67.825 E5.1287
G1 X111.459 Y76.175 E5.5696
G1 X110.583 Y77.051 E5.6350
G1 X110.586 Y77.060 E5.6356
G1 X112.694 Y77.060 E5.7469
G1 X115.459 Y79.825 E5.9533
G1 X115.459 Y88.175 E6.3942
G1 X114.461 Y89.172 E6.4687
G1 X114.806 Y90.183 E6.5251
G1 X115.849 Y93.047 E6.6861
G1 X116.957 Y95.890 E6.8472
G1 X118.128 Y98.728 E7.0093
G1 X123.083 Y110.279 E7.6729
G1 X123.104 Y110.329 E7.6758
G1 X125.238 Y115.638 E7.9780
G1 X125.256 Y115.686 E7.9807
G1 X125.800 Y117.129 E8.0621
G1 X125.828 Y117.206 E8.0664
G1 X126.720 Y119.843 E8.2134
G1 X126.755 Y119.955 E8.2196
G1 X127.119 Y121.239 E8.2901
G1 X127.144 Y121.336 E8.2954
G1 X127.430 Y122.531 E8.3602
G1 X127.460 Y122.681 E8.3683
G1 X128.471 Y128.588 E8.6848
G1 X119.645 Y130.504 E9.1617
G1 X118.550 Y126.351 E9.3884
G1 X118.476 Y126.231 E9.3959
G1 X118.383 Y126.121 E9.4035
G1 X118.266 Y126.022 E9.4116
G1 X118.131 Y125.939 E9.4199
G1 X117.993 Y125.882 E9.4278
G1 X117.852 Y125.848 E9.4355
G1 X117.699 Y125.836 E9.4436
G1 X117.545 Y125.849 E9.4518
G1 X117.402 Y125.883 E9.4595
G1 X117.264 Y125.940 E9.4674
G1 X117.131 Y126.021 E9.4756
G1 X117.035 Y126.104 E9.4823
G1 X116.564 Y126.666 E9.5211
G1 X116.308 Y126.928 E9.5404
G1 X115.355 Y127.761 E9.6072
G1 X113.805 Y128.363 E9.6950
G1 X112.181 Y128.398 E9.7808
G1 X110.911 Y128.067 E9.8501
G1 X109.819 Y127.425 E9.9170
G1 X109.090 Y126.761 E9.9691
G1 X108.321 Y125.691 E10.0387
G1 X107.914 Y124.743 E10.0932
G1 X107.655 Y123.377 E10.1665
G1 X107.620 Y123.113 E10.1806
G1 X107.293 Y118.754 E10.4114
G1 X107.104 Y116.685 E10.5211
G1 X106.892 Y114.619 E10.6308
G1 X106.390 Y110.450 E10.8525
G1 X105.793 Y106.291 E11.0744
G1 X105.465 Y104.251 E11.1835
G1 X104.727 Y100.128 E11.4047
G1 X103.711 Y95.218 E11.6694
G1 X103.056 Y92.411 E11.8216
G1 X102.343 Y89.612 E11.9741
G1 X101.574 Y86.836 E12.1262
G1 X100.747 Y84.090 E12.2777
G1 X99.856 Y81.385 E12.4281
G1 X98.895 Y78.725 E12.5774
G1 X97.857 Y76.123 E12.7253
G1 X96.545 Y73.214 E12.8938
G1 X95.088 Y70.443 E13.0592
G1 X94.204 Y68.988 E13.1490
G1 X93.262 Y67.629 E13.2363
G1 X92.290 Y66.436 E13.3176
G1 X91.238 Y65.391 E13.3959
G1 X90.814 Y65.048 E13.4247
G1 X90.365 Y64.743 E13.4534
G1 X89.955 Y64.520 E13.4780
G1 X89.576 Y64.368 E13.4996
G1 X89.240 Y64.279 E13.5179
G1 X89.085 Y64.260 E13.5262
G1 X88.928 Y64.414 E13.5378
G1 X88.654 Y64.731 E13.5600
G1 X87.947 Y65.728 E13.6245
G1 X87.302 Y66.859 E13.6932
G1 X86.823 Y67.852 E13.7514
G1 X86.380 Y68.892 E13.8112
G1 X85.535 Y71.243 E13.9431
G1 X84.810 Y73.680 E14.0773
G1 X84.172 Y76.206 E14.2149
G1 X83.641 Y78.637 E14.3463
G1 X83.163 Y81.107 E14.4791
G1 X82.739 Y83.586 E14.6119
G1 X82.063 Y88.233 E14.8599
G1 X81.550 Y92.477 E15.0856
G1 X81.118 Y96.740 E15.3119
G1 X80.600 Y103.194 E15.6538
G1 X80.260 Y108.936 E15.9575
G1 X80.018 Y114.697 E16.2619
G1 X79.936 Y117.555 E16.4129
G1 X79.850 Y122.972 E16.6990
G1 X79.850 Y128.034 E16.9663
G1 X79.925 Y133.106 E17.2341
G1 X80.303 Y147.211 E17.9792
G1 X80.304 Y147.230 E17.9802
G1 X80.436 Y154.189 E18.3478
G1 X80.436 Y154.214 E18.3491
G1 X80.475 Y158.863 E18.5945
G1 X80.476 Y158.884 E18.5957
G1 X80.471 Y165.846 E18.9633
G1 X80.471 Y165.871 E18.9646
G1 X80.366 Y175.150 E19.4546
G1 X80.366 Y175.177 E19.4561
G1 X80.272 Y179.250 E19.6712
G1 X80.302 Y179.399 E19.6792
G1 X80.517 Y180.951 E19.7619
G1 X80.539 Y181.319 E19.7814
G1 X80.503 Y183.263 E19.8841
G1 X80.462 Y183.661 E19.9052
G1 X80.112 Y185.504 E20.0043
G1 X80.008 Y185.880 E20.0248
G1 X79.362 Y187.636 E20.1236
G1 X79.198 Y187.989 E20.1442
G1 X78.272 Y189.615 E20.2430
G1 X78.052 Y189.936 E20.2636
G1 X76.872 Y191.388 E20.3623
G1 X76.604 Y191.668 E20.3828
G1 X75.225 Y192.887 E20.4800
G1 X74.917 Y193.118 E20.5003
G1 X73.309 Y194.129 E20.6006
G1 X72.958 Y194.311 E20.6215
G1 X71.227 Y195.030 E20.7205
G1 X70.857 Y195.149 E20.7410
G1 X69.034 Y195.574 E20.8398
G1 X68.649 Y195.631 E20.8604
G1 X66.781 Y195.751 E20.9592
G1 X66.392 Y195.744 E20.9798
G1 X64.527 Y195.555 E21.0788
G1 X64.138 Y195.482 E21.0997
G1 X62.307 Y194.979 E21.2000
G1 X62.201 Y194.940 E21.2059
G1 X60.343 Y194.940 E21.3040
G1 X57.579 Y192.175 E21.5104
G1 X57.579 Y192.115 E21.5136
G1 X56.725 Y191.304 E21.5758
G1 X56.463 Y191.009 E21.5966
G1 X56.412 Y190.940 E21.6012
G1 X56.343 Y190.940 E21.6048
G1 X53.579 Y188.175 E21.8112
G1 X53.579 Y185.622 E21.9461
G1 X53.487 Y185.361 E21.9606
G1 X53.462 Y183.840 E22.0410
G1 X53.579 Y183.467 E22.0616
G1 X53.580 Y181.997 E22.1393
G1 X53.578 Y175.826 E22.4651
G1 X54.802 Y174.602 E22.5565
G1 X57.120 Y157.770 E23.4537
G1 X60.254 Y133.525 E24.7445
G1 X60.255 Y133.518 E24.7450
G1 X61.781 Y122.009 E25.3580
G1 X61.784 Y121.985 E25.3592
G1 X62.860 Y114.453 E25.7610
G1 X62.862 Y114.433 E25.7621
G1 X63.434 Y110.661 E25.9635
G1 X63.437 Y110.641 E25.9646
G1 X64.342 Y104.998 E26.2664
G1 X64.346 Y104.972 E26.2678
G1 X65.314 Y99.334 E26.5698
G1 X65.319 Y99.306 E26.5713
G1 X66.355 Y93.677 E26.8736
G1 X66.361 Y93.647 E26.8752
G1 X67.469 Y88.030 E27.1775
G1 X67.476 Y87.998 E27.1792
G1 X68.662 Y82.395 E27.4817
G1 X68.669 Y82.361 E27.4835
G1 X69.937 Y76.777 E27.7858
G1 X69.944 Y76.749 E27.7873
G1 X70.708 Y73.564 E27.9603
G1 X70.716 Y73.532 E27.9621
G1 X72.329 Y67.203 E28.3069
G1 X72.341 Y67.159 E28.3093
G1 X74.080 Y60.854 E28.6547
G1 X74.094 Y60.807 E28.6573
G1 X75.966 Y54.536 E29.0029
G1 X75.981 Y54.487 E29.0056
G1 X77.480 Y49.840 E29.2634
G1 X77.480 Y27.692 E30.4329
G1 X75.570 Y27.692 E30.5338
G1 X72.822 Y25.020 E30.7361
G1 X72.728 Y21.664 E30.9134
G1 X72.765 Y21.600 E30.9173
G1 X72.765 Y8.071 E31.6317
G1 X74.101 Y5.834 E31.7693
G92 E0.0000
G1 E-0.7000 F1500
G1 X74.446 Y6.194 F4800
G1 E0.0000 F1500
G92 E0.0000
G1 X76.686 Y4.989 E0.1343 F1800
G1 X77.706 Y4.732 E0.1899
G1 X94.840 Y4.732 E1.0946
G1 X97.373 Y7.616 E1.2973
G1 X97.156 Y9.288 E1.3864
G1 X97.156 Y23.677 E2.1461
G1 X95.957 Y25.685 E2.2696
G1 X93.739 Y26.881 E2.4027
G1 X93.050 Y27.112 E2.4410
G1 X92.440 Y27.206 E2.4736
G1 X92.440 Y48.879 E3.6181
G1 X93.079 Y49.499 E3.6651
G1 X95.405 Y51.581 E3.8299
G1 X95.443 Y51.615 E3.8326
G1 X97.505 Y53.552 E3.9820
G1 X97.579 Y53.625 E3.9875
G1 X98.609 Y54.693 E4.0658
G1 X98.674 Y54.763 E4.0709
G1 X99.667 Y55.890 E4.1502
G1 X99.754 Y55.995 E4.1574
G1 X101.542 Y58.309 E4.3118
G1 X101.640 Y58.447 E4.3207
G1 X103.239 Y60.897 E4.4752
G1 X103.316 Y61.026 E4.4831
G1 X104.721 Y63.552 E4.6358
G1 X104.776 Y63.660 E4.6422
G1 X105.685 Y65.540 E4.7524
G1 X108.495 Y65.540 E4.9008
G1 X110.979 Y68.024 E5.0863
G1 X110.979 Y75.976 E5.5062
G1 X110.036 Y76.919 E5.5766
G1 X110.237 Y77.540 E5.6111
G1 X112.495 Y77.540 E5.7303
G1 X114.979 Y80.024 E5.9158
G1 X114.979 Y87.976 E6.3357
G1 X113.911 Y89.044 E6.4154
G1 X114.353 Y90.343 E6.4879
G1 X115.400 Y93.217 E6.6494
G1 X116.512 Y96.069 E6.8110
G1 X117.686 Y98.914 E6.9736
G1 X122.641 Y110.465 E7.6373
G1 X122.659 Y110.511 E7.6398
G1 X124.791 Y115.815 E7.9417
G1 X124.808 Y115.858 E7.9441
G1 X125.350 Y117.295 E8.0252
G1 X125.374 Y117.363 E8.0291
G1 X126.263 Y119.991 E8.1756
G1 X126.295 Y120.092 E8.1811
G1 X126.656 Y121.366 E8.2510
G1 X126.679 Y121.452 E8.2558
G1 X126.961 Y122.635 E8.3200
G1 X126.988 Y122.769 E8.3272
G1 X127.921 Y128.216 E8.6190
G1 X119.992 Y129.937 E9.0474
G1 X118.996 Y126.161 E9.2536
G1 X118.866 Y125.948 E9.2668
G1 X118.723 Y125.781 E9.2784
G1 X118.549 Y125.633 E9.2905
G1 X118.350 Y125.511 E9.3028
G1 X118.143 Y125.424 E9.3147
G1 X117.928 Y125.373 E9.3264
G1 X117.699 Y125.355 E9.3385
G1 X117.470 Y125.373 E9.3506
G1 X117.253 Y125.425 E9.3624
G1 X117.045 Y125.511 E9.3743
G1 X116.848 Y125.632 E9.3864
G1 X116.692 Y125.765 E9.3973
G1 X116.207 Y126.344 E9.4372
G1 X115.977 Y126.579 E9.4545
G1 X115.103 Y127.345 E9.5159
G1 X113.710 Y127.885 E9.5948
G1 X112.237 Y127.917 E9.6726
G1 X111.097 Y127.619 E9.7348
G1 X110.105 Y127.037 E9.7955
G1 X109.450 Y126.440 E9.8423
G1 X108.741 Y125.453 E9.9065
G1 X108.376 Y124.602 E9.9554
G1 X108.129 Y123.301 E10.0253
G1 X108.097 Y123.063 E10.0380
G1 X107.772 Y118.714 E10.2683
G1 X107.582 Y116.639 E10.3783
G1 X107.369 Y114.566 E10.4884
G1 X106.866 Y110.387 E10.7106
G1 X106.268 Y106.219 E10.9330
G1 X105.938 Y104.170 E11.0425
G1 X105.198 Y100.037 E11.2643
G1 X104.180 Y95.115 E11.5297
G1 X103.522 Y92.298 E11.6824
G1 X102.807 Y89.489 E11.8355
G1 X102.035 Y86.703 E11.9881
G1 X101.205 Y83.946 E12.1401
G1 X100.310 Y81.228 E12.2913
G1 X99.344 Y78.555 E12.4413
G1 X98.299 Y75.935 E12.5903
G1 X96.976 Y73.004 E12.7601
G1 X95.506 Y70.206 E12.9270
G1 X94.607 Y68.727 E13.0184
G1 X93.646 Y67.341 E13.1074
G1 X92.646 Y66.114 E13.1910
G1 X91.559 Y65.034 E13.2719
G1 X91.100 Y64.662 E13.3031
G1 X90.615 Y64.332 E13.3341
G1 X90.159 Y64.085 E13.3615
G1 X89.728 Y63.911 E13.3860
G1 X89.332 Y63.806 E13.4077
G1 X88.964 Y63.761 E13.4272
G1 X88.906 Y63.762 E13.4303
G1 X88.578 Y64.085 E13.4546
G1 X88.276 Y64.434 E13.4790
G1 X87.541 Y65.470 E13.5460
G1 X86.877 Y66.636 E13.6169
G1 X86.386 Y67.653 E13.6765
G1 X85.933 Y68.717 E13.7376
G1 X85.078 Y71.093 E13.8709
G1 X84.347 Y73.553 E14.0064
G1 X83.705 Y76.096 E14.1449
G1 X83.170 Y78.541 E14.2771
G1 X82.691 Y81.021 E14.4105
G1 X82.265 Y83.511 E14.5439
G1 X81.587 Y88.170 E14.7924
G1 X81.073 Y92.424 E15.0187
G1 X80.640 Y96.697 E15.2455
G1 X80.122 Y103.160 E15.5879
G1 X79.780 Y108.911 E15.8921
G1 X79.539 Y114.680 E16.1970
G1 X79.457 Y117.544 E16.3483
G1 X79.370 Y122.968 E16.6347
G1 X79.370 Y128.037 E16.9024
G1 X79.445 Y133.116 E17.1706
G1 X79.823 Y147.223 E17.9158
G1 X79.824 Y147.240 E17.9167
G1 X79.956 Y154.197 E18.2841
G1 X79.956 Y154.219 E18.2853
G1 X79.995 Y158.866 E18.5306
G1 X79.996 Y158.885 E18.5316
G1 X79.991 Y165.844 E18.8991
G1 X79.991 Y165.867 E18.9003
