; G-Code generated by Simplify3D(R) Version 4.1.1
; Apr 28, 2021 at 7:11:32 PM
; Settings Summary
;   processName,Trideo BOX
;   applyToModels,connector bicep fingers,connector w screw
;   profileName,Trideo BOX
;   profileVersion,2021-04-15 09:48:16
;   baseProfile,Default
;   printMaterial,PLA
;   printQuality,Fast
;   printExtruders,
;   extruderName,Primary Extruder
;   extruderToolheadNumber,0
;   extruderDiameter,0.4
;   extruderAutoWidth,1
;   extruderWidth,0.48
;   extrusionMultiplier,0.98
;   extruderUseRetract,1
;   extruderRetractionDistance,0.7
;   extruderExtraRestartDistance,0
;   extruderRetractionZLift,0
;   extruderRetractionSpeed,1500
;   extruderUseCoasting,0
;   extruderCoastingDistance,0.2
;   extruderUseWipe,0
;   extruderWipeDistance,5
;   primaryExtruder,0
;   layerHeight,0.3
;   topSolidLayers,3
;   bottomSolidLayers,3
;   perimeterOutlines,2
;   printPerimetersInsideOut,1
;   startPointOption,2
;   startPointOriginX,0
;   startPointOriginY,0
;   sequentialIslands,0
;   spiralVaseMode,0
;   firstLayerHeightPercentage,90
;   firstLayerWidthPercentage,100
;   firstLayerUnderspeed,0.5
;   useRaft,0
;   raftExtruder,0
;   raftTopLayers,3
;   raftBaseLayers,2
;   raftOffset,3
;   raftSeparationDistance,0.14
;   raftTopInfill,100
;   aboveRaftSpeedMultiplier,0.3
;   useSkirt,1
;   skirtExtruder,0
;   skirtLayers,1
;   skirtOutlines,2
;   skirtOffset,4
;   usePrimePillar,0
;   primePillarExtruder,999
;   primePillarWidth,12
;   primePillarLocation,7
;   primePillarSpeedMultiplier,1
;   useOozeShield,0
;   oozeShieldExtruder,999
;   oozeShieldOffset,2
;   oozeShieldOutlines,1
;   oozeShieldSidewallShape,1
;   oozeShieldSidewallAngle,30
;   oozeShieldSpeedMultiplier,1
;   infillExtruder,0
;   internalInfillPattern,Rectilinear
;   externalInfillPattern,Rectilinear
;   infillPercentage,15
;   outlineOverlapPercentage,15
;   infillExtrusionWidthPercentage,100
;   minInfillLength,5
;   infillLayerInterval,1
;   internalInfillAngles,45,-45
;   overlapInternalInfillAngles,0
;   externalInfillAngles,45,-45
;   generateSupport,1
;   supportExtruder,0
;   supportInfillPercentage,25
;   supportExtraInflation,0
;   supportBaseLayers,0
;   denseSupportExtruder,0
;   denseSupportLayers,0
;   denseSupportInfillPercentage,70
;   supportLayerInterval,1
;   supportHorizontalPartOffset,0.3
;   supportUpperSeparationLayers,1
;   supportLowerSeparationLayers,1
;   supportType,0
;   supportGridSpacing,4
;   maxOverhangAngle,45
;   supportAngles,0
;   temperatureName,Primary Extruder,Heated bed
;   temperatureNumber,0,0
;   temperatureSetpointCount,1,1
;   temperatureSetpointLayers,1,1
;   temperatureSetpointTemperatures,190,60
;   temperatureStabilizeAtStartup,1,1
;   temperatureHeatedBed,0,1
;   fanLayers,1,2
;   fanSpeeds,0,100
;   blipFanToFullPower,0
;   adjustSpeedForCooling,1
;   minSpeedLayerTime,15
;   minCoolingSpeedSlowdown,20
;   increaseFanForCooling,0
;   minFanLayerTime,45
;   maxCoolingFanSpeed,100
;   increaseFanForBridging,0
;   bridgingFanSpeed,100
;   use5D,1
;   relativeEdistances,0
;   allowEaxisZeroing,1
;   independentExtruderAxes,0
;   includeM10123,0
;   stickySupport,1
;   applyToolheadOffsets,0
;   gcodeXoffset,0
;   gcodeYoffset,0
;   gcodeZoffset,0
;   overrideMachineDefinition,1
;   machineTypeOverride,0
;   strokeXoverride,200
;   strokeYoverride,200
;   strokeZoverride,200
;   originOffsetXoverride,0
;   originOffsetYoverride,0
;   originOffsetZoverride,0
;   homeXdirOverride,-1
;   homeYdirOverride,-1
;   homeZdirOverride,-1
;   flipXoverride,1
;   flipYoverride,-1
;   flipZoverride,1
;   toolheadOffsets,0,0|0,0|0,0|0,0|0,0|0,0
;   overrideFirmwareConfiguration,0
;   firmwareTypeOverride,RepRap (Marlin/Repetier/Sprinter)
;   GPXconfigOverride,r2
;   baudRateOverride,115200
;   overridePrinterModels,0
;   printerModelsOverride
;   startingGcode,G28 X0 Y0; home XY,G1 X20 Y20,G28 Z0,G1 Z5 F5000; Lift NZ
;   layerChangeGcode,
;   retractionGcode,
;   toolChangeGcode,
;   endingGcode,M104 S0 ; turn off extruder,G28 X0 ; home x,M140 S0 ; turn off bed,M84 ; disable motors,M107 ;
;   exportFileFormat,gcode
;   celebration,0
;   celebrationSong,Looney Toons
;   postProcessing,
;   defaultSpeed,3600
;   outlineUnderspeed,0.5
;   solidInfillUnderspeed,0.8
;   supportUnderspeed,0.8
;   rapidXYspeed,4800
;   rapidZspeed,1002
;   minBridgingArea,50
;   bridgingExtraInflation,0
;   bridgingExtrusionMultiplier,1
;   bridgingSpeedMultiplier,1
;   useFixedBridgingAngle,0
;   fixedBridgingAngle,0
;   applyBridgingToPerimeters,0
;   filamentDiameters,1.75|1.75|1.75|1.75|1.75|1.75
;   filamentPricesPerKg,46|46|46|46|46|46
;   filamentDensities,1.25|1.25|1.25|1.25|1.25|1.25
;   useMinPrintHeight,0
;   minPrintHeight,0
;   useMaxPrintHeight,0
;   maxPrintHeight,0
;   useDiaphragm,0
;   diaphragmLayerInterval,20
;   robustSlicing,1
;   mergeAllIntoSolid,0
;   onlyRetractWhenCrossingOutline,1
;   retractBetweenLayers,1
;   useRetractionMinTravel,0
;   retractionMinTravel,3
;   retractWhileWiping,0
;   onlyWipeOutlines,1
;   avoidCrossingOutline,0
;   maxMovementDetourFactor,3
;   toolChangeRetractionDistance,12
;   toolChangeExtraRestartDistance,-0.5
;   toolChangeRetractionSpeed,600
;   externalThinWallType,0
;   internalThinWallType,2
;   thinWallAllowedOverlapPercentage,10
;   singleExtrusionMinLength,1
;   singleExtrusionMinPrintingWidthPercentage,50
;   singleExtrusionMaxPrintingWidthPercentage,200
;   singleExtrusionEndpointExtension,0.2
;   horizontalSizeCompensation,0
G90
M82
M106 S0
M140 S60
M190 S60
M104 S190 T0
M109 S190 T0
G28 X0 Y0; home XY
G1 X20 Y20
G28 Z0
G1 Z5 F5000; Lift NZ
; process Trideo BOX
; layer 1, Z = 0.270
T0
G92 E0.0000
G1 E-0.7000 F1500
; feature skirt
; tool H0.270 W0.480
G1 Z0.270 F1002
G1 X64.891 Y82.869 F4800
G1 E0.0000 F1500
G92 E0.0000
G1 X67.656 Y80.104 E0.2065 F1800
G1 X74.609 Y80.104 E0.5736
G1 X96.891 Y59.419 E2.1790
G1 X96.891 Y58.869 E2.2081
G1 X99.656 Y56.104 E2.4145
G1 X100.463 Y56.104 E2.4571
G1 X108.891 Y48.280 E3.0644
G1 X108.891 Y42.869 E3.3501
G1 X111.656 Y40.104 E3.5566
G1 X112.891 Y40.104 E3.6218
G1 X112.891 Y38.869 E3.6870
G1 X115.656 Y36.104 E3.8935
G1 X116.891 Y36.104 E3.9587
G1 X116.891 Y34.869 E4.0239
G1 X119.656 Y32.104 E4.2304
G1 X120.891 Y32.104 E4.2956
G1 X120.891 Y30.869 E4.3608
G1 X123.656 Y28.104 E4.5673
G1 X130.604 Y28.104 E4.9342
G1 X136.580 Y22.467 E5.3680
G1 X136.505 Y22.285 E5.3784
G1 X136.436 Y22.170 E5.3854
G1 X134.779 Y20.206 E5.5211
G1 X135.009 Y16.434 E5.7207
G1 X139.440 Y12.321 E6.0399
G1 X143.347 Y12.467 E6.2464
G1 X154.736 Y24.735 E7.1303
G1 X154.590 Y28.642 E7.3367
G1 X150.112 Y32.799 E7.6594
G1 X146.205 Y32.654 E7.8659
G1 X144.318 Y30.622 E8.0123
G1 X136.810 Y37.540 E8.5514
G1 X126.771 Y46.858 E9.2746
G1 X126.771 Y47.219 E9.2937
G1 X124.006 Y49.984 E9.5001
G1 X123.404 Y49.984 E9.5319
G1 X122.771 Y50.572 E9.5776
G1 X122.771 Y51.219 E9.6117
G1 X120.006 Y53.984 E9.8182
G1 X119.095 Y53.984 E9.8663
G1 X110.771 Y61.711 E10.4660
G1 X110.771 Y67.219 E10.7569
G1 X108.006 Y69.984 E10.9634
G1 X106.771 Y69.984 E11.0286
G1 X106.771 Y71.219 E11.0938
G1 X104.006 Y73.984 E11.3003
G1 X97.550 Y73.984 E11.6412
G1 X70.771 Y98.842 E13.5705
G1 X70.771 Y99.219 E13.5904
G1 X68.006 Y101.984 E13.7969
G1 X67.387 Y101.984 E13.8296
G1 X66.771 Y102.555 E13.8740
G1 X66.771 Y103.219 E13.9090
G1 X64.006 Y105.984 E14.1155
G1 X63.078 Y105.984 E14.1645
G1 X54.771 Y113.695 E14.7630
G1 X54.771 Y119.219 E15.0547
G1 X52.006 Y121.984 E15.2611
G1 X50.771 Y121.984 E15.3264
G1 X50.771 Y123.219 E15.3916
G1 X48.006 Y125.984 E15.5981
G1 X41.623 Y125.984 E15.9351
G1 X40.230 Y127.293 E16.0361
G1 X40.105 Y127.563 E16.0518
G1 X40.061 Y127.653 E16.0570
G1 X38.577 Y130.530 E16.2280
G1 X38.189 Y131.352 E16.2760
G1 X37.933 Y131.954 E16.3105
G1 X37.580 Y132.905 E16.3641
G1 X37.429 Y133.385 E16.3907
G1 X37.238 Y134.159 E16.4328
G1 X36.784 Y136.937 E16.5814
G1 X36.680 Y137.341 E16.6034
G1 X36.126 Y138.914 E16.6915
G1 X35.967 Y139.268 E16.7120
G1 X35.686 Y139.779 E16.7428
G1 X41.775 Y135.143 E17.1469
G1 X66.446 Y116.122 E18.7919
G1 X66.455 Y116.115 E18.7925
G1 X73.225 Y110.946 E19.2422
G1 X73.241 Y110.934 E19.2433
G1 X79.934 Y105.914 E19.6851
G1 X79.950 Y105.902 E19.6861
G1 X83.326 Y103.414 E19.9076
G1 X83.343 Y103.402 E19.9086
G1 X88.434 Y99.718 E20.2405
G1 X88.455 Y99.703 E20.2419
G1 X93.591 Y96.072 E20.5740
G1 X93.614 Y96.056 E20.5755
G1 X98.795 Y92.485 E20.9077
G1 X98.820 Y92.468 E20.9094
G1 X104.049 Y88.962 E21.2417
G1 X104.076 Y88.945 E21.2435
G1 X109.354 Y85.511 E21.5759
G1 X109.383 Y85.492 E21.5778
G1 X114.710 Y82.138 E21.9101
G1 X114.734 Y82.122 E21.9117
G1 X117.804 Y80.241 E22.1018
G1 X117.832 Y80.224 E22.1035
G1 X124.004 Y76.558 E22.4826
G1 X124.044 Y76.535 E22.4850
G1 X130.296 Y72.987 E22.8646
G1 X130.340 Y72.963 E22.8672
G1 X136.669 Y69.544 E23.2471
G1 X136.714 Y69.521 E23.2498
G1 X141.483 Y67.078 E23.5327
G1 X159.159 Y49.402 E24.8527
G1 X157.475 Y47.719 E24.9783
G1 X157.427 Y43.879 E25.1811
G1 X159.747 Y41.438 E25.3590
G1 X159.812 Y41.421 E25.3625
G1 X161.000 Y40.232 E25.4512
G1 X161.114 Y40.118 E25.4598
G1 X161.324 Y39.908 E25.4754
G1 X162.444 Y38.788 E25.5591
G1 X164.405 Y36.828 E25.7055
G1 X165.712 Y35.520 E25.8031
G1 X166.808 Y34.425 E25.8849
G1 X167.999 Y33.234 E25.9739
G1 X169.160 Y32.073 E26.0606
G1 X170.331 Y30.902 E26.1480
G1 X172.858 Y30.265 E26.2857
G1 X175.560 Y31.078 E26.4346
G1 X176.564 Y31.678 E26.4964
G1 X189.892 Y45.007 E27.4917
G1 X189.647 Y49.234 E27.7153
G1 X188.165 Y50.408 E27.8152
G1 X186.280 Y52.293 E27.9559
G1 X185.909 Y52.663 E27.9836
G1 X183.894 Y54.679 E28.1341
G1 X182.727 Y55.846 E28.2212
G1 X182.453 Y56.120 E28.2417
G1 X181.281 Y57.291 E28.3292
G1 X179.273 Y59.299 E28.4791
G1 X178.107 Y60.466 E28.5662
G1 X176.942 Y61.630 E28.6532
G1 X174.417 Y62.267 E28.7907
G1 X171.743 Y61.465 E28.9381
G1 X171.022 Y61.106 E28.9807
G1 X170.512 Y60.733 E29.0141
G1 X153.658 Y77.587 E30.2726
G1 X153.671 Y78.497 E30.3207
G1 X153.862 Y81.925 E30.5020
G1 X153.864 Y81.982 E30.5050
G1 X153.961 Y85.090 E30.6692
G1 X153.962 Y85.206 E30.6753
G1 X153.933 Y86.838 E30.7615
G1 X153.929 Y86.944 E30.7671
G1 X153.825 Y88.592 E30.8543
G1 X153.810 Y88.744 E30.8624
G1 X153.402 Y91.932 E31.0321
G1 X153.370 Y92.118 E31.0420
G1 X152.708 Y95.266 E31.2119
G1 X152.668 Y95.428 E31.2207
G1 X151.796 Y98.484 E31.3886
G1 X151.755 Y98.613 E31.3957
G1 X150.722 Y101.578 E31.5615
G1 X150.684 Y101.678 E31.5671
G1 X149.530 Y104.562 E31.7311
G1 X149.498 Y104.639 E31.7356
G1 X148.252 Y107.459 E31.8983
G1 X148.221 Y107.526 E31.9023
G1 X146.420 Y111.279 E32.1220
G1 X146.394 Y111.332 E32.1252
G1 X144.517 Y115.003 E32.3429
G1 X144.509 Y115.019 E32.3438
G1 X139.944 Y123.790 E32.8659
G1 X138.472 Y126.816 E33.0436
G1 X137.047 Y129.875 E33.2218
G1 X135.694 Y132.957 E33.3995
G1 X134.396 Y136.077 E33.5780
G1 X129.864 Y147.518 E34.2278
G1 X129.843 Y147.568 E34.2306
G1 X126.797 Y154.770 E34.6436
G1 X126.764 Y154.845 E34.6479
G1 X125.418 Y157.742 E34.8166
G1 X125.379 Y157.823 E34.8213
G1 X124.671 Y159.207 E34.9034
G1 X124.631 Y159.282 E34.9079
G1 X123.920 Y160.556 E34.9849
G1 X123.870 Y160.642 E34.9902
G1 X123.195 Y161.739 E35.0582
G1 X123.122 Y161.850 E35.0652
G1 X119.916 Y166.465 E35.3619
G1 X112.502 Y162.488 E35.8062
G1 X113.561 Y159.816 E35.9580
G1 X106.725 Y159.816 E36.3189
G1 X103.960 Y157.051 E36.5254
G1 X103.960 Y148.701 E36.9663
G1 X106.725 Y145.936 E37.1728
G1 X109.333 Y145.936 E37.3105
G1 X111.217 Y143.747 E37.4630
G1 X114.146 Y140.188 E37.7064
G1 X116.997 Y136.558 E37.9501
G1 X119.773 Y132.851 E38.1946
G1 X121.109 Y131.002 E38.3151
G1 X123.761 Y127.194 E38.5601
G1 X125.031 Y125.298 E38.6806
G1 X126.776 Y122.605 E38.8501
G1 X128.464 Y119.890 E39.0189
G1 X130.092 Y117.150 E39.1872
G1 X131.658 Y114.383 E39.3551
G1 X133.156 Y111.594 E39.5222
G1 X134.574 Y108.785 E39.6884
G1 X135.901 Y105.955 E39.8534
G1 X137.125 Y103.106 E40.0172
G1 X138.376 Y99.799 E40.2039
G1 X139.408 Y96.481 E40.3873
G1 X139.859 Y94.633 E40.4878
G1 X140.189 Y92.810 E40.5856
G1 X140.365 Y91.081 E40.6774
G1 X140.360 Y89.400 E40.7662
G1 X140.292 Y88.757 E40.8003
G1 X140.172 Y88.127 E40.8342
G1 X140.011 Y87.584 E40.8641
G1 X139.812 Y87.117 E40.8909
G1 X139.588 Y86.731 E40.9144
G1 X139.341 Y86.414 E40.9356
G1 X139.307 Y86.382 E40.9381
G1 X138.817 Y86.379 E40.9640
G1 X138.314 Y86.415 E40.9906
G1 X136.941 Y86.648 E41.0642
G1 X135.520 Y87.038 E41.1420
G1 X134.349 Y87.447 E41.2075
G1 X133.171 Y87.921 E41.2745
G1 X130.660 Y89.103 E41.4211
G1 X128.179 Y90.447 E41.5700
G1 X125.703 Y91.925 E41.7223
G1 X123.387 Y93.410 E41.8676
G1 X121.085 Y94.966 E42.0143
G1 X118.817 Y96.571 E42.1610
G1 X114.667 Y99.666 E42.4344
G1 X110.959 Y102.576 E42.6833
G1 X107.299 Y105.561 E42.9327
G1 X101.870 Y110.185 E43.3092
G1 X97.132 Y114.392 E43.6438
G1 X92.456 Y118.692 E43.9792
G1 X90.167 Y120.854 E44.1455
G1 X85.873 Y125.012 E44.4611
G1 X83.908 Y126.962 E44.6073
G1 X79.985 Y130.945 E44.9025
G1 X76.103 Y134.991 E45.1986
G1 X65.608 Y146.065 E46.0042
G1 X65.592 Y146.082 E46.0054
G1 X62.038 Y149.759 E46.2755
G1 X62.017 Y149.780 E46.2770
G1 X54.836 Y157.030 E46.8158
G1 X54.817 Y157.049 E46.8173
G1 X49.365 Y162.425 E47.2216
G1 X49.351 Y162.438 E47.2226
G1 X43.853 Y167.772 E47.6271
G1 X43.830 Y167.794 E47.6288
G1 X42.453 Y169.094 E47.7288
G1 X42.312 Y169.307 E47.7422
G1 X41.277 Y170.676 E47.8329
G1 X41.031 Y170.954 E47.8525
G1 X39.525 Y172.405 E47.9629
G1 X39.217 Y172.655 E47.9839
G1 X37.569 Y173.779 E48.0892
G1 X37.233 Y173.970 E48.1096
G1 X35.375 Y174.833 E48.2178
G1 X35.005 Y174.968 E48.2386
G1 X33.055 Y175.504 E48.3453
G1 X32.673 Y175.576 E48.3659
G1 X30.664 Y175.783 E48.4725
G1 X30.276 Y175.791 E48.4930
G1 X28.291 Y175.670 E48.5980
G1 X27.910 Y175.615 E48.6184
G1 X25.913 Y175.159 E48.7265
G1 X25.537 Y175.039 E48.7473
G1 X23.667 Y174.268 E48.8541
G1 X23.321 Y174.090 E48.8747
G1 X21.603 Y173.022 E48.9815
G1 X21.286 Y172.785 E49.0024
G1 X19.752 Y171.429 E49.1105
G1 X19.487 Y171.153 E49.1307
G1 X18.229 Y169.613 E49.2357
G1 X18.009 Y169.292 E49.2563
G1 X17.006 Y167.539 E49.3629
G1 X16.841 Y167.186 E49.3835
G1 X16.139 Y165.292 E49.4901
G1 X16.034 Y164.917 E49.5107
G1 X15.653 Y162.934 E49.6173
G1 X15.611 Y162.547 E49.6379
G1 X15.560 Y160.526 E49.7447
G1 X15.583 Y160.132 E49.7655
G1 X15.873 Y158.104 E49.8736
G1 X15.958 Y157.728 E49.8940
G1 X16.548 Y155.856 E49.9977
G1 X16.671 Y155.545 E50.0153
G1 X17.544 Y153.724 E50.1219
G1 X18.590 Y152.633 E50.2018
G1 X20.473 Y151.633 E50.3144
G1 X21.031 Y151.421 E50.3459
G1 X22.643 Y151.034 E50.4334
G1 X22.653 Y151.035 E50.4339
G1 X23.356 Y149.756 E50.5110
G1 X23.676 Y149.307 E50.5401
G1 X24.442 Y148.462 E50.6003
G1 X24.601 Y148.302 E50.6122
G1 X25.433 Y147.543 E50.6717
G1 X25.602 Y147.403 E50.6833
G1 X27.257 Y146.153 E50.7928
G1 X26.926 Y146.236 E50.8108
G1 X26.542 Y146.300 E50.8313
G1 X24.896 Y146.434 E50.9186
G1 X24.508 Y146.434 E50.9391
G1 X22.861 Y146.297 E51.0263
G1 X22.479 Y146.233 E51.0468
G1 X20.877 Y145.828 E51.1340
G1 X20.509 Y145.703 E51.1545
G1 X18.995 Y145.042 E51.2418
G1 X18.653 Y144.858 E51.2623
G1 X17.268 Y143.958 E51.3495
G1 X16.961 Y143.720 E51.3700
G1 X15.741 Y142.606 E51.4572
G1 X15.477 Y142.321 E51.4777
G1 X14.456 Y141.022 E51.5650
G1 X14.242 Y140.698 E51.5855
G1 X13.448 Y139.250 E51.6727
G1 X13.290 Y138.895 E51.6932
G1 X12.743 Y137.336 E51.7804
G1 X12.645 Y136.961 E51.8009
G1 X12.360 Y135.333 E51.8882
G1 X12.325 Y134.947 E51.9087
G1 X12.311 Y133.295 E51.9959
G1 X12.339 Y132.908 E52.0164
G1 X12.596 Y131.275 E52.1037
G1 X12.687 Y130.898 E52.1242
G1 X13.207 Y129.330 E52.2114
G1 X13.359 Y128.973 E52.2319
G1 X14.129 Y127.511 E52.3191
G1 X14.337 Y127.183 E52.3396
G1 X15.335 Y125.867 E52.4269
G1 X15.594 Y125.578 E52.4474
G1 X16.795 Y124.442 E52.5346
G1 X17.097 Y124.200 E52.5551
G1 X18.467 Y123.276 E52.6423
G1 X18.806 Y123.086 E52.6628
G1 X20.308 Y122.399 E52.7501
G1 X20.673 Y122.267 E52.7706
G1 X22.267 Y121.835 E52.8578
G1 X22.647 Y121.765 E52.8781
G1 X24.133 Y121.614 E52.9570
G1 X24.240 Y121.606 E52.9627
G1 X25.098 Y121.558 E53.0081
G1 X25.747 Y121.478 E53.0426
G1 X26.286 Y121.378 E53.0716
G1 X27.003 Y121.205 E53.1105
G1 X28.206 Y120.833 E53.1770
G1 X29.114 Y120.490 E53.2282
G1 X32.420 Y119.082 E53.4180
