; G-Code generated by Simplify3D(R) Version 4.1.1
; Apr 28, 2021 at 7:09:23 PM
; Settings Summary
;   processName,Trideo BOX
;   applyToModels,connector bicep fingers,connector w screw
;   profileName,Trideo BOX
;   profileVersion,2021-04-15 09:48:16
;   baseProfile,Default
;   printMaterial,PLA
;   printQuality,Fast
;   printExtruders,
;   extruderName,Primary Extruder
;   extruderToolheadNumber,0
;   extruderDiameter,0.4
;   extruderAutoWidth,1
;   extruderWidth,0.48
;   extrusionMultiplier,0.98
;   extruderUseRetract,1
;   extruderRetractionDistance,0.7
;   extruderExtraRestartDistance,0
;   extruderRetractionZLift,0
;   extruderRetractionSpeed,1500
;   extruderUseCoasting,0
;   extruderCoastingDistance,0.2
;   extruderUseWipe,0
;   extruderWipeDistance,5
;   primaryExtruder,0
;   layerHeight,0.3
;   topSolidLayers,3
;   bottomSolidLayers,3
;   perimeterOutlines,2
;   printPerimetersInsideOut,1
;   startPointOption,2
;   startPointOriginX,0
;   startPointOriginY,0
;   sequentialIslands,0
;   spiralVaseMode,0
;   firstLayerHeightPercentage,90
;   firstLayerWidthPercentage,100
;   firstLayerUnderspeed,0.5
;   useRaft,0
;   raftExtruder,0
;   raftTopLayers,3
;   raftBaseLayers,2
;   raftOffset,3
;   raftSeparationDistance,0.14
;   raftTopInfill,100
;   aboveRaftSpeedMultiplier,0.3
;   useSkirt,1
;   skirtExtruder,0
;   skirtLayers,1
;   skirtOutlines,2
;   skirtOffset,4
;   usePrimePillar,0
;   primePillarExtruder,999
;   primePillarWidth,12
;   primePillarLocation,7
;   primePillarSpeedMultiplier,1
;   useOozeShield,0
;   oozeShieldExtruder,999
;   oozeShieldOffset,2
;   oozeShieldOutlines,1
;   oozeShieldSidewallShape,1
;   oozeShieldSidewallAngle,30
;   oozeShieldSpeedMultiplier,1
;   infillExtruder,0
;   internalInfillPattern,Rectilinear
;   externalInfillPattern,Rectilinear
;   infillPercentage,15
;   outlineOverlapPercentage,15
;   infillExtrusionWidthPercentage,100
;   minInfillLength,5
;   infillLayerInterval,1
;   internalInfillAngles,45,-45
;   overlapInternalInfillAngles,0
;   externalInfillAngles,45,-45
;   generateSupport,1
;   supportExtruder,0
;   supportInfillPercentage,25
;   supportExtraInflation,0
;   supportBaseLayers,0
;   denseSupportExtruder,0
;   denseSupportLayers,0
;   denseSupportInfillPercentage,70
;   supportLayerInterval,1
;   supportHorizontalPartOffset,0.3
;   supportUpperSeparationLayers,1
;   supportLowerSeparationLayers,1
;   supportType,0
;   supportGridSpacing,4
;   maxOverhangAngle,45
;   supportAngles,0
;   temperatureName,Primary Extruder,Heated bed
;   temperatureNumber,0,0
;   temperatureSetpointCount,1,1
;   temperatureSetpointLayers,1,1
;   temperatureSetpointTemperatures,190,60
;   temperatureStabilizeAtStartup,1,1
;   temperatureHeatedBed,0,1
;   fanLayers,1,2
;   fanSpeeds,0,100
;   blipFanToFullPower,0
;   adjustSpeedForCooling,1
;   minSpeedLayerTime,15
;   minCoolingSpeedSlowdown,20
;   increaseFanForCooling,0
;   minFanLayerTime,45
;   maxCoolingFanSpeed,100
;   increaseFanForBridging,0
;   bridgingFanSpeed,100
;   use5D,1
;   relativeEdistances,0
;   allowEaxisZeroing,1
;   independentExtruderAxes,0
;   includeM10123,0
;   stickySupport,1
;   applyToolheadOffsets,0
;   gcodeXoffset,0
;   gcodeYoffset,0
;   gcodeZoffset,0
;   overrideMachineDefinition,1
;   machineTypeOverride,0
;   strokeXoverride,200
;   strokeYoverride,200
;   strokeZoverride,200
;   originOffsetXoverride,0
;   originOffsetYoverride,0
;   originOffsetZoverride,0
;   homeXdirOverride,-1
;   homeYdirOverride,-1
;   homeZdirOverride,-1
;   flipXoverride,1
;   flipYoverride,-1
;   flipZoverride,1
;   toolheadOffsets,0,0|0,0|0,0|0,0|0,0|0,0
;   overrideFirmwareConfiguration,0
;   firmwareTypeOverride,RepRap (Marlin/Repetier/Sprinter)
;   GPXconfigOverride,r2
;   baudRateOverride,115200
;   overridePrinterModels,0
;   printerModelsOverride
;   startingGcode,G28 X0 Y0; home XY,G1 X20 Y20,G28 Z0,G1 Z5 F5000; Lift NZ
;   layerChangeGcode,
;   retractionGcode,
;   toolChangeGcode,
;   endingGcode,M104 S0 ; turn off extruder,G28 X0 ; home x,M140 S0 ; turn off bed,M84 ; disable motors,M107 ;
;   exportFileFormat,gcode
;   celebration,0
;   celebrationSong,Looney Toons
;   postProcessing,
;   defaultSpeed,3600
;   outlineUnderspeed,0.5
;   solidInfillUnderspeed,0.8
;   supportUnderspeed,0.8
;   rapidXYspeed,4800
;   rapidZspeed,1002
;   minBridgingArea,50
;   bridgingExtraInflation,0
;   bridgingExtrusionMultiplier,1
;   bridgingSpeedMultiplier,1
;   useFixedBridgingAngle,0
;   fixedBridgingAngle,0
;   applyBridgingToPerimeters,0
;   filamentDiameters,1.75|1.75|1.75|1.75|1.75|1.75
;   filamentPricesPerKg,46|46|46|46|46|46
;   filamentDensities,1.25|1.25|1.25|1.25|1.25|1.25
;   useMinPrintHeight,0
;   minPrintHeight,0
;   useMaxPrintHeight,0
;   maxPrintHeight,0
;   useDiaphragm,0
;   diaphragmLayerInterval,20
;   robustSlicing,1
;   mergeAllIntoSolid,0
;   onlyRetractWhenCrossingOutline,1
;   retractBetweenLayers,1
;   useRetractionMinTravel,0
;   retractionMinTravel,3
;   retractWhileWiping,0
;   onlyWipeOutlines,1
;   avoidCrossingOutline,0
;   maxMovementDetourFactor,3
;   toolChangeRetractionDistance,12
;   toolChangeExtraRestartDistance,-0.5
;   toolChangeRetractionSpeed,600
;   externalThinWallType,0
;   internalThinWallType,2
;   thinWallAllowedOverlapPercentage,10
;   singleExtrusionMinLength,1
;   singleExtrusionMinPrintingWidthPercentage,50
;   singleExtrusionMaxPrintingWidthPercentage,200
;   singleExtrusionEndpointExtension,0.2
;   horizontalSizeCompensation,0
G90
M82
M106 S0
M140 S60
M190 S60
M104 S190 T0
M109 S190 T0
G28 X0 Y0; home XY
G1 X20 Y20
G28 Z0
G1 Z5 F5000; Lift NZ
; process Trideo BOX
; layer 1, Z = 0.270
T0
G92 E0.0000
G1 E-0.7000 F1500
; feature skirt
; tool H0.270 W0.480
G1 Z0.270 F1002
G1 X76.097 Y14.899 F4800
G1 E0.0000 F1500
G92 E0.0000
G1 X78.432 Y13.641 E0.1400 F1800
G1 X79.568 Y13.355 E0.2019
G1 X95.545 Y13.355 E1.0456
G1 X98.369 Y16.626 E1.2738
G1 X98.099 Y18.458 E1.3715
G1 X98.099 Y31.557 E2.0632
G1 X96.766 Y33.792 E2.2006
G1 X94.483 Y35.025 E2.3377
G1 X93.850 Y35.237 E2.3729
G1 X93.850 Y53.562 E3.3405
G1 X94.161 Y53.863 E3.3634
G1 X96.244 Y55.728 E3.5110
G1 X96.286 Y55.766 E3.5140
G1 X98.155 Y57.521 E3.6494
G1 X98.238 Y57.603 E3.6555
G1 X99.181 Y58.581 E3.7273
G1 X99.253 Y58.659 E3.7329
G1 X100.164 Y59.692 E3.8056
G1 X100.261 Y59.810 E3.8136
G1 X101.891 Y61.920 E3.9545
G1 X102.001 Y62.073 E3.9644
G1 X103.460 Y64.309 E4.1054
G1 X103.546 Y64.452 E4.1142
G1 X104.825 Y66.754 E4.2532
G1 X104.887 Y66.873 E4.2604
G1 X106.016 Y69.209 E4.3974
G1 X106.060 Y69.307 E4.4030
G1 X107.069 Y71.661 E4.5383
G1 X107.101 Y71.739 E4.5427
G1 X108.017 Y74.107 E4.6768
G1 X108.043 Y74.176 E4.6807
G1 X109.177 Y77.402 E4.8612
G1 X109.195 Y77.458 E4.8644
G1 X110.237 Y80.678 E5.0431
G1 X110.243 Y80.698 E5.0442
G1 X112.665 Y88.415 E5.4712
G1 X113.545 Y91.000 E5.6154
G1 X114.481 Y93.567 E5.7597
G1 X115.474 Y96.116 E5.9041
G1 X116.527 Y98.668 E6.0499
G1 X120.859 Y108.820 E6.6328
G1 X120.878 Y108.866 E6.6354
G1 X122.902 Y113.898 E6.9218
G1 X122.920 Y113.946 E6.9245
G1 X123.414 Y115.254 E6.9983
G1 X123.441 Y115.330 E7.0026
G1 X124.247 Y117.713 E7.1354
G1 X124.282 Y117.826 E7.1416
G1 X124.617 Y119.006 E7.2064
G1 X124.642 Y119.103 E7.2117
G1 X124.894 Y120.162 E7.2692
G1 X124.919 Y120.277 E7.2754
G1 X125.120 Y121.360 E7.3336
G1 X125.142 Y121.505 E7.3413
G1 X125.748 Y126.460 E7.6049
G1 X117.088 Y128.123 E8.0705
G1 X115.981 Y123.925 E8.2997
G1 X115.969 Y123.905 E8.3010
G1 X115.937 Y123.868 E8.3036
G1 X115.892 Y123.830 E8.3066
G1 X115.838 Y123.796 E8.3100
G1 X115.787 Y123.775 E8.3129
G1 X115.738 Y123.764 E8.3156
G1 X115.679 Y123.759 E8.3187
G1 X115.619 Y123.764 E8.3219
G1 X115.568 Y123.776 E8.3247
G1 X115.517 Y123.797 E8.3276
G1 X115.466 Y123.829 E8.3308
G1 X115.457 Y123.836 E8.3313
G1 X115.030 Y124.356 E8.3669
G1 X114.765 Y124.630 E8.3870
G1 X113.874 Y125.414 E8.4497
G1 X112.431 Y126.013 E8.5322
G1 X110.887 Y126.115 E8.6139
G1 X109.614 Y125.846 E8.6826
G1 X108.438 Y125.230 E8.7527
G1 X107.580 Y124.471 E8.8132
G1 X106.758 Y123.283 E8.8895
G1 X106.370 Y122.335 E8.9435
G1 X106.148 Y121.064 E9.0117
G1 X106.119 Y120.835 E9.0239
G1 X105.825 Y116.920 E9.2312
G1 X105.657 Y115.078 E9.3289
G1 X105.248 Y111.319 E9.5285
G1 X105.017 Y109.483 E9.6262
G1 X104.479 Y105.736 E9.8261
G1 X104.184 Y103.908 E9.9239
G1 X103.522 Y100.208 E10.1224
G1 X102.611 Y95.802 E10.3599
G1 X102.023 Y93.287 E10.4963
G1 X101.385 Y90.777 E10.6331
G1 X100.695 Y88.289 E10.7694
G1 X99.954 Y85.829 E10.9051
G1 X99.157 Y83.406 E11.0397
G1 X98.297 Y81.027 E11.1733
G1 X97.369 Y78.703 E11.3055
G1 X96.199 Y76.108 E11.4558
G1 X94.902 Y73.641 E11.6030
G1 X94.122 Y72.357 E11.6823
G1 X93.294 Y71.162 E11.7591
G1 X92.447 Y70.123 E11.8299
G1 X91.537 Y69.218 E11.8976
G1 X91.190 Y68.937 E11.9212
G1 X90.823 Y68.688 E11.9446
G1 X90.500 Y68.513 E11.9640
G1 X90.213 Y68.397 E11.9803
G1 X90.094 Y68.366 E11.9868
G1 X89.925 Y68.562 E12.0005
G1 X89.316 Y69.419 E12.0560
G1 X88.757 Y70.402 E12.1157
G1 X88.338 Y71.270 E12.1666
G1 X87.949 Y72.183 E12.2190
G1 X87.198 Y74.272 E12.3362
G1 X86.552 Y76.442 E12.4558
G1 X85.983 Y78.698 E12.5786
G1 X85.507 Y80.873 E12.6962
G1 X85.080 Y83.084 E12.8151
G1 X84.700 Y85.304 E12.9341
G1 X84.093 Y89.475 E13.1566
G1 X83.633 Y93.284 E13.3592
G1 X83.245 Y97.111 E13.5623
G1 X82.780 Y102.909 E13.8694
G1 X82.474 Y108.067 E14.1423
G1 X82.257 Y113.244 E14.4159
G1 X82.183 Y115.810 E14.5515
G1 X82.105 Y120.679 E14.8086
G1 X82.105 Y125.227 E15.0487
G1 X82.173 Y129.785 E15.2895
G1 X82.514 Y142.478 E15.9599
G1 X82.514 Y142.497 E15.9609
G1 X82.633 Y148.763 E16.2918
G1 X82.633 Y148.787 E16.2931
G1 X82.669 Y152.973 E16.5142
G1 X82.669 Y152.995 E16.5153
G1 X82.664 Y159.263 E16.8463
G1 X82.664 Y159.288 E16.8476
G1 X82.570 Y167.642 E17.2888
G1 X82.570 Y167.669 E17.2902
G1 X82.485 Y171.370 E17.4857
G1 X82.491 Y171.399 E17.4873
G1 X82.685 Y172.805 E17.5622
G1 X82.707 Y173.171 E17.5815
G1 X82.675 Y174.965 E17.6763
G1 X82.633 Y175.364 E17.6975
G1 X82.310 Y177.063 E17.7888
G1 X82.207 Y177.438 E17.8093
G1 X81.611 Y179.055 E17.9003
G1 X81.447 Y179.408 E17.9209
G1 X80.595 Y180.905 E18.0118
G1 X80.375 Y181.226 E18.0324
G1 X80.157 Y181.495 E18.0507
G1 X80.157 Y182.175 E18.0866
G1 X77.392 Y184.940 E18.2931
G1 X76.259 Y184.940 E18.3529
G1 X75.963 Y185.126 E18.3713
G1 X75.611 Y185.308 E18.3923
G1 X74.017 Y185.970 E18.4834
G1 X73.647 Y186.090 E18.5040
G1 X71.969 Y186.481 E18.5949
G1 X71.584 Y186.537 E18.6155
G1 X69.864 Y186.648 E18.7065
G1 X69.475 Y186.641 E18.7270
G1 X67.757 Y186.467 E18.8182
G1 X67.367 Y186.394 E18.8392
G1 X65.679 Y185.929 E18.9316
G1 X65.319 Y185.798 E18.9518
G1 X63.783 Y185.092 E19.0411
G1 X63.444 Y184.901 E19.0616
G1 X62.018 Y183.935 E19.1526
G1 X61.715 Y183.691 E19.1732
G1 X60.464 Y182.502 E19.2643
G1 X60.201 Y182.207 E19.2852
G1 X59.150 Y180.805 E19.3777
G1 X58.945 Y180.479 E19.3980
G1 X58.173 Y178.997 E19.4862
G1 X58.036 Y178.680 E19.5045
G1 X57.394 Y176.828 E19.6080
G1 X57.375 Y175.298 E19.6888
G1 X58.008 Y173.317 E19.7986
G1 X58.199 Y172.877 E19.8239
G1 X58.277 Y172.740 E19.8322
G1 X58.277 Y168.396 E20.0616
G1 X58.401 Y168.333 E20.0690
G1 X60.663 Y151.927 E20.9435
G1 X63.483 Y130.109 E22.1052
G1 X63.484 Y130.101 E22.1056
G1 X64.858 Y119.738 E22.6576
G1 X64.862 Y119.707 E22.6592
G1 X66.344 Y109.539 E23.2018
G1 X66.349 Y109.506 E23.2036
G1 X67.165 Y104.418 E23.4757
G1 X67.169 Y104.392 E23.4771
G1 X68.041 Y99.314 E23.7491
G1 X68.046 Y99.287 E23.7506
G1 X68.979 Y94.217 E24.0227
G1 X68.984 Y94.187 E24.0243
G1 X69.983 Y89.128 E24.2966
G1 X69.989 Y89.097 E24.2984
G1 X71.058 Y84.050 E24.5707
G1 X71.065 Y84.016 E24.5726
G1 X72.207 Y78.987 E24.8449
G1 X72.214 Y78.959 E24.8464
G1 X72.903 Y76.089 E25.0022
G1 X72.910 Y76.057 E25.0040
G1 X74.363 Y70.357 E25.3146
G1 X74.375 Y70.313 E25.3170
G1 X75.941 Y64.633 E25.6281
G1 X75.955 Y64.586 E25.6307
G1 X77.642 Y58.937 E25.9420
G1 X77.657 Y58.887 E25.9448
G1 X79.010 Y54.693 E26.1775
G1 X79.010 Y35.395 E27.1965
G1 X77.571 Y35.395 E27.2725
G1 X74.825 Y32.734 E27.4744
G1 X74.720 Y29.389 E27.6511
G1 X74.761 Y29.318 E27.6555
G1 X74.761 Y17.135 E28.2988
G1 X76.097 Y14.899 E28.4363
G92 E0.0000
G1 E-0.7000 F1500
G1 X76.441 Y15.258 F4800
G1 E0.0000 F1500
G92 E0.0000
G1 X78.607 Y14.092 E0.1299 F1800
G1 X79.627 Y13.835 E0.1855
G1 X95.326 Y13.835 E1.0144
G1 X97.862 Y16.773 E1.2194
G1 X97.619 Y18.423 E1.3074
G1 X97.619 Y31.425 E1.9940
G1 X96.422 Y33.432 E2.1174
G1 X94.291 Y34.583 E2.2453
G1 X93.599 Y34.815 E2.2838
G1 X93.370 Y34.850 E2.2960
G1 X93.370 Y53.765 E3.2948
G1 X93.833 Y54.214 E3.3289
G1 X95.922 Y56.083 E3.4769
G1 X95.960 Y56.118 E3.4796
G1 X97.822 Y57.867 E3.6145
G1 X97.896 Y57.941 E3.6200
G1 X98.831 Y58.910 E3.6912
G1 X98.896 Y58.980 E3.6962
G1 X99.799 Y60.004 E3.7683
G1 X99.885 Y60.109 E3.7755
G1 X101.506 Y62.206 E3.9154
G1 X101.604 Y62.344 E3.9243
G1 X103.053 Y64.565 E4.0644
G1 X103.130 Y64.693 E4.0723
G1 X104.402 Y66.981 E4.2105
G1 X104.458 Y67.088 E4.2169
G1 X105.581 Y69.413 E4.3532
G1 X105.621 Y69.501 E4.3583
G1 X106.626 Y71.847 E4.4931
G1 X106.655 Y71.916 E4.4970
G1 X107.568 Y74.276 E4.6307
G1 X107.591 Y74.339 E4.6342
G1 X108.723 Y77.559 E4.8144
G1 X108.740 Y77.609 E4.8172
G1 X109.780 Y80.825 E4.9957
G1 X109.786 Y80.843 E4.9967
G1 X112.209 Y88.564 E5.4240
G1 X113.092 Y91.160 E5.5688
G1 X114.032 Y93.737 E5.7136
G1 X115.029 Y96.295 E5.8586
G1 X116.084 Y98.853 E6.0047
G1 X120.417 Y109.006 E6.5876
G1 X120.434 Y109.047 E6.5899
G1 X122.455 Y114.075 E6.8761
G1 X122.472 Y114.118 E6.8785
G1 X122.963 Y115.419 E6.9520
G1 X122.987 Y115.488 E6.9558
G1 X123.790 Y117.861 E7.0881
G1 X123.822 Y117.962 E7.0937
G1 X124.153 Y119.132 E7.1579
G1 X124.176 Y119.219 E7.1627
G1 X124.426 Y120.267 E7.2195
G1 X124.448 Y120.371 E7.2251
G1 X124.647 Y121.440 E7.2826
G1 X124.667 Y121.570 E7.2895
G1 X125.217 Y126.073 E7.5290
G1 X117.438 Y127.567 E7.9473
G1 X116.427 Y123.735 E8.1565
G1 X116.358 Y123.622 E8.1635
G1 X116.277 Y123.527 E8.1701
G1 X116.175 Y123.440 E8.1772
G1 X116.057 Y123.368 E8.1845
G1 X115.936 Y123.317 E8.1914
G1 X115.813 Y123.288 E8.1981
G1 X115.679 Y123.278 E8.2052
G1 X115.544 Y123.288 E8.2124
G1 X115.419 Y123.318 E8.2191
G1 X115.298 Y123.368 E8.2260
G1 X115.183 Y123.439 E8.2332
G1 X115.113 Y123.498 E8.2380
G1 X114.671 Y124.036 E8.2748
G1 X114.433 Y124.282 E8.2929
G1 X113.616 Y125.001 E8.3503
G1 X112.321 Y125.539 E8.4244
G1 X110.922 Y125.631 E8.4984
G1 X109.778 Y125.390 E8.5602
G1 X108.713 Y124.832 E8.6237
G1 X107.941 Y124.150 E8.6780
G1 X107.183 Y123.053 E8.7485
G1 X106.834 Y122.201 E8.7971
G1 X106.623 Y120.993 E8.8618
G1 X106.597 Y120.787 E8.8728
G1 X106.303 Y116.880 E9.0797
G1 X106.134 Y115.030 E9.1778
G1 X105.725 Y111.264 E9.3778
G1 X105.492 Y109.419 E9.4760
G1 X104.954 Y105.664 E9.6763
G1 X104.658 Y103.827 E9.7745
G1 X103.994 Y100.117 E9.9736
G1 X103.079 Y95.699 E10.2118
G1 X102.490 Y93.173 E10.3488
G1 X101.848 Y90.654 E10.4861
G1 X101.156 Y88.156 E10.6229
G1 X100.412 Y85.685 E10.7592
G1 X99.611 Y83.250 E10.8946
G1 X98.746 Y80.857 E11.0289
G1 X97.811 Y78.515 E11.1620
G1 X96.631 Y75.898 E11.3137
G1 X95.320 Y73.404 E11.4624
G1 X94.524 Y72.095 E11.5433
G1 X93.678 Y70.873 E11.6218
G1 X92.803 Y69.800 E11.6949
G1 X91.858 Y68.860 E11.7653
G1 X91.476 Y68.551 E11.7912
G1 X91.073 Y68.278 E11.8169
G1 X90.705 Y68.078 E11.8391
G1 X90.365 Y67.941 E11.8584
G1 X90.064 Y67.861 E11.8748
G1 X89.930 Y67.845 E11.8819
G1 X89.793 Y67.980 E11.8921
G1 X89.547 Y68.265 E11.9120
G1 X88.911 Y69.161 E11.9700
G1 X88.332 Y70.178 E12.0318
G1 X87.901 Y71.071 E12.0842
G1 X87.502 Y72.007 E12.1379
G1 X86.741 Y74.122 E12.2566
G1 X86.089 Y76.315 E12.3774
G1 X85.515 Y78.588 E12.5012
G1 X85.037 Y80.776 E12.6194
G1 X84.608 Y82.998 E12.7390
G1 X84.225 Y85.229 E12.8585
G1 X83.617 Y89.411 E13.0816
G1 X83.156 Y93.231 E13.2848
G1 X82.767 Y97.068 E13.4884
G1 X82.301 Y102.875 E13.7961
G1 X81.994 Y108.042 E14.0694
G1 X81.777 Y113.227 E14.3434
G1 X81.704 Y115.800 E14.4793
G1 X81.625 Y120.675 E14.7368
G1 X81.625 Y125.230 E14.9773
G1 X81.693 Y129.795 E15.2184
G1 X82.034 Y142.490 E15.8890
G1 X82.034 Y142.507 E15.8898
G1 X82.153 Y148.770 E16.2206
G1 X82.153 Y148.793 E16.2218
G1 X82.189 Y152.976 E16.4427
G1 X82.189 Y152.996 E16.4438
G1 X82.184 Y159.261 E16.7746
