; G-Code generated by Simplify3D(R) Version 4.1.1
; Apr 27, 2021 at 7:27:56 PM
; Settings Summary
;   processName,Trideo BOX
;   applyToModels,Right Thumb
;   profileName,Trideo BOX
;   profileVersion,2021-04-15 09:48:16
;   baseProfile,Default
;   printMaterial,PLA
;   printQuality,Fast
;   printExtruders,
;   extruderName,Primary Extruder
;   extruderToolheadNumber,0
;   extruderDiameter,0.4
;   extruderAutoWidth,1
;   extruderWidth,0.48
;   extrusionMultiplier,0.98
;   extruderUseRetract,1
;   extruderRetractionDistance,0.7
;   extruderExtraRestartDistance,0
;   extruderRetractionZLift,0
;   extruderRetractionSpeed,1500
;   extruderUseCoasting,0
;   extruderCoastingDistance,0.2
;   extruderUseWipe,0
;   extruderWipeDistance,5
;   primaryExtruder,0
;   layerHeight,0.3
;   topSolidLayers,3
;   bottomSolidLayers,3
;   perimeterOutlines,2
;   printPerimetersInsideOut,1
;   startPointOption,2
;   startPointOriginX,0
;   startPointOriginY,0
;   sequentialIslands,0
;   spiralVaseMode,0
;   firstLayerHeightPercentage,90
;   firstLayerWidthPercentage,100
;   firstLayerUnderspeed,0.5
;   useRaft,0
;   raftExtruder,0
;   raftTopLayers,3
;   raftBaseLayers,2
;   raftOffset,3
;   raftSeparationDistance,0.14
;   raftTopInfill,100
;   aboveRaftSpeedMultiplier,0.3
;   useSkirt,1
;   skirtExtruder,0
;   skirtLayers,1
;   skirtOutlines,2
;   skirtOffset,4
;   usePrimePillar,0
;   primePillarExtruder,999
;   primePillarWidth,12
;   primePillarLocation,7
;   primePillarSpeedMultiplier,1
;   useOozeShield,0
;   oozeShieldExtruder,999
;   oozeShieldOffset,2
;   oozeShieldOutlines,1
;   oozeShieldSidewallShape,1
;   oozeShieldSidewallAngle,30
;   oozeShieldSpeedMultiplier,1
;   infillExtruder,0
;   internalInfillPattern,Rectilinear
;   externalInfillPattern,Rectilinear
;   infillPercentage,15
;   outlineOverlapPercentage,15
;   infillExtrusionWidthPercentage,100
;   minInfillLength,5
;   infillLayerInterval,1
;   internalInfillAngles,45,-45
;   overlapInternalInfillAngles,0
;   externalInfillAngles,45,-45
;   generateSupport,1
;   supportExtruder,0
;   supportInfillPercentage,25
;   supportExtraInflation,0
;   supportBaseLayers,0
;   denseSupportExtruder,0
;   denseSupportLayers,0
;   denseSupportInfillPercentage,70
;   supportLayerInterval,1
;   supportHorizontalPartOffset,0.3
;   supportUpperSeparationLayers,1
;   supportLowerSeparationLayers,1
;   supportType,0
;   supportGridSpacing,4
;   maxOverhangAngle,45
;   supportAngles,0
;   temperatureName,Primary Extruder,Heated bed
;   temperatureNumber,0,0
;   temperatureSetpointCount,1,1
;   temperatureSetpointLayers,1,1
;   temperatureSetpointTemperatures,190,60
;   temperatureStabilizeAtStartup,1,1
;   temperatureHeatedBed,0,1
;   fanLayers,1,2
;   fanSpeeds,0,100
;   blipFanToFullPower,0
;   adjustSpeedForCooling,1
;   minSpeedLayerTime,15
;   minCoolingSpeedSlowdown,20
;   increaseFanForCooling,0
;   minFanLayerTime,45
;   maxCoolingFanSpeed,100
;   increaseFanForBridging,0
;   bridgingFanSpeed,100
;   use5D,1
;   relativeEdistances,0
;   allowEaxisZeroing,1
;   independentExtruderAxes,0
;   includeM10123,0
;   stickySupport,1
;   applyToolheadOffsets,0
;   gcodeXoffset,0
;   gcodeYoffset,0
;   gcodeZoffset,0
;   overrideMachineDefinition,1
;   machineTypeOverride,0
;   strokeXoverride,200
;   strokeYoverride,200
;   strokeZoverride,200
;   originOffsetXoverride,0
;   originOffsetYoverride,0
;   originOffsetZoverride,0
;   homeXdirOverride,-1
;   homeYdirOverride,-1
;   homeZdirOverride,-1
;   flipXoverride,1
;   flipYoverride,-1
;   flipZoverride,1
;   toolheadOffsets,0,0|0,0|0,0|0,0|0,0|0,0
;   overrideFirmwareConfiguration,0
;   firmwareTypeOverride,RepRap (Marlin/Repetier/Sprinter)
;   GPXconfigOverride,r2
;   baudRateOverride,115200
;   overridePrinterModels,0
;   printerModelsOverride
;   startingGcode,G28 X0 Y0; home XY,G1 X20 Y20,G28 Z0,G1 Z5 F5000; Lift NZ
;   layerChangeGcode,
;   retractionGcode,
;   toolChangeGcode,
;   endingGcode,M104 S0 ; turn off extruder,G28 X0 ; home x,M140 S0 ; turn off bed,M84 ; disable motors,M107 ;
;   exportFileFormat,gcode
;   celebration,0
;   celebrationSong,Looney Toons
;   postProcessing,
;   defaultSpeed,3600
;   outlineUnderspeed,0.5
;   solidInfillUnderspeed,0.8
;   supportUnderspeed,0.8
;   rapidXYspeed,4800
;   rapidZspeed,1002
;   minBridgingArea,50
;   bridgingExtraInflation,0
;   bridgingExtrusionMultiplier,1
;   bridgingSpeedMultiplier,1
;   useFixedBridgingAngle,0
;   fixedBridgingAngle,0
;   applyBridgingToPerimeters,0
;   filamentDiameters,1.75|1.75|1.75|1.75|1.75|1.75
;   filamentPricesPerKg,46|46|46|46|46|46
;   filamentDensities,1.25|1.25|1.25|1.25|1.25|1.25
;   useMinPrintHeight,0
;   minPrintHeight,0
;   useMaxPrintHeight,0
;   maxPrintHeight,0
;   useDiaphragm,0
;   diaphragmLayerInterval,20
;   robustSlicing,1
;   mergeAllIntoSolid,0
;   onlyRetractWhenCrossingOutline,1
;   retractBetweenLayers,1
;   useRetractionMinTravel,0
;   retractionMinTravel,3
;   retractWhileWiping,0
;   onlyWipeOutlines,1
;   avoidCrossingOutline,0
;   maxMovementDetourFactor,3
;   toolChangeRetractionDistance,12
;   toolChangeExtraRestartDistance,-0.5
;   toolChangeRetractionSpeed,600
;   externalThinWallType,0
;   internalThinWallType,2
;   thinWallAllowedOverlapPercentage,10
;   singleExtrusionMinLength,1
;   singleExtrusionMinPrintingWidthPercentage,50
;   singleExtrusionMaxPrintingWidthPercentage,200
;   singleExtrusionEndpointExtension,0.2
;   horizontalSizeCompensation,0
G90
M82
M106 S0
M140 S60
M190 S60
M104 S190 T0
M109 S190 T0
G28 X0 Y0; home XY
G1 X20 Y20
G28 Z0
G1 Z5 F5000; Lift NZ
; process Trideo BOX
; layer 1, Z = 0.270
T0
G92 E0.0000
G1 E-0.7000 F1500
; feature skirt
; tool H0.270 W0.480
G1 Z0.270 F1002
G1 X79.825 Y79.060 F4800
G1 E0.0000 F1500
G92 E0.0000
G1 X96.175 Y79.060 E0.8634 F1800
G1 X98.940 Y81.825 E1.0698
G1 X98.940 Y82.837 E1.1233
G1 X101.248 Y81.637 E1.2606
G1 X103.825 Y79.060 E1.4530
G1 X120.175 Y79.060 E2.3164
G1 X122.940 Y81.825 E2.5229
G1 X122.940 Y83.060 E2.5881
G1 X132.175 Y83.060 E3.0757
G1 X134.940 Y85.825 E3.2822
G1 X134.940 Y94.175 E3.7231
G1 X132.175 Y96.940 E3.9296
G1 X122.940 Y96.940 E4.4172
G1 X122.940 Y98.175 E4.4825
G1 X120.175 Y100.940 E4.6889
G1 X111.825 Y100.940 E5.1299
G1 X110.021 Y99.136 E5.2645
G1 X110.021 Y106.357 E5.6458
G1 X106.712 Y109.183 E5.8756
G1 X102.697 Y108.548 E6.0903
G1 X102.343 Y108.463 E6.1095
G1 X101.626 Y108.233 E6.1493
G1 X101.316 Y108.108 E6.1669
G1 X101.108 Y108.007 E6.1791
G1 X100.175 Y108.940 E6.2488
G1 X86.940 Y108.940 E6.9477
G1 X86.940 Y110.175 E7.0129
G1 X84.175 Y112.940 E7.2193
G1 X78.940 Y112.940 E7.4958
G1 X78.940 Y114.175 E7.5610
G1 X76.175 Y116.940 E7.7675
G1 X70.940 Y116.940 E8.0439
G1 X70.940 Y118.175 E8.1091
G1 X68.175 Y120.940 E8.3156
G1 X55.825 Y120.940 E8.9677
G1 X53.060 Y118.175 E9.1742
G1 X53.060 Y105.825 E9.8263
G1 X55.825 Y103.060 E10.0328
G1 X57.060 Y103.060 E10.0980
G1 X57.060 Y101.825 E10.1632
G1 X59.825 Y99.060 E10.3697
G1 X61.060 Y99.060 E10.4349
G1 X61.060 Y97.825 E10.5001
G1 X63.825 Y95.060 E10.7066
G1 X65.060 Y95.060 E10.7718
G1 X65.060 Y93.825 E10.8371
G1 X67.825 Y91.060 E11.0435
G1 X69.060 Y91.060 E11.1087
G1 X69.060 Y89.825 E11.1740
G1 X71.825 Y87.060 E11.3804
G1 X73.060 Y87.060 E11.4457
G1 X73.060 Y85.825 E11.5109
G1 X75.825 Y83.060 E11.7173
G1 X77.060 Y83.060 E11.7826
G1 X77.060 Y81.825 E11.8478
G1 X79.825 Y79.060 E12.0542
G92 E0.0000
G1 E-0.7000 F1500
G1 X80.024 Y79.540 F4800
G1 E0.0000 F1500
G92 E0.0000
G1 X95.976 Y79.540 E0.8424 F1800
G1 X98.460 Y82.024 E1.0278
G1 X98.460 Y83.540 E1.1079
G1 X99.020 Y83.540 E1.1375
G1 X99.201 Y83.242 E1.1559
G1 X101.454 Y82.071 E1.2900
G1 X101.540 Y82.035 E1.2949
G1 X101.540 Y82.024 E1.2955
G1 X104.024 Y79.540 E1.4809
G1 X119.976 Y79.540 E2.3233
G1 X122.460 Y82.024 E2.5088
G1 X122.460 Y83.540 E2.5888
G1 X131.976 Y83.540 E3.0913
G1 X134.460 Y86.024 E3.2768
G1 X134.460 Y93.976 E3.6967
G1 X131.976 Y96.460 E3.8822
G1 X122.460 Y96.460 E4.3847
G1 X122.460 Y97.976 E4.4648
G1 X119.976 Y100.460 E4.6502
G1 X112.024 Y100.460 E5.0702
G1 X109.541 Y97.978 E5.2555
G1 X109.541 Y106.136 E5.6863
G1 X106.569 Y108.675 E5.8927
G1 X102.791 Y108.077 E6.0947
G1 X102.472 Y108.001 E6.1120
G1 X101.789 Y107.781 E6.1499
G1 X101.510 Y107.669 E6.1658
G1 X101.011 Y107.425 E6.1951
G1 X99.976 Y108.460 E6.2724
G1 X86.460 Y108.460 E6.9861
G1 X86.460 Y109.976 E7.0661
G1 X83.976 Y112.460 E7.2516
G1 X78.460 Y112.460 E7.5429
G1 X78.460 Y113.976 E7.6230
G1 X75.976 Y116.460 E7.8084
G1 X70.460 Y116.460 E8.0997
G1 X70.460 Y117.976 E8.1798
G1 X67.976 Y120.460 E8.3653
G1 X56.024 Y120.460 E8.9964
G1 X53.540 Y117.976 E9.1819
G1 X53.540 Y106.024 E9.8130
G1 X56.024 Y103.540 E9.9985
G1 X57.540 Y103.540 E10.0785
G1 X57.540 Y102.024 E10.1586
G1 X60.024 Y99.540 E10.3441
G1 X61.540 Y99.540 E10.4242
G1 X61.540 Y98.024 E10.5042
G1 X64.024 Y95.540 E10.6897
G1 X65.540 Y95.540 E10.7698
G1 X65.540 Y94.024 E10.8498
G1 X68.024 Y91.540 E11.0353
G1 X69.540 Y91.540 E11.1154
G1 X69.540 Y90.024 E11.1954
G1 X72.024 Y87.540 E11.3809
G1 X73.540 Y87.540 E11.4610
G1 X73.540 Y86.024 E11.5410
G1 X76.024 Y83.540 E11.7265
G1 X77.540 Y83.540 E11.8066
G1 X77.540 Y82.024 E11.8866
G1 X80.024 Y79.540 E12.0721
G92 E0.0000
G1 E-0.7000 F1500
G1 X121.060 Y101.825 F4800
G1 E0.0000 F1500
G92 E0.0000
G1 X123.825 Y99.060 E0.2065 F1800
G1 X132.175 Y99.060 E0.6474
G1 X134.940 Y101.825 E0.8539
G1 X134.940 Y110.175 E1.2948
G1 X132.175 Y112.940 E1.5013
G1 X123.825 Y112.940 E1.9422
G1 X121.060 Y110.175 E2.1487
G1 X121.060 Y101.825 E2.5896
G92 E0.0000
G1 E-0.7000 F1500
G1 X121.540 Y102.024 F4800
G1 E0.0000 F1500
G92 E0.0000
G1 X124.024 Y99.540 E0.1855 F1800
G1 X131.976 Y99.540 E0.6054
G1 X134.460 Y102.024 E0.7909
G1 X134.460 Y109.976 E1.2108
G1 X131.976 Y112.460 E1.3963
G1 X124.024 Y112.460 E1.8162
G1 X121.540 Y109.976 E2.0017
G1 X121.540 Y102.024 E2.4216
G92 E0.0000
G1 E-0.7000 F1500
; feature inner perimeter
G1 X104.581 Y103.338 F4800
G1 E0.0000 F1500
G92 E0.0000
G1 X103.783 Y103.212 E0.0427 F1350
G1 X103.500 Y103.121 E0.0584
G1 X102.929 Y102.843 E0.0919
G1 X102.929 Y86.902 E0.9336
G1 X103.478 Y86.629 E0.9660
G1 X103.566 Y86.570 E0.9716
G1 X103.772 Y86.504 E0.9830
G1 X104.581 Y86.376 E1.0263
G1 X104.581 Y103.338 E1.9219
; feature outer perimeter
G1 X105.061 Y103.900 F4800
G92 E0.0000
G1 X103.671 Y103.680 E0.0743 F900
G1 X103.321 Y103.567 E0.0938
G1 X102.449 Y103.143 E0.1449
G1 X102.449 Y86.605 E1.0182
G1 X103.237 Y86.213 E1.0647
G1 X103.356 Y86.133 E1.0722
G1 X103.660 Y86.036 E1.0891
G1 X105.061 Y85.814 E1.1640
G1 X105.061 Y103.900 E2.1190
; feature solid layer
G1 X103.337 Y101.980 F4800
G92 E0.0000
G1 X104.173 Y102.816 E0.0624 F1440
G1 X104.173 Y102.137 E0.0983
G1 X103.337 Y101.301 E0.1607
G1 X103.337 Y100.622 E0.1965
G1 X104.173 Y101.458 E0.2590
G1 X104.173 Y100.779 E0.2948
G1 X103.337 Y99.943 E0.3572
G1 X103.337 Y99.264 E0.3931
G1 X104.173 Y100.100 E0.4555
G1 X104.173 Y99.422 E0.4914
G1 X103.337 Y98.586 E0.5538
G1 X103.337 Y97.907 E0.5896
G1 X104.173 Y98.743 E0.6521
G1 X104.173 Y98.064 E0.6879
G1 X103.337 Y97.228 E0.7503
G1 X103.337 Y96.549 E0.7862
G1 X104.173 Y97.385 E0.8486
G1 X104.173 Y96.706 E0.8845
G1 X103.337 Y95.870 E0.9469
G1 X103.337 Y95.191 E0.9827
G1 X104.173 Y96.027 E1.0452
G1 X104.173 Y95.349 E1.0810
G1 X103.337 Y94.513 E1.1434
G1 X103.337 Y93.834 E1.1793
G1 X104.173 Y94.670 E1.2417
G1 X104.173 Y93.991 E1.2776
G1 X103.337 Y93.155 E1.3400
G1 X103.337 Y92.476 E1.3758
G1 X104.173 Y93.312 E1.4383
G1 X104.173 Y92.633 E1.4741
G1 X103.337 Y91.797 E1.5365
G1 X103.337 Y91.119 E1.5724
G1 X104.173 Y91.955 E1.6348
G1 X104.173 Y91.276 E1.6706
G1 X103.337 Y90.440 E1.7331
G1 X103.337 Y89.761 E1.7689
G1 X104.173 Y90.597 E1.8314
G1 X104.173 Y89.918 E1.8672
G1 X103.337 Y89.082 E1.9296
G1 X103.337 Y88.403 E1.9655
G1 X104.173 Y89.239 E2.0279
G1 X104.173 Y88.560 E2.0637
G1 X103.337 Y87.724 E2.1262
G1 X103.337 Y87.155 E2.1562
G1 X103.410 Y87.119 E2.1605
G1 X104.173 Y87.882 E2.2175
G1 X104.173 Y87.203 E2.2534
G1 X103.872 Y86.901 E2.2759
G92 E0.0000
G1 E-0.7000 F1500
; feature support
G1 X106.030 Y86.560 F4800
G1 E0.0000 F1500
G92 E0.0000
G1 X117.970 Y86.560 E0.6305 F1440
G1 X117.970 Y84.640 E0.7319
G1 X106.030 Y84.640 E1.3623
G92 E0.0000
G1 E-0.7000 F1500
G1 X98.030 Y88.480 F4800
G1 E0.0000 F1500
G92 E0.0000
G1 X99.144 Y88.480 E0.0588 F1440
G1 X99.337 Y88.678 E0.0734
G1 X99.508 Y88.892 E0.0879
G1 X99.659 Y89.120 E0.1023
G1 X99.788 Y89.359 E0.1167
G1 X99.895 Y89.608 E0.1310
G1 X99.978 Y89.864 E0.1452
G1 X100.038 Y90.125 E0.1593
G1 X100.073 Y90.385 E0.1732
G1 X100.073 Y90.400 E0.1740
G1 X98.030 Y90.400 E0.2819
G92 E0.0000
G1 E-0.7000 F1500
G1 X97.970 Y101.920 F4800
G1 E0.0000 F1500
G92 E0.0000
G1 X78.030 Y101.920 E1.0529 F1440
G92 E0.0000
G1 E-0.7000 F1500
G1 X74.030 Y94.240 F4800
G1 E0.0000 F1500
G92 E0.0000
G1 X77.970 Y94.240 E0.2080 F1440
G1 X77.970 Y92.320 E0.3094
G1 X74.030 Y92.320 E0.5175
G92 E0.0000
G1 E-0.7000 F1500
G1 X78.030 Y90.400 F4800
G1 E0.0000 F1500
G92 E0.0000
G1 X81.970 Y90.400 E0.2080 F1440
G1 X81.970 Y88.480 E0.3094
G1 X78.030 Y88.480 E0.5175
G92 E0.0000
G1 E-0.7000 F1500
G1 X82.030 Y86.560 F4800
G1 E0.0000 F1500
G92 E0.0000
G1 X93.970 Y86.560 E0.6305 F1440
G1 X93.970 Y84.640 E0.7319
G1 X82.030 Y84.640 E1.3623
G92 E0.0000
G1 E-0.7000 F1500
G1 X70.030 Y96.160 F4800
G1 E0.0000 F1500
G92 E0.0000
G1 X73.970 Y96.160 E0.2080 F1440
G1 X73.970 Y98.080 E0.3094
G1 X70.030 Y98.080 E0.5175
G1 X70.030 Y100.000 E0.6189
G1 X73.970 Y100.000 E0.8269
G1 X73.970 Y101.920 E0.9283
G1 X66.030 Y101.920 E1.3476
G1 X66.030 Y103.840 E1.4489
G1 X73.970 Y103.840 E1.8682
G1 X73.970 Y104.030 E1.8782
G1 X78.030 Y104.030 E2.0926
G1 X78.030 Y103.840 E2.1026
G1 X95.413 Y103.840 E3.0206
G1 X95.682 Y103.970 E3.0363
G1 X81.970 Y103.970 E3.7603
G1 X81.970 Y105.760 E3.8549
G1 X62.030 Y105.760 E4.9078
G1 X62.030 Y107.680 E5.0091
G1 X81.970 Y107.680 E6.0621
G1 X81.970 Y107.970 E6.0774
G1 X73.970 Y107.970 E6.4998
G1 X73.970 Y109.600 E6.5859
G1 X58.030 Y109.600 E7.4276
G1 X58.030 Y111.520 E7.5289
G1 X73.970 Y111.520 E8.3706
G1 X73.970 Y111.970 E8.3944
G1 X65.970 Y111.970 E8.8168
G1 X65.970 Y113.440 E8.8945
G1 X58.030 Y113.440 E9.3137
G1 X58.030 Y115.360 E9.4151
G1 X65.970 Y115.360 E9.8344
G92 E0.0000
G1 E-0.7000 F1500
G1 X114.030 Y94.240 F4800
G1 E0.0000 F1500
G92 E0.0000
G1 X117.970 Y94.240 E0.2080 F1440
G1 X117.970 Y92.320 E0.3094
G1 X114.030 Y92.320 E0.5175
G92 E0.0000
G1 E-0.7000 F1500
G1 X122.030 Y90.400 F4800
G1 E0.0000 F1500
G92 E0.0000
G1 X129.970 Y90.400 E0.4193 F1440
G1 X129.970 Y88.480 E0.5206
G1 X122.030 Y88.480 E0.9399
G92 E0.0000
G1 E-0.7000 F1500
G1 X126.030 Y105.760 F4800
G1 E0.0000 F1500
G92 E0.0000
G1 X129.970 Y105.760 E0.2080 F1440
G1 X129.970 Y107.680 E0.3094
G1 X126.030 Y107.680 E0.5175
G92 E0.0000
G1 E-0.7000 F1500
; layer 2, Z = 0.570
M106 S255
; feature inner perimeter
; tool H0.300 W0.480
G1 Z0.570 F1002
G1 X104.581 Y104.134 F4800
G1 E0.0000 F1500
G92 E0.0000
G1 X101.506 Y103.856 E0.1812 F2124
G1 X99.065 Y103.527 E0.3257
G1 X98.546 Y103.445 E0.3565
G1 X98.500 Y103.131 E0.3751
G1 X98.960 Y102.910 E0.4051
G1 X99.282 Y102.721 E0.4270
G1 X99.574 Y102.513 E0.4480
G1 X99.849 Y102.295 E0.4686
G1 X100.115 Y102.049 E0.4898
G1 X100.381 Y101.754 E0.5132
G1 X100.624 Y101.428 E0.5370
G1 X100.935 Y100.885 E0.5737
G1 X101.163 Y100.295 E0.6108
G1 X101.302 Y99.678 E0.6479
G1 X101.341 Y99.080 E0.6831
G1 X101.341 Y90.647 E1.1779
G1 X101.331 Y90.283 E1.1992
G1 X101.279 Y89.899 E1.2219
G1 X101.194 Y89.527 E1.2444
G1 X101.075 Y89.163 E1.2668
G1 X100.924 Y88.811 E1.2893
G1 X100.741 Y88.472 E1.3119
G1 X100.527 Y88.149 E1.3347
G1 X100.282 Y87.844 E1.3576
G1 X100.008 Y87.561 E1.3807
G1 X99.716 Y87.311 E1.4032
G1 X99.410 Y87.080 E1.4258
G1 X99.073 Y86.865 E1.4492
G1 X98.709 Y86.679 E1.4732
G1 X98.507 Y86.598 E1.4859
G1 X98.544 Y86.271 E1.5052
G1 X99.241 Y86.161 E1.5467
G1 X101.456 Y85.864 E1.6778
G1 X104.581 Y85.580 E1.8619
G1 X104.581 Y104.134 E2.9505
; feature outer perimeter
G1 X105.061 Y104.660 F4800
G92 E0.0000
G1 X101.453 Y104.333 E0.2126 F1416
G1 X98.995 Y104.002 E0.3581
G1 X97.684 Y103.795 E0.4360
G1 X96.149 Y103.301 E0.5305
G1 X97.044 Y102.976 E0.5864
G1 X97.442 Y102.917 E0.6100
