; G-Code generated by Simplify3D(R) Version 4.1.1
; Apr 27, 2021 at 7:27:37 PM
; Settings Summary
;   processName,Trideo BOX
;   applyToModels,Right Thumb
;   profileName,Trideo BOX
;   profileVersion,2021-04-15 09:48:16
;   baseProfile,Default
;   printMaterial,PLA
;   printQuality,Fast
;   printExtruders,
;   extruderName,Primary Extruder
;   extruderToolheadNumber,0
;   extruderDiameter,0.4
;   extruderAutoWidth,1
;   extruderWidth,0.48
;   extrusionMultiplier,0.98
;   extruderUseRetract,1
;   extruderRetractionDistance,0.7
;   extruderExtraRestartDistance,0
;   extruderRetractionZLift,0
;   extruderRetractionSpeed,1500
;   extruderUseCoasting,0
;   extruderCoastingDistance,0.2
;   extruderUseWipe,0
;   extruderWipeDistance,5
;   primaryExtruder,0
;   layerHeight,0.3
;   topSolidLayers,3
;   bottomSolidLayers,3
;   perimeterOutlines,2
;   printPerimetersInsideOut,1
;   startPointOption,2
;   startPointOriginX,0
;   startPointOriginY,0
;   sequentialIslands,0
;   spiralVaseMode,0
;   firstLayerHeightPercentage,90
;   firstLayerWidthPercentage,100
;   firstLayerUnderspeed,0.5
;   useRaft,0
;   raftExtruder,0
;   raftTopLayers,3
;   raftBaseLayers,2
;   raftOffset,3
;   raftSeparationDistance,0.14
;   raftTopInfill,100
;   aboveRaftSpeedMultiplier,0.3
;   useSkirt,1
;   skirtExtruder,0
;   skirtLayers,1
;   skirtOutlines,2
;   skirtOffset,4
;   usePrimePillar,0
;   primePillarExtruder,999
;   primePillarWidth,12
;   primePillarLocation,7
;   primePillarSpeedMultiplier,1
;   useOozeShield,0
;   oozeShieldExtruder,999
;   oozeShieldOffset,2
;   oozeShieldOutlines,1
;   oozeShieldSidewallShape,1
;   oozeShieldSidewallAngle,30
;   oozeShieldSpeedMultiplier,1
;   infillExtruder,0
;   internalInfillPattern,Rectilinear
;   externalInfillPattern,Rectilinear
;   infillPercentage,15
;   outlineOverlapPercentage,15
;   infillExtrusionWidthPercentage,100
;   minInfillLength,5
;   infillLayerInterval,1
;   internalInfillAngles,45,-45
;   overlapInternalInfillAngles,0
;   externalInfillAngles,45,-45
;   generateSupport,1
;   supportExtruder,0
;   supportInfillPercentage,25
;   supportExtraInflation,0
;   supportBaseLayers,0
;   denseSupportExtruder,0
;   denseSupportLayers,0
;   denseSupportInfillPercentage,70
;   supportLayerInterval,1
;   supportHorizontalPartOffset,0.3
;   supportUpperSeparationLayers,1
;   supportLowerSeparationLayers,1
;   supportType,0
;   supportGridSpacing,4
;   maxOverhangAngle,45
;   supportAngles,0
;   temperatureName,Primary Extruder,Heated bed
;   temperatureNumber,0,0
;   temperatureSetpointCount,1,1
;   temperatureSetpointLayers,1,1
;   temperatureSetpointTemperatures,190,60
;   temperatureStabilizeAtStartup,1,1
;   temperatureHeatedBed,0,1
;   fanLayers,1,2
;   fanSpeeds,0,100
;   blipFanToFullPower,0
;   adjustSpeedForCooling,1
;   minSpeedLayerTime,15
;   minCoolingSpeedSlowdown,20
;   increaseFanForCooling,0
;   minFanLayerTime,45
;   maxCoolingFanSpeed,100
;   increaseFanForBridging,0
;   bridgingFanSpeed,100
;   use5D,1
;   relativeEdistances,0
;   allowEaxisZeroing,1
;   independentExtruderAxes,0
;   includeM10123,0
;   stickySupport,1
;   applyToolheadOffsets,0
;   gcodeXoffset,0
;   gcodeYoffset,0
;   gcodeZoffset,0
;   overrideMachineDefinition,1
;   machineTypeOverride,0
;   strokeXoverride,200
;   strokeYoverride,200
;   strokeZoverride,200
;   originOffsetXoverride,0
;   originOffsetYoverride,0
;   originOffsetZoverride,0
;   homeXdirOverride,-1
;   homeYdirOverride,-1
;   homeZdirOverride,-1
;   flipXoverride,1
;   flipYoverride,-1
;   flipZoverride,1
;   toolheadOffsets,0,0|0,0|0,0|0,0|0,0|0,0
;   overrideFirmwareConfiguration,0
;   firmwareTypeOverride,RepRap (Marlin/Repetier/Sprinter)
;   GPXconfigOverride,r2
;   baudRateOverride,115200
;   overridePrinterModels,0
;   printerModelsOverride
;   startingGcode,G28 X0 Y0; home XY,G1 X20 Y20,G28 Z0,G1 Z5 F5000; Lift NZ
;   layerChangeGcode,
;   retractionGcode,
;   toolChangeGcode,
;   endingGcode,M104 S0 ; turn off extruder,G28 X0 ; home x,M140 S0 ; turn off bed,M84 ; disable motors,M107 ;
;   exportFileFormat,gcode
;   celebration,0
;   celebrationSong,Looney Toons
;   postProcessing,
;   defaultSpeed,3600
;   outlineUnderspeed,0.5
;   solidInfillUnderspeed,0.8
;   supportUnderspeed,0.8
;   rapidXYspeed,4800
;   rapidZspeed,1002
;   minBridgingArea,50
;   bridgingExtraInflation,0
;   bridgingExtrusionMultiplier,1
;   bridgingSpeedMultiplier,1
;   useFixedBridgingAngle,0
;   fixedBridgingAngle,0
;   applyBridgingToPerimeters,0
;   filamentDiameters,1.75|1.75|1.75|1.75|1.75|1.75
;   filamentPricesPerKg,46|46|46|46|46|46
;   filamentDensities,1.25|1.25|1.25|1.25|1.25|1.25
;   useMinPrintHeight,0
;   minPrintHeight,0
;   useMaxPrintHeight,0
;   maxPrintHeight,0
;   useDiaphragm,0
;   diaphragmLayerInterval,20
;   robustSlicing,1
;   mergeAllIntoSolid,0
;   onlyRetractWhenCrossingOutline,1
;   retractBetweenLayers,1
;   useRetractionMinTravel,0
;   retractionMinTravel,3
;   retractWhileWiping,0
;   onlyWipeOutlines,1
;   avoidCrossingOutline,0
;   maxMovementDetourFactor,3
;   toolChangeRetractionDistance,12
;   toolChangeExtraRestartDistance,-0.5
;   toolChangeRetractionSpeed,600
;   externalThinWallType,0
;   internalThinWallType,2
;   thinWallAllowedOverlapPercentage,10
;   singleExtrusionMinLength,1
;   singleExtrusionMinPrintingWidthPercentage,50
;   singleExtrusionMaxPrintingWidthPercentage,200
;   singleExtrusionEndpointExtension,0.2
;   horizontalSizeCompensation,0
G90
M82
M106 S0
M140 S60
M190 S60
M104 S190 T0
M109 S190 T0
G28 X0 Y0; home XY
G1 X20 Y20
G28 Z0
G1 Z5 F5000; Lift NZ
; process Trideo BOX
; layer 1, Z = 0.270
T0
G92 E0.0000
G1 E-0.7000 F1500
; feature skirt
; tool H0.270 W0.480
G1 Z0.270 F1002
G1 X79.825 Y81.060 F4800
G1 E0.0000 F1500
G92 E0.0000
G1 X96.175 Y81.060 E0.8634 F1800
G1 X98.883 Y83.768 E1.0656
G1 X100.682 Y82.825 E1.1728
G1 X101.057 Y82.669 E1.1943
G1 X101.796 Y82.431 E1.2352
G1 X102.148 Y82.347 E1.2544
G1 X102.611 Y82.274 E1.2791
G1 X103.825 Y81.060 E1.3698
G1 X124.175 Y81.060 E2.4443
G1 X126.940 Y83.825 E2.6508
G1 X126.940 Y85.060 E2.7160
G1 X132.175 Y85.060 E2.9925
G1 X134.940 Y87.825 E3.1989
G1 X134.940 Y96.175 E3.6399
G1 X132.175 Y98.940 E3.8463
G1 X130.055 Y98.940 E3.9583
G1 X130.940 Y99.825 E4.0244
G1 X130.940 Y108.175 E4.4653
G1 X128.175 Y110.940 E4.6718
G1 X119.825 Y110.940 E5.1127
G1 X117.060 Y108.175 E5.3191
G1 X117.060 Y99.825 E5.7601
G1 X119.825 Y97.060 E5.9665
G1 X121.945 Y97.060 E6.0785
G1 X121.060 Y96.175 E6.1446
G1 X121.060 Y94.940 E6.2098
G1 X109.580 Y94.940 E6.8160
G1 X109.580 Y106.051 E7.4027
G1 X106.271 Y108.877 E7.6325
G1 X102.789 Y108.326 E7.8186
G1 X100.175 Y110.940 E8.0138
G1 X82.940 Y110.940 E8.9239
G1 X82.940 Y112.175 E8.9891
G1 X80.175 Y114.940 E9.1956
G1 X74.940 Y114.940 E9.4720
G1 X74.940 Y116.175 E9.5372
G1 X72.175 Y118.940 E9.7437
G1 X59.825 Y118.940 E10.3958
G1 X57.060 Y116.175 E10.6023
G1 X57.060 Y103.825 E11.2544
G1 X59.825 Y101.060 E11.4609
G1 X61.060 Y101.060 E11.5261
G1 X61.060 Y99.825 E11.5913
G1 X63.825 Y97.060 E11.7978
G1 X65.060 Y97.060 E11.8630
G1 X65.060 Y95.825 E11.9282
G1 X67.825 Y93.060 E12.1347
G1 X69.060 Y93.060 E12.1999
G1 X69.060 Y91.825 E12.2651
G1 X71.825 Y89.060 E12.4716
G1 X73.060 Y89.060 E12.5368
G1 X73.060 Y87.825 E12.6021
G1 X75.825 Y85.060 E12.8085
G1 X77.060 Y85.060 E12.8737
G1 X77.060 Y83.825 E12.9390
G1 X79.825 Y81.060 E13.1454
G92 E0.0000
G1 E-0.7000 F1500
G1 X80.024 Y81.540 F4800
G1 E0.0000 F1500
G92 E0.0000
G1 X95.976 Y81.540 E0.8424 F1800
G1 X98.460 Y84.024 E1.0278
G1 X98.460 Y84.861 E1.0721
G1 X98.752 Y84.379 E1.1019
G1 X100.887 Y83.260 E1.2291
G1 X101.223 Y83.119 E1.2484
G1 X101.925 Y82.894 E1.2873
G1 X102.241 Y82.819 E1.3045
G1 X102.840 Y82.724 E1.3365
G1 X104.024 Y81.540 E1.4249
G1 X123.976 Y81.540 E2.4784
G1 X126.460 Y84.024 E2.6639
G1 X126.460 Y85.540 E2.7440
G1 X131.976 Y85.540 E3.0353
G1 X134.460 Y88.024 E3.2207
G1 X134.460 Y95.976 E3.6407
G1 X131.976 Y98.460 E3.8261
G1 X128.896 Y98.460 E3.9888
G1 X130.460 Y100.024 E4.1055
G1 X130.460 Y107.976 E4.5255
G1 X127.976 Y110.460 E4.7109
G1 X120.024 Y110.460 E5.1309
G1 X117.540 Y107.976 E5.3163
G1 X117.540 Y100.024 E5.7363
G1 X120.024 Y97.540 E5.9217
G1 X123.104 Y97.540 E6.0844
G1 X121.540 Y95.976 E6.2011
G1 X121.540 Y94.460 E6.2812
G1 X109.100 Y94.460 E6.9381
G1 X109.100 Y105.829 E7.5385
G1 X106.127 Y108.368 E7.7449
G1 X102.460 Y107.788 E7.9409
G1 X102.460 Y107.976 E7.9509
G1 X99.976 Y110.460 E8.1364
G1 X82.460 Y110.460 E9.0613
G1 X82.460 Y111.976 E9.1413
G1 X79.976 Y114.460 E9.3268
G1 X74.460 Y114.460 E9.6181
G1 X74.460 Y115.976 E9.6982
G1 X71.976 Y118.460 E9.8836
G1 X60.024 Y118.460 E10.5148
G1 X57.540 Y115.976 E10.7003
G1 X57.540 Y104.024 E11.3314
G1 X60.024 Y101.540 E11.5169
G1 X61.540 Y101.540 E11.5969
G1 X61.540 Y100.024 E11.6770
G1 X64.024 Y97.540 E11.8625
G1 X65.540 Y97.540 E11.9425
G1 X65.540 Y96.024 E12.0226
G1 X68.024 Y93.540 E12.2081
G1 X69.540 Y93.540 E12.2881
G1 X69.540 Y92.024 E12.3682
G1 X72.024 Y89.540 E12.5537
G1 X73.540 Y89.540 E12.6337
G1 X73.540 Y88.024 E12.7138
G1 X76.024 Y85.540 E12.8993
G1 X77.540 Y85.540 E12.9793
G1 X77.540 Y84.024 E13.0594
G1 X80.024 Y81.540 E13.2449
G92 E0.0000
G1 E-0.7000 F1500
; feature inner perimeter
G1 X102.488 Y88.031 F4800
G1 E0.0000 F1500
G92 E0.0000
G1 X102.912 Y87.820 E0.0250 F1350
G1 X103.008 Y87.756 E0.0311
G1 X103.234 Y87.683 E0.0436
G1 X104.140 Y87.539 E0.0921
G1 X104.140 Y103.032 E0.9101
G1 X103.245 Y102.890 E0.9579
G1 X102.941 Y102.792 E0.9748
G1 X102.488 Y102.572 E1.0014
G1 X102.488 Y88.031 E1.7692
; feature outer perimeter
G1 X102.008 Y87.734 F4800
G92 E0.0000
G1 X102.671 Y87.403 E0.0391 F900
G1 X102.798 Y87.319 E0.0472
G1 X103.122 Y87.215 E0.0652
G1 X104.620 Y86.977 E0.1452
G1 X104.620 Y103.594 E1.0226
G1 X103.134 Y103.358 E1.1021
G1 X102.761 Y103.239 E1.1227
G1 X102.008 Y102.872 E1.1670
G1 X102.008 Y87.734 E1.9663
; feature solid layer
G1 X103.644 Y88.031 F4800
G92 E0.0000
G1 X103.732 Y88.119 E0.0065 F1440
G1 X103.732 Y88.797 E0.0424
G1 X103.110 Y88.176 E0.0888
G1 X102.896 Y88.284 E0.1014
G1 X102.896 Y88.640 E0.1203
G1 X103.732 Y89.476 E0.1827
G1 X103.732 Y90.155 E0.2185
G1 X102.896 Y89.319 E0.2810
G1 X102.896 Y89.998 E0.3168
G1 X103.732 Y90.834 E0.3793
G1 X103.732 Y91.513 E0.4151
G1 X102.896 Y90.677 E0.4775
G1 X102.896 Y91.356 E0.5134
G1 X103.732 Y92.192 E0.5758
G1 X103.732 Y92.870 E0.6116
G1 X102.896 Y92.034 E0.6741
G1 X102.896 Y92.713 E0.7099
G1 X103.732 Y93.549 E0.7723
G1 X103.732 Y94.228 E0.8082
G1 X102.896 Y93.392 E0.8706
G1 X102.896 Y94.071 E0.9065
G1 X103.732 Y94.907 E0.9689
G1 X103.732 Y95.586 E1.0047
G1 X102.896 Y94.750 E1.0672
G1 X102.896 Y95.429 E1.1030
G1 X103.732 Y96.265 E1.1654
G1 X103.732 Y96.943 E1.2013
G1 X102.896 Y96.107 E1.2637
G1 X102.896 Y96.786 E1.2996
G1 X103.732 Y97.622 E1.3620
G1 X103.732 Y98.301 E1.3978
G1 X102.896 Y97.465 E1.4603
G1 X102.896 Y98.144 E1.4961
G1 X103.732 Y98.980 E1.5585
G1 X103.732 Y99.659 E1.5944
G1 X102.896 Y98.823 E1.6568
G1 X102.896 Y99.501 E1.6926
G1 X103.732 Y100.337 E1.7551
G1 X103.732 Y101.016 E1.7909
G1 X102.896 Y100.180 E1.8534
G1 X102.896 Y100.859 E1.8892
G1 X103.732 Y101.695 E1.9516
G1 X103.732 Y102.374 E1.9875
G1 X102.896 Y101.538 E2.0499
G1 X102.896 Y102.217 E2.0857
G1 X103.090 Y102.411 E2.1002
G92 E0.0000
G1 E-0.7000 F1500
; feature support
G1 X98.030 Y100.000 F4800
G1 E0.0000 F1500
G92 E0.0000
G1 X99.810 Y100.000 E0.0940 F1440
G1 X99.849 Y99.897 E0.0998
G1 X99.935 Y99.519 E0.1203
G1 X99.966 Y99.115 E0.1417
G1 X99.966 Y98.080 E0.1963
G1 X98.030 Y98.080 E0.2985
G92 E0.0000
G1 E-0.7000 F1500
G1 X98.030 Y92.320 F4800
G1 E0.0000 F1500
G92 E0.0000
G1 X99.966 Y92.320 E0.1022 F1440
G1 X99.966 Y91.449 E0.1482
G1 X99.954 Y91.203 E0.1612
G1 X99.922 Y90.969 E0.1737
G1 X99.870 Y90.741 E0.1860
G1 X99.797 Y90.517 E0.1985
G1 X99.747 Y90.400 E0.2052
G1 X98.030 Y90.400 E0.2958
G92 E0.0000
G1 E-0.7000 F1500
G1 X106.030 Y88.480 F4800
G1 E0.0000 F1500
G92 E0.0000
G1 X121.970 Y88.480 E0.8417 F1440
G1 X121.970 Y86.560 E0.9431
G1 X106.030 Y86.560 E1.7848
G92 E0.0000
G1 E-0.7000 F1500
G1 X126.030 Y90.400 F4800
G1 E0.0000 F1500
G92 E0.0000
G1 X129.970 Y90.400 E0.2080 F1440
G1 X129.970 Y92.320 E0.3094
G1 X126.030 Y92.320 E0.5175
G92 E0.0000
G1 E-0.7000 F1500
G1 X122.030 Y103.840 F4800
G1 E0.0000 F1500
G92 E0.0000
G1 X125.970 Y103.840 E0.2080 F1440
G1 X125.970 Y105.760 E0.3094
G1 X122.030 Y105.760 E0.5175
G92 E0.0000
G1 E-0.7000 F1500
G1 X82.030 Y88.480 F4800
G1 E0.0000 F1500
G92 E0.0000
G1 X93.970 Y88.480 E0.6305 F1440
G1 X93.970 Y86.560 E0.7319
G1 X82.030 Y86.560 E1.3623
G92 E0.0000
G1 E-0.7000 F1500
G1 X78.030 Y90.400 F4800
G1 E0.0000 F1500
G92 E0.0000
G1 X81.970 Y90.400 E0.2080 F1440
G1 X81.970 Y92.320 E0.3094
G1 X78.030 Y92.320 E0.5175
G92 E0.0000
G1 E-0.7000 F1500
G1 X74.030 Y94.240 F4800
G1 E0.0000 F1500
G92 E0.0000
G1 X77.970 Y94.240 E0.2080 F1440
G1 X77.970 Y96.160 E0.3094
G1 X74.030 Y96.160 E0.5175
G92 E0.0000
G1 E-0.7000 F1500
G1 X70.030 Y98.080 F4800
G1 E0.0000 F1500
G92 E0.0000
G1 X73.970 Y98.080 E0.2080 F1440
G1 X73.970 Y100.000 E0.3094
G1 X70.030 Y100.000 E0.5175
G1 X70.030 Y101.920 E0.6189
G1 X73.970 Y101.920 E0.8269
G1 X73.970 Y102.030 E0.8327
G1 X96.152 Y102.030 E2.0040
G1 X96.106 Y102.039 E2.0065
G1 X95.114 Y102.399 E2.0622
G1 X94.551 Y102.837 E2.0999
G1 X94.946 Y103.585 E2.1446
G1 X95.740 Y103.840 E2.1886
G1 X66.030 Y103.840 E3.7574
G1 X66.030 Y105.760 E3.8588
G1 X97.970 Y105.760 E5.5453
G1 X97.970 Y105.970 E5.5564
G1 X77.970 Y105.970 E6.6125
G1 X77.970 Y107.680 E6.7028
G1 X62.030 Y107.680 E7.5445
G1 X62.030 Y109.600 E7.6459
G1 X77.970 Y109.600 E8.4875
G1 X77.970 Y109.970 E8.5071
G1 X69.970 Y109.970 E8.9295
G1 X69.970 Y111.520 E9.0114
G1 X62.030 Y111.520 E9.4306
G1 X62.030 Y113.440 E9.5320
G1 X69.970 Y113.440 E9.9513
G92 E0.0000
G1 E-0.7000 F1500
; layer 2, Z = 0.570
M106 S255
; feature inner perimeter
; tool H0.300 W0.480
G1 Z0.570 F1002
G1 X98.511 Y103.192 F4800
G1 E0.0000 F1500
G92 E0.0000
G1 X98.469 Y102.863 E0.0195 F1897
G1 X99.007 Y102.643 E0.0536
G1 X99.311 Y102.481 E0.0738
G1 X99.594 Y102.298 E0.0936
G1 X99.857 Y102.093 E0.1132
G1 X100.102 Y101.866 E0.1327
G1 X100.345 Y101.597 E0.1540
G1 X100.567 Y101.298 E0.1758
G1 X100.850 Y100.803 E0.2093
G1 X101.058 Y100.265 E0.2431
G1 X101.184 Y99.707 E0.2767
G1 X101.226 Y99.163 E0.3087
G1 X101.226 Y91.417 E0.7632
G1 X101.209 Y91.087 E0.7826
G1 X101.163 Y90.744 E0.8029
G1 X101.085 Y90.404 E0.8233
G1 X100.977 Y90.072 E0.8438
G1 X100.839 Y89.751 E0.8643
G1 X100.673 Y89.442 E0.8849
G1 X100.478 Y89.147 E0.9057
G1 X100.254 Y88.868 E0.9266
G1 X100.005 Y88.610 E0.9477
G1 X99.731 Y88.375 E0.9689
G1 X99.434 Y88.165 E0.9902
G1 X99.109 Y87.977 E1.0122
G1 X98.466 Y87.703 E1.0532
G1 X98.511 Y87.376 E1.0725
G1 X100.663 Y87.088 E1.2000
G1 X104.140 Y86.772 E1.4048
G1 X104.140 Y103.799 E2.4037
G1 X100.718 Y103.489 E2.6053
G1 X98.511 Y103.192 E2.7360
; feature outer perimeter
G1 X97.987 Y103.606 F4800
G92 E0.0000
G1 X97.146 Y103.473 E0.0499 F1265
G1 X95.713 Y103.012 E0.1383
G1 X96.318 Y102.792 E0.1761
G1 X96.803 Y102.694 E0.2051
G1 X97.664 Y102.593 E0.2560
G1 X98.258 Y102.431 E0.2921
G1 X98.803 Y102.208 E0.3267
G1 X99.067 Y102.067 E0.3442
G1 X99.315 Y101.907 E0.3615
G1 X99.546 Y101.727 E0.3787
G1 X99.760 Y101.529 E0.3958
G1 X99.973 Y101.292 E0.4145
G1 X100.164 Y101.035 E0.4333
G1 X100.415 Y100.596 E0.4630
G1 X100.598 Y100.125 E0.4926
G1 X100.708 Y99.636 E0.5220
G1 X100.746 Y99.145 E0.5509
G1 X100.746 Y91.429 E1.0036
G1 X100.731 Y91.131 E1.0211
G1 X100.690 Y90.830 E1.0389
G1 X100.622 Y90.532 E1.0568
G1 X100.527 Y90.242 E1.0748
G1 X100.407 Y89.960 E1.0928
G1 X100.260 Y89.688 E1.1109
G1 X100.089 Y89.430 E1.1291
G1 X99.894 Y89.186 E1.1474
G1 X99.675 Y88.960 E1.1658
G1 X99.435 Y88.754 E1.1844
G1 X99.175 Y88.570 E1.2031
G1 X98.894 Y88.408 E1.2222
G1 X98.306 Y88.156 E1.2596
G1 X97.665 Y87.978 E1.2987
G1 X96.777 Y87.873 E1.3511
G1 X96.355 Y87.788 E1.3764
G1 X95.712 Y87.553 E1.4166
G1 X97.096 Y87.109 E1.5019
G1 X98.179 Y86.937 E1.5662
G1 X100.609 Y86.611 E1.7101
G1 X104.620 Y86.247 E1.9463
G1 X104.620 Y104.324 E3.0070
G1 X100.665 Y103.966 E3.2400
G1 X97.987 Y103.606 E3.3985
; feature gap fill
G1 X97.554 Y103.125 F4800
G92 E0.0000
