; G-Code generated by Simplify3D(R) Version 4.1.1
; Apr 27, 2021 at 7:26:00 PM
; Settings Summary
;   processName,Trideo BOX
;   applyToModels,Right Thumb
;   profileName,Trideo BOX
;   profileVersion,2021-04-15 09:48:16
;   baseProfile,Default
;   printMaterial,PLA
;   printQuality,Fast
;   printExtruders,
;   extruderName,Primary Extruder
;   extruderToolheadNumber,0
;   extruderDiameter,0.4
;   extruderAutoWidth,1
;   extruderWidth,0.48
;   extrusionMultiplier,0.98
;   extruderUseRetract,1
;   extruderRetractionDistance,0.7
;   extruderExtraRestartDistance,0
;   extruderRetractionZLift,0
;   extruderRetractionSpeed,1500
;   extruderUseCoasting,0
;   extruderCoastingDistance,0.2
;   extruderUseWipe,0
;   extruderWipeDistance,5
;   primaryExtruder,0
;   layerHeight,0.3
;   topSolidLayers,3
;   bottomSolidLayers,3
;   perimeterOutlines,2
;   printPerimetersInsideOut,1
;   startPointOption,2
;   startPointOriginX,0
;   startPointOriginY,0
;   sequentialIslands,0
;   spiralVaseMode,0
;   firstLayerHeightPercentage,90
;   firstLayerWidthPercentage,100
;   firstLayerUnderspeed,0.5
;   useRaft,0
;   raftExtruder,0
;   raftTopLayers,3
;   raftBaseLayers,2
;   raftOffset,3
;   raftSeparationDistance,0.14
;   raftTopInfill,100
;   aboveRaftSpeedMultiplier,0.3
;   useSkirt,1
;   skirtExtruder,0
;   skirtLayers,1
;   skirtOutlines,2
;   skirtOffset,4
;   usePrimePillar,0
;   primePillarExtruder,999
;   primePillarWidth,12
;   primePillarLocation,7
;   primePillarSpeedMultiplier,1
;   useOozeShield,0
;   oozeShieldExtruder,999
;   oozeShieldOffset,2
;   oozeShieldOutlines,1
;   oozeShieldSidewallShape,1
;   oozeShieldSidewallAngle,30
;   oozeShieldSpeedMultiplier,1
;   infillExtruder,0
;   internalInfillPattern,Rectilinear
;   externalInfillPattern,Rectilinear
;   infillPercentage,15
;   outlineOverlapPercentage,15
;   infillExtrusionWidthPercentage,100
;   minInfillLength,5
;   infillLayerInterval,1
;   internalInfillAngles,45,-45
;   overlapInternalInfillAngles,0
;   externalInfillAngles,45,-45
;   generateSupport,1
;   supportExtruder,0
;   supportInfillPercentage,25
;   supportExtraInflation,0
;   supportBaseLayers,0
;   denseSupportExtruder,0
;   denseSupportLayers,0
;   denseSupportInfillPercentage,70
;   supportLayerInterval,1
;   supportHorizontalPartOffset,0.3
;   supportUpperSeparationLayers,1
;   supportLowerSeparationLayers,1
;   supportType,0
;   supportGridSpacing,4
;   maxOverhangAngle,45
;   supportAngles,0
;   temperatureName,Primary Extruder,Heated bed
;   temperatureNumber,0,0
;   temperatureSetpointCount,1,1
;   temperatureSetpointLayers,1,1
;   temperatureSetpointTemperatures,190,60
;   temperatureStabilizeAtStartup,1,1
;   temperatureHeatedBed,0,1
;   fanLayers,1,2
;   fanSpeeds,0,100
;   blipFanToFullPower,0
;   adjustSpeedForCooling,1
;   minSpeedLayerTime,15
;   minCoolingSpeedSlowdown,20
;   increaseFanForCooling,0
;   minFanLayerTime,45
;   maxCoolingFanSpeed,100
;   increaseFanForBridging,0
;   bridgingFanSpeed,100
;   use5D,1
;   relativeEdistances,0
;   allowEaxisZeroing,1
;   independentExtruderAxes,0
;   includeM10123,0
;   stickySupport,1
;   applyToolheadOffsets,0
;   gcodeXoffset,0
;   gcodeYoffset,0
;   gcodeZoffset,0
;   overrideMachineDefinition,1
;   machineTypeOverride,0
;   strokeXoverride,200
;   strokeYoverride,200
;   strokeZoverride,200
;   originOffsetXoverride,0
;   originOffsetYoverride,0
;   originOffsetZoverride,0
;   homeXdirOverride,-1
;   homeYdirOverride,-1
;   homeZdirOverride,-1
;   flipXoverride,1
;   flipYoverride,-1
;   flipZoverride,1
;   toolheadOffsets,0,0|0,0|0,0|0,0|0,0|0,0
;   overrideFirmwareConfiguration,0
;   firmwareTypeOverride,RepRap (Marlin/Repetier/Sprinter)
;   GPXconfigOverride,r2
;   baudRateOverride,115200
;   overridePrinterModels,0
;   printerModelsOverride
;   startingGcode,G28 X0 Y0; home XY,G1 X20 Y20,G28 Z0,G1 Z5 F5000; Lift NZ
;   layerChangeGcode,
;   retractionGcode,
;   toolChangeGcode,
;   endingGcode,M104 S0 ; turn off extruder,G28 X0 ; home x,M140 S0 ; turn off bed,M84 ; disable motors,M107 ;
;   exportFileFormat,gcode
;   celebration,0
;   celebrationSong,Looney Toons
;   postProcessing,
;   defaultSpeed,3600
;   outlineUnderspeed,0.5
;   solidInfillUnderspeed,0.8
;   supportUnderspeed,0.8
;   rapidXYspeed,4800
;   rapidZspeed,1002
;   minBridgingArea,50
;   bridgingExtraInflation,0
;   bridgingExtrusionMultiplier,1
;   bridgingSpeedMultiplier,1
;   useFixedBridgingAngle,0
;   fixedBridgingAngle,0
;   applyBridgingToPerimeters,0
;   filamentDiameters,1.75|1.75|1.75|1.75|1.75|1.75
;   filamentPricesPerKg,46|46|46|46|46|46
;   filamentDensities,1.25|1.25|1.25|1.25|1.25|1.25
;   useMinPrintHeight,0
;   minPrintHeight,0
;   useMaxPrintHeight,0
;   maxPrintHeight,0
;   useDiaphragm,0
;   diaphragmLayerInterval,20
;   robustSlicing,1
;   mergeAllIntoSolid,0
;   onlyRetractWhenCrossingOutline,1
;   retractBetweenLayers,1
;   useRetractionMinTravel,0
;   retractionMinTravel,3
;   retractWhileWiping,0
;   onlyWipeOutlines,1
;   avoidCrossingOutline,0
;   maxMovementDetourFactor,3
;   toolChangeRetractionDistance,12
;   toolChangeExtraRestartDistance,-0.5
;   toolChangeRetractionSpeed,600
;   externalThinWallType,0
;   internalThinWallType,2
;   thinWallAllowedOverlapPercentage,10
;   singleExtrusionMinLength,1
;   singleExtrusionMinPrintingWidthPercentage,50
;   singleExtrusionMaxPrintingWidthPercentage,200
;   singleExtrusionEndpointExtension,0.2
;   horizontalSizeCompensation,0
G90
M82
M106 S0
M140 S60
M190 S60
M104 S190 T0
M109 S190 T0
G28 X0 Y0; home XY
G1 X20 Y20
G28 Z0
G1 Z5 F5000; Lift NZ
; process Trideo BOX
; layer 1, Z = 0.270
T0
G92 E0.0000
G1 E-0.7000 F1500
; feature skirt
; tool H0.270 W0.480
G1 Z0.270 F1002
G1 X81.825 Y83.060 F4800
G1 E0.0000 F1500
G92 E0.0000
G1 X94.175 Y83.060 E0.6521 F1571
G1 X96.940 Y85.825 E0.8586
G1 X96.940 Y87.242 E0.9334
G1 X97.504 Y86.299 E0.9914
G1 X99.535 Y85.210 E1.1131
G1 X99.778 Y85.107 E1.1270
G1 X101.825 Y83.060 E1.2799
G1 X118.175 Y83.060 E2.1432
G1 X120.940 Y85.825 E2.3497
G1 X120.940 Y87.060 E2.4149
G1 X126.175 Y87.060 E2.6914
G1 X128.940 Y89.825 E2.8978
G1 X128.940 Y98.175 E3.3388
G1 X126.175 Y100.940 E3.5452
G1 X117.825 Y100.940 E3.9861
G1 X116.000 Y99.115 E4.1224
G1 X114.175 Y100.940 E4.2587
G1 X108.696 Y100.940 E4.5480
G1 X108.696 Y105.438 E4.7855
G1 X105.387 Y108.264 E5.0153
G1 X101.084 Y107.583 E5.2453
G1 X100.730 Y107.498 E5.2646
G1 X99.948 Y107.247 E5.3079
G1 X99.891 Y107.224 E5.3112
G1 X98.175 Y108.940 E5.4393
G1 X88.940 Y108.940 E5.9270
G1 X88.940 Y110.175 E5.9922
G1 X86.175 Y112.940 E6.1987
G1 X80.940 Y112.940 E6.4751
G1 X80.940 Y114.175 E6.5403
G1 X78.175 Y116.940 E6.7468
G1 X65.825 Y116.940 E7.3989
G1 X63.060 Y114.175 E7.6054
G1 X63.060 Y101.825 E8.2575
G1 X65.825 Y99.060 E8.4640
G1 X67.060 Y99.060 E8.5292
G1 X67.060 Y97.825 E8.5944
G1 X69.825 Y95.060 E8.8009
G1 X71.060 Y95.060 E8.8661
G1 X71.060 Y93.825 E8.9313
G1 X73.825 Y91.060 E9.1378
G1 X75.060 Y91.060 E9.2030
G1 X75.060 Y89.825 E9.2682
G1 X77.825 Y87.060 E9.4747
G1 X79.060 Y87.060 E9.5399
G1 X79.060 Y85.825 E9.6052
G1 X81.825 Y83.060 E9.8116
G92 E0.0000
G1 E-0.7000 F1500
G1 X82.024 Y83.540 F4800
G1 E0.0000 F1500
G92 E0.0000
G1 X93.976 Y83.540 E0.6311 F1571
G1 X96.460 Y86.024 E0.8166
G1 X96.460 Y93.976 E1.2365
G1 X94.896 Y95.540 E1.3533
G1 X96.824 Y95.540 E1.4551
G1 X96.804 Y93.780 E1.5481
G1 X96.804 Y93.755 E1.5494
G1 X96.804 Y93.260 E1.5755
G1 X96.828 Y92.942 E1.5924
G1 X96.835 Y92.895 E1.5949
G1 X96.728 Y92.526 E1.6152
G1 X96.644 Y91.934 E1.6467
G1 X96.644 Y88.671 E1.8190
G1 X97.848 Y86.660 E1.9428
G1 X99.743 Y85.644 E2.0563
G1 X100.051 Y85.513 E2.0740
G1 X102.024 Y83.540 E2.2213
G1 X117.976 Y83.540 E3.0637
G1 X120.460 Y86.024 E3.2492
G1 X120.460 Y87.540 E3.3292
G1 X125.976 Y87.540 E3.6205
G1 X128.460 Y90.024 E3.8060
G1 X128.460 Y97.976 E4.2259
G1 X125.976 Y100.460 E4.4114
G1 X118.024 Y100.460 E4.8313
G1 X116.000 Y98.436 E4.9824
G1 X113.976 Y100.460 E5.1336
G1 X108.216 Y100.460 E5.4377
G1 X108.216 Y105.216 E5.6889
G1 X105.243 Y107.755 E5.8953
G1 X101.178 Y107.112 E6.1127
G1 X100.860 Y107.036 E6.1299
G1 X100.111 Y106.795 E6.1715
G1 X99.832 Y106.683 E6.1873
G1 X99.779 Y106.657 E6.1904
G1 X97.976 Y108.460 E6.3251
G1 X88.460 Y108.460 E6.8276
G1 X88.460 Y109.976 E6.9076
G1 X85.976 Y112.460 E7.0931
G1 X80.460 Y112.460 E7.3844
G1 X80.460 Y113.976 E7.4645
G1 X77.976 Y116.460 E7.6499
G1 X66.024 Y116.460 E8.2811
G1 X63.540 Y113.976 E8.4665
G1 X63.540 Y102.024 E9.0977
G1 X66.024 Y99.540 E9.2832
G1 X67.540 Y99.540 E9.3632
G1 X67.540 Y98.024 E9.4433
G1 X70.024 Y95.540 E9.6288
G1 X71.540 Y95.540 E9.7088
G1 X71.540 Y94.024 E9.7889
G1 X74.024 Y91.540 E9.9744
G1 X75.540 Y91.540 E10.0544
G1 X75.540 Y90.024 E10.1345
G1 X78.024 Y87.540 E10.3200
G1 X79.540 Y87.540 E10.4000
G1 X79.540 Y86.024 E10.4801
G1 X82.024 Y83.540 E10.6656
G92 E0.0000
G1 E-0.7000 F1500
G1 X96.055 Y95.060 F4800
G1 E0.0000 F1500
G92 E0.0000
G1 X96.339 Y95.060 E0.0150 F1571
G1 X96.336 Y94.780 E0.0298
G1 X96.055 Y95.060 E0.0507
G92 E0.0000
G1 E-0.7000 F1500
; feature inner perimeter
G1 X101.764 Y93.738 F4800
G1 E0.0000 F1500
G92 E0.0000
G1 X101.764 Y93.474 E0.0139 F1178
G1 X101.832 Y93.026 E0.0379
G1 X101.795 Y92.408 E0.0705
G1 X101.704 Y91.878 E0.0990
G1 X101.604 Y91.533 E0.1179
G1 X101.604 Y90.288 E0.1837
G1 X101.780 Y90.201 E0.1940
G1 X101.891 Y90.126 E0.2011
G1 X102.157 Y90.041 E0.2158
G1 X103.256 Y89.867 E0.2746
G1 X103.256 Y102.419 E0.9374
G1 X102.170 Y102.247 E0.9954
G1 X101.822 Y102.135 E1.0147
G1 X101.604 Y102.029 E1.0275
G1 X101.604 Y100.753 E1.0949
G1 X101.702 Y100.417 E1.1134
G1 X101.798 Y99.857 E1.1434
G1 X101.829 Y99.309 E1.1724
G1 X101.764 Y93.738 E1.4666
; feature outer perimeter
G1 X101.284 Y93.741 F4800
G92 E0.0000
G1 X101.284 Y93.438 E0.0160 F785
G1 X101.350 Y93.004 E0.0392
G1 X101.318 Y92.463 E0.0678
G1 X101.236 Y91.986 E0.0934
G1 X101.124 Y91.601 E0.1146
G1 X101.124 Y89.991 E0.1995
G1 X101.539 Y89.784 E0.2240
G1 X101.681 Y89.690 E0.2331
G1 X102.045 Y89.573 E0.2532
G1 X103.736 Y89.305 E0.3436
G1 X103.736 Y102.981 E1.0658
G1 X102.058 Y102.715 E1.1555
G1 X101.642 Y102.581 E1.1785
G1 X101.124 Y102.329 E1.2090
G1 X101.124 Y100.685 E1.2958
G1 X101.233 Y100.309 E1.3165
G1 X101.320 Y99.803 E1.3436
G1 X101.349 Y99.298 E1.3703
G1 X101.284 Y93.741 E1.6637
; feature solid layer
G1 X102.602 Y90.384 F4800
G92 E0.0000
G1 X102.848 Y90.629 E0.0183 F1257
G1 X102.848 Y91.308 E0.0542
G1 X102.051 Y90.511 E0.1137
G1 X102.012 Y90.536 E0.1162
G1 X102.012 Y91.151 E0.1486
G1 X102.848 Y91.987 E0.2111
G1 X102.848 Y92.666 E0.2469
G1 X102.130 Y91.948 E0.3005
G1 X102.201 Y92.362 E0.3227
G1 X102.222 Y92.719 E0.3416
G1 X102.848 Y93.344 E0.3883
G1 X102.848 Y94.023 E0.4242
G1 X102.193 Y93.368 E0.4731
G1 X102.172 Y93.505 E0.4804
G1 X102.172 Y93.736 E0.4926
G1 X102.175 Y94.029 E0.5081
G1 X102.848 Y94.702 E0.5584
G1 X102.848 Y95.381 E0.5942
G1 X102.183 Y94.716 E0.6438
G1 X102.191 Y95.403 E0.6801
G1 X102.848 Y96.060 E0.7292
G1 X102.848 Y96.739 E0.7650
G1 X102.199 Y96.090 E0.8135
G1 X102.207 Y96.777 E0.8497
G1 X102.848 Y97.417 E0.8976
G1 X102.848 Y98.096 E0.9334
G1 X102.215 Y97.464 E0.9807
G1 X102.223 Y98.150 E1.0169
G1 X102.848 Y98.775 E1.0636
G1 X102.848 Y99.454 E1.0994
G1 X102.231 Y98.837 E1.1455
G1 X102.237 Y99.318 E1.1709
G1 X102.226 Y99.511 E1.1811
G1 X102.848 Y100.133 E1.2275
G1 X102.848 Y100.812 E1.2633
G1 X102.165 Y100.129 E1.3143
G1 X102.100 Y100.508 E1.3347
G1 X102.047 Y100.690 E1.3446
G1 X102.848 Y101.490 E1.4044
G1 X102.848 Y101.941 E1.4282
G1 X102.577 Y101.898 E1.4427
G1 X102.012 Y101.333 E1.4849
G92 E0.0000
G1 E-0.7000 F1500
; feature support
G1 X108.030 Y94.240 F4800
G1 E0.0000 F1500
G92 E0.0000
G1 X111.970 Y94.240 E0.2080 F1257
G1 X111.970 Y92.320 E0.3094
G1 X108.030 Y92.320 E0.5175
G1 X108.030 Y91.970 E0.5360
G1 X104.526 Y91.970 E0.7210
G1 X104.526 Y90.400 E0.8039
G1 X115.970 Y90.400 E1.4082
G1 X115.970 Y88.480 E1.5096
G1 X104.526 Y88.480 E2.1138
G92 E0.0000
G1 E-0.7000 F1500
G1 X120.030 Y92.320 F4800
G1 E0.0000 F1500
G92 E0.0000
G1 X123.970 Y92.320 E0.2080 F1257
G1 X123.970 Y94.240 E0.3094
G1 X120.030 Y94.240 E0.5175
G92 E0.0000
G1 E-0.7000 F1500
G1 X84.030 Y90.400 F4800
G1 E0.0000 F1500
G92 E0.0000
G1 X91.970 Y90.400 E0.4193 F1257
G1 X91.970 Y88.480 E0.5206
G1 X84.030 Y88.480 E0.9399
G92 E0.0000
G1 E-0.7000 F1500
G1 X80.030 Y92.320 F4800
G1 E0.0000 F1500
G92 E0.0000
G1 X83.970 Y92.320 E0.2080 F1257
G1 X83.970 Y94.240 E0.3094
G1 X80.030 Y94.240 E0.5175
G92 E0.0000
G1 E-0.7000 F1500
G1 X76.030 Y96.160 F4800
G1 E0.0000 F1500
G92 E0.0000
G1 X79.970 Y96.160 E0.2080 F1257
G1 X79.970 Y98.080 E0.3094
G1 X76.030 Y98.080 E0.5175
G1 X76.030 Y100.000 E0.6189
G1 X79.970 Y100.000 E0.8269
G1 X79.970 Y101.920 E0.9283
G1 X72.030 Y101.920 E1.3476
G1 X72.030 Y103.840 E1.4489
G1 X79.970 Y103.840 E1.8682
G1 X79.970 Y104.030 E1.8782
G1 X83.970 Y104.030 E2.0894
G1 X83.970 Y105.760 E2.1808
G1 X68.030 Y105.760 E3.0225
G1 X68.030 Y107.680 E3.1239
G1 X83.970 Y107.680 E3.9656
G1 X83.970 Y107.970 E3.9809
G1 X75.970 Y107.970 E4.4033
G1 X75.970 Y109.600 E4.4894
G1 X68.030 Y109.600 E4.9086
G1 X68.030 Y111.520 E5.0100
G1 X75.970 Y111.520 E5.4293
G92 E0.0000
G1 E-0.7000 F1500
G1 X84.030 Y103.840 F4800
G1 E0.0000 F1500
G92 E0.0000
G1 X95.970 Y103.840 E0.6305 F1257
G1 X95.970 Y103.602 E0.6430
G1 X95.918 Y103.595 E0.6458
G1 X94.367 Y103.128 E0.7313
G1 X94.013 Y102.948 E0.7523
G1 X93.667 Y102.294 E0.7914
G1 X94.149 Y101.920 E0.8236
G1 X84.030 Y101.920 E1.3579
G92 E0.0000
G1 E-0.7000 F1500
; layer 2, Z = 0.570
M106 S255
; feature inner perimeter
; tool H0.300 W0.480
G1 Z0.570 F1002
G1 X98.608 Y102.346 F4800
G1 E0.0000 F1500
G92 E0.0000
G1 X98.956 Y102.231 E0.0215 F1400
G1 X99.437 Y102.001 E0.0528
G1 X99.875 Y101.691 E0.0843
G1 X100.262 Y101.312 E0.1161
G1 X100.457 Y101.057 E0.1349
G1 X100.693 Y100.657 E0.1621
G1 X100.868 Y100.219 E0.1898
G1 X100.971 Y99.773 E0.2167
G1 X101.020 Y99.331 E0.2427
G1 X101.001 Y93.445 E0.5881
G1 X101.022 Y92.965 E0.6163
G1 X100.957 Y92.432 E0.6478
G1 X100.890 Y92.147 E0.6649
G1 X100.799 Y91.876 E0.6817
G1 X100.684 Y91.614 E0.6985
G1 X100.545 Y91.363 E0.7153
G1 X100.382 Y91.125 E0.7323
G1 X100.196 Y90.901 E0.7493
G1 X99.980 Y90.686 E0.7672
G1 X99.548 Y90.355 E0.7992
G1 X99.280 Y90.200 E0.8173
G1 X99.008 Y90.074 E0.8349
G1 X98.606 Y89.934 E0.8599
G1 X98.640 Y89.595 E0.8799
G1 X99.078 Y89.536 E0.9058
G1 X101.974 Y89.273 E1.0764
G1 X103.007 Y89.190 E1.1372
G1 X103.256 Y89.175 E1.1519
G1 X103.256 Y103.116 E1.9698
G1 X101.872 Y103.003 E2.0513
G1 X99.142 Y102.756 E2.2121
G1 X98.639 Y102.689 E2.2419
G1 X98.608 Y102.346 E2.2621
; feature outer perimeter
G1 X98.543 Y101.862 F4800
G92 E0.0000
G1 X98.777 Y101.785 E0.0145 F933
G1 X99.193 Y101.586 E0.0415
G1 X99.566 Y101.321 E0.0683
G1 X99.902 Y100.992 E0.0959
G1 X100.059 Y100.788 E0.1111
G1 X100.261 Y100.445 E0.1344
G1 X100.408 Y100.075 E0.1578
G1 X100.497 Y99.692 E0.1808
G1 X100.540 Y99.306 E0.2036
G1 X100.521 Y93.436 E0.5480
G1 X100.540 Y92.983 E0.5746
G1 X100.484 Y92.516 E0.6022
G1 X100.428 Y92.279 E0.6165
G1 X100.351 Y92.050 E0.6307
G1 X100.254 Y91.828 E0.6449
G1 X100.136 Y91.616 E0.6591
G1 X99.998 Y91.414 E0.6735
G1 X99.841 Y91.225 E0.6879
G1 X99.664 Y91.049 E0.7026
G1 X99.281 Y90.755 E0.7309
G1 X99.059 Y90.626 E0.7459
G1 X98.828 Y90.520 E0.7608
G1 X98.586 Y90.436 E0.7759
G1 X98.333 Y90.374 E0.7912
G1 X95.991 Y90.091 E0.9296
G1 X94.942 Y89.880 E0.9923
G1 X94.824 Y89.836 E0.9997
G1 X96.018 Y89.467 E1.0731
G1 X96.194 Y89.439 E1.0835
G1 X99.024 Y89.059 E1.2510
G1 X101.933 Y88.795 E1.4224
G1 X102.973 Y88.711 E1.4836
G1 X103.736 Y88.665 E1.5285
G1 X103.736 Y103.620 E2.4059
G1 X102.993 Y103.576 E2.4496
G1 X101.831 Y103.481 E2.5180
G1 X99.088 Y103.233 E2.6796
G1 X96.083 Y102.830 E2.8575
G1 X94.806 Y102.446 E2.9357
G1 X94.854 Y102.428 E2.9387
G1 X96.051 Y102.185 E3.0104
G1 X98.091 Y101.948 E3.1309
G1 X98.543 Y101.862 E3.1579
; feature gap fill
G1 X98.205 Y102.474 F4800
G92 E0.0000
G1 X98.003 Y102.676 E0.0168 F1866
G1 X97.404 Y102.596 E0.0522
G1 X97.583 Y102.417 E0.0670
G1 X96.814 Y102.507 E0.1124
G1 X96.806 Y102.515 E0.1131
G92 E0.0000
G1 E-0.7000 F1500
G1 X97.874 Y89.908 F4800
G1 E0.0000 F1500
G92 E0.0000
