; G-Code generated by Simplify3D(R) Version 4.1.1
; Apr 27, 2021 at 7:27:09 PM
; Settings Summary
;   processName,Trideo BOX
;   applyToModels,Right Thumb
;   profileName,Trideo BOX
;   profileVersion,2021-04-15 09:48:16
;   baseProfile,Default
;   printMaterial,PLA
;   printQuality,Fast
;   printExtruders,
;   extruderName,Primary Extruder
;   extruderToolheadNumber,0
;   extruderDiameter,0.4
;   extruderAutoWidth,1
;   extruderWidth,0.48
;   extrusionMultiplier,0.98
;   extruderUseRetract,1
;   extruderRetractionDistance,0.7
;   extruderExtraRestartDistance,0
;   extruderRetractionZLift,0
;   extruderRetractionSpeed,1500
;   extruderUseCoasting,0
;   extruderCoastingDistance,0.2
;   extruderUseWipe,0
;   extruderWipeDistance,5
;   primaryExtruder,0
;   layerHeight,0.3
;   topSolidLayers,3
;   bottomSolidLayers,3
;   perimeterOutlines,2
;   printPerimetersInsideOut,1
;   startPointOption,2
;   startPointOriginX,0
;   startPointOriginY,0
;   sequentialIslands,0
;   spiralVaseMode,0
;   firstLayerHeightPercentage,90
;   firstLayerWidthPercentage,100
;   firstLayerUnderspeed,0.5
;   useRaft,0
;   raftExtruder,0
;   raftTopLayers,3
;   raftBaseLayers,2
;   raftOffset,3
;   raftSeparationDistance,0.14
;   raftTopInfill,100
;   aboveRaftSpeedMultiplier,0.3
;   useSkirt,1
;   skirtExtruder,0
;   skirtLayers,1
;   skirtOutlines,2
;   skirtOffset,4
;   usePrimePillar,0
;   primePillarExtruder,999
;   primePillarWidth,12
;   primePillarLocation,7
;   primePillarSpeedMultiplier,1
;   useOozeShield,0
;   oozeShieldExtruder,999
;   oozeShieldOffset,2
;   oozeShieldOutlines,1
;   oozeShieldSidewallShape,1
;   oozeShieldSidewallAngle,30
;   oozeShieldSpeedMultiplier,1
;   infillExtruder,0
;   internalInfillPattern,Rectilinear
;   externalInfillPattern,Rectilinear
;   infillPercentage,15
;   outlineOverlapPercentage,15
;   infillExtrusionWidthPercentage,100
;   minInfillLength,5
;   infillLayerInterval,1
;   internalInfillAngles,45,-45
;   overlapInternalInfillAngles,0
;   externalInfillAngles,45,-45
;   generateSupport,1
;   supportExtruder,0
;   supportInfillPercentage,25
;   supportExtraInflation,0
;   supportBaseLayers,0
;   denseSupportExtruder,0
;   denseSupportLayers,0
;   denseSupportInfillPercentage,70
;   supportLayerInterval,1
;   supportHorizontalPartOffset,0.3
;   supportUpperSeparationLayers,1
;   supportLowerSeparationLayers,1
;   supportType,0
;   supportGridSpacing,4
;   maxOverhangAngle,45
;   supportAngles,0
;   temperatureName,Primary Extruder,Heated bed
;   temperatureNumber,0,0
;   temperatureSetpointCount,1,1
;   temperatureSetpointLayers,1,1
;   temperatureSetpointTemperatures,190,60
;   temperatureStabilizeAtStartup,1,1
;   temperatureHeatedBed,0,1
;   fanLayers,1,2
;   fanSpeeds,0,100
;   blipFanToFullPower,0
;   adjustSpeedForCooling,1
;   minSpeedLayerTime,15
;   minCoolingSpeedSlowdown,20
;   increaseFanForCooling,0
;   minFanLayerTime,45
;   maxCoolingFanSpeed,100
;   increaseFanForBridging,0
;   bridgingFanSpeed,100
;   use5D,1
;   relativeEdistances,0
;   allowEaxisZeroing,1
;   independentExtruderAxes,0
;   includeM10123,0
;   stickySupport,1
;   applyToolheadOffsets,0
;   gcodeXoffset,0
;   gcodeYoffset,0
;   gcodeZoffset,0
;   overrideMachineDefinition,1
;   machineTypeOverride,0
;   strokeXoverride,200
;   strokeYoverride,200
;   strokeZoverride,200
;   originOffsetXoverride,0
;   originOffsetYoverride,0
;   originOffsetZoverride,0
;   homeXdirOverride,-1
;   homeYdirOverride,-1
;   homeZdirOverride,-1
;   flipXoverride,1
;   flipYoverride,-1
;   flipZoverride,1
;   toolheadOffsets,0,0|0,0|0,0|0,0|0,0|0,0
;   overrideFirmwareConfiguration,0
;   firmwareTypeOverride,RepRap (Marlin/Repetier/Sprinter)
;   GPXconfigOverride,r2
;   baudRateOverride,115200
;   overridePrinterModels,0
;   printerModelsOverride
;   startingGcode,G28 X0 Y0; home XY,G1 X20 Y20,G28 Z0,G1 Z5 F5000; Lift NZ
;   layerChangeGcode,
;   retractionGcode,
;   toolChangeGcode,
;   endingGcode,M104 S0 ; turn off extruder,G28 X0 ; home x,M140 S0 ; turn off bed,M84 ; disable motors,M107 ;
;   exportFileFormat,gcode
;   celebration,0
;   celebrationSong,Looney Toons
;   postProcessing,
;   defaultSpeed,3600
;   outlineUnderspeed,0.5
;   solidInfillUnderspeed,0.8
;   supportUnderspeed,0.8
;   rapidXYspeed,4800
;   rapidZspeed,1002
;   minBridgingArea,50
;   bridgingExtraInflation,0
;   bridgingExtrusionMultiplier,1
;   bridgingSpeedMultiplier,1
;   useFixedBridgingAngle,0
;   fixedBridgingAngle,0
;   applyBridgingToPerimeters,0
;   filamentDiameters,1.75|1.75|1.75|1.75|1.75|1.75
;   filamentPricesPerKg,46|46|46|46|46|46
;   filamentDensities,1.25|1.25|1.25|1.25|1.25|1.25
;   useMinPrintHeight,0
;   minPrintHeight,0
;   useMaxPrintHeight,0
;   maxPrintHeight,0
;   useDiaphragm,0
;   diaphragmLayerInterval,20
;   robustSlicing,1
;   mergeAllIntoSolid,0
;   onlyRetractWhenCrossingOutline,1
;   retractBetweenLayers,1
;   useRetractionMinTravel,0
;   retractionMinTravel,3
;   retractWhileWiping,0
;   onlyWipeOutlines,1
;   avoidCrossingOutline,0
;   maxMovementDetourFactor,3
;   toolChangeRetractionDistance,12
;   toolChangeExtraRestartDistance,-0.5
;   toolChangeRetractionSpeed,600
;   externalThinWallType,0
;   internalThinWallType,2
;   thinWallAllowedOverlapPercentage,10
;   singleExtrusionMinLength,1
;   singleExtrusionMinPrintingWidthPercentage,50
;   singleExtrusionMaxPrintingWidthPercentage,200
;   singleExtrusionEndpointExtension,0.2
;   horizontalSizeCompensation,0
G90
M82
M106 S0
M140 S60
M190 S60
M104 S190 T0
M109 S190 T0
G28 X0 Y0; home XY
G1 X20 Y20
G28 Z0
G1 Z5 F5000; Lift NZ
; process Trideo BOX
; layer 1, Z = 0.270
T0
G92 E0.0000
G1 E-0.7000 F1500
; feature skirt
; tool H0.270 W0.480
G1 Z0.270 F1002
G1 X81.825 Y81.060 F4800
G1 E0.0000 F1500
G92 E0.0000
G1 X98.175 Y81.060 E0.8634 F1800
G1 X100.000 Y82.885 E0.9996
G1 X101.825 Y81.060 E1.1359
G1 X118.175 Y81.060 E1.9993
G1 X120.940 Y83.825 E2.2057
G1 X120.940 Y85.060 E2.2709
G1 X126.175 Y85.060 E2.5474
G1 X128.940 Y87.825 E2.7539
G1 X128.940 Y96.175 E3.1948
G1 X127.115 Y98.000 E3.3310
G1 X128.940 Y99.825 E3.4673
G1 X128.940 Y108.175 E3.9082
G1 X126.175 Y110.940 E4.1147
G1 X117.825 Y110.940 E4.5556
G1 X115.060 Y108.175 E4.7621
G1 X115.060 Y99.825 E5.2030
G1 X116.885 Y98.000 E5.3393
G1 X115.060 Y96.175 E5.4756
G1 X115.060 Y94.940 E5.5408
G1 X109.138 Y94.940 E5.8535
G1 X109.138 Y105.744 E6.4240
G1 X105.829 Y108.570 E6.6538
G1 X104.720 Y108.395 E6.7131
G1 X102.175 Y110.940 E6.9031
G1 X84.940 Y110.940 E7.8132
G1 X84.940 Y112.175 E7.8784
G1 X82.175 Y114.940 E8.0849
G1 X76.940 Y114.940 E8.3613
G1 X76.940 Y116.175 E8.4265
G1 X74.175 Y118.940 E8.6330
G1 X61.825 Y118.940 E9.2852
G1 X59.060 Y116.175 E9.4916
G1 X59.060 Y103.825 E10.1438
G1 X61.825 Y101.060 E10.3502
G1 X63.060 Y101.060 E10.4155
G1 X63.060 Y99.825 E10.4807
G1 X65.825 Y97.060 E10.6871
G1 X67.060 Y97.060 E10.7524
G1 X67.060 Y95.825 E10.8176
G1 X69.825 Y93.060 E11.0241
G1 X71.060 Y93.060 E11.0893
G1 X71.060 Y91.825 E11.1545
G1 X73.825 Y89.060 E11.3610
G1 X75.060 Y89.060 E11.4262
G1 X75.060 Y87.825 E11.4914
G1 X77.825 Y85.060 E11.6979
G1 X79.060 Y85.060 E11.7631
G1 X79.060 Y83.825 E11.8283
G1 X81.825 Y81.060 E12.0348
G92 E0.0000
G1 E-0.7000 F1500
G1 X82.024 Y81.540 F4800
G1 E0.0000 F1500
G92 E0.0000
G1 X97.976 Y81.540 E0.8424 F1800
G1 X100.000 Y83.564 E0.9935
G1 X102.024 Y81.540 E1.1446
G1 X117.976 Y81.540 E1.9870
G1 X120.460 Y84.024 E2.1724
G1 X120.460 Y85.540 E2.2525
G1 X125.976 Y85.540 E2.5438
G1 X128.460 Y88.024 E2.7293
G1 X128.460 Y95.976 E3.1492
G1 X126.436 Y98.000 E3.3003
G1 X128.460 Y100.024 E3.4514
G1 X128.460 Y107.976 E3.8713
G1 X125.976 Y110.460 E4.0568
G1 X118.024 Y110.460 E4.4767
G1 X115.540 Y107.976 E4.6622
G1 X115.540 Y100.024 E5.0821
G1 X117.564 Y98.000 E5.2333
G1 X115.540 Y95.976 E5.3844
G1 X115.540 Y94.460 E5.4645
G1 X108.658 Y94.460 E5.8279
G1 X108.658 Y105.523 E6.4120
G1 X105.685 Y108.062 E6.6184
G1 X104.460 Y107.868 E6.6840
G1 X104.460 Y107.976 E6.6897
G1 X101.976 Y110.460 E6.8752
G1 X84.460 Y110.460 E7.8001
G1 X84.460 Y111.976 E7.8801
G1 X81.976 Y114.460 E8.0656
G1 X76.460 Y114.460 E8.3569
G1 X76.460 Y115.976 E8.4370
G1 X73.976 Y118.460 E8.6224
G1 X62.024 Y118.460 E9.2536
G1 X59.540 Y115.976 E9.4391
G1 X59.540 Y104.024 E10.0702
G1 X62.024 Y101.540 E10.2557
G1 X63.540 Y101.540 E10.3357
G1 X63.540 Y100.024 E10.4158
G1 X66.024 Y97.540 E10.6013
G1 X67.540 Y97.540 E10.6813
G1 X67.540 Y96.024 E10.7614
G1 X70.024 Y93.540 E10.9469
G1 X71.540 Y93.540 E11.0269
G1 X71.540 Y92.024 E11.1070
G1 X74.024 Y89.540 E11.2925
G1 X75.540 Y89.540 E11.3725
G1 X75.540 Y88.024 E11.4526
G1 X78.024 Y85.540 E11.6381
G1 X79.540 Y85.540 E11.7181
G1 X79.540 Y84.024 E11.7982
G1 X82.024 Y81.540 E11.9837
G92 E0.0000
G1 E-0.7000 F1500
; feature inner perimeter
G1 X102.046 Y89.160 F4800
G1 E0.0000 F1500
G92 E0.0000
G1 X102.346 Y89.010 E0.0177 F1350
G1 X102.450 Y88.941 E0.0243
G1 X102.695 Y88.862 E0.0379
G1 X103.698 Y88.703 E0.0915
G1 X103.698 Y102.725 E0.8319
G1 X102.708 Y102.569 E0.8849
G1 X102.381 Y102.464 E0.9030
G1 X102.046 Y102.300 E0.9227
G1 X102.046 Y89.160 E1.6165
; feature outer perimeter
G1 X101.566 Y88.863 F4800
G92 E0.0000
G1 X102.105 Y88.594 E0.0318 F900
G1 X102.240 Y88.504 E0.0404
G1 X102.584 Y88.394 E0.0594
G1 X104.178 Y88.141 E0.1447
G1 X104.178 Y103.287 E0.9444
G1 X102.596 Y103.037 E1.0290
G1 X102.202 Y102.910 E1.0509
G1 X101.566 Y102.600 E1.0882
G1 X101.566 Y88.863 E1.8136
; feature solid layer
G1 X102.830 Y89.254 F4800
G92 E0.0000
G1 X103.290 Y89.713 E0.0343 F1440
G1 X103.290 Y90.392 E0.0702
G1 X102.454 Y89.556 E0.1326
G1 X102.454 Y90.235 E0.1684
G1 X103.290 Y91.071 E0.2309
G1 X103.290 Y91.750 E0.2667
G1 X102.454 Y90.914 E0.3291
G1 X102.454 Y91.593 E0.3650
G1 X103.290 Y92.429 E0.4274
G1 X103.290 Y93.107 E0.4632
G1 X102.454 Y92.271 E0.5257
G1 X102.454 Y92.950 E0.5615
G1 X103.290 Y93.786 E0.6240
G1 X103.290 Y94.465 E0.6598
G1 X102.454 Y93.629 E0.7222
G1 X102.454 Y94.308 E0.7581
G1 X103.290 Y95.144 E0.8205
G1 X103.290 Y95.823 E0.8563
G1 X102.454 Y94.987 E0.9188
G1 X102.454 Y95.666 E0.9546
G1 X103.290 Y96.502 E1.0170
G1 X103.290 Y97.180 E1.0529
G1 X102.454 Y96.344 E1.1153
G1 X102.454 Y97.023 E1.1512
G1 X103.290 Y97.859 E1.2136
G1 X103.290 Y98.538 E1.2494
G1 X102.454 Y97.702 E1.3119
G1 X102.454 Y98.381 E1.3477
G1 X103.290 Y99.217 E1.4101
G1 X103.290 Y99.896 E1.4460
G1 X102.454 Y99.060 E1.5084
G1 X102.454 Y99.738 E1.5443
G1 X103.290 Y100.574 E1.6067
G1 X103.290 Y101.253 E1.6425
G1 X102.454 Y100.417 E1.7050
G1 X102.454 Y101.096 E1.7408
G1 X103.290 Y101.932 E1.8032
G1 X103.290 Y102.248 E1.8199
G1 X102.858 Y102.179 E1.8430
G1 X102.454 Y101.775 E1.8732
G92 E0.0000
G1 E-0.7000 F1500
; feature support
G1 X104.968 Y88.480 F4800
G1 E0.0000 F1500
G92 E0.0000
G1 X115.970 Y88.480 E0.5810 F1440
G1 X115.970 Y86.560 E0.6823
G1 X104.030 Y86.560 E1.3128
G92 E0.0000
G1 E-0.7000 F1500
G1 X120.030 Y90.400 F4800
G1 E0.0000 F1500
G92 E0.0000
G1 X123.970 Y90.400 E0.2080 F1440
G1 X123.970 Y92.320 E0.3094
G1 X120.030 Y92.320 E0.5175
G92 E0.0000
G1 E-0.7000 F1500
G1 X120.030 Y103.840 F4800
G1 E0.0000 F1500
G92 E0.0000
G1 X123.970 Y103.840 E0.2080 F1440
G1 X123.970 Y105.760 E0.3094
G1 X120.030 Y105.760 E0.5175
G92 E0.0000
G1 E-0.7000 F1500
G1 X84.030 Y88.480 F4800
G1 E0.0000 F1500
G92 E0.0000
G1 X94.311 Y88.480 E0.5429 F1440
G1 X94.496 Y88.131 E0.5637
G1 X95.970 Y87.657 E0.6455
G1 X95.970 Y86.560 E0.7034
G1 X84.030 Y86.560 E1.3339
G92 E0.0000
G1 E-0.7000 F1500
G1 X80.030 Y90.400 F4800
G1 E0.0000 F1500
G92 E0.0000
G1 X83.970 Y90.400 E0.2080 F1440
G1 X83.970 Y92.320 E0.3094
G1 X80.030 Y92.320 E0.5175
G92 E0.0000
G1 E-0.7000 F1500
G1 X76.030 Y94.240 F4800
G1 E0.0000 F1500
G92 E0.0000
G1 X79.970 Y94.240 E0.2080 F1440
G1 X79.970 Y96.160 E0.3094
G1 X76.030 Y96.160 E0.5175
G92 E0.0000
G1 E-0.7000 F1500
G1 X72.030 Y98.080 F4800
G1 E0.0000 F1500
G92 E0.0000
G1 X75.970 Y98.080 E0.2080 F1440
G1 X75.970 Y100.000 E0.3094
G1 X72.030 Y100.000 E0.5175
G1 X72.030 Y101.920 E0.6189
G1 X75.970 Y101.920 E0.8269
G1 X75.970 Y102.030 E0.8327
G1 X94.899 Y102.030 E1.8322
G1 X94.711 Y102.098 E1.8428
G1 X94.109 Y102.566 E1.8830
G1 X94.468 Y103.245 E1.9236
G1 X94.740 Y103.383 E1.9397
G1 X96.197 Y103.840 E2.0203
G1 X68.030 Y103.840 E3.5077
G1 X68.030 Y105.760 E3.6091
G1 X99.970 Y105.760 E5.2956
G1 X99.970 Y105.970 E5.3067
G1 X79.970 Y105.970 E6.3628
G1 X79.970 Y107.680 E6.4531
G1 X64.030 Y107.680 E7.2948
G1 X64.030 Y109.600 E7.3961
G1 X79.970 Y109.600 E8.2378
G1 X79.970 Y109.970 E8.2574
G1 X71.970 Y109.970 E8.6798
G1 X71.970 Y111.520 E8.7616
G1 X64.030 Y111.520 E9.1809
G1 X64.030 Y113.440 E9.2823
G1 X71.970 Y113.440 E9.7016
G92 E0.0000
G1 E-0.7000 F1500
; layer 2, Z = 0.570
M106 S255
; feature inner perimeter
; tool H0.300 W0.480
G1 Z0.570 F1002
G1 X98.571 Y102.940 F4800
G1 E0.0000 F1500
G92 E0.0000
G1 X98.539 Y102.597 E0.0202 F1716
G1 X98.820 Y102.505 E0.0375
G1 X99.104 Y102.384 E0.0556
G1 X99.374 Y102.240 E0.0736
G1 X99.630 Y102.074 E0.0915
G1 X99.868 Y101.888 E0.1092
G1 X100.089 Y101.683 E0.1269
G1 X100.308 Y101.439 E0.1461
G1 X100.509 Y101.169 E0.1659
G1 X100.764 Y100.722 E0.1961
G1 X100.953 Y100.239 E0.2265
G1 X101.066 Y99.747 E0.2561
G1 X101.123 Y99.255 E0.2852
G1 X101.110 Y92.522 E0.6802
G1 X101.125 Y92.185 E0.7000
G1 X101.051 Y91.590 E0.7352
G1 X100.977 Y91.277 E0.7541
G1 X100.877 Y90.976 E0.7727
G1 X100.755 Y90.691 E0.7908
G1 X100.605 Y90.412 E0.8095
G1 X100.428 Y90.145 E0.8282
G1 X100.227 Y89.893 E0.8472
G1 X100.001 Y89.660 E0.8662
G1 X99.753 Y89.447 E0.8854
G1 X99.485 Y89.257 E0.9046
G1 X99.198 Y89.091 E0.9241
G1 X98.894 Y88.951 E0.9438
G1 X98.534 Y88.826 E0.9661
G1 X98.568 Y88.487 E0.9861
G1 X99.870 Y88.312 E1.0632
G1 X103.698 Y87.965 E1.2887
G1 X103.698 Y103.464 E2.1981
G1 X99.930 Y103.122 E2.4200
G1 X98.571 Y102.940 E2.5005
; feature outer perimeter
G1 X98.393 Y102.140 F4800
G92 E0.0000
G1 X98.651 Y102.055 E0.0159 F1144
G1 X98.896 Y101.951 E0.0316
G1 X99.130 Y101.826 E0.0471
G1 X99.351 Y101.683 E0.0626
G1 X99.556 Y101.522 E0.0779
G1 X99.747 Y101.346 E0.0931
G1 X99.936 Y101.135 E0.1098
G1 X100.107 Y100.906 E0.1265
G1 X100.330 Y100.515 E0.1529
G1 X100.493 Y100.097 E0.1792
G1 X100.593 Y99.665 E0.2052
G1 X100.643 Y99.228 E0.2311
G1 X100.630 Y92.512 E0.6251
G1 X100.643 Y92.204 E0.6431
G1 X100.578 Y91.675 E0.6745
G1 X100.515 Y91.408 E0.6905
G1 X100.428 Y91.147 E0.7067
G1 X100.322 Y90.900 E0.7224
G1 X100.192 Y90.658 E0.7385
G1 X100.040 Y90.428 E0.7548
G1 X99.866 Y90.211 E0.7711
G1 X99.671 Y90.009 E0.7875
G1 X99.458 Y89.826 E0.8040
G1 X99.226 Y89.661 E0.8207
G1 X98.978 Y89.518 E0.8375
G1 X98.715 Y89.397 E0.8545
G1 X98.437 Y89.301 E0.8718
G1 X98.124 Y89.231 E0.8905
G1 X97.886 Y89.159 E0.9052
G1 X96.384 Y88.982 E0.9939
G1 X95.649 Y88.834 E1.0379
G1 X95.279 Y88.699 E1.0610
G1 X96.558 Y88.288 E1.1398
G1 X97.186 Y88.188 E1.1771
G1 X99.817 Y87.835 E1.3328
G1 X103.807 Y87.473 E1.5679
G1 X104.178 Y87.446 E1.5897
G1 X104.178 Y103.982 E2.5599
G1 X103.775 Y103.953 E2.5835
G1 X99.876 Y103.600 E2.8132
G1 X96.979 Y103.210 E2.9847
G1 X96.608 Y103.151 E3.0068
G1 X95.260 Y102.729 E3.0897
G1 X95.586 Y102.610 E3.1100
G1 X96.427 Y102.439 E3.1604
G1 X97.886 Y102.269 E3.2466
G1 X98.109 Y102.200 E3.2602
G1 X98.393 Y102.140 E3.2773
; feature gap fill
G1 X97.774 Y102.905 F4800
G92 E0.0000
G1 X98.025 Y102.653 E0.0209 F2287
G1 X97.971 Y102.670 E0.0242
G1 X97.245 Y102.755 E0.0671
G1 X97.175 Y102.825 E0.0729
G92 E0.0000
G1 E-0.7000 F1500
G1 X97.698 Y88.726 F4800
G1 E0.0000 F1500
G92 E0.0000
G1 X97.923 Y88.501 E0.0187 F2287
G1 X97.245 Y88.592 E0.0588
G1 X97.136 Y88.609 E0.0653
G1 X97.090 Y88.654 E0.0691
; feature solid layer
G1 X99.605 Y88.855 F4800
G92 E0.0000
G1 X99.715 Y88.745 E0.0091 F1830
G1 X99.916 Y88.718 E0.0210
G1 X100.472 Y88.667 E0.0537
G1 X100.010 Y89.129 E0.0921
G1 X100.281 Y89.362 E0.1131
G1 X100.367 Y89.451 E0.1203
G1 X101.218 Y88.599 E0.1910
G1 X101.965 Y88.532 E0.2349
G1 X100.685 Y89.812 E0.3412
G1 X100.759 Y89.904 E0.3481
G1 X100.955 Y90.202 E0.3691
G1 X100.961 Y90.214 E0.3698
G1 X102.712 Y88.464 E0.5150
G1 X103.290 Y88.411 E0.5491
G1 X103.290 Y88.564 E0.5581
G1 X101.188 Y90.666 E0.7325
G1 X101.259 Y90.831 E0.7430
G1 X101.370 Y91.163 E0.7636
