; G-Code generated by Simplify3D(R) Version 4.1.1
; Apr 27, 2021 at 7:42:08 PM
; Settings Summary
;   processName,Trideo BOX
;   applyToModels,UpperArm - Finger slider
;   profileName,Trideo BOX
;   profileVersion,2021-04-15 09:48:16
;   baseProfile,Default
;   printMaterial,PLA
;   printQuality,Fast
;   printExtruders,
;   extruderName,Primary Extruder
;   extruderToolheadNumber,0
;   extruderDiameter,0.4
;   extruderAutoWidth,1
;   extruderWidth,0.48
;   extrusionMultiplier,0.98
;   extruderUseRetract,1
;   extruderRetractionDistance,0.7
;   extruderExtraRestartDistance,0
;   extruderRetractionZLift,0
;   extruderRetractionSpeed,1500
;   extruderUseCoasting,0
;   extruderCoastingDistance,0.2
;   extruderUseWipe,0
;   extruderWipeDistance,5
;   primaryExtruder,0
;   layerHeight,0.3
;   topSolidLayers,3
;   bottomSolidLayers,3
;   perimeterOutlines,2
;   printPerimetersInsideOut,1
;   startPointOption,2
;   startPointOriginX,0
;   startPointOriginY,0
;   sequentialIslands,0
;   spiralVaseMode,0
;   firstLayerHeightPercentage,90
;   firstLayerWidthPercentage,100
;   firstLayerUnderspeed,0.5
;   useRaft,0
;   raftExtruder,0
;   raftTopLayers,3
;   raftBaseLayers,2
;   raftOffset,3
;   raftSeparationDistance,0.14
;   raftTopInfill,100
;   aboveRaftSpeedMultiplier,0.3
;   useSkirt,1
;   skirtExtruder,0
;   skirtLayers,1
;   skirtOutlines,2
;   skirtOffset,4
;   usePrimePillar,0
;   primePillarExtruder,999
;   primePillarWidth,12
;   primePillarLocation,7
;   primePillarSpeedMultiplier,1
;   useOozeShield,0
;   oozeShieldExtruder,999
;   oozeShieldOffset,2
;   oozeShieldOutlines,1
;   oozeShieldSidewallShape,1
;   oozeShieldSidewallAngle,30
;   oozeShieldSpeedMultiplier,1
;   infillExtruder,0
;   internalInfillPattern,Rectilinear
;   externalInfillPattern,Rectilinear
;   infillPercentage,15
;   outlineOverlapPercentage,15
;   infillExtrusionWidthPercentage,100
;   minInfillLength,5
;   infillLayerInterval,1
;   internalInfillAngles,45,-45
;   overlapInternalInfillAngles,0
;   externalInfillAngles,45,-45
;   generateSupport,1
;   supportExtruder,0
;   supportInfillPercentage,25
;   supportExtraInflation,0
;   supportBaseLayers,0
;   denseSupportExtruder,0
;   denseSupportLayers,0
;   denseSupportInfillPercentage,70
;   supportLayerInterval,1
;   supportHorizontalPartOffset,0.3
;   supportUpperSeparationLayers,1
;   supportLowerSeparationLayers,1
;   supportType,0
;   supportGridSpacing,4
;   maxOverhangAngle,45
;   supportAngles,0
;   temperatureName,Primary Extruder,Heated bed
;   temperatureNumber,0,0
;   temperatureSetpointCount,1,1
;   temperatureSetpointLayers,1,1
;   temperatureSetpointTemperatures,190,60
;   temperatureStabilizeAtStartup,1,1
;   temperatureHeatedBed,0,1
;   fanLayers,1,2
;   fanSpeeds,0,100
;   blipFanToFullPower,0
;   adjustSpeedForCooling,1
;   minSpeedLayerTime,15
;   minCoolingSpeedSlowdown,20
;   increaseFanForCooling,0
;   minFanLayerTime,45
;   maxCoolingFanSpeed,100
;   increaseFanForBridging,0
;   bridgingFanSpeed,100
;   use5D,1
;   relativeEdistances,0
;   allowEaxisZeroing,1
;   independentExtruderAxes,0
;   includeM10123,0
;   stickySupport,1
;   applyToolheadOffsets,0
;   gcodeXoffset,0
;   gcodeYoffset,0
;   gcodeZoffset,0
;   overrideMachineDefinition,1
;   machineTypeOverride,0
;   strokeXoverride,200
;   strokeYoverride,200
;   strokeZoverride,200
;   originOffsetXoverride,0
;   originOffsetYoverride,0
;   originOffsetZoverride,0
;   homeXdirOverride,-1
;   homeYdirOverride,-1
;   homeZdirOverride,-1
;   flipXoverride,1
;   flipYoverride,-1
;   flipZoverride,1
;   toolheadOffsets,0,0|0,0|0,0|0,0|0,0|0,0
;   overrideFirmwareConfiguration,0
;   firmwareTypeOverride,RepRap (Marlin/Repetier/Sprinter)
;   GPXconfigOverride,r2
;   baudRateOverride,115200
;   overridePrinterModels,0
;   printerModelsOverride
;   startingGcode,G28 X0 Y0; home XY,G1 X20 Y20,G28 Z0,G1 Z5 F5000; Lift NZ
;   layerChangeGcode,
;   retractionGcode,
;   toolChangeGcode,
;   endingGcode,M104 S0 ; turn off extruder,G28 X0 ; home x,M140 S0 ; turn off bed,M84 ; disable motors,M107 ;
;   exportFileFormat,gcode
;   celebration,0
;   celebrationSong,Looney Toons
;   postProcessing,
;   defaultSpeed,3600
;   outlineUnderspeed,0.5
;   solidInfillUnderspeed,0.8
;   supportUnderspeed,0.8
;   rapidXYspeed,4800
;   rapidZspeed,1002
;   minBridgingArea,50
;   bridgingExtraInflation,0
;   bridgingExtrusionMultiplier,1
;   bridgingSpeedMultiplier,1
;   useFixedBridgingAngle,0
;   fixedBridgingAngle,0
;   applyBridgingToPerimeters,0
;   filamentDiameters,1.75|1.75|1.75|1.75|1.75|1.75
;   filamentPricesPerKg,46|46|46|46|46|46
;   filamentDensities,1.25|1.25|1.25|1.25|1.25|1.25
;   useMinPrintHeight,0
;   minPrintHeight,0
;   useMaxPrintHeight,0
;   maxPrintHeight,0
;   useDiaphragm,0
;   diaphragmLayerInterval,20
;   robustSlicing,1
;   mergeAllIntoSolid,0
;   onlyRetractWhenCrossingOutline,1
;   retractBetweenLayers,1
;   useRetractionMinTravel,0
;   retractionMinTravel,3
;   retractWhileWiping,0
;   onlyWipeOutlines,1
;   avoidCrossingOutline,0
;   maxMovementDetourFactor,3
;   toolChangeRetractionDistance,12
;   toolChangeExtraRestartDistance,-0.5
;   toolChangeRetractionSpeed,600
;   externalThinWallType,0
;   internalThinWallType,2
;   thinWallAllowedOverlapPercentage,10
;   singleExtrusionMinLength,1
;   singleExtrusionMinPrintingWidthPercentage,50
;   singleExtrusionMaxPrintingWidthPercentage,200
;   singleExtrusionEndpointExtension,0.2
;   horizontalSizeCompensation,0
G90
M82
M106 S0
M140 S60
M190 S60
M104 S190 T0
M109 S190 T0
G28 X0 Y0; home XY
G1 X20 Y20
G28 Z0
G1 Z5 F5000; Lift NZ
; process Trideo BOX
; layer 1, Z = 0.270
T0
G92 E0.0000
G1 E-0.7000 F1500
; feature skirt
; tool H0.270 W0.480
G1 Z0.270 F1002
G1 X83.060 Y31.825 F4800
G1 E0.0000 F1500
G92 E0.0000
G1 X85.825 Y29.060 E0.2065 F1800
G1 X86.158 Y29.060 E0.2241
G1 X86.288 Y28.919 E0.2342
G1 X86.491 Y28.725 E0.2490
G1 X87.397 Y27.955 E0.3118
G1 X87.597 Y27.802 E0.3251
G1 X88.584 Y27.129 E0.3882
G1 X88.824 Y26.986 E0.4029
G1 X90.029 Y26.359 E0.4746
G1 X90.300 Y26.239 E0.4903
G1 X91.583 Y25.766 E0.5625
G1 X91.867 Y25.680 E0.5782
G1 X93.199 Y25.372 E0.6504
G1 X93.492 Y25.323 E0.6660
G1 X94.840 Y25.185 E0.7376
G1 X95.115 Y25.173 E0.7521
G1 X96.308 Y25.190 E0.8151
G1 X96.601 Y25.213 E0.8307
G1 X98.108 Y25.424 E0.9110
G1 X98.436 Y25.494 E0.9287
G1 X99.917 Y25.922 E1.0101
G1 X100.232 Y26.037 E1.0279
G1 X101.638 Y26.671 E1.1093
G1 X101.934 Y26.830 E1.1270
G1 X103.236 Y27.656 E1.2084
G1 X103.506 Y27.855 E1.2261
G1 X104.678 Y28.857 E1.3076
G1 X104.917 Y29.093 E1.3253
G1 X105.935 Y30.251 E1.4067
G1 X106.138 Y30.518 E1.4244
G1 X106.982 Y31.809 E1.5059
G1 X107.145 Y32.102 E1.5236
G1 X107.798 Y33.499 E1.6050
G1 X107.918 Y33.812 E1.6227
G1 X108.367 Y35.288 E1.7042
G1 X108.441 Y35.615 E1.7219
G1 X108.676 Y37.139 E1.8033
G1 X108.704 Y37.473 E1.8210
G1 X108.721 Y39.015 E1.9024
G1 X108.701 Y39.350 E1.9202
G1 X108.499 Y40.879 E2.0016
G1 X108.431 Y41.208 E2.0193
G1 X108.015 Y42.692 E2.1007
G1 X107.902 Y43.008 E2.1184
G1 X107.652 Y43.575 E2.1512
G1 X107.715 Y45.299 E2.2423
G1 X107.838 Y47.026 E2.3337
G1 X108.024 Y48.734 E2.4244
G1 X108.273 Y50.438 E2.5153
G1 X108.588 Y52.159 E2.6077
G1 X108.958 Y53.912 E2.7023
G1 X110.271 Y59.574 E3.0092
G1 X110.278 Y59.608 E3.0110
G1 X111.526 Y65.370 E3.3224
G1 X111.537 Y65.426 E3.3254
G1 X112.644 Y71.214 E3.6366
G1 X112.653 Y71.264 E3.6392
G1 X113.632 Y77.063 E3.9498
G1 X113.639 Y77.109 E3.9522
G1 X114.505 Y82.925 E4.2627
G1 X114.512 Y82.969 E4.2651
G1 X115.268 Y88.813 E4.5762
G1 X115.274 Y88.862 E4.5789
G1 X115.908 Y94.738 E4.8909
G1 X115.914 Y94.796 E4.8940
G1 X116.404 Y100.700 E5.2068
G1 X116.409 Y100.761 E5.2101
G1 X116.645 Y104.902 E5.4291
G1 X116.647 Y104.962 E5.4322
G1 X116.778 Y109.111 E5.6514
G1 X116.779 Y109.179 E5.6550
G1 X116.791 Y113.330 E5.8742
G1 X116.790 Y113.391 E5.8774
G1 X116.696 Y117.520 E6.0955
G1 X116.695 Y117.556 E6.0974
G1 X116.538 Y121.656 E6.3141
G1 X116.537 Y121.673 E6.3150
G1 X115.476 Y145.004 E7.5482
G1 X115.475 Y145.017 E7.5489
G1 X114.860 Y157.052 E8.1852
G1 X115.046 Y157.595 E8.2155
G1 X115.135 Y157.930 E8.2338
G1 X115.431 Y159.520 E8.3193
G1 X115.470 Y159.859 E8.3372
G1 X115.535 Y161.492 E8.4235
G1 X115.524 Y161.833 E8.4416
G1 X115.356 Y163.441 E8.5269
G1 X115.296 Y163.775 E8.5449
G1 X114.899 Y165.342 E8.6302
G1 X114.793 Y165.664 E8.6481
G1 X114.176 Y167.157 E8.7334
G1 X114.024 Y167.460 E8.7513
G1 X113.200 Y168.850 E8.8367
G1 X113.006 Y169.129 E8.8546
G1 X111.991 Y170.387 E8.9399
G1 X111.760 Y170.635 E8.9578
G1 X110.576 Y171.734 E9.0432
G1 X110.311 Y171.946 E9.0611
G1 X108.982 Y172.865 E9.1464
G1 X108.689 Y173.037 E9.1643
G1 X107.242 Y173.756 E9.2496
G1 X106.928 Y173.884 E9.2675
G1 X105.393 Y174.389 E9.3529
G1 X105.064 Y174.471 E9.3708
G1 X103.472 Y174.750 E9.4561
G1 X103.135 Y174.785 E9.4740
G1 X101.519 Y174.833 E9.5593
G1 X101.181 Y174.819 E9.5773
G1 X99.575 Y174.636 E9.6626
G1 X99.242 Y174.573 E9.6805
G1 X97.679 Y174.162 E9.7658
G1 X97.358 Y174.053 E9.7837
G1 X95.870 Y173.422 E9.8691
G1 X95.568 Y173.268 E9.8870
G1 X94.186 Y172.430 E9.9723
G1 X93.909 Y172.234 E9.9902
G1 X92.661 Y171.208 E10.0756
G1 X92.415 Y170.974 E10.0935
G1 X91.326 Y169.780 E10.1788
G1 X91.117 Y169.514 E10.1967
G1 X90.210 Y168.176 E10.2820
G1 X90.041 Y167.882 E10.2999
G1 X89.335 Y166.428 E10.3853
G1 X89.210 Y166.113 E10.4032
G1 X88.719 Y164.573 E10.4885
G1 X88.640 Y164.243 E10.5064
G1 X88.379 Y162.672 E10.5905
G1 X88.348 Y162.340 E10.6081
G1 X88.310 Y160.704 E10.6946
G1 X88.327 Y160.360 E10.7127
G1 X88.526 Y158.753 E10.7982
G1 X88.591 Y158.420 E10.8161
G1 X89.017 Y156.861 E10.9015
G1 X89.129 Y156.542 E10.9194
G1 X89.774 Y155.059 E11.0047
G1 X89.931 Y154.759 E11.0226
G1 X90.779 Y153.387 E11.1078
G1 X90.974 Y153.116 E11.1254
G1 X91.955 Y151.939 E11.2063
G1 X92.172 Y151.712 E11.2229
G1 X92.689 Y151.236 E11.2600
G1 X93.786 Y148.424 E11.4194
G1 X94.812 Y145.491 E11.5835
G1 X95.766 Y142.505 E11.7490
G1 X96.649 Y139.484 E11.9152
G1 X97.468 Y136.434 E12.0820
G1 X98.226 Y133.361 E12.2491
G1 X98.920 Y130.278 E12.4159
G1 X99.699 Y126.416 E12.6240
G1 X100.383 Y122.534 E12.8321
G1 X100.963 Y118.660 E13.0390
G1 X101.440 Y114.768 E13.2460
G1 X101.807 Y110.873 E13.4526
G1 X102.058 Y106.975 E13.6589
G1 X102.187 Y103.080 E13.8646
G1 X102.188 Y99.182 E14.0705
G1 X102.097 Y96.169 E14.2296
G1 X101.922 Y93.156 E14.3890
G1 X101.661 Y90.155 E14.5481
G1 X101.313 Y87.166 E14.7070
G1 X100.874 Y84.193 E14.8656
G1 X100.344 Y81.237 E15.0243
G1 X99.722 Y78.297 E15.1829
G1 X99.012 Y75.377 E15.3416
G1 X98.212 Y72.480 E15.5003
G1 X97.324 Y69.608 E15.6590
G1 X96.348 Y66.765 E15.8177
G1 X95.287 Y63.950 E15.9766
G1 X94.144 Y61.173 E16.1352
G1 X92.914 Y58.411 E16.2948
G1 X91.609 Y55.689 E16.4542
G1 X90.229 Y53.006 E16.6135
G1 X88.365 Y49.629 E16.8172
G1 X87.678 Y49.118 E16.8624
G1 X87.483 Y48.956 E16.8758
G1 X86.166 Y47.737 E16.9706
G1 X85.993 Y47.559 E16.9837
G1 X85.146 Y46.591 E17.0516
G1 X84.973 Y46.367 E17.0665
G1 X84.237 Y45.288 E17.1355
G1 X84.088 Y45.038 E17.1508
G1 X83.492 Y43.881 E17.2196
G1 X83.402 Y43.686 E17.2309
G1 X83.137 Y43.029 E17.2683
G1 X83.087 Y42.895 E17.2759
G1 X82.864 Y42.230 E17.3130
G1 X82.806 Y42.026 E17.3241
G1 X82.525 Y40.851 E17.3879
G1 X82.478 Y40.586 E17.4022
G1 X82.329 Y39.357 E17.4675
G1 X82.312 Y39.088 E17.4817
G1 X82.305 Y37.850 E17.5471
G1 X82.319 Y37.582 E17.5613
G1 X82.449 Y36.377 E17.6253
G1 X82.482 Y36.163 E17.6367
G1 X82.638 Y35.393 E17.6782
G1 X82.695 Y35.170 E17.6904
G1 X83.060 Y33.977 E17.7562
G1 X83.060 Y31.825 E17.8699
G92 E0.0000
G1 E-0.7000 F1500
G1 X83.540 Y32.024 F4800
G1 E0.0000 F1500
G92 E0.0000
G1 X86.024 Y29.540 E0.1855 F1800
G1 X86.368 Y29.540 E0.2037
G1 X86.631 Y29.256 E0.2241
G1 X86.813 Y29.082 E0.2374
G1 X87.698 Y28.328 E0.2988
G1 X87.878 Y28.191 E0.3107
G1 X88.842 Y27.534 E0.3723
G1 X89.058 Y27.405 E0.3856
G1 X90.237 Y26.792 E0.4558
G1 X90.481 Y26.684 E0.4699
G1 X91.735 Y26.221 E0.5404
G1 X91.990 Y26.145 E0.5545
G1 X93.292 Y25.843 E0.6251
G1 X93.556 Y25.799 E0.6392
G1 X94.875 Y25.664 E0.7092
G1 X95.122 Y25.653 E0.7223
G1 X96.286 Y25.670 E0.7837
G1 X96.549 Y25.690 E0.7977
G1 X98.024 Y25.897 E0.8763
G1 X98.319 Y25.960 E0.8922
G1 X99.768 Y26.378 E0.9719
G1 X100.051 Y26.482 E0.9878
G1 X101.426 Y27.101 E1.0674
G1 X101.691 Y27.244 E1.0833
G1 X102.964 Y28.052 E1.1630
G1 X103.207 Y28.231 E1.1789
G1 X104.353 Y29.211 E1.2585
G1 X104.567 Y29.423 E1.2744
G1 X105.563 Y30.555 E1.3540
G1 X105.746 Y30.795 E1.3700
G1 X106.571 Y32.057 E1.4496
G1 X106.718 Y32.320 E1.4655
G1 X107.356 Y33.687 E1.5451
G1 X107.464 Y33.968 E1.5610
G1 X107.903 Y35.411 E1.6407
G1 X107.970 Y35.705 E1.6566
G1 X108.199 Y37.195 E1.7362
G1 X108.224 Y37.495 E1.7521
G1 X108.241 Y39.003 E1.8318
G1 X108.222 Y39.304 E1.8477
G1 X108.025 Y40.799 E1.9273
G1 X107.965 Y41.094 E1.9432
G1 X107.558 Y42.546 E2.0228
G1 X107.456 Y42.830 E2.0387
G1 X107.168 Y43.483 E2.0764
G1 X107.236 Y45.325 E2.1738
G1 X107.360 Y47.070 E2.2661
G1 X107.548 Y48.795 E2.3578
G1 X107.800 Y50.516 E2.4496
G1 X108.117 Y52.252 E2.5428
G1 X108.489 Y54.016 E2.6380
G1 X109.803 Y59.681 E2.9450
G1 X109.809 Y59.711 E2.9467
G1 X111.056 Y65.469 E3.2577
G1 X111.066 Y65.519 E3.2605
G1 X112.172 Y71.302 E3.5713
G1 X112.180 Y71.347 E3.5738
G1 X113.159 Y77.141 E3.8840
G1 X113.165 Y77.182 E3.8862
G1 X114.030 Y82.993 E4.1965
G1 X114.036 Y83.033 E4.1986
G1 X114.792 Y88.872 E4.5095
G1 X114.797 Y88.916 E4.5118
G1 X115.430 Y94.786 E4.8236
G1 X115.435 Y94.838 E4.8264
G1 X115.926 Y100.737 E5.1389
G1 X115.930 Y100.792 E5.1418
G1 X116.165 Y104.927 E5.3605
G1 X116.168 Y104.980 E5.3633
G1 X116.298 Y109.123 E5.5822
G1 X116.299 Y109.184 E5.5854
G1 X116.311 Y113.328 E5.8042
G1 X116.310 Y113.383 E5.8071
G1 X116.216 Y117.507 E6.0250
G1 X116.215 Y117.540 E6.0267
G1 X116.058 Y121.637 E6.2432
G1 X116.058 Y121.652 E6.2440
G1 X114.996 Y144.981 E7.4771
G1 X114.996 Y144.993 E7.4777
G1 X114.376 Y157.121 E8.1190
G1 X114.587 Y157.734 E8.1532
G1 X114.666 Y158.035 E8.1697
G1 X114.956 Y159.591 E8.2533
G1 X114.991 Y159.896 E8.2694
G1 X115.055 Y161.494 E8.3539
G1 X115.045 Y161.800 E8.3701
G1 X114.880 Y163.374 E8.4536
G1 X114.827 Y163.674 E8.4697
G1 X114.438 Y165.207 E8.5532
G1 X114.343 Y165.496 E8.5693
G1 X113.739 Y166.958 E8.6528
G1 X113.603 Y167.230 E8.6689
G1 X112.796 Y168.591 E8.7524
G1 X112.622 Y168.841 E8.7685
G1 X111.629 Y170.072 E8.8520
G1 X111.421 Y170.295 E8.8681
G1 X110.262 Y171.370 E8.9516
G1 X110.024 Y171.561 E8.9677
G1 X108.723 Y172.460 E9.0512
G1 X108.461 Y172.615 E9.0673
G1 X107.044 Y173.318 E9.1508
G1 X106.762 Y173.434 E9.1669
G1 X105.259 Y173.927 E9.2504
G1 X104.964 Y174.001 E9.2665
G1 X103.406 Y174.275 E9.3500
G1 X103.103 Y174.305 E9.3661
G1 X101.522 Y174.353 E9.4496
G1 X101.218 Y174.340 E9.4657
G1 X99.647 Y174.161 E9.5492
G1 X99.347 Y174.105 E9.5653
G1 X97.818 Y173.702 E9.6488
G1 X97.529 Y173.604 E9.6649
G1 X96.073 Y172.987 E9.7484
G1 X95.802 Y172.848 E9.7645
G1 X94.449 Y172.029 E9.8480
G1 X94.201 Y171.853 E9.8641
G1 X92.979 Y170.848 E9.9476
G1 X92.758 Y170.638 E9.9637
G1 X91.693 Y169.469 E10.0472
G1 X91.504 Y169.230 E10.0633
G1 X90.617 Y167.921 E10.1468
G1 X90.465 Y167.657 E10.1629
G1 X89.775 Y166.234 E10.2464
G1 X89.662 Y165.951 E10.2625
G1 X89.182 Y164.444 E10.3460
G1 X89.111 Y164.148 E10.3621
G1 X88.856 Y162.610 E10.4444
G1 X88.828 Y162.312 E10.4602
G1 X88.790 Y160.710 E10.5448
G1 X88.806 Y160.401 E10.5611
G1 X89.000 Y158.829 E10.6448
G1 X89.059 Y158.530 E10.6609
G1 X89.475 Y157.004 E10.7444
G1 X89.576 Y156.717 E10.7605
G1 X90.207 Y155.267 E10.8440
G1 X90.348 Y154.997 E10.8601
G1 X91.178 Y153.654 E10.9434
G1 X91.353 Y153.411 E10.9593
G1 X92.314 Y152.259 E11.0385
G1 X92.508 Y152.055 E11.0533
G1 X93.096 Y151.514 E11.0955
G1 X94.237 Y148.590 E11.2612
G1 X95.268 Y145.643 E11.4261
G1 X96.225 Y142.645 E11.5923
G1 X97.112 Y139.613 E11.7591
G1 X97.933 Y136.553 E11.9264
G1 X98.693 Y133.472 E12.0940
G1 X99.389 Y130.379 E12.2614
G1 X100.170 Y126.505 E12.4700
G1 X100.856 Y122.611 E12.6788
G1 X101.439 Y118.724 E12.8863
G1 X101.917 Y114.820 E13.0940
G1 X102.285 Y110.911 E13.3014
G1 X102.537 Y106.999 E13.5084
G1 X102.667 Y103.088 E13.7150
G1 X102.668 Y99.175 E13.9216
G1 X102.576 Y96.148 E14.0815
G1 X102.401 Y93.121 E14.2416
