; G-Code generated by Simplify3D(R) Version 4.1.1
; Apr 27, 2021 at 7:42:26 PM
; Settings Summary
;   processName,Trideo BOX
;   applyToModels,UpperArm - Finger slider
;   profileName,Trideo BOX
;   profileVersion,2021-04-15 09:48:16
;   baseProfile,Default
;   printMaterial,PLA
;   printQuality,Fast
;   printExtruders,
;   extruderName,Primary Extruder
;   extruderToolheadNumber,0
;   extruderDiameter,0.4
;   extruderAutoWidth,1
;   extruderWidth,0.48
;   extrusionMultiplier,0.98
;   extruderUseRetract,1
;   extruderRetractionDistance,0.7
;   extruderExtraRestartDistance,0
;   extruderRetractionZLift,0
;   extruderRetractionSpeed,1500
;   extruderUseCoasting,0
;   extruderCoastingDistance,0.2
;   extruderUseWipe,0
;   extruderWipeDistance,5
;   primaryExtruder,0
;   layerHeight,0.3
;   topSolidLayers,3
;   bottomSolidLayers,3
;   perimeterOutlines,2
;   printPerimetersInsideOut,1
;   startPointOption,2
;   startPointOriginX,0
;   startPointOriginY,0
;   sequentialIslands,0
;   spiralVaseMode,0
;   firstLayerHeightPercentage,90
;   firstLayerWidthPercentage,100
;   firstLayerUnderspeed,0.5
;   useRaft,0
;   raftExtruder,0
;   raftTopLayers,3
;   raftBaseLayers,2
;   raftOffset,3
;   raftSeparationDistance,0.14
;   raftTopInfill,100
;   aboveRaftSpeedMultiplier,0.3
;   useSkirt,1
;   skirtExtruder,0
;   skirtLayers,1
;   skirtOutlines,2
;   skirtOffset,4
;   usePrimePillar,0
;   primePillarExtruder,999
;   primePillarWidth,12
;   primePillarLocation,7
;   primePillarSpeedMultiplier,1
;   useOozeShield,0
;   oozeShieldExtruder,999
;   oozeShieldOffset,2
;   oozeShieldOutlines,1
;   oozeShieldSidewallShape,1
;   oozeShieldSidewallAngle,30
;   oozeShieldSpeedMultiplier,1
;   infillExtruder,0
;   internalInfillPattern,Rectilinear
;   externalInfillPattern,Rectilinear
;   infillPercentage,15
;   outlineOverlapPercentage,15
;   infillExtrusionWidthPercentage,100
;   minInfillLength,5
;   infillLayerInterval,1
;   internalInfillAngles,45,-45
;   overlapInternalInfillAngles,0
;   externalInfillAngles,45,-45
;   generateSupport,1
;   supportExtruder,0
;   supportInfillPercentage,25
;   supportExtraInflation,0
;   supportBaseLayers,0
;   denseSupportExtruder,0
;   denseSupportLayers,0
;   denseSupportInfillPercentage,70
;   supportLayerInterval,1
;   supportHorizontalPartOffset,0.3
;   supportUpperSeparationLayers,1
;   supportLowerSeparationLayers,1
;   supportType,0
;   supportGridSpacing,4
;   maxOverhangAngle,45
;   supportAngles,0
;   temperatureName,Primary Extruder,Heated bed
;   temperatureNumber,0,0
;   temperatureSetpointCount,1,1
;   temperatureSetpointLayers,1,1
;   temperatureSetpointTemperatures,190,60
;   temperatureStabilizeAtStartup,1,1
;   temperatureHeatedBed,0,1
;   fanLayers,1,2
;   fanSpeeds,0,100
;   blipFanToFullPower,0
;   adjustSpeedForCooling,1
;   minSpeedLayerTime,15
;   minCoolingSpeedSlowdown,20
;   increaseFanForCooling,0
;   minFanLayerTime,45
;   maxCoolingFanSpeed,100
;   increaseFanForBridging,0
;   bridgingFanSpeed,100
;   use5D,1
;   relativeEdistances,0
;   allowEaxisZeroing,1
;   independentExtruderAxes,0
;   includeM10123,0
;   stickySupport,1
;   applyToolheadOffsets,0
;   gcodeXoffset,0
;   gcodeYoffset,0
;   gcodeZoffset,0
;   overrideMachineDefinition,1
;   machineTypeOverride,0
;   strokeXoverride,200
;   strokeYoverride,200
;   strokeZoverride,200
;   originOffsetXoverride,0
;   originOffsetYoverride,0
;   originOffsetZoverride,0
;   homeXdirOverride,-1
;   homeYdirOverride,-1
;   homeZdirOverride,-1
;   flipXoverride,1
;   flipYoverride,-1
;   flipZoverride,1
;   toolheadOffsets,0,0|0,0|0,0|0,0|0,0|0,0
;   overrideFirmwareConfiguration,0
;   firmwareTypeOverride,RepRap (Marlin/Repetier/Sprinter)
;   GPXconfigOverride,r2
;   baudRateOverride,115200
;   overridePrinterModels,0
;   printerModelsOverride
;   startingGcode,G28 X0 Y0; home XY,G1 X20 Y20,G28 Z0,G1 Z5 F5000; Lift NZ
;   layerChangeGcode,
;   retractionGcode,
;   toolChangeGcode,
;   endingGcode,M104 S0 ; turn off extruder,G28 X0 ; home x,M140 S0 ; turn off bed,M84 ; disable motors,M107 ;
;   exportFileFormat,gcode
;   celebration,0
;   celebrationSong,Looney Toons
;   postProcessing,
;   defaultSpeed,3600
;   outlineUnderspeed,0.5
;   solidInfillUnderspeed,0.8
;   supportUnderspeed,0.8
;   rapidXYspeed,4800
;   rapidZspeed,1002
;   minBridgingArea,50
;   bridgingExtraInflation,0
;   bridgingExtrusionMultiplier,1
;   bridgingSpeedMultiplier,1
;   useFixedBridgingAngle,0
;   fixedBridgingAngle,0
;   applyBridgingToPerimeters,0
;   filamentDiameters,1.75|1.75|1.75|1.75|1.75|1.75
;   filamentPricesPerKg,46|46|46|46|46|46
;   filamentDensities,1.25|1.25|1.25|1.25|1.25|1.25
;   useMinPrintHeight,0
;   minPrintHeight,0
;   useMaxPrintHeight,0
;   maxPrintHeight,0
;   useDiaphragm,0
;   diaphragmLayerInterval,20
;   robustSlicing,1
;   mergeAllIntoSolid,0
;   onlyRetractWhenCrossingOutline,1
;   retractBetweenLayers,1
;   useRetractionMinTravel,0
;   retractionMinTravel,3
;   retractWhileWiping,0
;   onlyWipeOutlines,1
;   avoidCrossingOutline,0
;   maxMovementDetourFactor,3
;   toolChangeRetractionDistance,12
;   toolChangeExtraRestartDistance,-0.5
;   toolChangeRetractionSpeed,600
;   externalThinWallType,0
;   internalThinWallType,2
;   thinWallAllowedOverlapPercentage,10
;   singleExtrusionMinLength,1
;   singleExtrusionMinPrintingWidthPercentage,50
;   singleExtrusionMaxPrintingWidthPercentage,200
;   singleExtrusionEndpointExtension,0.2
;   horizontalSizeCompensation,0
G90
M82
M106 S0
M140 S60
M190 S60
M104 S190 T0
M109 S190 T0
G28 X0 Y0; home XY
G1 X20 Y20
G28 Z0
G1 Z5 F5000; Lift NZ
; process Trideo BOX
; layer 1, Z = 0.270
T0
G92 E0.0000
G1 E-0.7000 F1500
; feature skirt
; tool H0.270 W0.480
G1 Z0.270 F1002
G1 X81.850 Y27.406 F4800
G1 E0.0000 F1500
G92 E0.0000
G1 X81.929 Y27.189 E0.0122 F1800
G1 X82.255 Y26.407 E0.0569
G1 X82.354 Y26.199 E0.0691
G1 X83.041 Y24.920 E0.1457
G1 X83.199 Y24.666 E0.1616
G1 X84.062 Y23.457 E0.2400
G1 X84.252 Y23.225 E0.2558
G1 X85.060 Y22.352 E0.3186
G1 X85.060 Y21.825 E0.3465
G1 X87.825 Y19.060 E0.5529
G1 X90.159 Y19.060 E0.6762
G1 X90.890 Y18.790 E0.7174
G1 X91.175 Y18.705 E0.7331
G1 X92.611 Y18.372 E0.8109
G1 X92.904 Y18.323 E0.8266
G1 X94.359 Y18.175 E0.9038
G1 X94.633 Y18.163 E0.9183
G1 X95.917 Y18.181 E0.9861
G1 X96.210 Y18.204 E1.0016
G1 X97.836 Y18.431 E1.0883
G1 X98.165 Y18.501 E1.1060
G1 X99.762 Y18.963 E1.1938
G1 X100.077 Y19.078 E1.2116
G1 X101.593 Y19.761 E1.2994
G1 X101.888 Y19.920 E1.3171
G1 X103.292 Y20.811 E1.4049
G1 X103.562 Y21.011 E1.4226
G1 X104.826 Y22.091 E1.5104
G1 X105.065 Y22.327 E1.5281
G1 X106.163 Y23.575 E1.6159
G1 X106.366 Y23.842 E1.6336
G1 X107.276 Y25.234 E1.7214
G1 X107.439 Y25.527 E1.7391
G1 X108.143 Y27.033 E1.8269
G1 X108.264 Y27.347 E1.8447
G1 X108.747 Y28.938 E1.9325
G1 X108.822 Y29.265 E1.9502
G1 X109.075 Y30.908 E2.0380
G1 X109.103 Y31.242 E2.0557
G1 X109.121 Y32.905 E2.1435
G1 X109.101 Y33.240 E2.1612
G1 X108.883 Y34.888 E2.2490
G1 X108.816 Y35.217 E2.2667
G1 X108.367 Y36.818 E2.3545
G1 X108.254 Y37.134 E2.3722
G1 X107.909 Y37.915 E2.4173
G1 X107.978 Y39.860 E2.5201
G1 X108.115 Y41.774 E2.6214
G1 X108.321 Y43.671 E2.7222
G1 X108.599 Y45.564 E2.8232
G1 X108.948 Y47.472 E2.9256
G1 X109.358 Y49.413 E3.0304
G1 X110.803 Y55.643 E3.3681
G1 X110.811 Y55.677 E3.3699
G1 X112.183 Y62.010 E3.7121
G1 X112.195 Y62.066 E3.7151
G1 X113.412 Y68.427 E4.0571
G1 X113.421 Y68.477 E4.0598
G1 X114.499 Y74.850 E4.4011
G1 X114.506 Y74.896 E4.4035
G1 X115.459 Y81.288 E4.7448
G1 X115.465 Y81.333 E4.7471
G1 X116.297 Y87.755 E5.0891
G1 X116.303 Y87.804 E5.0917
G1 X117.001 Y94.261 E5.4347
G1 X117.007 Y94.319 E5.4377
G1 X117.547 Y100.807 E5.7815
G1 X117.551 Y100.869 E5.7848
G1 X117.811 Y105.417 E6.0254
G1 X117.813 Y105.477 E6.0285
G1 X117.957 Y110.034 E6.2693
G1 X117.958 Y110.102 E6.2728
G1 X117.971 Y114.661 E6.5136
G1 X117.970 Y114.721 E6.5168
G1 X117.867 Y119.258 E6.7564
G1 X117.865 Y119.295 E6.7583
G1 X117.693 Y123.801 E6.9964
G1 X117.692 Y123.818 E6.9974
G1 X116.524 Y149.480 E8.3538
G1 X116.524 Y149.494 E8.3545
G1 X115.844 Y162.755 E9.0557
G1 X116.096 Y163.482 E9.0963
G1 X116.187 Y163.824 E9.1150
G1 X116.508 Y165.544 E9.2074
G1 X116.546 Y165.883 E9.2254
G1 X116.616 Y167.643 E9.3184
G1 X116.605 Y167.984 E9.3364
G1 X116.424 Y169.719 E9.4286
G1 X116.364 Y170.053 E9.4465
G1 X115.936 Y171.744 E9.5385
G1 X115.829 Y172.065 E9.5564
G1 X115.164 Y173.677 E9.6485
G1 X115.012 Y173.980 E9.6664
G1 X114.122 Y175.480 E9.7585
G1 X113.929 Y175.759 E9.7764
G1 X112.834 Y177.116 E9.8685
G1 X112.603 Y177.364 E9.8864
G1 X111.324 Y178.550 E9.9785
G1 X111.060 Y178.762 E9.9964
G1 X109.625 Y179.753 E10.0885
G1 X109.333 Y179.926 E10.1064
G1 X107.772 Y180.701 E10.1984
G1 X107.458 Y180.830 E10.2163
G1 X105.801 Y181.374 E10.3084
G1 X105.472 Y181.456 E10.3263
G1 X103.755 Y181.757 E10.4184
G1 X103.417 Y181.792 E10.4363
G1 X101.674 Y181.844 E10.5284
G1 X101.335 Y181.830 E10.5463
G1 X99.603 Y181.632 E10.6384
G1 X99.270 Y181.570 E10.6563
G1 X97.583 Y181.126 E10.7483
G1 X97.262 Y181.017 E10.7663
G1 X95.657 Y180.336 E10.8583
G1 X95.355 Y180.182 E10.8762
G1 X93.863 Y179.279 E10.9683
G1 X93.587 Y179.082 E10.9862
G1 X92.240 Y177.975 E11.0783
G1 X91.994 Y177.741 E11.0962
G1 X90.819 Y176.453 E11.1883
G1 X90.610 Y176.186 E11.2062
G1 X89.632 Y174.742 E11.2983
G1 X89.462 Y174.449 E11.3162
G1 X88.701 Y172.880 E11.4083
G1 X88.575 Y172.565 E11.4262
G1 X88.046 Y170.903 E11.5182
G1 X87.967 Y170.574 E11.5361
G1 X87.681 Y168.853 E11.6282
G1 X87.650 Y168.516 E11.6461
G1 X87.614 Y166.772 E11.7382
G1 X87.631 Y166.434 E11.7561
G1 X87.845 Y164.703 E11.8482
G1 X87.910 Y164.370 E11.8661
G1 X88.369 Y162.688 E11.9582
G1 X88.482 Y162.368 E11.9761
G1 X89.177 Y160.769 E12.0681
G1 X89.334 Y160.469 E12.0860
G1 X90.250 Y158.988 E12.1780
G1 X90.445 Y158.717 E12.1956
G1 X91.510 Y157.440 E12.2834
G1 X91.728 Y157.211 E12.3001
G1 X92.417 Y156.580 E12.3495
G1 X93.631 Y153.444 E12.5270
G1 X94.767 Y150.198 E12.7086
G1 X95.820 Y146.902 E12.8913
G1 X96.795 Y143.567 E13.0748
G1 X97.699 Y140.201 E13.2588
G1 X98.534 Y136.812 E13.4431
G1 X99.300 Y133.410 E13.6272
G1 X100.159 Y129.151 E13.8567
G1 X100.914 Y124.867 E14.0864
G1 X101.555 Y120.593 E14.3146
G1 X102.081 Y116.299 E14.5430
G1 X102.486 Y111.999 E14.7711
G1 X102.763 Y107.697 E14.9987
G1 X102.907 Y103.396 E15.2259
G1 X102.908 Y99.092 E15.4532
G1 X102.808 Y95.763 E15.6291
G1 X102.615 Y92.435 E15.8051
G1 X102.328 Y89.118 E15.9809
G1 X101.943 Y85.816 E16.1565
G1 X101.458 Y82.531 E16.3318
G1 X100.873 Y79.262 E16.5072
G1 X100.187 Y76.013 E16.6825
G1 X99.402 Y72.787 E16.8578
G1 X98.519 Y69.585 E17.0332
G1 X97.538 Y66.411 E17.2086
G1 X96.461 Y63.268 E17.3841
G1 X95.289 Y60.158 E17.5596
G1 X94.027 Y57.088 E17.7348
G1 X92.669 Y54.036 E17.9112
G1 X91.227 Y51.029 E18.0873
G1 X89.705 Y48.067 E18.2631
G1 X87.639 Y44.333 E18.4885
G1 X86.668 Y43.595 E18.5529
G1 X86.494 Y43.449 E18.5649
G1 X85.115 Y42.176 E18.6640
G1 X84.940 Y41.996 E18.6772
G1 X84.026 Y40.950 E18.7506
G1 X83.852 Y40.726 E18.7656
G1 X83.058 Y39.562 E18.8399
G1 X82.910 Y39.313 E18.8552
G1 X82.266 Y38.063 E18.9295
G1 X82.176 Y37.867 E18.9409
G1 X81.891 Y37.162 E18.9811
G1 X81.841 Y37.027 E18.9886
G1 X81.601 Y36.312 E19.0285
G1 X81.543 Y36.109 E19.0396
G1 X81.240 Y34.839 E19.1086
G1 X81.193 Y34.574 E19.1228
G1 X81.033 Y33.249 E19.1932
G1 X81.016 Y32.981 E19.2075
G1 X81.007 Y31.646 E19.2779
G1 X81.021 Y31.377 E19.2921
G1 X81.162 Y30.076 E19.3612
G1 X81.195 Y29.862 E19.3727
G1 X81.362 Y29.038 E19.4171
G1 X81.419 Y28.814 E19.4293
G1 X81.850 Y27.406 E19.5070
G92 E0.0000
G1 E-0.7000 F1500
G1 X82.306 Y27.558 F4800
G1 E0.0000 F1500
G92 E0.0000
G1 X82.376 Y27.363 E0.0110 F1800
G1 X82.693 Y26.603 E0.0544
G1 X82.782 Y26.415 E0.0654
G1 X83.457 Y25.161 E0.1406
G1 X83.599 Y24.933 E0.1548
G1 X84.444 Y23.749 E0.2316
G1 X84.614 Y23.540 E0.2458
G1 X85.540 Y22.540 E0.3178
G1 X85.540 Y22.024 E0.3451
G1 X88.024 Y19.540 E0.5305
G1 X90.245 Y19.540 E0.6478
G1 X91.042 Y19.246 E0.6927
G1 X91.298 Y19.169 E0.7068
G1 X92.704 Y18.843 E0.7830
G1 X92.968 Y18.799 E0.7971
G1 X94.393 Y18.653 E0.8728
G1 X94.640 Y18.643 E0.8858
G1 X95.895 Y18.661 E0.9521
G1 X96.158 Y18.681 E0.9661
G1 X97.753 Y18.904 E1.0511
G1 X98.048 Y18.967 E1.0670
G1 X99.612 Y19.419 E1.1530
G1 X99.895 Y19.523 E1.1689
G1 X101.380 Y20.192 E1.2549
G1 X101.646 Y20.335 E1.2708
G1 X103.021 Y21.207 E1.3568
G1 X103.263 Y21.386 E1.3727
G1 X104.501 Y22.445 E1.4587
G1 X104.716 Y22.656 E1.4746
G1 X105.791 Y23.879 E1.5606
G1 X105.974 Y24.119 E1.5766
G1 X106.865 Y25.482 E1.6626
G1 X107.012 Y25.746 E1.6785
G1 X107.701 Y27.221 E1.7645
G1 X107.809 Y27.503 E1.7804
G1 X108.283 Y29.061 E1.8664
G1 X108.350 Y29.355 E1.8823
G1 X108.598 Y30.964 E1.9683
G1 X108.623 Y31.265 E1.9842
G1 X108.641 Y32.893 E2.0702
G1 X108.622 Y33.194 E2.0861
G1 X108.409 Y34.809 E2.1721
G1 X108.349 Y35.104 E2.1880
G1 X107.909 Y36.672 E2.2740
G1 X107.808 Y36.956 E2.2900
G1 X107.426 Y37.822 E2.3399
G1 X107.498 Y39.885 E2.4490
G1 X107.637 Y41.817 E2.5512
G1 X107.845 Y43.732 E2.6529
G1 X108.125 Y45.642 E2.7549
G1 X108.477 Y47.565 E2.8581
G1 X108.889 Y49.517 E2.9634
G1 X110.335 Y55.750 E3.3013
G1 X110.342 Y55.780 E3.3030
G1 X111.714 Y62.109 E3.6449
G1 X111.724 Y62.159 E3.6476
G1 X112.940 Y68.514 E3.9893
G1 X112.948 Y68.560 E3.9917
G1 X114.025 Y74.928 E4.3327
G1 X114.032 Y74.969 E4.3349
G1 X114.984 Y81.357 E4.6759
G1 X114.989 Y81.397 E4.6781
G1 X115.821 Y87.814 E5.0198
G1 X115.826 Y87.859 E5.0221
G1 X116.524 Y94.310 E5.3648
G1 X116.529 Y94.362 E5.3675
G1 X117.068 Y100.844 E5.7110
G1 X117.072 Y100.899 E5.7139
G1 X117.331 Y105.442 E5.9542
G1 X117.334 Y105.496 E5.9570
G1 X117.477 Y110.046 E6.1974
G1 X117.478 Y110.107 E6.2006
G1 X117.491 Y114.659 E6.4410
G1 X117.490 Y114.714 E6.4439
G1 X117.387 Y119.246 E6.6833
G1 X117.386 Y119.278 E6.6850
G1 X117.213 Y123.782 E6.9230
G1 X117.213 Y123.797 E6.9238
G1 X116.045 Y149.458 E8.2802
G1 X116.044 Y149.470 E8.2808
G1 X115.359 Y162.824 E8.9869
G1 X115.637 Y163.623 E9.0315
G1 X115.718 Y163.930 E9.0483
G1 X116.033 Y165.615 E9.1388
G1 X116.067 Y165.919 E9.1550
G1 X116.136 Y167.645 E9.2462
G1 X116.126 Y167.951 E9.2624
G1 X115.948 Y169.652 E9.3527
G1 X115.895 Y169.952 E9.3688
G1 X115.475 Y171.609 E9.4590
G1 X115.379 Y171.898 E9.4751
G1 X114.727 Y173.478 E9.5653
G1 X114.590 Y173.750 E9.5814
G1 X113.718 Y175.220 E9.6717
G1 X113.545 Y175.471 E9.6878
G1 X112.471 Y176.801 E9.7780
G1 X112.263 Y177.024 E9.7941
G1 X111.011 Y178.186 E9.8844
G1 X110.773 Y178.377 E9.9005
G1 X109.367 Y179.349 E9.9907
G1 X109.104 Y179.503 E10.0068
G1 X107.573 Y180.264 E10.0970
G1 X107.292 Y180.379 E10.1131
G1 X105.668 Y180.912 E10.2034
G1 X105.372 Y180.986 E10.2195
G1 X103.689 Y181.282 E10.3097
G1 X103.386 Y181.313 E10.3258
G1 X101.677 Y181.364 E10.4161
G1 X101.373 Y181.351 E10.4322
G1 X99.674 Y181.157 E10.5224
G1 X99.375 Y181.101 E10.5385
G1 X97.722 Y180.666 E10.6287
G1 X97.434 Y180.568 E10.6448
G1 X95.860 Y179.901 E10.7351
G1 X95.589 Y179.762 E10.7512
G1 X94.127 Y178.877 E10.8414
G1 X93.878 Y178.701 E10.8575
G1 X92.558 Y177.615 E10.9478
G1 X92.337 Y177.405 E10.9639
G1 X91.186 Y176.142 E11.0541
G1 X90.997 Y175.903 E11.0702
G1 X90.039 Y174.488 E11.1605
G1 X89.886 Y174.224 E11.1765
G1 X89.140 Y172.686 E11.2668
G1 X89.027 Y172.403 E11.2829
G1 X88.509 Y170.774 E11.3731
G1 X88.438 Y170.478 E11.3892
G1 X88.158 Y168.792 E11.4795
G1 X88.130 Y168.489 E11.4956
G1 X88.094 Y166.780 E11.5858
G1 X88.109 Y166.475 E11.6019
G1 X88.319 Y164.779 E11.6922
G1 X88.378 Y164.480 E11.7082
G1 X88.828 Y162.831 E11.7985
G1 X88.929 Y162.544 E11.8146
G1 X89.610 Y160.976 E11.9048
G1 X89.751 Y160.706 E11.9209
G1 X90.649 Y159.254 E12.0111
G1 X90.824 Y159.011 E12.0269
G1 X91.868 Y157.760 E12.1129
G1 X92.064 Y157.554 E12.1279
G1 X92.824 Y156.858 E12.1824
G1 X94.082 Y153.611 E12.3663
G1 X95.222 Y150.350 E12.5486
G1 X96.279 Y147.042 E12.7320
G1 X97.257 Y143.697 E12.9161
G1 X98.164 Y140.320 E13.1007
G1 X99.001 Y136.923 E13.2855
G1 X99.769 Y133.511 E13.4701
G1 X100.631 Y129.240 E13.7002
G1 X101.388 Y124.944 E13.9305
G1 X102.030 Y120.658 E14.1594
G1 X102.558 Y116.351 E14.3885
G1 X102.964 Y112.038 E14.6173
G1 X103.243 Y107.720 E14.8457
G1 X103.387 Y103.404 E15.0737
