; G-Code generated by Simplify3D(R) Version 4.1.1
; Apr 27, 2021 at 7:42:52 PM
; Settings Summary
;   processName,Trideo BOX
;   applyToModels,UpperArm - Finger slider
;   profileName,Trideo BOX
;   profileVersion,2021-04-15 09:48:16
;   baseProfile,Default
;   printMaterial,PLA
;   printQuality,Fast
;   printExtruders,
;   extruderName,Primary Extruder
;   extruderToolheadNumber,0
;   extruderDiameter,0.4
;   extruderAutoWidth,1
;   extruderWidth,0.48
;   extrusionMultiplier,0.98
;   extruderUseRetract,1
;   extruderRetractionDistance,0.7
;   extruderExtraRestartDistance,0
;   extruderRetractionZLift,0
;   extruderRetractionSpeed,1500
;   extruderUseCoasting,0
;   extruderCoastingDistance,0.2
;   extruderUseWipe,0
;   extruderWipeDistance,5
;   primaryExtruder,0
;   layerHeight,0.3
;   topSolidLayers,3
;   bottomSolidLayers,3
;   perimeterOutlines,2
;   printPerimetersInsideOut,1
;   startPointOption,2
;   startPointOriginX,0
;   startPointOriginY,0
;   sequentialIslands,0
;   spiralVaseMode,0
;   firstLayerHeightPercentage,90
;   firstLayerWidthPercentage,100
;   firstLayerUnderspeed,0.5
;   useRaft,0
;   raftExtruder,0
;   raftTopLayers,3
;   raftBaseLayers,2
;   raftOffset,3
;   raftSeparationDistance,0.14
;   raftTopInfill,100
;   aboveRaftSpeedMultiplier,0.3
;   useSkirt,1
;   skirtExtruder,0
;   skirtLayers,1
;   skirtOutlines,2
;   skirtOffset,4
;   usePrimePillar,0
;   primePillarExtruder,999
;   primePillarWidth,12
;   primePillarLocation,7
;   primePillarSpeedMultiplier,1
;   useOozeShield,0
;   oozeShieldExtruder,999
;   oozeShieldOffset,2
;   oozeShieldOutlines,1
;   oozeShieldSidewallShape,1
;   oozeShieldSidewallAngle,30
;   oozeShieldSpeedMultiplier,1
;   infillExtruder,0
;   internalInfillPattern,Rectilinear
;   externalInfillPattern,Rectilinear
;   infillPercentage,15
;   outlineOverlapPercentage,15
;   infillExtrusionWidthPercentage,100
;   minInfillLength,5
;   infillLayerInterval,1
;   internalInfillAngles,45,-45
;   overlapInternalInfillAngles,0
;   externalInfillAngles,45,-45
;   generateSupport,1
;   supportExtruder,0
;   supportInfillPercentage,25
;   supportExtraInflation,0
;   supportBaseLayers,0
;   denseSupportExtruder,0
;   denseSupportLayers,0
;   denseSupportInfillPercentage,70
;   supportLayerInterval,1
;   supportHorizontalPartOffset,0.3
;   supportUpperSeparationLayers,1
;   supportLowerSeparationLayers,1
;   supportType,0
;   supportGridSpacing,4
;   maxOverhangAngle,45
;   supportAngles,0
;   temperatureName,Primary Extruder,Heated bed
;   temperatureNumber,0,0
;   temperatureSetpointCount,1,1
;   temperatureSetpointLayers,1,1
;   temperatureSetpointTemperatures,190,60
;   temperatureStabilizeAtStartup,1,1
;   temperatureHeatedBed,0,1
;   fanLayers,1,2
;   fanSpeeds,0,100
;   blipFanToFullPower,0
;   adjustSpeedForCooling,1
;   minSpeedLayerTime,15
;   minCoolingSpeedSlowdown,20
;   increaseFanForCooling,0
;   minFanLayerTime,45
;   maxCoolingFanSpeed,100
;   increaseFanForBridging,0
;   bridgingFanSpeed,100
;   use5D,1
;   relativeEdistances,0
;   allowEaxisZeroing,1
;   independentExtruderAxes,0
;   includeM10123,0
;   stickySupport,1
;   applyToolheadOffsets,0
;   gcodeXoffset,0
;   gcodeYoffset,0
;   gcodeZoffset,0
;   overrideMachineDefinition,1
;   machineTypeOverride,0
;   strokeXoverride,200
;   strokeYoverride,200
;   strokeZoverride,200
;   originOffsetXoverride,0
;   originOffsetYoverride,0
;   originOffsetZoverride,0
;   homeXdirOverride,-1
;   homeYdirOverride,-1
;   homeZdirOverride,-1
;   flipXoverride,1
;   flipYoverride,-1
;   flipZoverride,1
;   toolheadOffsets,0,0|0,0|0,0|0,0|0,0|0,0
;   overrideFirmwareConfiguration,0
;   firmwareTypeOverride,RepRap (Marlin/Repetier/Sprinter)
;   GPXconfigOverride,r2
;   baudRateOverride,115200
;   overridePrinterModels,0
;   printerModelsOverride
;   startingGcode,G28 X0 Y0; home XY,G1 X20 Y20,G28 Z0,G1 Z5 F5000; Lift NZ
;   layerChangeGcode,
;   retractionGcode,
;   toolChangeGcode,
;   endingGcode,M104 S0 ; turn off extruder,G28 X0 ; home x,M140 S0 ; turn off bed,M84 ; disable motors,M107 ;
;   exportFileFormat,gcode
;   celebration,0
;   celebrationSong,Looney Toons
;   postProcessing,
;   defaultSpeed,3600
;   outlineUnderspeed,0.5
;   solidInfillUnderspeed,0.8
;   supportUnderspeed,0.8
;   rapidXYspeed,4800
;   rapidZspeed,1002
;   minBridgingArea,50
;   bridgingExtraInflation,0
;   bridgingExtrusionMultiplier,1
;   bridgingSpeedMultiplier,1
;   useFixedBridgingAngle,0
;   fixedBridgingAngle,0
;   applyBridgingToPerimeters,0
;   filamentDiameters,1.75|1.75|1.75|1.75|1.75|1.75
;   filamentPricesPerKg,46|46|46|46|46|46
;   filamentDensities,1.25|1.25|1.25|1.25|1.25|1.25
;   useMinPrintHeight,0
;   minPrintHeight,0
;   useMaxPrintHeight,0
;   maxPrintHeight,0
;   useDiaphragm,0
;   diaphragmLayerInterval,20
;   robustSlicing,1
;   mergeAllIntoSolid,0
;   onlyRetractWhenCrossingOutline,1
;   retractBetweenLayers,1
;   useRetractionMinTravel,0
;   retractionMinTravel,3
;   retractWhileWiping,0
;   onlyWipeOutlines,1
;   avoidCrossingOutline,0
;   maxMovementDetourFactor,3
;   toolChangeRetractionDistance,12
;   toolChangeExtraRestartDistance,-0.5
;   toolChangeRetractionSpeed,600
;   externalThinWallType,0
;   internalThinWallType,2
;   thinWallAllowedOverlapPercentage,10
;   singleExtrusionMinLength,1
;   singleExtrusionMinPrintingWidthPercentage,50
;   singleExtrusionMaxPrintingWidthPercentage,200
;   singleExtrusionEndpointExtension,0.2
;   horizontalSizeCompensation,0
G90
M82
M106 S0
M140 S60
M190 S60
M104 S190 T0
M109 S190 T0
G28 X0 Y0; home XY
G1 X20 Y20
G28 Z0
G1 Z5 F5000; Lift NZ
; process Trideo BOX
; layer 1, Z = 0.270
T0
G92 E0.0000
G1 E-0.7000 F1500
; feature skirt
; tool H0.270 W0.480
G1 Z0.270 F1002
G1 X80.114 Y22.570 F4800
G1 E0.0000 F1500
G92 E0.0000
G1 X80.330 Y21.774 E0.0435 F1800
G1 X80.374 Y21.629 E0.0515
G1 X80.645 Y20.836 E0.0958
G1 X80.700 Y20.690 E0.1040
G1 X81.033 Y19.892 E0.1497
G1 X81.060 Y19.836 E0.1530
G1 X81.060 Y17.825 E0.2592
G1 X83.825 Y15.060 E0.4656
G1 X84.553 Y15.060 E0.5041
G1 X85.468 Y14.281 E0.5675
G1 X85.669 Y14.128 E0.5809
G1 X86.809 Y13.351 E0.6537
G1 X87.049 Y13.207 E0.6685
G1 X88.444 Y12.482 E0.7515
G1 X88.715 Y12.362 E0.7672
G1 X90.198 Y11.815 E0.8506
G1 X90.483 Y11.729 E0.8663
G1 X92.023 Y11.372 E0.9498
G1 X92.316 Y11.324 E0.9655
G1 X93.877 Y11.164 E1.0483
G1 X94.152 Y11.152 E1.0629
G1 X95.526 Y11.172 E1.1355
G1 X95.819 Y11.195 E1.1510
G1 X97.565 Y11.439 E1.2441
G1 X97.893 Y11.509 E1.2618
G1 X99.607 Y12.004 E1.3560
G1 X99.922 Y12.119 E1.3737
G1 X101.548 Y12.852 E1.4678
G1 X101.843 Y13.011 E1.4856
G1 X103.349 Y13.966 E1.5797
G1 X103.619 Y14.166 E1.5974
G1 X104.974 Y15.325 E1.6916
G1 X105.213 Y15.560 E1.7093
G1 X106.391 Y16.900 E1.8035
G1 X106.594 Y17.167 E1.8212
G1 X107.570 Y18.659 E1.9154
G1 X107.734 Y18.952 E1.9331
G1 X108.489 Y20.568 E2.0273
G1 X108.609 Y20.881 E2.0450
G1 X109.127 Y22.588 E2.1392
G1 X109.202 Y22.915 E2.1569
G1 X109.474 Y24.677 E2.2511
G1 X109.501 Y25.012 E2.2688
G1 X109.521 Y26.795 E2.3629
G1 X109.500 Y27.130 E2.3807
G1 X109.267 Y28.898 E2.4748
G1 X109.200 Y29.227 E2.4925
G1 X108.718 Y30.944 E2.5867
G1 X108.605 Y31.260 E2.6044
G1 X108.165 Y32.259 E2.6621
G1 X108.235 Y34.424 E2.7765
G1 X108.385 Y36.523 E2.8876
G1 X108.612 Y38.610 E2.9985
G1 X108.917 Y40.692 E3.1096
G1 X109.301 Y42.788 E3.2221
G1 X109.750 Y44.915 E3.3369
G1 X111.328 Y51.715 E3.7055
G1 X111.336 Y51.749 E3.7073
G1 X112.832 Y58.652 E4.0803
G1 X112.843 Y58.709 E4.0833
G1 X114.170 Y65.642 E4.4561
G1 X114.179 Y65.692 E4.4588
G1 X115.354 Y72.640 E4.8308
G1 X115.361 Y72.685 E4.8333
G1 X116.400 Y79.654 E5.2053
G1 X116.406 Y79.698 E5.2077
G1 X117.313 Y86.699 E5.5804
G1 X117.319 Y86.749 E5.5831
G1 X118.080 Y93.787 E5.9569
G1 X118.086 Y93.845 E5.9600
G1 X118.674 Y100.916 E6.3346
G1 X118.679 Y100.977 E6.3379
G1 X118.962 Y105.933 E6.6000
G1 X118.965 Y105.993 E6.6031
G1 X119.122 Y110.957 E6.8654
G1 X119.123 Y111.025 E6.8690
G1 X119.137 Y115.991 E7.1312
G1 X119.137 Y116.052 E7.1344
G1 X119.024 Y120.996 E7.3956
G1 X119.023 Y121.032 E7.3975
G1 X118.836 Y125.946 E7.6571
G1 X118.835 Y125.963 E7.6580
G1 X117.564 Y153.957 E9.1377
G1 X117.563 Y153.971 E9.1385
G1 X116.820 Y168.389 E9.9008
G1 X117.165 Y169.434 E9.9589
G1 X117.244 Y169.741 E9.9757
G1 X117.584 Y171.568 E10.0738
G1 X117.622 Y171.907 E10.0918
G1 X117.698 Y173.794 E10.1916
G1 X117.687 Y174.135 E10.2096
G1 X117.491 Y175.997 E10.3084
G1 X117.432 Y176.331 E10.3263
G1 X116.972 Y178.145 E10.4252
G1 X116.866 Y178.467 E10.4431
G1 X116.151 Y180.197 E10.5419
G1 X116.000 Y180.500 E10.5598
G1 X115.045 Y182.110 E10.6586
G1 X114.852 Y182.388 E10.6765
G1 X113.676 Y183.845 E10.7753
G1 X113.445 Y184.093 E10.7932
G1 X112.073 Y185.366 E10.8921
G1 X111.809 Y185.578 E10.9100
G1 X110.269 Y186.642 E11.0088
G1 X109.977 Y186.814 E11.0267
G1 X108.301 Y187.646 E11.1255
G1 X107.987 Y187.775 E11.1434
G1 X106.209 Y188.359 E11.2422
G1 X105.880 Y188.441 E11.2601
G1 X104.037 Y188.765 E11.3590
G1 X103.700 Y188.799 E11.3769
G1 X101.829 Y188.855 E11.4757
G1 X101.490 Y188.841 E11.4936
G1 X99.631 Y188.629 E11.5924
G1 X99.297 Y188.566 E11.6103
G1 X97.488 Y188.090 E11.7091
G1 X97.167 Y187.981 E11.7270
G1 X95.444 Y187.250 E11.8259
G1 X95.142 Y187.096 E11.8438
G1 X93.541 Y186.127 E11.9426
G1 X93.264 Y185.931 E11.9605
G1 X91.819 Y184.742 E12.0593
G1 X91.573 Y184.508 E12.0772
G1 X90.312 Y183.125 E12.1760
G1 X90.103 Y182.859 E12.1939
G1 X89.053 Y181.309 E12.2928
G1 X88.883 Y181.016 E12.3107
G1 X88.066 Y179.332 E12.4095
G1 X87.941 Y179.017 E12.4274
G1 X87.373 Y177.234 E12.5262
G1 X87.294 Y176.904 E12.5441
G1 X86.987 Y175.058 E12.6429
G1 X86.956 Y174.720 E12.6608
G1 X86.917 Y172.849 E12.7597
G1 X86.934 Y172.510 E12.7776
G1 X87.164 Y170.653 E12.8764
G1 X87.229 Y170.320 E12.8943
G1 X87.722 Y168.515 E12.9931
G1 X87.834 Y168.195 E13.0110
G1 X88.580 Y166.479 E13.1098
G1 X88.738 Y166.178 E13.1277
G1 X89.720 Y164.588 E13.2264
G1 X89.916 Y164.317 E13.2441
G1 X91.064 Y162.942 E13.3387
G1 X91.284 Y162.711 E13.3555
G1 X92.151 Y161.918 E13.4176
G1 X93.492 Y158.463 E13.6133
G1 X94.735 Y154.910 E13.8121
G1 X95.888 Y151.302 E14.0120
G1 X96.954 Y147.654 E14.2127
G1 X97.943 Y143.972 E14.4140
G1 X98.857 Y140.266 E14.6156
G1 X99.694 Y136.546 E14.8170
G1 X100.634 Y131.888 E15.0679
G1 X101.460 Y127.202 E15.3191
G1 X102.161 Y122.528 E15.5687
G1 X102.736 Y117.831 E15.8185
G1 X103.179 Y113.127 E16.0680
G1 X103.483 Y108.420 E16.3171
G1 X103.640 Y103.713 E16.5658
G1 X103.642 Y99.002 E16.8145
G1 X103.532 Y95.357 E17.0071
G1 X103.321 Y91.713 E17.1999
G1 X103.006 Y88.082 E17.3923
G1 X102.584 Y84.465 E17.5846
G1 X102.054 Y80.867 E17.7766
G1 X101.413 Y77.287 E17.9687
G1 X100.662 Y73.729 E18.1607
G1 X99.802 Y70.195 E18.3527
G1 X98.834 Y66.688 E18.5449
G1 X97.760 Y63.212 E18.7369
G1 X96.581 Y59.770 E18.9291
G1 X95.297 Y56.364 E19.1213
G1 X93.915 Y53.001 E19.3133
G1 X92.428 Y49.661 E19.5063
G1 X90.850 Y46.369 E19.6991
G1 X89.176 Y43.110 E19.8926
G1 X87.869 Y40.708 E20.0370
G1 X86.912 Y39.016 E20.1396
G1 X86.861 Y38.983 E20.1428
G1 X85.693 Y38.101 E20.2201
G1 X85.515 Y37.952 E20.2323
G1 X84.418 Y36.940 E20.3112
G1 X83.825 Y36.940 E20.3425
G1 X81.060 Y34.175 E20.5489
G1 X81.060 Y32.284 E20.6488
G1 X81.040 Y32.245 E20.6511
G1 X80.950 Y32.049 E20.6625
G1 X80.645 Y31.295 E20.7055
G1 X80.595 Y31.160 E20.7130
G1 X80.338 Y30.395 E20.7556
G1 X80.280 Y30.192 E20.7668
G1 X79.955 Y28.828 E20.8408
G1 X79.907 Y28.563 E20.8551
G1 X79.736 Y27.142 E20.9307
G1 X79.719 Y26.873 E20.9449
G1 X79.710 Y25.442 E21.0205
G1 X79.724 Y25.173 E21.0347
G1 X79.875 Y23.776 E21.1089
G1 X79.908 Y23.562 E21.1203
G1 X80.078 Y22.719 E21.1657
G1 X80.114 Y22.570 E21.1738
G92 E0.0000
G1 E-0.7000 F1500
G1 X80.579 Y22.688 F4800
G1 E0.0000 F1500
G92 E0.0000
G1 X80.791 Y21.908 E0.0427 F1800
G1 X80.831 Y21.777 E0.0499
G1 X81.097 Y20.999 E0.0933
G1 X81.146 Y20.868 E0.1007
G1 X81.472 Y20.087 E0.1454
G1 X81.540 Y19.944 E0.1537
G1 X81.540 Y18.024 E0.2551
G1 X84.024 Y15.540 E0.4406
G1 X84.731 Y15.540 E0.4780
G1 X84.744 Y15.528 E0.4789
G1 X85.770 Y14.655 E0.5500
G1 X85.950 Y14.517 E0.5620
G1 X87.067 Y13.756 E0.6334
G1 X87.283 Y13.627 E0.6467
G1 X88.652 Y12.915 E0.7281
G1 X88.896 Y12.807 E0.7422
G1 X90.350 Y12.270 E0.8241
G1 X90.606 Y12.194 E0.8382
G1 X92.116 Y11.843 E0.9201
G1 X92.380 Y11.800 E0.9342
G1 X93.912 Y11.643 E1.0155
G1 X94.159 Y11.632 E1.0285
G1 X95.504 Y11.652 E1.0996
G1 X95.768 Y11.672 E1.1135
G1 X97.482 Y11.912 E1.2049
G1 X97.776 Y11.975 E1.2208
G1 X99.457 Y12.460 E1.3132
G1 X99.740 Y12.564 E1.3291
G1 X101.335 Y13.282 E1.4215
G1 X101.600 Y13.425 E1.4374
G1 X103.077 Y14.363 E1.5298
G1 X103.320 Y14.542 E1.5457
G1 X104.649 Y15.678 E1.6381
G1 X104.864 Y15.890 E1.6540
G1 X106.019 Y17.204 E1.7464
G1 X106.202 Y17.444 E1.7623
G1 X107.159 Y18.908 E1.8546
G1 X107.306 Y19.171 E1.8706
G1 X108.047 Y20.756 E1.9629
G1 X108.154 Y21.037 E1.9788
G1 X108.663 Y22.711 E2.0712
G1 X108.730 Y23.005 E2.0871
G1 X108.997 Y24.734 E2.1795
G1 X109.021 Y25.034 E2.1954
G1 X109.040 Y26.783 E2.2878
G1 X109.022 Y27.084 E2.3037
G1 X108.793 Y28.818 E2.3961
G1 X108.733 Y29.113 E2.4120
G1 X108.261 Y30.798 E2.5043
G1 X108.159 Y31.082 E2.5203
G1 X107.681 Y32.165 E2.5828
G1 X107.756 Y34.449 E2.7035
G1 X107.907 Y36.566 E2.8155
G1 X108.136 Y38.671 E2.9273
G1 X108.444 Y40.770 E3.0393
G1 X108.830 Y42.881 E3.1527
G1 X109.282 Y45.019 E3.2681
G1 X110.860 Y51.822 E3.6368
G1 X110.867 Y51.852 E3.6385
G1 X112.362 Y58.751 E4.0112
G1 X112.372 Y58.802 E4.0139
G1 X113.698 Y65.730 E4.3864
G1 X113.706 Y65.775 E4.3888
G1 X114.880 Y72.717 E4.7606
G1 X114.887 Y72.758 E4.7628
G1 X115.925 Y79.722 E5.1346
G1 X115.930 Y79.762 E5.1367
G1 X116.837 Y86.758 E5.5092
G1 X116.842 Y86.803 E5.5116
G1 X117.603 Y93.836 E5.8851
G1 X117.607 Y93.887 E5.8879
G1 X118.196 Y100.953 E6.2622
G1 X118.200 Y101.008 E6.2652
G1 X118.482 Y105.957 E6.5269
G1 X118.485 Y106.011 E6.5298
G1 X118.642 Y110.969 E6.7917
G1 X118.643 Y111.030 E6.7949
G1 X118.657 Y115.990 E7.0568
G1 X118.657 Y116.044 E7.0597
G1 X118.544 Y120.983 E7.3206
G1 X118.543 Y121.016 E7.3223
G1 X118.356 Y125.927 E7.5818
G1 X118.355 Y125.942 E7.5826
G1 X117.084 Y153.934 E9.0622
G1 X117.084 Y153.947 E9.0629
G1 X116.336 Y168.454 E9.8299
G1 X116.704 Y169.569 E9.8919
G1 X116.775 Y169.845 E9.9070
G1 X117.109 Y171.639 E10.0033
G1 X117.143 Y171.943 E10.0195
G1 X117.217 Y173.796 E10.1174
G1 X117.207 Y174.102 E10.1336
G1 X117.016 Y175.930 E10.2306
G1 X116.962 Y176.230 E10.2467
G1 X116.511 Y178.011 E10.3437
G1 X116.416 Y178.300 E10.3598
G1 X115.714 Y179.998 E10.4568
G1 X115.578 Y180.270 E10.4729
G1 X114.641 Y181.850 E10.5699
G1 X114.467 Y182.100 E10.5860
G1 X113.314 Y183.530 E10.6830
G1 X113.106 Y183.753 E10.6990
G1 X111.759 Y185.002 E10.7960
G1 X111.522 Y185.193 E10.8121
G1 X110.010 Y186.237 E10.9091
G1 X109.748 Y186.392 E10.9252
G1 X108.103 Y187.209 E11.0222
G1 X107.821 Y187.324 E11.0383
G1 X106.076 Y187.898 E11.1353
G1 X105.780 Y187.972 E11.1514
G1 X103.971 Y188.289 E11.2484
G1 X103.668 Y188.320 E11.2645
G1 X101.832 Y188.375 E11.3615
G1 X101.527 Y188.362 E11.3775
G1 X99.702 Y188.154 E11.4745
G1 X99.403 Y188.098 E11.4906
G1 X97.626 Y187.631 E11.5876
G1 X97.338 Y187.532 E11.6037
G1 X95.647 Y186.815 E11.7007
G1 X95.376 Y186.677 E11.7168
G1 X93.804 Y185.725 E11.8138
G1 X93.556 Y185.549 E11.8299
G1 X92.137 Y184.382 E11.9269
G1 X91.916 Y184.172 E11.9430
G1 X90.679 Y182.815 E12.0400
G1 X90.490 Y182.575 E12.0560
G1 X89.460 Y181.054 E12.1530
G1 X89.308 Y180.791 E12.1691
G1 X88.506 Y179.138 E12.2661
G1 X88.393 Y178.855 E12.2822
G1 X87.836 Y177.105 E12.3792
G1 X87.764 Y176.808 E12.3953
G1 X87.464 Y174.996 E12.4923
G1 X87.436 Y174.693 E12.5084
G1 X87.397 Y172.856 E12.6054
G1 X87.413 Y172.552 E12.6215
G1 X87.638 Y170.729 E12.7185
G1 X87.697 Y170.430 E12.7345
G1 X88.180 Y168.658 E12.8315
G1 X88.281 Y168.371 E12.8476
G1 X89.014 Y166.686 E12.9446
G1 X89.155 Y166.416 E12.9607
G1 X90.120 Y164.855 E13.0576
G1 X90.295 Y164.612 E13.0735
G1 X91.422 Y163.261 E13.1663
G1 X91.620 Y163.055 E13.1814
G1 X92.558 Y162.197 E13.2485
G1 X93.943 Y158.630 E13.4506
G1 X95.191 Y155.062 E13.6502
G1 X96.347 Y151.443 E13.8508
G1 X97.417 Y147.784 E14.0521
G1 X98.408 Y144.092 E14.2540
G1 X99.324 Y140.376 E14.4560
