; G-Code generated by Simplify3D(R) Version 4.1.1
; Apr 27, 2021 at 7:41:37 PM
; Settings Summary
;   processName,Trideo BOX
;   applyToModels,UpperArm - Finger slider
;   profileName,Trideo BOX
;   profileVersion,2021-04-15 09:48:16
;   baseProfile,Default
;   printMaterial,PLA
;   printQuality,Fast
;   printExtruders,
;   extruderName,Primary Extruder
;   extruderToolheadNumber,0
;   extruderDiameter,0.4
;   extruderAutoWidth,1
;   extruderWidth,0.48
;   extrusionMultiplier,0.98
;   extruderUseRetract,1
;   extruderRetractionDistance,0.7
;   extruderExtraRestartDistance,0
;   extruderRetractionZLift,0
;   extruderRetractionSpeed,1500
;   extruderUseCoasting,0
;   extruderCoastingDistance,0.2
;   extruderUseWipe,0
;   extruderWipeDistance,5
;   primaryExtruder,0
;   layerHeight,0.3
;   topSolidLayers,3
;   bottomSolidLayers,3
;   perimeterOutlines,2
;   printPerimetersInsideOut,1
;   startPointOption,2
;   startPointOriginX,0
;   startPointOriginY,0
;   sequentialIslands,0
;   spiralVaseMode,0
;   firstLayerHeightPercentage,90
;   firstLayerWidthPercentage,100
;   firstLayerUnderspeed,0.5
;   useRaft,0
;   raftExtruder,0
;   raftTopLayers,3
;   raftBaseLayers,2
;   raftOffset,3
;   raftSeparationDistance,0.14
;   raftTopInfill,100
;   aboveRaftSpeedMultiplier,0.3
;   useSkirt,1
;   skirtExtruder,0
;   skirtLayers,1
;   skirtOutlines,2
;   skirtOffset,4
;   usePrimePillar,0
;   primePillarExtruder,999
;   primePillarWidth,12
;   primePillarLocation,7
;   primePillarSpeedMultiplier,1
;   useOozeShield,0
;   oozeShieldExtruder,999
;   oozeShieldOffset,2
;   oozeShieldOutlines,1
;   oozeShieldSidewallShape,1
;   oozeShieldSidewallAngle,30
;   oozeShieldSpeedMultiplier,1
;   infillExtruder,0
;   internalInfillPattern,Rectilinear
;   externalInfillPattern,Rectilinear
;   infillPercentage,15
;   outlineOverlapPercentage,15
;   infillExtrusionWidthPercentage,100
;   minInfillLength,5
;   infillLayerInterval,1
;   internalInfillAngles,45,-45
;   overlapInternalInfillAngles,0
;   externalInfillAngles,45,-45
;   generateSupport,1
;   supportExtruder,0
;   supportInfillPercentage,25
;   supportExtraInflation,0
;   supportBaseLayers,0
;   denseSupportExtruder,0
;   denseSupportLayers,0
;   denseSupportInfillPercentage,70
;   supportLayerInterval,1
;   supportHorizontalPartOffset,0.3
;   supportUpperSeparationLayers,1
;   supportLowerSeparationLayers,1
;   supportType,0
;   supportGridSpacing,4
;   maxOverhangAngle,45
;   supportAngles,0
;   temperatureName,Primary Extruder,Heated bed
;   temperatureNumber,0,0
;   temperatureSetpointCount,1,1
;   temperatureSetpointLayers,1,1
;   temperatureSetpointTemperatures,190,60
;   temperatureStabilizeAtStartup,1,1
;   temperatureHeatedBed,0,1
;   fanLayers,1,2
;   fanSpeeds,0,100
;   blipFanToFullPower,0
;   adjustSpeedForCooling,1
;   minSpeedLayerTime,15
;   minCoolingSpeedSlowdown,20
;   increaseFanForCooling,0
;   minFanLayerTime,45
;   maxCoolingFanSpeed,100
;   increaseFanForBridging,0
;   bridgingFanSpeed,100
;   use5D,1
;   relativeEdistances,0
;   allowEaxisZeroing,1
;   independentExtruderAxes,0
;   includeM10123,0
;   stickySupport,1
;   applyToolheadOffsets,0
;   gcodeXoffset,0
;   gcodeYoffset,0
;   gcodeZoffset,0
;   overrideMachineDefinition,1
;   machineTypeOverride,0
;   strokeXoverride,200
;   strokeYoverride,200
;   strokeZoverride,200
;   originOffsetXoverride,0
;   originOffsetYoverride,0
;   originOffsetZoverride,0
;   homeXdirOverride,-1
;   homeYdirOverride,-1
;   homeZdirOverride,-1
;   flipXoverride,1
;   flipYoverride,-1
;   flipZoverride,1
;   toolheadOffsets,0,0|0,0|0,0|0,0|0,0|0,0
;   overrideFirmwareConfiguration,0
;   firmwareTypeOverride,RepRap (Marlin/Repetier/Sprinter)
;   GPXconfigOverride,r2
;   baudRateOverride,115200
;   overridePrinterModels,0
;   printerModelsOverride
;   startingGcode,G28 X0 Y0; home XY,G1 X20 Y20,G28 Z0,G1 Z5 F5000; Lift NZ
;   layerChangeGcode,
;   retractionGcode,
;   toolChangeGcode,
;   endingGcode,M104 S0 ; turn off extruder,G28 X0 ; home x,M140 S0 ; turn off bed,M84 ; disable motors,M107 ;
;   exportFileFormat,gcode
;   celebration,0
;   celebrationSong,Looney Toons
;   postProcessing,
;   defaultSpeed,3600
;   outlineUnderspeed,0.5
;   solidInfillUnderspeed,0.8
;   supportUnderspeed,0.8
;   rapidXYspeed,4800
;   rapidZspeed,1002
;   minBridgingArea,50
;   bridgingExtraInflation,0
;   bridgingExtrusionMultiplier,1
;   bridgingSpeedMultiplier,1
;   useFixedBridgingAngle,0
;   fixedBridgingAngle,0
;   applyBridgingToPerimeters,0
;   filamentDiameters,1.75|1.75|1.75|1.75|1.75|1.75
;   filamentPricesPerKg,46|46|46|46|46|46
;   filamentDensities,1.25|1.25|1.25|1.25|1.25|1.25
;   useMinPrintHeight,0
;   minPrintHeight,0
;   useMaxPrintHeight,0
;   maxPrintHeight,0
;   useDiaphragm,0
;   diaphragmLayerInterval,20
;   robustSlicing,1
;   mergeAllIntoSolid,0
;   onlyRetractWhenCrossingOutline,1
;   retractBetweenLayers,1
;   useRetractionMinTravel,0
;   retractionMinTravel,3
;   retractWhileWiping,0
;   onlyWipeOutlines,1
;   avoidCrossingOutline,0
;   maxMovementDetourFactor,3
;   toolChangeRetractionDistance,12
;   toolChangeExtraRestartDistance,-0.5
;   toolChangeRetractionSpeed,600
;   externalThinWallType,0
;   internalThinWallType,2
;   thinWallAllowedOverlapPercentage,10
;   singleExtrusionMinLength,1
;   singleExtrusionMinPrintingWidthPercentage,50
;   singleExtrusionMaxPrintingWidthPercentage,200
;   singleExtrusionEndpointExtension,0.2
;   horizontalSizeCompensation,0
G90
M82
M106 S0
M140 S60
M190 S60
M104 S190 T0
M109 S190 T0
G28 X0 Y0; home XY
G1 X20 Y20
G28 Z0
G1 Z5 F5000; Lift NZ
; process Trideo BOX
; layer 1, Z = 0.270
T0
G92 E0.0000
G1 E-0.7000 F1500
; feature skirt
; tool H0.270 W0.480
G1 Z0.270 F1002
G1 X84.697 Y39.438 F4800
G1 E0.0000 F1500
G92 E0.0000
G1 X84.797 Y39.229 E0.0122 F1800
G1 X85.381 Y38.141 E0.0774
G1 X85.540 Y37.887 E0.0932
G1 X86.277 Y36.853 E0.1603
G1 X86.467 Y36.621 E0.1761
G1 X87.323 Y35.696 E0.2426
G1 X87.525 Y35.502 E0.2575
G1 X88.361 Y34.792 E0.3154
G1 X88.561 Y34.638 E0.3287
G1 X89.471 Y34.018 E0.3868
G1 X89.711 Y33.875 E0.4016
G1 X90.821 Y33.298 E0.4677
G1 X91.093 Y33.177 E0.4834
G1 X92.275 Y32.741 E0.5499
G1 X92.559 Y32.656 E0.5656
G1 X93.787 Y32.371 E0.6321
G1 X94.080 Y32.323 E0.6478
G1 X95.322 Y32.196 E0.7137
G1 X95.596 Y32.184 E0.7282
G1 X96.699 Y32.200 E0.7864
G1 X96.992 Y32.222 E0.8020
G1 X98.379 Y32.416 E0.8759
G1 X98.707 Y32.486 E0.8936
G1 X100.073 Y32.881 E0.9687
G1 X100.388 Y32.996 E0.9864
G1 X101.684 Y33.580 E1.0615
G1 X101.979 Y33.739 E1.0792
G1 X103.179 Y34.501 E1.1542
G1 X103.449 Y34.700 E1.1720
G1 X104.529 Y35.624 E1.2470
G1 X104.768 Y35.859 E1.2647
G1 X105.707 Y36.927 E1.3398
G1 X105.910 Y37.194 E1.3575
G1 X106.688 Y38.383 E1.4326
G1 X106.851 Y38.677 E1.4503
G1 X107.453 Y39.964 E1.5253
G1 X107.573 Y40.278 E1.5430
G1 X107.987 Y41.638 E1.6181
G1 X108.061 Y41.965 E1.6358
G1 X108.278 Y43.370 E1.7109
G1 X108.305 Y43.704 E1.7286
G1 X108.321 Y45.125 E1.8037
G1 X108.301 Y45.460 E1.8214
G1 X108.115 Y46.869 E1.8964
G1 X108.047 Y47.198 E1.9141
G1 X107.664 Y48.567 E1.9892
G1 X107.551 Y48.882 E2.0069
G1 X107.391 Y49.244 E2.0278
G1 X107.442 Y50.747 E2.1072
G1 X107.552 Y52.279 E2.1883
G1 X107.717 Y53.798 E2.2689
G1 X107.939 Y55.313 E2.3498
G1 X108.219 Y56.847 E2.4321
G1 X108.550 Y58.414 E2.5167
G1 X109.730 Y63.506 E2.7927
G1 X109.738 Y63.539 E2.7945
G1 X110.862 Y68.731 E3.0750
G1 X110.873 Y68.787 E3.0780
G1 X111.870 Y74.002 E3.3584
G1 X111.879 Y74.052 E3.3611
G1 X112.762 Y79.276 E3.6409
G1 X112.769 Y79.322 E3.6433
G1 X113.549 Y84.561 E3.9230
G1 X113.555 Y84.606 E3.9254
G1 X114.237 Y89.870 E4.2057
G1 X114.242 Y89.920 E4.2083
G1 X114.814 Y95.214 E4.4895
G1 X114.819 Y95.271 E4.4925
G1 X115.262 Y100.592 E4.7745
G1 X115.266 Y100.653 E4.7777
G1 X115.479 Y104.387 E4.9752
G1 X115.482 Y104.447 E4.9783
G1 X115.600 Y108.188 E5.1760
G1 X115.601 Y108.256 E5.1796
G1 X115.611 Y111.999 E5.3772
G1 X115.611 Y112.060 E5.3804
G1 X115.525 Y115.781 E5.5770
G1 X115.524 Y115.818 E5.5789
G1 X115.383 Y119.510 E5.7740
G1 X115.382 Y119.527 E5.7749
G1 X114.427 Y140.527 E6.8849
G1 X114.426 Y140.541 E6.8857
G1 X113.871 Y151.339 E7.4566
G1 X113.995 Y151.703 E7.4770
G1 X114.082 Y152.033 E7.4950
G1 X114.355 Y153.496 E7.5735
G1 X114.393 Y153.835 E7.5915
G1 X114.454 Y155.340 E7.6711
G1 X114.443 Y155.682 E7.6891
G1 X114.288 Y157.163 E7.7678
G1 X114.228 Y157.497 E7.7857
G1 X113.863 Y158.940 E7.8643
G1 X113.756 Y159.262 E7.8822
G1 X113.188 Y160.637 E7.9608
G1 X113.036 Y160.941 E7.9787
G1 X112.277 Y162.221 E8.0573
G1 X112.084 Y162.499 E8.0752
G1 X111.149 Y163.658 E8.1538
G1 X110.940 Y163.881 E8.1699
G1 X110.940 Y164.175 E8.1855
G1 X108.175 Y166.940 E8.3919
G1 X106.396 Y166.940 E8.4858
G1 X104.985 Y167.404 E8.5643
G1 X104.656 Y167.486 E8.5822
G1 X103.190 Y167.743 E8.6608
G1 X102.852 Y167.778 E8.6787
G1 X101.365 Y167.822 E8.7573
G1 X101.026 Y167.808 E8.7752
G1 X99.547 Y167.639 E8.8538
G1 X99.214 Y167.577 E8.8717
G1 X97.775 Y167.198 E8.9503
G1 X97.454 Y167.089 E8.9682
G1 X96.083 Y166.508 E9.0468
G1 X95.781 Y166.353 E9.0647
G1 X94.508 Y165.582 E9.1433
G1 X94.231 Y165.386 E9.1612
G1 X93.082 Y164.441 E9.2398
G1 X92.836 Y164.207 E9.2577
G1 X91.834 Y163.107 E9.3363
G1 X91.624 Y162.841 E9.3542
G1 X90.789 Y161.609 E9.4328
G1 X90.619 Y161.315 E9.4507
G1 X89.970 Y159.976 E9.5293
G1 X89.844 Y159.661 E9.5472
G1 X89.393 Y158.243 E9.6258
G1 X89.313 Y157.913 E9.6437
G1 X89.073 Y156.468 E9.7210
G1 X89.042 Y156.137 E9.7386
G1 X89.007 Y154.628 E9.8183
G1 X89.024 Y154.283 E9.8365
G1 X89.207 Y152.803 E9.9153
G1 X89.272 Y152.470 E9.9332
G1 X89.664 Y151.035 E10.0118
G1 X89.777 Y150.715 E10.0297
G1 X90.370 Y149.350 E10.1083
G1 X90.527 Y149.049 E10.1262
G1 X91.308 Y147.786 E10.2046
G1 X91.503 Y147.516 E10.2221
G1 X92.415 Y146.421 E10.2974
G1 X92.662 Y146.166 E10.3162
G1 X92.957 Y145.904 E10.3370
G1 X93.941 Y143.402 E10.4790
G1 X94.858 Y140.783 E10.6255
G1 X95.712 Y138.109 E10.7737
G1 X96.504 Y135.400 E10.9227
G1 X97.238 Y132.666 E11.0722
G1 X97.917 Y129.910 E11.2221
G1 X98.539 Y127.147 E11.3717
G1 X99.238 Y123.682 E11.5583
G1 X99.852 Y120.200 E11.7450
G1 X100.372 Y116.726 E11.9305
G1 X100.800 Y113.238 E12.1161
G1 X101.128 Y109.746 E12.3012
G1 X101.353 Y106.253 E12.4861
G1 X101.469 Y102.764 E12.6704
G1 X101.470 Y99.271 E12.8548
G1 X101.388 Y96.574 E12.9973
G1 X101.232 Y93.876 E13.1400
G1 X100.998 Y91.190 E13.2824
G1 X100.686 Y88.515 E13.4246
G1 X100.294 Y85.855 E13.5666
G1 X99.819 Y83.209 E13.7086
G1 X99.263 Y80.578 E13.8506
G1 X98.627 Y77.965 E13.9926
G1 X97.911 Y75.372 E14.1346
G1 X97.117 Y72.802 E14.2766
G1 X96.244 Y70.258 E14.4187
G1 X95.294 Y67.738 E14.5608
G1 X94.271 Y65.252 E14.7028
G1 X93.170 Y62.779 E14.8457
G1 X92.001 Y60.342 E14.9885
G1 X90.768 Y57.944 E15.1308
G1 X89.126 Y54.983 E15.3096
G1 X88.543 Y54.525 E15.3488
G1 X88.392 Y54.395 E15.3593
G1 X87.210 Y53.291 E15.4447
G1 X87.043 Y53.120 E15.4573
G1 X86.267 Y52.232 E15.5196
G1 X86.094 Y52.008 E15.5345
G1 X85.415 Y51.013 E15.5982
G1 X85.267 Y50.764 E15.6135
G1 X84.718 Y49.700 E15.6766
G1 X84.629 Y49.504 E15.6880
G1 X84.383 Y48.897 E15.7226
G1 X84.333 Y48.762 E15.7302
G1 X84.127 Y48.147 E15.7645
G1 X84.069 Y47.944 E15.7756
G1 X83.810 Y46.862 E15.8343
G1 X83.763 Y46.597 E15.8486
G1 X83.626 Y45.464 E15.9088
G1 X83.609 Y45.196 E15.9230
G1 X83.602 Y44.055 E15.9833
G1 X83.616 Y43.786 E15.9975
G1 X83.736 Y42.678 E16.0563
G1 X83.769 Y42.464 E16.0678
G1 X83.914 Y41.749 E16.1063
G1 X83.970 Y41.526 E16.1184
G1 X84.336 Y40.334 E16.1843
G1 X84.414 Y40.116 E16.1965
G1 X84.697 Y39.438 E16.2353
G92 E0.0000
G1 E-0.7000 F1500
G1 X85.136 Y39.633 F4800
G1 E0.0000 F1500
G92 E0.0000
G1 X85.225 Y39.446 E0.0110 F1800
G1 X85.797 Y38.382 E0.0748
G1 X85.939 Y38.153 E0.0890
G1 X86.659 Y37.145 E0.1544
G1 X86.829 Y36.936 E0.1686
G1 X87.665 Y36.033 E0.2336
G1 X87.847 Y35.859 E0.2469
G1 X88.662 Y35.165 E0.3034
G1 X88.842 Y35.028 E0.3154
G1 X89.730 Y34.423 E0.3721
G1 X89.945 Y34.294 E0.3853
G1 X91.029 Y33.730 E0.4499
G1 X91.273 Y33.622 E0.4640
G1 X92.427 Y33.197 E0.5289
G1 X92.683 Y33.120 E0.5430
G1 X93.880 Y32.842 E0.6079
G1 X94.144 Y32.799 E0.6220
G1 X95.357 Y32.675 E0.6864
G1 X95.603 Y32.664 E0.6994
G1 X96.677 Y32.679 E0.7561
G1 X96.940 Y32.700 E0.7700
G1 X98.296 Y32.889 E0.8423
G1 X98.590 Y32.952 E0.8582
G1 X99.923 Y33.337 E0.9315
G1 X100.206 Y33.441 E0.9474
G1 X101.471 Y34.011 E1.0207
G1 X101.736 Y34.154 E1.0366
G1 X102.908 Y34.897 E1.1098
G1 X103.150 Y35.076 E1.1257
G1 X104.205 Y35.978 E1.1990
G1 X104.419 Y36.189 E1.2149
G1 X105.335 Y37.231 E1.2882
G1 X105.518 Y37.471 E1.3041
G1 X106.277 Y38.632 E1.3773
G1 X106.424 Y38.895 E1.3932
G1 X107.011 Y40.152 E1.4665
G1 X107.119 Y40.433 E1.4824
G1 X107.522 Y41.761 E1.5557
G1 X107.589 Y42.055 E1.5716
G1 X107.801 Y43.426 E1.6448
G1 X107.826 Y43.726 E1.6608
G1 X107.841 Y45.113 E1.7340
G1 X107.823 Y45.414 E1.7499
G1 X107.641 Y46.790 E1.8232
G1 X107.581 Y47.085 E1.8391
G1 X107.206 Y48.421 E1.9124
G1 X107.104 Y48.704 E1.9283
G1 X106.908 Y49.151 E1.9540
G1 X106.963 Y50.773 E2.0397
G1 X107.074 Y52.322 E2.1218
G1 X107.241 Y53.858 E2.2033
G1 X107.465 Y55.391 E2.2851
G1 X107.748 Y56.939 E2.3682
G1 X108.081 Y58.517 E2.4534
G1 X109.262 Y63.613 E2.7296
G1 X109.269 Y63.643 E2.7312
G1 X110.392 Y68.829 E3.0114
G1 X110.402 Y68.880 E3.0141
G1 X111.398 Y74.090 E3.2942
G1 X111.406 Y74.135 E3.2966
G1 X112.288 Y79.354 E3.5762
G1 X112.295 Y79.395 E3.5783
G1 X113.074 Y84.630 E3.8578
G1 X113.080 Y84.670 E3.8600
G1 X113.760 Y89.929 E4.1400
G1 X113.766 Y89.974 E4.1424
G1 X114.336 Y95.262 E4.4232
G1 X114.341 Y95.314 E4.4260
G1 X114.783 Y100.629 E4.7076
G1 X114.787 Y100.684 E4.7105
G1 X115.000 Y104.411 E4.9076
G1 X115.002 Y104.465 E4.9105
G1 X115.120 Y108.200 E5.1078
G1 X115.121 Y108.261 E5.1110
G1 X115.131 Y111.997 E5.3083
G1 X115.131 Y112.052 E5.3112
G1 X115.046 Y115.769 E5.5075
G1 X115.045 Y115.801 E5.5092
G1 X114.904 Y119.491 E5.7042
G1 X114.903 Y119.506 E5.7050
G1 X113.947 Y140.504 E6.8149
G1 X113.947 Y140.517 E6.8156
G1 X113.387 Y151.407 E7.3914
G1 X113.535 Y151.842 E7.4157
G1 X113.613 Y152.139 E7.4319
G1 X113.880 Y153.567 E7.5086
G1 X113.914 Y153.872 E7.5248
G1 X113.974 Y155.342 E7.6025
G1 X113.964 Y155.649 E7.6187
G1 X113.812 Y157.096 E7.6955
G1 X113.759 Y157.396 E7.7116
G1 X113.402 Y158.805 E7.7884
G1 X113.306 Y159.094 E7.8045
G1 X112.751 Y160.438 E7.8812
G1 X112.615 Y160.711 E7.8973
G1 X111.873 Y161.961 E7.9741
G1 X111.699 Y162.211 E7.9902
G1 X110.786 Y163.343 E8.0669
G1 X110.578 Y163.565 E8.0830
G1 X110.460 Y163.675 E8.0916
G1 X110.460 Y163.976 E8.1074
G1 X107.976 Y166.460 E8.2929
G1 X106.302 Y166.460 E8.3813
G1 X106.233 Y166.489 E8.3853
G1 X104.851 Y166.942 E8.4621
G1 X104.556 Y167.016 E8.4781
G1 X103.124 Y167.267 E8.5549
G1 X102.821 Y167.298 E8.5710
G1 X101.368 Y167.342 E8.6478
G1 X101.063 Y167.329 E8.6639
G1 X99.619 Y167.164 E8.7406
G1 X99.319 Y167.108 E8.7567
G1 X97.913 Y166.738 E8.8335
G1 X97.625 Y166.640 E8.8496
G1 X96.286 Y166.072 E8.9263
G1 X96.015 Y165.934 E8.9424
G1 X94.772 Y165.181 E9.0192
G1 X94.523 Y165.005 E9.0353
G1 X93.400 Y164.081 E9.1120
G1 X93.179 Y163.871 E9.1281
G1 X92.200 Y162.797 E9.2049
G1 X92.011 Y162.557 E9.2210
G1 X91.196 Y161.354 E9.2978
G1 X91.044 Y161.090 E9.3138
G1 X90.409 Y159.782 E9.3906
G1 X90.296 Y159.499 E9.4067
G1 X89.855 Y158.114 E9.4835
G1 X89.784 Y157.817 E9.4996
G1 X89.550 Y156.406 E9.5751
G1 X89.522 Y156.108 E9.5909
G1 X89.487 Y154.634 E9.6687
G1 X89.503 Y154.325 E9.6851
G1 X89.681 Y152.879 E9.7620
G1 X89.740 Y152.580 E9.7781
G1 X90.123 Y151.178 E9.8549
G1 X90.224 Y150.890 E9.8710
G1 X90.803 Y149.557 E9.9477
G1 X90.945 Y149.287 E9.9638
G1 X91.708 Y148.053 E10.0404
G1 X91.882 Y147.810 E10.0562
G1 X92.772 Y146.742 E10.1296
G1 X92.994 Y146.513 E10.1465
G1 X93.362 Y146.187 E10.1725
G1 X94.392 Y143.569 E10.3210
G1 X95.313 Y140.935 E10.4683
G1 X96.171 Y138.249 E10.6172
G1 X96.966 Y135.530 E10.7668
G1 X97.703 Y132.785 E10.9169
G1 X98.384 Y130.020 E11.0672
G1 X99.009 Y127.247 E11.2174
G1 X99.710 Y123.771 E11.4046
G1 X100.325 Y120.277 E11.5919
G1 X100.848 Y116.791 E11.7781
G1 X101.277 Y113.290 E11.9643
G1 X101.607 Y109.784 E12.1503
G1 X101.833 Y106.277 E12.3358
G1 X101.949 Y102.772 E12.5210
G1 X101.950 Y99.264 E12.7062
