; G-Code generated by Simplify3D(R) Version 4.1.1
; Apr 27, 2021 at 8:42:06 AM
; Settings Summary
;   processName,Trideo BOX
;   applyToModels,Left Palm
;   profileName,Trideo BOX
;   profileVersion,2021-04-15 09:48:16
;   baseProfile,Default
;   printMaterial,PLA
;   printQuality,Fast
;   printExtruders,
;   extruderName,Primary Extruder
;   extruderToolheadNumber,0
;   extruderDiameter,0.4
;   extruderAutoWidth,1
;   extruderWidth,0.48
;   extrusionMultiplier,0.98
;   extruderUseRetract,1
;   extruderRetractionDistance,0.7
;   extruderExtraRestartDistance,0
;   extruderRetractionZLift,0
;   extruderRetractionSpeed,1500
;   extruderUseCoasting,0
;   extruderCoastingDistance,0.2
;   extruderUseWipe,0
;   extruderWipeDistance,5
;   primaryExtruder,0
;   layerHeight,0.3
;   topSolidLayers,3
;   bottomSolidLayers,3
;   perimeterOutlines,2
;   printPerimetersInsideOut,1
;   startPointOption,2
;   startPointOriginX,0
;   startPointOriginY,0
;   sequentialIslands,0
;   spiralVaseMode,0
;   firstLayerHeightPercentage,90
;   firstLayerWidthPercentage,100
;   firstLayerUnderspeed,0.5
;   useRaft,0
;   raftExtruder,0
;   raftTopLayers,3
;   raftBaseLayers,2
;   raftOffset,3
;   raftSeparationDistance,0.14
;   raftTopInfill,100
;   aboveRaftSpeedMultiplier,0.3
;   useSkirt,1
;   skirtExtruder,0
;   skirtLayers,1
;   skirtOutlines,2
;   skirtOffset,4
;   usePrimePillar,0
;   primePillarExtruder,999
;   primePillarWidth,12
;   primePillarLocation,7
;   primePillarSpeedMultiplier,1
;   useOozeShield,0
;   oozeShieldExtruder,999
;   oozeShieldOffset,2
;   oozeShieldOutlines,1
;   oozeShieldSidewallShape,1
;   oozeShieldSidewallAngle,30
;   oozeShieldSpeedMultiplier,1
;   infillExtruder,0
;   internalInfillPattern,Rectilinear
;   externalInfillPattern,Rectilinear
;   infillPercentage,15
;   outlineOverlapPercentage,15
;   infillExtrusionWidthPercentage,100
;   minInfillLength,5
;   infillLayerInterval,1
;   internalInfillAngles,45,-45
;   overlapInternalInfillAngles,0
;   externalInfillAngles,45,-45
;   generateSupport,1
;   supportExtruder,0
;   supportInfillPercentage,25
;   supportExtraInflation,0
;   supportBaseLayers,0
;   denseSupportExtruder,0
;   denseSupportLayers,0
;   denseSupportInfillPercentage,70
;   supportLayerInterval,1
;   supportHorizontalPartOffset,0.3
;   supportUpperSeparationLayers,1
;   supportLowerSeparationLayers,1
;   supportType,0
;   supportGridSpacing,4
;   maxOverhangAngle,45
;   supportAngles,0
;   temperatureName,Primary Extruder,Heated bed
;   temperatureNumber,0,0
;   temperatureSetpointCount,1,1
;   temperatureSetpointLayers,1,1
;   temperatureSetpointTemperatures,190,60
;   temperatureStabilizeAtStartup,1,1
;   temperatureHeatedBed,0,1
;   fanLayers,1,2
;   fanSpeeds,0,100
;   blipFanToFullPower,0
;   adjustSpeedForCooling,1
;   minSpeedLayerTime,15
;   minCoolingSpeedSlowdown,20
;   increaseFanForCooling,0
;   minFanLayerTime,45
;   maxCoolingFanSpeed,100
;   increaseFanForBridging,0
;   bridgingFanSpeed,100
;   use5D,1
;   relativeEdistances,0
;   allowEaxisZeroing,1
;   independentExtruderAxes,0
;   includeM10123,0
;   stickySupport,1
;   applyToolheadOffsets,0
;   gcodeXoffset,0
;   gcodeYoffset,0
;   gcodeZoffset,0
;   overrideMachineDefinition,1
;   machineTypeOverride,0
;   strokeXoverride,200
;   strokeYoverride,200
;   strokeZoverride,200
;   originOffsetXoverride,0
;   originOffsetYoverride,0
;   originOffsetZoverride,0
;   homeXdirOverride,-1
;   homeYdirOverride,-1
;   homeZdirOverride,-1
;   flipXoverride,1
;   flipYoverride,-1
;   flipZoverride,1
;   toolheadOffsets,0,0|0,0|0,0|0,0|0,0|0,0
;   overrideFirmwareConfiguration,0
;   firmwareTypeOverride,RepRap (Marlin/Repetier/Sprinter)
;   GPXconfigOverride,r2
;   baudRateOverride,115200
;   overridePrinterModels,0
;   printerModelsOverride
;   startingGcode,G28 X0 Y0; home XY,G1 X20 Y20,G28 Z0,G1 Z5 F5000; Lift NZ
;   layerChangeGcode,
;   retractionGcode,
;   toolChangeGcode,
;   endingGcode,M104 S0 ; turn off extruder,G28 X0 ; home x,M140 S0 ; turn off bed,M84 ; disable motors,M107 ;
;   exportFileFormat,gcode
;   celebration,0
;   celebrationSong,Looney Toons
;   postProcessing,
;   defaultSpeed,3600
;   outlineUnderspeed,0.5
;   solidInfillUnderspeed,0.8
;   supportUnderspeed,0.8
;   rapidXYspeed,4800
;   rapidZspeed,1002
;   minBridgingArea,50
;   bridgingExtraInflation,0
;   bridgingExtrusionMultiplier,1
;   bridgingSpeedMultiplier,1
;   useFixedBridgingAngle,0
;   fixedBridgingAngle,0
;   applyBridgingToPerimeters,0
;   filamentDiameters,1.75|1.75|1.75|1.75|1.75|1.75
;   filamentPricesPerKg,46|46|46|46|46|46
;   filamentDensities,1.25|1.25|1.25|1.25|1.25|1.25
;   useMinPrintHeight,0
;   minPrintHeight,0
;   useMaxPrintHeight,0
;   maxPrintHeight,0
;   useDiaphragm,0
;   diaphragmLayerInterval,20
;   robustSlicing,1
;   mergeAllIntoSolid,0
;   onlyRetractWhenCrossingOutline,1
;   retractBetweenLayers,1
;   useRetractionMinTravel,0
;   retractionMinTravel,3
;   retractWhileWiping,0
;   onlyWipeOutlines,1
;   avoidCrossingOutline,0
;   maxMovementDetourFactor,3
;   toolChangeRetractionDistance,12
;   toolChangeExtraRestartDistance,-0.5
;   toolChangeRetractionSpeed,600
;   externalThinWallType,0
;   internalThinWallType,2
;   thinWallAllowedOverlapPercentage,10
;   singleExtrusionMinLength,1
;   singleExtrusionMinPrintingWidthPercentage,50
;   singleExtrusionMaxPrintingWidthPercentage,200
;   singleExtrusionEndpointExtension,0.2
;   horizontalSizeCompensation,0
G90
M82
M106 S0
M140 S60
M190 S60
M104 S190 T0
M109 S190 T0
G28 X0 Y0; home XY
G1 X20 Y20
G28 Z0
G1 Z5 F5000; Lift NZ
; process Trideo BOX
; layer 1, Z = 0.270
T0
G92 E0.0000
G1 E-0.7000 F1500
; feature skirt
; tool H0.270 W0.480
G1 Z0.270 F1002
G1 X62.768 Y87.181 F4800
G1 E0.0000 F1500
G92 E0.0000
G1 X116.060 Y87.181 E2.8140 F1800
G1 X116.060 Y85.825 E2.8856
G1 X118.825 Y83.060 E3.0921
G1 X119.060 Y83.060 E3.1045
G1 X119.060 Y79.825 E3.2753
G1 X121.825 Y77.060 E3.4818
G1 X125.060 Y77.060 E3.6526
G1 X125.060 Y76.825 E3.6650
G1 X127.825 Y74.060 E3.8715
G1 X138.175 Y74.060 E4.4180
G1 X140.940 Y76.825 E4.6245
G1 X140.940 Y84.175 E5.0126
G1 X138.175 Y86.940 E5.2191
G1 X137.940 Y86.940 E5.2315
G1 X137.940 Y93.175 E5.5608
G1 X137.115 Y94.000 E5.6224
G1 X137.940 Y94.825 E5.6840
G1 X137.940 Y102.175 E6.0721
G1 X135.175 Y104.940 E6.2785
G1 X134.940 Y104.940 E6.2910
G1 X134.940 Y111.175 E6.6202
G1 X132.175 Y113.940 E6.8267
G1 X131.940 Y113.940 E6.8391
G1 X131.940 Y114.175 E6.8515
G1 X131.146 Y114.969 E6.9108
G1 X130.121 Y116.605 E7.0127
G1 X129.986 Y116.798 E7.0251
G1 X128.964 Y118.117 E7.1133
G1 X128.811 Y118.296 E7.1257
G1 X127.618 Y119.554 E7.2173
G1 X127.452 Y119.713 E7.2294
G1 X126.085 Y120.898 E7.3249
G1 X125.913 Y121.034 E7.3365
G1 X124.369 Y122.139 E7.4367
G1 X124.199 Y122.251 E7.4475
G1 X122.478 Y123.271 E7.5532
G1 X122.314 Y123.360 E7.5630
G1 X120.415 Y124.292 E7.6747
G1 X120.261 Y124.361 E7.6836
G1 X118.184 Y125.203 E7.8019
G1 X118.043 Y125.255 E7.8099
G1 X115.790 Y126.005 E7.9353
G1 X115.661 Y126.043 E7.9424
G1 X113.238 Y126.700 E8.0749
G1 X113.121 Y126.728 E8.0813
G1 X110.533 Y127.288 E8.2211
G1 X110.427 Y127.309 E8.2268
G1 X107.688 Y127.771 E8.3735
G1 X107.590 Y127.786 E8.3787
G1 X104.717 Y128.149 E8.5316
G1 X104.627 Y128.158 E8.5364
G1 X101.643 Y128.420 E8.6946
G1 X101.559 Y128.426 E8.6990
G1 X98.496 Y128.584 E8.8610
G1 X98.416 Y128.587 E8.8652
G1 X95.313 Y128.642 E9.0291
G1 X95.233 Y128.642 E9.0333
G1 X92.130 Y128.592 E9.1972
G1 X92.049 Y128.590 E9.2014
G1 X88.986 Y128.436 E9.3634
G1 X88.902 Y128.430 E9.3679
G1 X85.917 Y128.173 E9.5261
G1 X85.826 Y128.164 E9.5308
G1 X82.965 Y127.806 E9.6831
G1 X82.892 Y127.796 E9.6870
G1 X81.493 Y127.577 E9.7618
G1 X81.442 Y127.568 E9.7645
G1 X80.077 Y127.323 E9.8378
G1 X79.995 Y127.307 E9.8422
G1 X77.422 Y126.751 E9.9812
G1 X77.304 Y126.723 E9.9876
G1 X74.882 Y126.067 E10.1201
G1 X74.752 Y126.028 E10.1272
G1 X72.501 Y125.278 E10.2525
G1 X72.359 Y125.225 E10.2605
G1 X70.285 Y124.381 E10.3788
G1 X70.130 Y124.311 E10.3877
G1 X68.235 Y123.376 E10.4993
G1 X68.069 Y123.286 E10.5093
G1 X66.353 Y122.262 E10.6148
G1 X66.181 Y122.148 E10.6257
G1 X64.643 Y121.038 E10.7258
G1 X64.470 Y120.900 E10.7375
G1 X63.110 Y119.709 E10.8330
G1 X62.943 Y119.548 E10.8452
G1 X61.758 Y118.285 E10.9367
G1 X61.605 Y118.104 E10.9492
G1 X60.591 Y116.778 E11.0373
G1 X60.457 Y116.585 E11.0498
G1 X58.822 Y113.937 E11.2141
G1 X56.060 Y111.175 E11.4203
G1 X56.060 Y100.825 E11.9669
G1 X57.311 Y99.574 E12.0603
G1 X57.498 Y98.408 E12.1226
G1 X57.513 Y98.322 E12.1273
G1 X57.768 Y97.038 E12.1964
G1 X57.786 Y96.957 E12.2008
G1 X58.089 Y95.671 E12.2705
G1 X58.109 Y95.593 E12.2748
G1 X58.459 Y94.304 E12.3453
G1 X58.480 Y94.230 E12.3494
G1 X58.882 Y92.920 E12.4217
G1 X58.917 Y92.815 E12.4276
G1 X60.324 Y88.899 E12.6473
G1 X62.768 Y87.181 E12.8050
G92 E0.0000
G1 E-0.7000 F1500
G1 X62.920 Y87.661 F4800
G1 E0.0000 F1500
G92 E0.0000
G1 X116.540 Y87.661 E2.8314 F1800
G1 X116.540 Y86.024 E2.9178
G1 X119.024 Y83.540 E3.1033
G1 X119.540 Y83.540 E3.1305
G1 X119.540 Y80.024 E3.3162
G1 X122.024 Y77.540 E3.5017
G1 X125.540 Y77.540 E3.6874
G1 X125.540 Y77.024 E3.7146
G1 X128.024 Y74.540 E3.9001
G1 X137.976 Y74.540 E4.4256
G1 X140.460 Y77.024 E4.6111
G1 X140.460 Y83.976 E4.9782
G1 X137.976 Y86.460 E5.1637
G1 X137.460 Y86.460 E5.1909
G1 X137.460 Y92.976 E5.5350
G1 X136.436 Y94.000 E5.6115
G1 X137.460 Y95.024 E5.6879
G1 X137.460 Y101.976 E6.0550
G1 X134.976 Y104.460 E6.2405
G1 X134.460 Y104.460 E6.2678
G1 X134.460 Y110.976 E6.6119
G1 X131.976 Y113.460 E6.7973
G1 X131.525 Y113.460 E6.8212
G1 X131.460 Y113.564 E6.8276
G1 X131.460 Y113.976 E6.8494
G1 X130.768 Y114.668 E6.9011
G1 X129.720 Y116.340 E7.0053
G1 X129.600 Y116.513 E7.0164
G1 X128.592 Y117.814 E7.1033
G1 X128.454 Y117.975 E7.1145
G1 X127.278 Y119.215 E7.2047
G1 X127.128 Y119.358 E7.2157
G1 X125.779 Y120.528 E7.3100
G1 X125.624 Y120.650 E7.3204
G1 X124.098 Y121.743 E7.4195
G1 X123.945 Y121.843 E7.4291
G1 X122.241 Y122.854 E7.5338
G1 X122.094 Y122.933 E7.5426
G1 X120.211 Y123.857 E7.6534
G1 X120.073 Y123.919 E7.6613
G1 X118.011 Y124.755 E7.7788
G1 X117.884 Y124.802 E7.7860
G1 X115.645 Y125.547 E7.9106
G1 X115.529 Y125.582 E7.9169
G1 X113.118 Y126.235 E8.0488
G1 X113.013 Y126.260 E8.0546
G1 X110.437 Y126.818 E8.1937
G1 X110.341 Y126.836 E8.1989
G1 X107.613 Y127.297 E8.3450
G1 X107.525 Y127.310 E8.3497
G1 X104.661 Y127.672 E8.5021
G1 X104.580 Y127.680 E8.5064
G1 X101.605 Y127.941 E8.6641
G1 X101.530 Y127.946 E8.6681
G1 X98.476 Y128.105 E8.8296
G1 X98.403 Y128.107 E8.8334
G1 X95.308 Y128.162 E8.9968
G1 X95.237 Y128.162 E9.0006
G1 X92.141 Y128.112 E9.1641
G1 X92.069 Y128.110 E9.1679
G1 X89.014 Y127.957 E9.3294
G1 X88.938 Y127.952 E9.3334
G1 X85.962 Y127.695 E9.4912
G1 X85.881 Y127.687 E9.4955
G1 X83.028 Y127.330 E9.6473
G1 X82.963 Y127.321 E9.6508
G1 X81.570 Y127.103 E9.7252
G1 X81.524 Y127.095 E9.7277
G1 X80.166 Y126.851 E9.8006
G1 X80.092 Y126.837 E9.8045
G1 X77.529 Y126.283 E9.9430
G1 X77.423 Y126.258 E9.9487
G1 X75.014 Y125.606 E10.0805
G1 X74.897 Y125.570 E10.0870
G1 X72.661 Y124.825 E10.2115
G1 X72.532 Y124.777 E10.2187
G1 X70.474 Y123.940 E10.3360
G1 X70.334 Y123.877 E10.3441
G1 X68.456 Y122.950 E10.4547
G1 X68.307 Y122.869 E10.4637
G1 X66.608 Y121.855 E10.5682
G1 X66.453 Y121.753 E10.5779
G1 X64.933 Y120.655 E10.6769
G1 X64.778 Y120.532 E10.6874
G1 X63.435 Y119.356 E10.7817
G1 X63.285 Y119.211 E10.7927
G1 X62.117 Y117.965 E10.8829
G1 X61.979 Y117.803 E10.8941
G1 X60.979 Y116.496 E10.9810
G1 X60.860 Y116.322 E10.9921
G1 X59.091 Y113.460 E11.1698
G1 X59.024 Y113.460 E11.1734
G1 X56.540 Y110.976 E11.3588
G1 X56.540 Y101.024 E11.8844
G1 X57.762 Y99.802 E11.9756
G1 X57.767 Y99.761 E11.9778
G1 X57.971 Y98.488 E12.0458
G1 X57.985 Y98.411 E12.0500
G1 X58.238 Y97.136 E12.1186
G1 X58.254 Y97.063 E12.1226
G1 X58.555 Y95.785 E12.1919
G1 X58.573 Y95.715 E12.1957
G1 X58.921 Y94.433 E12.2658
G1 X58.940 Y94.367 E12.2695
G1 X59.340 Y93.067 E12.3413
G1 X59.371 Y92.972 E12.3466
G1 X60.725 Y89.204 E12.5580
G1 X62.920 Y87.661 E12.6997
G92 E0.0000
G1 E-0.7000 F1500
; feature inner perimeter
G1 X64.760 Y92.621 F4800
G1 E0.0000 F1500
G92 E0.0000
G1 X125.865 Y92.621 E3.2266 F1350
G1 X126.153 Y93.380 E3.2695
G1 X126.569 Y94.586 E3.3368
G1 X126.940 Y95.784 E3.4031
G1 X127.267 Y96.974 E3.4682
G1 X127.547 Y98.156 E3.5323
G1 X127.781 Y99.329 E3.5955
G1 X127.969 Y100.493 E3.6578
G1 X128.013 Y100.856 E3.6771
G1 X62.630 Y100.856 E7.1296
G1 X62.674 Y100.491 E7.1490
G1 X62.860 Y99.325 E7.2113
G1 X63.093 Y98.151 E7.2745
G1 X63.372 Y96.969 E7.3386
G1 X63.695 Y95.778 E7.4038
G1 X64.063 Y94.581 E7.4699
G1 X64.475 Y93.376 E7.5371
G1 X64.760 Y92.621 E7.5798
; feature outer perimeter
G1 X64.427 Y92.141 F4800
G92 E0.0000
G1 X126.196 Y92.141 E3.2616 F900
G1 X126.604 Y93.216 E3.3224
G1 X127.025 Y94.436 E3.3905
G1 X127.401 Y95.649 E3.4576
G1 X127.732 Y96.855 E3.5236
G1 X128.016 Y98.053 E3.5886
G1 X128.254 Y99.244 E3.6527
G1 X128.444 Y100.426 E3.7159
G1 X128.554 Y101.336 E3.7643
G1 X62.088 Y101.336 E7.2740
G1 X62.198 Y100.424 E7.3225
G1 X62.388 Y99.240 E7.3858
G1 X62.624 Y98.049 E7.4499
G1 X62.907 Y96.851 E7.5149
G1 X63.234 Y95.645 E7.5809
G1 X63.606 Y94.433 E7.6478
G1 X64.023 Y93.214 E7.7159
G1 X64.427 Y92.141 E7.7764
; feature solid layer
G1 X63.112 Y100.448 F4800
G92 E0.0000
G1 X63.096 Y100.432 E0.0012 F1440
G1 X63.190 Y99.846 E0.0325
G1 X63.791 Y100.448 E0.0774
G1 X64.470 Y100.448 E0.1132
G1 X63.288 Y99.266 E0.2015
G1 X63.401 Y98.699 E0.2320
G1 X65.149 Y100.448 E0.3625
G1 X65.828 Y100.448 E0.3984
G1 X63.516 Y98.136 E0.5710
G1 X63.646 Y97.587 E0.6008
G1 X66.507 Y100.448 E0.8144
G1 X67.185 Y100.448 E0.8503
G1 X63.776 Y97.038 E1.1049
G1 X63.921 Y96.504 E1.1341
G1 X67.864 Y100.448 E1.4286
G1 X68.543 Y100.448 E1.4644
G1 X64.066 Y95.971 E1.7987
G1 X64.087 Y95.892 E1.8030
G1 X64.223 Y95.449 E1.8275
G1 X69.222 Y100.448 E2.2008
G1 X69.901 Y100.448 E2.2366
G1 X64.383 Y94.930 E2.6487
G1 X64.451 Y94.707 E2.6609
G1 X64.550 Y94.418 E2.6771
G1 X70.579 Y100.448 E3.1273
G1 X71.258 Y100.448 E3.1632
G1 X64.723 Y93.912 E3.6512
G1 X64.859 Y93.514 E3.6734
G1 X64.899 Y93.409 E3.6793
G1 X71.937 Y100.448 E4.2049
G1 X72.616 Y100.448 E4.2408
G1 X65.197 Y93.029 E4.7948
G1 X65.876 Y93.029 E4.8307
G1 X73.295 Y100.448 E5.3847
G1 X73.974 Y100.448 E5.4205
G1 X66.555 Y93.029 E5.9745
G1 X67.233 Y93.029 E6.0104
G1 X74.652 Y100.448 E6.5644
G1 X75.331 Y100.448 E6.6002
G1 X67.912 Y93.029 E7.1543
G1 X68.591 Y93.029 E7.1901
G1 X76.010 Y100.448 E7.7441
G1 X76.689 Y100.448 E7.7800
G1 X69.270 Y93.029 E8.3340
G1 X69.949 Y93.029 E8.3698
G1 X77.368 Y100.448 E8.9239
G1 X78.046 Y100.448 E8.9597
G1 X70.627 Y93.029 E9.5137
G1 X71.306 Y93.029 E9.5496
G1 X78.725 Y100.448 E10.1036
G1 X79.404 Y100.448 E10.1394
G1 X71.985 Y93.029 E10.6935
G1 X72.664 Y93.029 E10.7293
G1 X80.083 Y100.448 E11.2833
G1 X80.762 Y100.448 E11.3192
G1 X73.343 Y93.029 E11.8732
G1 X74.022 Y93.029 E11.9090
G1 X81.441 Y100.448 E12.4630
G1 X82.119 Y100.448 E12.4989
G1 X74.700 Y93.029 E13.0529
G1 X75.379 Y93.029 E13.0888
G1 X82.798 Y100.448 E13.6428
G1 X83.477 Y100.448 E13.6786
G1 X76.058 Y93.029 E14.2326
G1 X76.737 Y93.029 E14.2685
G1 X84.156 Y100.448 E14.8225
G1 X84.835 Y100.448 E14.8583
G1 X77.416 Y93.029 E15.4124
G1 X78.095 Y93.029 E15.4482
G1 X85.514 Y100.448 E16.0022
G1 X86.192 Y100.448 E16.0381
G1 X78.773 Y93.029 E16.5921
G1 X79.452 Y93.029 E16.6279
G1 X86.871 Y100.448 E17.1820
G1 X87.550 Y100.448 E17.2178
G1 X80.131 Y93.029 E17.7718
G1 X80.810 Y93.029 E17.8077
G1 X88.229 Y100.448 E18.3617
G1 X88.908 Y100.448 E18.3975
G1 X81.489 Y93.029 E18.9516
G1 X82.167 Y93.029 E18.9874
G1 X89.586 Y100.448 E19.5414
G1 X90.265 Y100.448 E19.5773
G1 X82.846 Y93.029 E20.1313
G1 X83.525 Y93.029 E20.1671
G1 X90.944 Y100.448 E20.7211
G1 X91.623 Y100.448 E20.7570
G1 X84.204 Y93.029 E21.3110
G1 X84.883 Y93.029 E21.3469
G1 X92.302 Y100.448 E21.9009
G1 X92.981 Y100.448 E21.9367
G1 X85.562 Y93.029 E22.4907
G1 X86.240 Y93.029 E22.5266
G1 X93.659 Y100.448 E23.0806
G1 X94.338 Y100.448 E23.1164
G1 X86.919 Y93.029 E23.6705
G1 X87.598 Y93.029 E23.7063
G1 X95.017 Y100.448 E24.2603
G1 X95.696 Y100.448 E24.2962
G1 X88.277 Y93.029 E24.8502
