; G-Code generated by Simplify3D(R) Version 4.1.1
; Apr 25, 2021 at 7:27:35 PM
; Settings Summary
;   processName,Trideo BOX
;   applyToModels,FingerMechanismHolder
;   profileName,Trideo BOX
;   profileVersion,2021-04-15 09:48:16
;   baseProfile,Default
;   printMaterial,PLA
;   printQuality,Fast
;   printExtruders,
;   extruderName,Primary Extruder
;   extruderToolheadNumber,0
;   extruderDiameter,0.4
;   extruderAutoWidth,1
;   extruderWidth,0.48
;   extrusionMultiplier,0.98
;   extruderUseRetract,1
;   extruderRetractionDistance,0.7
;   extruderExtraRestartDistance,0
;   extruderRetractionZLift,0
;   extruderRetractionSpeed,1500
;   extruderUseCoasting,0
;   extruderCoastingDistance,0.2
;   extruderUseWipe,0
;   extruderWipeDistance,5
;   primaryExtruder,0
;   layerHeight,0.3
;   topSolidLayers,3
;   bottomSolidLayers,3
;   perimeterOutlines,2
;   printPerimetersInsideOut,1
;   startPointOption,2
;   startPointOriginX,0
;   startPointOriginY,0
;   sequentialIslands,0
;   spiralVaseMode,0
;   firstLayerHeightPercentage,90
;   firstLayerWidthPercentage,100
;   firstLayerUnderspeed,0.5
;   useRaft,0
;   raftExtruder,0
;   raftTopLayers,3
;   raftBaseLayers,2
;   raftOffset,3
;   raftSeparationDistance,0.14
;   raftTopInfill,100
;   aboveRaftSpeedMultiplier,0.3
;   useSkirt,1
;   skirtExtruder,0
;   skirtLayers,1
;   skirtOutlines,2
;   skirtOffset,4
;   usePrimePillar,0
;   primePillarExtruder,999
;   primePillarWidth,12
;   primePillarLocation,7
;   primePillarSpeedMultiplier,1
;   useOozeShield,0
;   oozeShieldExtruder,999
;   oozeShieldOffset,2
;   oozeShieldOutlines,1
;   oozeShieldSidewallShape,1
;   oozeShieldSidewallAngle,30
;   oozeShieldSpeedMultiplier,1
;   infillExtruder,0
;   internalInfillPattern,Rectilinear
;   externalInfillPattern,Rectilinear
;   infillPercentage,15
;   outlineOverlapPercentage,15
;   infillExtrusionWidthPercentage,100
;   minInfillLength,5
;   infillLayerInterval,1
;   internalInfillAngles,45,-45
;   overlapInternalInfillAngles,0
;   externalInfillAngles,45,-45
;   generateSupport,1
;   supportExtruder,0
;   supportInfillPercentage,25
;   supportExtraInflation,0
;   supportBaseLayers,0
;   denseSupportExtruder,0
;   denseSupportLayers,0
;   denseSupportInfillPercentage,70
;   supportLayerInterval,1
;   supportHorizontalPartOffset,0.3
;   supportUpperSeparationLayers,1
;   supportLowerSeparationLayers,1
;   supportType,0
;   supportGridSpacing,4
;   maxOverhangAngle,45
;   supportAngles,0
;   temperatureName,Primary Extruder,Heated bed
;   temperatureNumber,0,0
;   temperatureSetpointCount,1,1
;   temperatureSetpointLayers,1,1
;   temperatureSetpointTemperatures,190,60
;   temperatureStabilizeAtStartup,1,1
;   temperatureHeatedBed,0,1
;   fanLayers,1,2
;   fanSpeeds,0,100
;   blipFanToFullPower,0
;   adjustSpeedForCooling,1
;   minSpeedLayerTime,15
;   minCoolingSpeedSlowdown,20
;   increaseFanForCooling,0
;   minFanLayerTime,45
;   maxCoolingFanSpeed,100
;   increaseFanForBridging,0
;   bridgingFanSpeed,100
;   use5D,1
;   relativeEdistances,0
;   allowEaxisZeroing,1
;   independentExtruderAxes,0
;   includeM10123,0
;   stickySupport,1
;   applyToolheadOffsets,0
;   gcodeXoffset,0
;   gcodeYoffset,0
;   gcodeZoffset,0
;   overrideMachineDefinition,1
;   machineTypeOverride,0
;   strokeXoverride,200
;   strokeYoverride,200
;   strokeZoverride,200
;   originOffsetXoverride,0
;   originOffsetYoverride,0
;   originOffsetZoverride,0
;   homeXdirOverride,-1
;   homeYdirOverride,-1
;   homeZdirOverride,-1
;   flipXoverride,1
;   flipYoverride,-1
;   flipZoverride,1
;   toolheadOffsets,0,0|0,0|0,0|0,0|0,0|0,0
;   overrideFirmwareConfiguration,0
;   firmwareTypeOverride,RepRap (Marlin/Repetier/Sprinter)
;   GPXconfigOverride,r2
;   baudRateOverride,115200
;   overridePrinterModels,0
;   printerModelsOverride
;   startingGcode,G28 X0 Y0; home XY,G1 X20 Y20,G28 Z0,G1 Z5 F5000; Lift NZ
;   layerChangeGcode,
;   retractionGcode,
;   toolChangeGcode,
;   endingGcode,M104 S0 ; turn off extruder,G28 X0 ; home x,M140 S0 ; turn off bed,M84 ; disable motors,M107 ;
;   exportFileFormat,gcode
;   celebration,0
;   celebrationSong,Looney Toons
;   postProcessing,
;   defaultSpeed,3600
;   outlineUnderspeed,0.5
;   solidInfillUnderspeed,0.8
;   supportUnderspeed,0.8
;   rapidXYspeed,4800
;   rapidZspeed,1002
;   minBridgingArea,50
;   bridgingExtraInflation,0
;   bridgingExtrusionMultiplier,1
;   bridgingSpeedMultiplier,1
;   useFixedBridgingAngle,0
;   fixedBridgingAngle,0
;   applyBridgingToPerimeters,0
;   filamentDiameters,1.75|1.75|1.75|1.75|1.75|1.75
;   filamentPricesPerKg,46|46|46|46|46|46
;   filamentDensities,1.25|1.25|1.25|1.25|1.25|1.25
;   useMinPrintHeight,0
;   minPrintHeight,0
;   useMaxPrintHeight,0
;   maxPrintHeight,0
;   useDiaphragm,0
;   diaphragmLayerInterval,20
;   robustSlicing,1
;   mergeAllIntoSolid,0
;   onlyRetractWhenCrossingOutline,1
;   retractBetweenLayers,1
;   useRetractionMinTravel,0
;   retractionMinTravel,3
;   retractWhileWiping,0
;   onlyWipeOutlines,1
;   avoidCrossingOutline,0
;   maxMovementDetourFactor,3
;   toolChangeRetractionDistance,12
;   toolChangeExtraRestartDistance,-0.5
;   toolChangeRetractionSpeed,600
;   externalThinWallType,0
;   internalThinWallType,2
;   thinWallAllowedOverlapPercentage,10
;   singleExtrusionMinLength,1
;   singleExtrusionMinPrintingWidthPercentage,50
;   singleExtrusionMaxPrintingWidthPercentage,200
;   singleExtrusionEndpointExtension,0.2
;   horizontalSizeCompensation,0
G90
M82
M106 S0
M140 S60
M190 S60
M104 S190 T0
M109 S190 T0
G28 X0 Y0; home XY
G1 X20 Y20
G28 Z0
G1 Z5 F5000; Lift NZ
; process Trideo BOX
; layer 1, Z = 0.270
T0
G92 E0.0000
G1 E-0.7000 F1500
; feature skirt
; tool H0.270 W0.480
G1 Z0.270 F1002
G1 X64.325 Y84.060 F4800
G1 E0.0000 F1500
G92 E0.0000
G1 X135.675 Y84.060 E3.7676 F1800
G1 X138.440 Y86.825 E3.9740
G1 X138.440 Y97.175 E4.5206
G1 X136.440 Y99.175 E4.6699
G1 X136.440 Y99.825 E4.7042
G1 X137.440 Y100.825 E4.7789
G1 X137.440 Y108.175 E5.1670
G1 X134.675 Y110.940 E5.3735
G1 X65.325 Y110.940 E9.0354
G1 X62.560 Y108.175 E9.2419
G1 X62.560 Y100.825 E9.6300
G1 X63.560 Y99.825 E9.7047
G1 X63.560 Y99.175 E9.7390
G1 X61.560 Y97.175 E9.8884
G1 X61.560 Y86.825 E10.4349
G1 X64.325 Y84.060 E10.6414
G92 E0.0000
G1 E-0.7000 F1500
G1 X64.524 Y84.540 F4800
G1 E0.0000 F1500
G92 E0.0000
G1 X135.476 Y84.540 E3.7466 F1800
G1 X137.960 Y87.024 E3.9320
G1 X137.960 Y96.976 E4.4576
G1 X135.960 Y98.976 E4.6069
G1 X135.960 Y100.024 E4.6622
G1 X136.960 Y101.024 E4.7369
G1 X136.960 Y107.976 E5.1040
G1 X134.476 Y110.460 E5.2895
G1 X65.524 Y110.460 E8.9305
G1 X63.040 Y107.976 E9.1159
G1 X63.040 Y101.024 E9.4831
G1 X64.040 Y100.024 E9.5577
G1 X64.040 Y98.976 E9.6130
G1 X62.040 Y96.976 E9.7624
G1 X62.040 Y87.024 E10.2879
G1 X64.524 Y84.540 E10.4734
G92 E0.0000
G1 E-0.7000 F1500
; feature outer perimeter
G1 X69.129 Y95.065 F4800
G1 E0.0000 F1500
G92 E0.0000
G1 X130.851 Y95.065 E3.2592 F900
G1 X130.853 Y95.605 E3.2876
G1 X123.799 Y95.615 E3.6601
G1 X100.533 Y95.565 E4.8887
G1 X83.772 Y95.565 E5.7737
G1 X76.189 Y95.615 E6.1741
G1 X69.128 Y95.604 E6.5470
G1 X69.129 Y95.065 E6.5755
G92 E0.0000
G1 E-0.7000 F1500
; feature support
G1 X68.530 Y99.000 F4800
G1 E0.0000 F1500
G92 E0.0000
G1 X71.470 Y99.000 E0.1552 F1440
G1 X71.470 Y100.920 E0.2566
G1 X68.530 Y100.920 E0.4119
G1 X68.530 Y102.840 E0.5133
G1 X71.470 Y102.840 E0.6685
G1 X71.470 Y104.760 E0.7699
G1 X67.530 Y104.760 E0.9779
G92 E0.0000
G1 E-0.7000 F1500
G1 X72.530 Y104.760 F4800
G1 E0.0000 F1500
G92 E0.0000
G1 X127.470 Y104.760 E2.9010 F1440
G1 X127.470 Y102.840 E3.0024
G1 X72.530 Y102.840 E5.9035
G1 X72.530 Y100.920 E6.0048
G1 X127.470 Y100.920 E8.9059
G1 X127.470 Y99.000 E9.0073
G1 X72.530 Y99.000 E11.9083
G92 E0.0000
G1 E-0.7000 F1500
G1 X66.530 Y89.400 F4800
G1 E0.0000 F1500
G92 E0.0000
G1 X99.470 Y89.400 E1.7394 F1440
G1 X99.470 Y90.030 E1.7726
G1 X100.530 Y90.030 E1.8286
G1 X100.530 Y89.400 E1.8619
G1 X133.470 Y89.400 E3.6012
G1 X133.470 Y91.320 E3.7026
G1 X66.530 Y91.320 E7.2373
G1 X66.530 Y93.240 E7.3387
G1 X133.470 Y93.240 E10.8734
G92 E0.0000
G1 E-0.7000 F1500
G1 X128.530 Y99.000 F4800
G1 E0.0000 F1500
G92 E0.0000
G1 X131.470 Y99.000 E0.1552 F1440
G1 X131.470 Y100.920 E0.2566
G1 X128.530 Y100.920 E0.4119
G1 X128.530 Y102.840 E0.5133
G1 X131.470 Y102.840 E0.6685
G1 X131.470 Y103.030 E0.6785
G1 X132.470 Y103.030 E0.7313
G1 X132.470 Y104.760 E0.8227
G1 X128.530 Y104.760 E1.0307
G92 E0.0000
G1 E-0.7000 F1500
; layer 2, Z = 0.570
M106 S255
; feature inner perimeter
; tool H0.300 W0.480
G1 Z0.570 F1002
G1 X130.482 Y96.548 F4800
G1 E0.0000 F1500
G92 E0.0000
G1 X108.204 Y96.536 E1.3071 F2700
G1 X69.499 Y96.548 E3.5779
G1 X69.502 Y95.545 E3.6368
G1 X130.479 Y95.545 E7.2144
G1 X130.482 Y96.548 E7.2732
; feature outer perimeter
G1 X130.964 Y97.028 F4800
G92 E0.0000
G1 X108.204 Y97.016 E1.3353 F1800
G1 X69.018 Y97.028 E3.6344
G1 X69.023 Y95.065 E3.7496
G1 X130.958 Y95.065 E7.3834
G1 X130.964 Y97.028 E7.4985
; feature bridge
G1 X129.760 Y95.953 F4800
G92 E0.0000
G1 X129.760 Y96.140 E0.0110 F3600
G1 X129.280 Y96.139 E0.0391
G1 X129.280 Y95.953 E0.0501
G1 X128.800 Y95.953 E0.0782
G1 X128.800 Y96.139 E0.0891
G1 X128.320 Y96.139 E0.1173
G1 X128.320 Y95.953 E0.1282
G1 X127.840 Y95.953 E0.1564
G1 X127.840 Y96.139 E0.1673
G1 X127.360 Y96.138 E0.1954
G1 X127.360 Y95.953 E0.2063
G1 X126.880 Y95.953 E0.2345
G1 X126.880 Y96.138 E0.2453
G1 X126.400 Y96.138 E0.2735
G1 X126.400 Y95.953 E0.2843
G1 X125.920 Y95.953 E0.3125
G1 X125.920 Y96.138 E0.3233
G1 X125.440 Y96.137 E0.3515
G1 X125.440 Y95.953 E0.3623
G1 X124.960 Y95.953 E0.3905
G1 X124.960 Y96.137 E0.4013
G1 X124.480 Y96.137 E0.4294
G1 X124.480 Y95.953 E0.4402
G1 X124.000 Y95.953 E0.4684
G1 X124.000 Y96.137 E0.4792
G1 X123.520 Y96.136 E0.5073
G1 X123.520 Y95.953 E0.5181
G1 X123.040 Y95.953 E0.5463
G1 X123.040 Y96.136 E0.5570
G1 X122.560 Y96.136 E0.5852
G1 X122.560 Y95.953 E0.5959
G1 X122.080 Y95.953 E0.6241
G1 X122.080 Y96.136 E0.6348
G1 X121.600 Y96.135 E0.6629
G1 X121.600 Y95.953 E0.6736
G1 X121.120 Y95.953 E0.7018
G1 X121.120 Y96.135 E0.7125
G1 X120.640 Y96.135 E0.7406
G1 X120.640 Y95.953 E0.7513
G1 X120.160 Y95.953 E0.7795
G1 X120.160 Y96.135 E0.7901
G1 X119.680 Y96.134 E0.8183
G1 X119.680 Y95.953 E0.8289
G1 X119.200 Y95.953 E0.8571
G1 X119.200 Y96.134 E0.8677
G1 X118.720 Y96.134 E0.8959
G1 X118.720 Y95.953 E0.9065
G1 X118.240 Y95.953 E0.9347
G1 X118.240 Y96.134 E0.9453
G1 X117.760 Y96.133 E0.9734
G1 X117.760 Y95.953 E0.9840
G1 X117.280 Y95.953 E1.0122
G1 X117.280 Y96.133 E1.0227
G1 X116.800 Y96.133 E1.0509
G1 X116.800 Y95.953 E1.0615
G1 X116.320 Y95.953 E1.0896
G1 X116.320 Y96.133 E1.1002
G1 X115.840 Y96.132 E1.1283
G1 X115.840 Y95.953 E1.1388
G1 X115.360 Y95.953 E1.1670
G1 X115.360 Y96.132 E1.1775
G1 X114.880 Y96.132 E1.2057
G1 X114.880 Y95.953 E1.2162
G1 X114.400 Y95.953 E1.2443
G1 X114.400 Y96.132 E1.2548
G1 X113.920 Y96.131 E1.2830
G1 X113.920 Y95.953 E1.2934
G1 X113.440 Y95.953 E1.3216
G1 X113.440 Y96.131 E1.3321
G1 X112.960 Y96.131 E1.3602
G1 X112.960 Y95.953 E1.3707
G1 X112.480 Y95.953 E1.3988
G1 X112.480 Y96.131 E1.4092
G1 X112.000 Y96.130 E1.4374
G1 X112.000 Y95.953 E1.4478
G1 X111.520 Y95.953 E1.4760
G1 X111.520 Y96.130 E1.4864
G1 X111.040 Y96.130 E1.5145
G1 X111.040 Y95.953 E1.5249
G1 X110.560 Y95.953 E1.5531
G1 X110.560 Y96.130 E1.5634
G1 X110.080 Y96.129 E1.5916
G1 X110.080 Y95.953 E1.6019
G1 X109.600 Y95.953 E1.6301
G1 X109.600 Y96.129 E1.6404
G1 X109.120 Y96.129 E1.6686
G1 X109.120 Y95.953 E1.6789
G1 X108.640 Y95.953 E1.7071
G1 X108.640 Y96.129 E1.7174
G1 X108.204 Y96.128 E1.7430
G1 X108.160 Y96.128 E1.7455
G1 X108.160 Y95.953 E1.7558
G1 X107.680 Y95.953 E1.7840
G1 X107.680 Y96.129 E1.7943
G1 X107.200 Y96.129 E1.8224
G1 X107.200 Y95.953 E1.8327
G1 X106.720 Y95.953 E1.8609
G1 X106.720 Y96.129 E1.8712
G1 X106.240 Y96.129 E1.8994
G1 X106.240 Y95.953 E1.9097
G1 X105.760 Y95.953 E1.9379
G1 X105.760 Y96.129 E1.9482
G1 X105.280 Y96.129 E1.9764
G1 X105.280 Y95.953 E1.9867
G1 X104.800 Y95.953 E2.0149
G1 X104.800 Y96.129 E2.0252
G1 X104.320 Y96.130 E2.0534
G1 X104.320 Y95.953 E2.0637
G1 X103.840 Y95.953 E2.0919
G1 X103.840 Y96.130 E2.1023
G1 X103.360 Y96.130 E2.1304
G1 X103.360 Y95.953 E2.1408
G1 X102.880 Y95.953 E2.1690
G1 X102.880 Y96.130 E2.1793
G1 X102.400 Y96.130 E2.2075
G1 X102.400 Y95.953 E2.2179
G1 X101.920 Y95.953 E2.2461
G1 X101.920 Y96.130 E2.2565
G1 X101.440 Y96.130 E2.2846
G1 X101.440 Y95.953 E2.2950
G1 X100.960 Y95.953 E2.3232
G1 X100.960 Y96.131 E2.3336
G1 X100.480 Y96.131 E2.3618
G1 X100.480 Y95.953 E2.3722
G1 X100.000 Y95.953 E2.4004
G1 X100.000 Y96.131 E2.4108
G1 X99.520 Y96.131 E2.4390
G1 X99.520 Y95.953 E2.4494
G1 X99.040 Y95.953 E2.4776
G1 X99.040 Y96.131 E2.4880
G1 X98.560 Y96.131 E2.5162
G1 X98.560 Y95.953 E2.5266
G1 X98.080 Y95.953 E2.5548
G1 X98.080 Y96.131 E2.5653
G1 X97.600 Y96.132 E2.5934
G1 X97.600 Y95.953 E2.6039
G1 X97.120 Y95.953 E2.6321
G1 X97.120 Y96.132 E2.6426
G1 X96.640 Y96.132 E2.6707
G1 X96.640 Y95.953 E2.6812
G1 X96.160 Y95.953 E2.7094
G1 X96.160 Y96.132 E2.7199
G1 X95.680 Y96.132 E2.7480
G1 X95.680 Y95.953 E2.7585
G1 X95.200 Y95.953 E2.7867
G1 X95.200 Y96.132 E2.7972
G1 X94.720 Y96.132 E2.8254
G1 X94.720 Y95.953 E2.8359
G1 X94.240 Y95.953 E2.8641
G1 X94.240 Y96.133 E2.8746
G1 X93.760 Y96.133 E2.9028
G1 X93.760 Y95.953 E2.9133
G1 X93.280 Y95.953 E2.9415
G1 X93.280 Y96.133 E2.9520
G1 X92.800 Y96.133 E2.9802
G1 X92.800 Y95.953 E2.9908
G1 X92.320 Y95.953 E3.0189
G1 X92.320 Y96.133 E3.0295
G1 X91.840 Y96.133 E3.0577
G1 X91.840 Y95.953 E3.0682
G1 X91.360 Y95.953 E3.0964
G1 X91.360 Y96.134 E3.1070
G1 X90.880 Y96.134 E3.1351
G1 X90.880 Y95.953 E3.1457
G1 X90.400 Y95.953 E3.1739
G1 X90.400 Y96.134 E3.1845
G1 X89.920 Y96.134 E3.2127
G1 X89.920 Y95.953 E3.2233
G1 X89.440 Y95.953 E3.2514
G1 X89.440 Y96.134 E3.2621
G1 X88.960 Y96.134 E3.2902
G1 X88.960 Y95.953 E3.3009
G1 X88.480 Y95.953 E3.3290
G1 X88.480 Y96.134 E3.3397
G1 X88.000 Y96.135 E3.3678
G1 X88.000 Y95.953 E3.3785
G1 X87.520 Y95.953 E3.4066
G1 X87.520 Y96.135 E3.4173
G1 X87.040 Y96.135 E3.4454
G1 X87.040 Y95.953 E3.4561
G1 X86.560 Y95.953 E3.4843
G1 X86.560 Y96.135 E3.4949
G1 X86.080 Y96.135 E3.5231
G1 X86.080 Y95.953 E3.5338
G1 X85.600 Y95.953 E3.5619
G1 X85.600 Y96.135 E3.5726
G1 X85.120 Y96.135 E3.6008
G1 X85.120 Y95.953 E3.6115
G1 X84.640 Y95.953 E3.6397
G1 X84.640 Y96.136 E3.6504
G1 X84.160 Y96.136 E3.6785
G1 X84.160 Y95.953 E3.6892
G1 X83.680 Y95.953 E3.7174
G1 X83.680 Y96.136 E3.7281
G1 X83.200 Y96.136 E3.7563
G1 X83.200 Y95.953 E3.7670
G1 X82.720 Y95.953 E3.7952
G1 X82.720 Y96.136 E3.8059
G1 X82.240 Y96.136 E3.8341
G1 X82.240 Y95.953 E3.8448
G1 X81.760 Y95.953 E3.8730
G1 X81.760 Y96.136 E3.8838
G1 X81.280 Y96.137 E3.9119
G1 X81.280 Y95.953 E3.9227
G1 X80.800 Y95.953 E3.9508
G1 X80.800 Y96.137 E3.9616
G1 X80.320 Y96.137 E3.9898
G1 X80.320 Y95.953 E4.0006
G1 X79.840 Y95.953 E4.0287
G1 X79.840 Y96.137 E4.0395
G1 X79.360 Y96.137 E4.0677
G1 X79.360 Y95.953 E4.0785
G1 X78.880 Y95.953 E4.1066
G1 X78.880 Y96.137 E4.1174
G1 X78.400 Y96.137 E4.1456
G1 X78.400 Y95.953 E4.1564
G1 X77.920 Y95.953 E4.1846
G1 X77.920 Y96.138 E4.1954
G1 X77.440 Y96.138 E4.2236
G1 X77.440 Y95.953 E4.2344
G1 X76.960 Y95.953 E4.2626
G1 X76.960 Y96.138 E4.2734
G1 X76.480 Y96.138 E4.3016
G1 X76.480 Y95.953 E4.3124
G1 X76.000 Y95.953 E4.3406
G1 X76.000 Y96.138 E4.3514
G1 X75.520 Y96.138 E4.3796
G1 X75.520 Y95.953 E4.3905
G1 X75.040 Y95.953 E4.4186
G1 X75.040 Y96.138 E4.4295
G1 X74.560 Y96.139 E4.4577
G1 X74.560 Y95.953 E4.4686
G1 X74.080 Y95.953 E4.4967
G1 X74.080 Y96.139 E4.5076
G1 X73.600 Y96.139 E4.5358
G1 X73.600 Y95.953 E4.5467
G1 X73.120 Y95.953 E4.5748
G1 X73.120 Y96.139 E4.5857
G1 X72.640 Y96.139 E4.6139
G1 X72.640 Y95.953 E4.6248
G1 X72.160 Y95.953 E4.6530
G1 X72.160 Y96.139 E4.6639
G1 X71.680 Y96.139 E4.6921
G1 X71.680 Y95.953 E4.7030
G1 X71.200 Y95.953 E4.7312
G1 X71.200 Y96.140 E4.7421
G1 X70.720 Y96.140 E4.7703
G1 X70.720 Y95.953 E4.7812
G1 X70.240 Y95.953 E4.8094
G1 X70.240 Y96.140 E4.8204
G92 E0.0000
G1 E-0.7000 F1500
; feature support
G1 X68.530 Y99.000 F4800
G1 E0.0000 F1500
G92 E0.0000
G1 X71.470 Y99.000 E0.1725 F2880
