; G-Code generated by Simplify3D(R) Version 4.1.1
; Apr 25, 2021 at 7:27:55 PM
; Settings Summary
;   processName,Trideo BOX
;   applyToModels,FingerMechanismHolder
;   profileName,Trideo BOX
;   profileVersion,2021-04-15 09:48:16
;   baseProfile,Default
;   printMaterial,PLA
;   printQuality,Fast
;   printExtruders,
;   extruderName,Primary Extruder
;   extruderToolheadNumber,0
;   extruderDiameter,0.4
;   extruderAutoWidth,1
;   extruderWidth,0.48
;   extrusionMultiplier,0.98
;   extruderUseRetract,1
;   extruderRetractionDistance,0.7
;   extruderExtraRestartDistance,0
;   extruderRetractionZLift,0
;   extruderRetractionSpeed,1500
;   extruderUseCoasting,0
;   extruderCoastingDistance,0.2
;   extruderUseWipe,0
;   extruderWipeDistance,5
;   primaryExtruder,0
;   layerHeight,0.3
;   topSolidLayers,3
;   bottomSolidLayers,3
;   perimeterOutlines,2
;   printPerimetersInsideOut,1
;   startPointOption,2
;   startPointOriginX,0
;   startPointOriginY,0
;   sequentialIslands,0
;   spiralVaseMode,0
;   firstLayerHeightPercentage,90
;   firstLayerWidthPercentage,100
;   firstLayerUnderspeed,0.5
;   useRaft,0
;   raftExtruder,0
;   raftTopLayers,3
;   raftBaseLayers,2
;   raftOffset,3
;   raftSeparationDistance,0.14
;   raftTopInfill,100
;   aboveRaftSpeedMultiplier,0.3
;   useSkirt,1
;   skirtExtruder,0
;   skirtLayers,1
;   skirtOutlines,2
;   skirtOffset,4
;   usePrimePillar,0
;   primePillarExtruder,999
;   primePillarWidth,12
;   primePillarLocation,7
;   primePillarSpeedMultiplier,1
;   useOozeShield,0
;   oozeShieldExtruder,999
;   oozeShieldOffset,2
;   oozeShieldOutlines,1
;   oozeShieldSidewallShape,1
;   oozeShieldSidewallAngle,30
;   oozeShieldSpeedMultiplier,1
;   infillExtruder,0
;   internalInfillPattern,Rectilinear
;   externalInfillPattern,Rectilinear
;   infillPercentage,15
;   outlineOverlapPercentage,15
;   infillExtrusionWidthPercentage,100
;   minInfillLength,5
;   infillLayerInterval,1
;   internalInfillAngles,45,-45
;   overlapInternalInfillAngles,0
;   externalInfillAngles,45,-45
;   generateSupport,1
;   supportExtruder,0
;   supportInfillPercentage,25
;   supportExtraInflation,0
;   supportBaseLayers,0
;   denseSupportExtruder,0
;   denseSupportLayers,0
;   denseSupportInfillPercentage,70
;   supportLayerInterval,1
;   supportHorizontalPartOffset,0.3
;   supportUpperSeparationLayers,1
;   supportLowerSeparationLayers,1
;   supportType,0
;   supportGridSpacing,4
;   maxOverhangAngle,45
;   supportAngles,0
;   temperatureName,Primary Extruder,Heated bed
;   temperatureNumber,0,0
;   temperatureSetpointCount,1,1
;   temperatureSetpointLayers,1,1
;   temperatureSetpointTemperatures,190,60
;   temperatureStabilizeAtStartup,1,1
;   temperatureHeatedBed,0,1
;   fanLayers,1,2
;   fanSpeeds,0,100
;   blipFanToFullPower,0
;   adjustSpeedForCooling,1
;   minSpeedLayerTime,15
;   minCoolingSpeedSlowdown,20
;   increaseFanForCooling,0
;   minFanLayerTime,45
;   maxCoolingFanSpeed,100
;   increaseFanForBridging,0
;   bridgingFanSpeed,100
;   use5D,1
;   relativeEdistances,0
;   allowEaxisZeroing,1
;   independentExtruderAxes,0
;   includeM10123,0
;   stickySupport,1
;   applyToolheadOffsets,0
;   gcodeXoffset,0
;   gcodeYoffset,0
;   gcodeZoffset,0
;   overrideMachineDefinition,1
;   machineTypeOverride,0
;   strokeXoverride,200
;   strokeYoverride,200
;   strokeZoverride,200
;   originOffsetXoverride,0
;   originOffsetYoverride,0
;   originOffsetZoverride,0
;   homeXdirOverride,-1
;   homeYdirOverride,-1
;   homeZdirOverride,-1
;   flipXoverride,1
;   flipYoverride,-1
;   flipZoverride,1
;   toolheadOffsets,0,0|0,0|0,0|0,0|0,0|0,0
;   overrideFirmwareConfiguration,0
;   firmwareTypeOverride,RepRap (Marlin/Repetier/Sprinter)
;   GPXconfigOverride,r2
;   baudRateOverride,115200
;   overridePrinterModels,0
;   printerModelsOverride
;   startingGcode,G28 X0 Y0; home XY,G1 X20 Y20,G28 Z0,G1 Z5 F5000; Lift NZ
;   layerChangeGcode,
;   retractionGcode,
;   toolChangeGcode,
;   endingGcode,M104 S0 ; turn off extruder,G28 X0 ; home x,M140 S0 ; turn off bed,M84 ; disable motors,M107 ;
;   exportFileFormat,gcode
;   celebration,0
;   celebrationSong,Looney Toons
;   postProcessing,
;   defaultSpeed,3600
;   outlineUnderspeed,0.5
;   solidInfillUnderspeed,0.8
;   supportUnderspeed,0.8
;   rapidXYspeed,4800
;   rapidZspeed,1002
;   minBridgingArea,50
;   bridgingExtraInflation,0
;   bridgingExtrusionMultiplier,1
;   bridgingSpeedMultiplier,1
;   useFixedBridgingAngle,0
;   fixedBridgingAngle,0
;   applyBridgingToPerimeters,0
;   filamentDiameters,1.75|1.75|1.75|1.75|1.75|1.75
;   filamentPricesPerKg,46|46|46|46|46|46
;   filamentDensities,1.25|1.25|1.25|1.25|1.25|1.25
;   useMinPrintHeight,0
;   minPrintHeight,0
;   useMaxPrintHeight,0
;   maxPrintHeight,0
;   useDiaphragm,0
;   diaphragmLayerInterval,20
;   robustSlicing,1
;   mergeAllIntoSolid,0
;   onlyRetractWhenCrossingOutline,1
;   retractBetweenLayers,1
;   useRetractionMinTravel,0
;   retractionMinTravel,3
;   retractWhileWiping,0
;   onlyWipeOutlines,1
;   avoidCrossingOutline,0
;   maxMovementDetourFactor,3
;   toolChangeRetractionDistance,12
;   toolChangeExtraRestartDistance,-0.5
;   toolChangeRetractionSpeed,600
;   externalThinWallType,0
;   internalThinWallType,2
;   thinWallAllowedOverlapPercentage,10
;   singleExtrusionMinLength,1
;   singleExtrusionMinPrintingWidthPercentage,50
;   singleExtrusionMaxPrintingWidthPercentage,200
;   singleExtrusionEndpointExtension,0.2
;   horizontalSizeCompensation,0
G90
M82
M106 S0
M140 S60
M190 S60
M104 S190 T0
M109 S190 T0
G28 X0 Y0; home XY
G1 X20 Y20
G28 Z0
G1 Z5 F5000; Lift NZ
; process Trideo BOX
; layer 1, Z = 0.270
T0
G92 E0.0000
G1 E-0.7000 F1500
; feature skirt
; tool H0.270 W0.480
G1 Z0.270 F1002
G1 X60.603 Y82.838 F4800
G1 E0.0000 F1500
G92 E0.0000
G1 X139.397 Y82.838 E4.1607 F1800
G1 X142.162 Y85.603 E4.3671
G1 X142.162 Y96.620 E4.9489
G1 X139.940 Y98.842 E5.1148
G1 X139.940 Y100.047 E5.1785
G1 X141.051 Y101.158 E5.2614
G1 X141.051 Y108.842 E5.6671
G1 X138.286 Y111.607 E5.8736
G1 X61.714 Y111.607 E9.9169
G1 X58.949 Y108.842 E10.1234
G1 X58.949 Y101.158 E10.5291
G1 X60.060 Y100.047 E10.6121
G1 X60.060 Y98.842 E10.6757
G1 X57.838 Y96.620 E10.8417
G1 X57.838 Y85.603 E11.4234
G1 X60.603 Y82.838 E11.6299
G92 E0.0000
G1 E-0.7000 F1500
G1 X60.802 Y83.318 F4800
G1 E0.0000 F1500
G92 E0.0000
G1 X139.199 Y83.318 E4.1397 F1800
G1 X141.682 Y85.801 E4.3251
G1 X141.682 Y96.421 E4.8859
G1 X139.460 Y98.643 E5.0518
G1 X139.460 Y100.246 E5.1365
G1 X140.571 Y101.357 E5.2194
G1 X140.571 Y108.643 E5.6042
G1 X138.087 Y111.127 E5.7896
G1 X61.913 Y111.127 E9.8119
G1 X59.429 Y108.643 E9.9974
G1 X59.429 Y101.357 E10.3821
G1 X60.540 Y100.246 E10.4651
G1 X60.540 Y98.643 E10.5498
G1 X58.318 Y96.421 E10.7157
G1 X58.318 Y85.801 E11.2764
G1 X60.802 Y83.318 E11.4619
G92 E0.0000
G1 E-0.7000 F1500
; feature outer perimeter
G1 X65.678 Y94.490 F4800
G1 E0.0000 F1500
G92 E0.0000
G1 X134.300 Y94.490 E3.6235 F900
G1 X134.302 Y95.057 E3.6534
G1 X130.580 Y95.063 E3.8499
G1 X97.082 Y94.990 E5.6188
G1 X80.321 Y94.990 E6.5038
G1 X69.402 Y95.063 E7.0804
G1 X65.677 Y95.057 E7.2771
G1 X65.678 Y94.490 E7.3070
G92 E0.0000
G1 E-0.7000 F1500
; feature support
G1 X65.030 Y98.889 F4800
G1 E0.0000 F1500
G92 E0.0000
G1 X68.303 Y98.889 E0.1728 F1440
G1 X68.303 Y100.809 E0.2742
G1 X65.030 Y100.809 E0.4471
G1 X65.030 Y102.729 E0.5485
G1 X68.303 Y102.729 E0.7213
G1 X68.303 Y104.649 E0.8227
G1 X63.919 Y104.649 E1.0542
G1 X63.919 Y106.569 E1.1556
G1 X68.303 Y106.569 E1.3871
G92 E0.0000
G1 E-0.7000 F1500
G1 X69.474 Y98.889 F4800
G1 E0.0000 F1500
G92 E0.0000
G1 X130.526 Y98.889 E3.2237 F1440
G1 X130.526 Y100.809 E3.3251
G1 X69.474 Y100.809 E6.5488
G1 X69.474 Y102.729 E6.6502
G1 X130.526 Y102.729 E9.8740
G1 X130.526 Y104.649 E9.9753
G1 X69.474 Y104.649 E13.1991
G1 X69.474 Y106.569 E13.3005
G1 X130.526 Y106.569 E16.5242
G92 E0.0000
G1 E-0.7000 F1500
G1 X136.081 Y106.569 F4800
G1 E0.0000 F1500
G92 E0.0000
G1 X131.697 Y106.569 E0.2315 F1440
G1 X131.697 Y104.649 E0.3329
G1 X136.081 Y104.649 E0.5644
G1 X136.081 Y103.363 E0.6323
G1 X134.970 Y103.363 E0.6910
G1 X134.970 Y102.729 E0.7245
G1 X131.697 Y102.729 E0.8973
G1 X131.697 Y100.809 E0.9987
G1 X134.970 Y100.809 E1.1715
G1 X134.970 Y98.889 E1.2729
G1 X131.697 Y98.889 E1.4458
G92 E0.0000
G1 E-0.7000 F1500
G1 X137.192 Y93.129 F4800
G1 E0.0000 F1500
G92 E0.0000
G1 X62.808 Y93.129 E3.9278 F1440
G1 X62.808 Y91.209 E4.0292
G1 X137.192 Y91.209 E7.9569
G1 X137.192 Y89.289 E8.0583
G1 X62.808 Y89.289 E11.9861
G92 E0.0000
G1 E-0.7000 F1500
; layer 2, Z = 0.570
M106 S255
; feature inner perimeter
; tool H0.300 W0.480
G1 Z0.570 F1002
G1 X66.051 Y94.970 F4800
G1 E0.0000 F1500
G92 E0.0000
G1 X133.928 Y94.970 E3.9824 F2700
G1 X133.931 Y96.037 E4.0451
G1 X87.540 Y96.013 E6.7668
G1 X78.689 Y96.036 E7.2862
G1 X66.048 Y96.037 E8.0278
G1 X66.051 Y94.970 E8.0905
; feature outer perimeter
G1 X65.572 Y94.490 F4800
G92 E0.0000
G1 X134.407 Y94.490 E4.0386 F1800
G1 X134.413 Y96.518 E4.1576
G1 X87.541 Y96.493 E6.9076
G1 X78.690 Y96.516 E7.4268
G1 X65.567 Y96.518 E8.1968
G1 X65.572 Y94.490 E8.3158
; feature bridge
G1 X66.880 Y95.629 F4800
G92 E0.0000
G1 X66.880 Y95.378 E0.0147 F3600
G1 X67.360 Y95.378 E0.0429
G1 X67.360 Y95.629 E0.0576
G1 X67.840 Y95.629 E0.0858
G1 X67.840 Y95.378 E0.1005
G1 X68.320 Y95.378 E0.1287
G1 X68.320 Y95.629 E0.1434
G1 X68.800 Y95.629 E0.1716
G1 X68.800 Y95.378 E0.1863
G1 X69.280 Y95.378 E0.2145
G1 X69.280 Y95.629 E0.2292
G1 X69.760 Y95.629 E0.2574
G1 X69.760 Y95.378 E0.2721
G1 X70.240 Y95.378 E0.3003
G1 X70.240 Y95.629 E0.3150
G1 X70.720 Y95.629 E0.3431
G1 X70.720 Y95.378 E0.3579
G1 X71.200 Y95.378 E0.3860
G1 X71.200 Y95.629 E0.4007
G1 X71.680 Y95.629 E0.4289
G1 X71.680 Y95.378 E0.4436
G1 X72.160 Y95.378 E0.4718
G1 X72.160 Y95.629 E0.4865
G1 X72.640 Y95.629 E0.5146
G1 X72.640 Y95.378 E0.5293
G1 X73.120 Y95.378 E0.5575
G1 X73.120 Y95.628 E0.5722
G1 X73.600 Y95.628 E0.6003
G1 X73.600 Y95.378 E0.6150
G1 X74.080 Y95.378 E0.6432
G1 X74.080 Y95.628 E0.6579
G1 X74.560 Y95.628 E0.6860
G1 X74.560 Y95.378 E0.7007
G1 X75.040 Y95.378 E0.7289
G1 X75.040 Y95.628 E0.7435
G1 X75.520 Y95.628 E0.7717
G1 X75.520 Y95.378 E0.7864
G1 X76.000 Y95.378 E0.8145
G1 X76.000 Y95.628 E0.8292
G1 X76.480 Y95.628 E0.8574
G1 X76.480 Y95.378 E0.8720
G1 X76.960 Y95.378 E0.9002
G1 X76.960 Y95.628 E0.9148
G1 X77.440 Y95.628 E0.9430
G1 X77.440 Y95.378 E0.9577
G1 X77.920 Y95.378 E0.9858
G1 X77.920 Y95.628 E1.0005
G1 X78.400 Y95.628 E1.0286
G1 X78.400 Y95.378 E1.0433
G1 X78.880 Y95.378 E1.0714
G1 X78.880 Y95.627 E1.0861
G1 X79.360 Y95.626 E1.1142
G1 X79.360 Y95.378 E1.1288
G1 X79.840 Y95.378 E1.1569
G1 X79.840 Y95.625 E1.1714
G1 X80.320 Y95.624 E1.1996
G1 X80.320 Y95.378 E1.2140
G1 X80.800 Y95.378 E1.2421
G1 X80.800 Y95.622 E1.2565
G1 X81.280 Y95.621 E1.2846
G1 X81.280 Y95.378 E1.2989
G1 X81.760 Y95.378 E1.3270
G1 X81.760 Y95.620 E1.3412
G1 X82.240 Y95.619 E1.3694
G1 X82.240 Y95.378 E1.3835
G1 X82.720 Y95.378 E1.4117
G1 X82.720 Y95.617 E1.4257
G1 X83.200 Y95.616 E1.4539
G1 X83.200 Y95.378 E1.4678
G1 X83.680 Y95.378 E1.4960
G1 X83.680 Y95.615 E1.5099
G1 X84.160 Y95.614 E1.5381
G1 X84.160 Y95.378 E1.5519
G1 X84.640 Y95.378 E1.5800
G1 X84.640 Y95.613 E1.5938
G1 X85.120 Y95.611 E1.6220
G1 X85.120 Y95.378 E1.6356
G1 X85.600 Y95.378 E1.6638
G1 X85.600 Y95.610 E1.6774
G1 X86.080 Y95.609 E1.7056
G1 X86.080 Y95.378 E1.7191
G1 X86.560 Y95.378 E1.7473
G1 X86.560 Y95.608 E1.7608
G1 X87.040 Y95.606 E1.7889
G1 X87.040 Y95.378 E1.8023
G1 X87.520 Y95.378 E1.8305
G1 X87.520 Y95.605 E1.8438
G1 X87.540 Y95.605 E1.8450
G1 X88.000 Y95.605 E1.8720
G1 X88.000 Y95.378 E1.8853
G1 X88.480 Y95.378 E1.9135
G1 X88.480 Y95.606 E1.9268
G1 X88.960 Y95.606 E1.9550
G1 X88.960 Y95.378 E1.9683
G1 X89.440 Y95.378 E1.9965
G1 X89.440 Y95.606 E2.0099
G1 X89.920 Y95.606 E2.0380
G1 X89.920 Y95.378 E2.0514
G1 X90.400 Y95.378 E2.0796
G1 X90.400 Y95.607 E2.0930
G1 X90.880 Y95.607 E2.1212
G1 X90.880 Y95.378 E2.1346
G1 X91.360 Y95.378 E2.1628
G1 X91.360 Y95.607 E2.1762
G1 X91.840 Y95.607 E2.2044
G1 X91.840 Y95.378 E2.2178
G1 X92.320 Y95.378 E2.2460
G1 X92.320 Y95.608 E2.2595
G1 X92.800 Y95.608 E2.2876
G1 X92.800 Y95.378 E2.3011
G1 X93.280 Y95.378 E2.3293
G1 X93.280 Y95.608 E2.3428
G1 X93.760 Y95.608 E2.3709
G1 X93.760 Y95.378 E2.3844
G1 X94.240 Y95.378 E2.4126
G1 X94.240 Y95.609 E2.4261
G1 X94.720 Y95.609 E2.4543
G1 X94.720 Y95.378 E2.4678
G1 X95.200 Y95.378 E2.4960
G1 X95.200 Y95.609 E2.5095
G1 X95.680 Y95.609 E2.5377
G1 X95.680 Y95.378 E2.5513
G1 X96.160 Y95.378 E2.5794
G1 X96.160 Y95.610 E2.5930
G1 X96.640 Y95.610 E2.6212
G1 X96.640 Y95.378 E2.6348
G1 X97.120 Y95.378 E2.6630
G1 X97.120 Y95.610 E2.6766
G1 X97.600 Y95.610 E2.7047
G1 X97.600 Y95.378 E2.7184
G1 X98.080 Y95.378 E2.7465
G1 X98.080 Y95.611 E2.7602
G1 X98.560 Y95.611 E2.7883
G1 X98.560 Y95.378 E2.8020
G1 X99.040 Y95.378 E2.8302
G1 X99.040 Y95.611 E2.8438
G1 X99.520 Y95.611 E2.8720
G1 X99.520 Y95.378 E2.8857
G1 X100.000 Y95.378 E2.9138
G1 X100.000 Y95.612 E2.9276
G1 X100.480 Y95.612 E2.9557
G1 X100.480 Y95.378 E2.9694
G1 X100.960 Y95.378 E2.9976
G1 X100.960 Y95.612 E3.0113
G1 X101.440 Y95.612 E3.0395
G1 X101.440 Y95.378 E3.0532
G1 X101.920 Y95.378 E3.0814
G1 X101.920 Y95.613 E3.0952
G1 X102.400 Y95.613 E3.1233
G1 X102.400 Y95.378 E3.1371
G1 X102.880 Y95.378 E3.1653
G1 X102.880 Y95.613 E3.1791
G1 X103.360 Y95.613 E3.2072
G1 X103.360 Y95.378 E3.2210
G1 X103.840 Y95.378 E3.2492
G1 X103.840 Y95.614 E3.2630
G1 X104.320 Y95.614 E3.2912
G1 X104.320 Y95.378 E3.3050
G1 X104.800 Y95.378 E3.3332
G1 X104.800 Y95.614 E3.3470
G1 X105.280 Y95.614 E3.3752
G1 X105.280 Y95.378 E3.3891
G1 X105.760 Y95.378 E3.4172
G1 X105.760 Y95.615 E3.4311
G1 X106.240 Y95.615 E3.4593
G1 X106.240 Y95.378 E3.4732
G1 X106.720 Y95.378 E3.5013
G1 X106.720 Y95.615 E3.5152
G1 X107.200 Y95.615 E3.5434
G1 X107.200 Y95.378 E3.5573
G1 X107.680 Y95.378 E3.5855
G1 X107.680 Y95.616 E3.5994
G1 X108.160 Y95.616 E3.6276
G1 X108.160 Y95.378 E3.6415
G1 X108.640 Y95.378 E3.6697
G1 X108.640 Y95.616 E3.6837
G1 X109.120 Y95.616 E3.7118
G1 X109.120 Y95.378 E3.7258
G1 X109.600 Y95.378 E3.7540
G1 X109.600 Y95.617 E3.7680
G1 X110.080 Y95.617 E3.7961
G1 X110.080 Y95.378 E3.8102
G1 X110.560 Y95.378 E3.8383
G1 X110.560 Y95.617 E3.8523
G1 X111.040 Y95.617 E3.8805
G1 X111.040 Y95.378 E3.8946
G1 X111.520 Y95.378 E3.9227
G1 X111.520 Y95.618 E3.9368
G1 X112.000 Y95.618 E3.9649
G1 X112.000 Y95.378 E3.9790
G1 X112.480 Y95.378 E4.0072
G1 X112.480 Y95.618 E4.0213
G1 X112.960 Y95.618 E4.0494
G1 X112.960 Y95.378 E4.0635
G1 X113.440 Y95.378 E4.0917
G1 X113.440 Y95.619 E4.1058
G1 X113.920 Y95.619 E4.1340
G1 X113.920 Y95.378 E4.1481
G1 X114.400 Y95.378 E4.1763
G1 X114.400 Y95.619 E4.1904
G1 X114.880 Y95.619 E4.2186
G1 X114.880 Y95.378 E4.2327
G1 X115.360 Y95.378 E4.2609
G1 X115.360 Y95.620 E4.2751
G1 X115.840 Y95.620 E4.3032
G1 X115.840 Y95.378 E4.3174
G1 X116.320 Y95.378 E4.3456
G1 X116.320 Y95.620 E4.3598
G1 X116.800 Y95.620 E4.3879
G1 X116.800 Y95.378 E4.4022
G1 X117.280 Y95.378 E4.4303
G1 X117.280 Y95.621 E4.4446
G1 X117.760 Y95.621 E4.4727
G1 X117.760 Y95.378 E4.4870
G1 X118.240 Y95.378 E4.5151
G1 X118.240 Y95.621 E4.5294
G1 X118.720 Y95.621 E4.5576
G1 X118.720 Y95.378 E4.5718
G1 X119.200 Y95.378 E4.6000
G1 X119.200 Y95.622 E4.6143
G1 X119.680 Y95.622 E4.6425
G1 X119.680 Y95.378 E4.6568
G1 X120.160 Y95.378 E4.6849
G1 X120.160 Y95.622 E4.6993
G1 X120.640 Y95.622 E4.7274
G1 X120.640 Y95.378 E4.7418
G1 X121.120 Y95.378 E4.7699
G1 X121.120 Y95.623 E4.7843
G1 X121.600 Y95.623 E4.8124
G1 X121.600 Y95.378 E4.8268
G1 X122.080 Y95.378 E4.8550
G1 X122.080 Y95.623 E4.8693
G1 X122.560 Y95.623 E4.8975
G1 X122.560 Y95.378 E4.9119
G1 X123.040 Y95.378 E4.9401
G1 X123.040 Y95.624 E4.9545
G1 X123.520 Y95.624 E4.9826
G1 X123.520 Y95.378 E4.9971
G1 X124.000 Y95.378 E5.0252
G1 X124.000 Y95.624 E5.0397
G1 X124.480 Y95.624 E5.0678
G1 X124.480 Y95.378 E5.0823
G1 X124.960 Y95.378 E5.1105
G1 X124.960 Y95.625 E5.1249
G1 X125.440 Y95.625 E5.1531
G1 X125.440 Y95.378 E5.1676
G1 X125.920 Y95.378 E5.1957
G1 X125.920 Y95.625 E5.2102
G1 X126.400 Y95.625 E5.2384
G1 X126.400 Y95.378 E5.2529
G1 X126.880 Y95.378 E5.2811
