; G-Code generated by Simplify3D(R) Version 4.1.1
; Apr 25, 2021 at 7:28:12 PM
; Settings Summary
;   processName,Trideo BOX
;   applyToModels,FingerMechanismHolder
;   profileName,Trideo BOX
;   profileVersion,2021-04-15 09:48:16
;   baseProfile,Default
;   printMaterial,PLA
;   printQuality,Fast
;   printExtruders,
;   extruderName,Primary Extruder
;   extruderToolheadNumber,0
;   extruderDiameter,0.4
;   extruderAutoWidth,1
;   extruderWidth,0.48
;   extrusionMultiplier,0.98
;   extruderUseRetract,1
;   extruderRetractionDistance,0.7
;   extruderExtraRestartDistance,0
;   extruderRetractionZLift,0
;   extruderRetractionSpeed,1500
;   extruderUseCoasting,0
;   extruderCoastingDistance,0.2
;   extruderUseWipe,0
;   extruderWipeDistance,5
;   primaryExtruder,0
;   layerHeight,0.3
;   topSolidLayers,3
;   bottomSolidLayers,3
;   perimeterOutlines,2
;   printPerimetersInsideOut,1
;   startPointOption,2
;   startPointOriginX,0
;   startPointOriginY,0
;   sequentialIslands,0
;   spiralVaseMode,0
;   firstLayerHeightPercentage,90
;   firstLayerWidthPercentage,100
;   firstLayerUnderspeed,0.5
;   useRaft,0
;   raftExtruder,0
;   raftTopLayers,3
;   raftBaseLayers,2
;   raftOffset,3
;   raftSeparationDistance,0.14
;   raftTopInfill,100
;   aboveRaftSpeedMultiplier,0.3
;   useSkirt,1
;   skirtExtruder,0
;   skirtLayers,1
;   skirtOutlines,2
;   skirtOffset,4
;   usePrimePillar,0
;   primePillarExtruder,999
;   primePillarWidth,12
;   primePillarLocation,7
;   primePillarSpeedMultiplier,1
;   useOozeShield,0
;   oozeShieldExtruder,999
;   oozeShieldOffset,2
;   oozeShieldOutlines,1
;   oozeShieldSidewallShape,1
;   oozeShieldSidewallAngle,30
;   oozeShieldSpeedMultiplier,1
;   infillExtruder,0
;   internalInfillPattern,Rectilinear
;   externalInfillPattern,Rectilinear
;   infillPercentage,15
;   outlineOverlapPercentage,15
;   infillExtrusionWidthPercentage,100
;   minInfillLength,5
;   infillLayerInterval,1
;   internalInfillAngles,45,-45
;   overlapInternalInfillAngles,0
;   externalInfillAngles,45,-45
;   generateSupport,1
;   supportExtruder,0
;   supportInfillPercentage,25
;   supportExtraInflation,0
;   supportBaseLayers,0
;   denseSupportExtruder,0
;   denseSupportLayers,0
;   denseSupportInfillPercentage,70
;   supportLayerInterval,1
;   supportHorizontalPartOffset,0.3
;   supportUpperSeparationLayers,1
;   supportLowerSeparationLayers,1
;   supportType,0
;   supportGridSpacing,4
;   maxOverhangAngle,45
;   supportAngles,0
;   temperatureName,Primary Extruder,Heated bed
;   temperatureNumber,0,0
;   temperatureSetpointCount,1,1
;   temperatureSetpointLayers,1,1
;   temperatureSetpointTemperatures,190,60
;   temperatureStabilizeAtStartup,1,1
;   temperatureHeatedBed,0,1
;   fanLayers,1,2
;   fanSpeeds,0,100
;   blipFanToFullPower,0
;   adjustSpeedForCooling,1
;   minSpeedLayerTime,15
;   minCoolingSpeedSlowdown,20
;   increaseFanForCooling,0
;   minFanLayerTime,45
;   maxCoolingFanSpeed,100
;   increaseFanForBridging,0
;   bridgingFanSpeed,100
;   use5D,1
;   relativeEdistances,0
;   allowEaxisZeroing,1
;   independentExtruderAxes,0
;   includeM10123,0
;   stickySupport,1
;   applyToolheadOffsets,0
;   gcodeXoffset,0
;   gcodeYoffset,0
;   gcodeZoffset,0
;   overrideMachineDefinition,1
;   machineTypeOverride,0
;   strokeXoverride,200
;   strokeYoverride,200
;   strokeZoverride,200
;   originOffsetXoverride,0
;   originOffsetYoverride,0
;   originOffsetZoverride,0
;   homeXdirOverride,-1
;   homeYdirOverride,-1
;   homeZdirOverride,-1
;   flipXoverride,1
;   flipYoverride,-1
;   flipZoverride,1
;   toolheadOffsets,0,0|0,0|0,0|0,0|0,0|0,0
;   overrideFirmwareConfiguration,0
;   firmwareTypeOverride,RepRap (Marlin/Repetier/Sprinter)
;   GPXconfigOverride,r2
;   baudRateOverride,115200
;   overridePrinterModels,0
;   printerModelsOverride
;   startingGcode,G28 X0 Y0; home XY,G1 X20 Y20,G28 Z0,G1 Z5 F5000; Lift NZ
;   layerChangeGcode,
;   retractionGcode,
;   toolChangeGcode,
;   endingGcode,M104 S0 ; turn off extruder,G28 X0 ; home x,M140 S0 ; turn off bed,M84 ; disable motors,M107 ;
;   exportFileFormat,gcode
;   celebration,0
;   celebrationSong,Looney Toons
;   postProcessing,
;   defaultSpeed,3600
;   outlineUnderspeed,0.5
;   solidInfillUnderspeed,0.8
;   supportUnderspeed,0.8
;   rapidXYspeed,4800
;   rapidZspeed,1002
;   minBridgingArea,50
;   bridgingExtraInflation,0
;   bridgingExtrusionMultiplier,1
;   bridgingSpeedMultiplier,1
;   useFixedBridgingAngle,0
;   fixedBridgingAngle,0
;   applyBridgingToPerimeters,0
;   filamentDiameters,1.75|1.75|1.75|1.75|1.75|1.75
;   filamentPricesPerKg,46|46|46|46|46|46
;   filamentDensities,1.25|1.25|1.25|1.25|1.25|1.25
;   useMinPrintHeight,0
;   minPrintHeight,0
;   useMaxPrintHeight,0
;   maxPrintHeight,0
;   useDiaphragm,0
;   diaphragmLayerInterval,20
;   robustSlicing,1
;   mergeAllIntoSolid,0
;   onlyRetractWhenCrossingOutline,1
;   retractBetweenLayers,1
;   useRetractionMinTravel,0
;   retractionMinTravel,3
;   retractWhileWiping,0
;   onlyWipeOutlines,1
;   avoidCrossingOutline,0
;   maxMovementDetourFactor,3
;   toolChangeRetractionDistance,12
;   toolChangeExtraRestartDistance,-0.5
;   toolChangeRetractionSpeed,600
;   externalThinWallType,0
;   internalThinWallType,2
;   thinWallAllowedOverlapPercentage,10
;   singleExtrusionMinLength,1
;   singleExtrusionMinPrintingWidthPercentage,50
;   singleExtrusionMaxPrintingWidthPercentage,200
;   singleExtrusionEndpointExtension,0.2
;   horizontalSizeCompensation,0
G90
M82
M106 S0
M140 S60
M190 S60
M104 S190 T0
M109 S190 T0
G28 X0 Y0; home XY
G1 X20 Y20
G28 Z0
G1 Z5 F5000; Lift NZ
; process Trideo BOX
; layer 1, Z = 0.270
T0
G92 E0.0000
G1 E-0.7000 F1500
; feature skirt
; tool H0.270 W0.480
G1 Z0.270 F1002
G1 X56.880 Y81.616 F4800
G1 E0.0000 F1500
G92 E0.0000
G1 X143.120 Y81.616 E4.5537 F1800
G1 X145.884 Y84.380 E4.7602
G1 X145.884 Y96.064 E5.3772
G1 X143.440 Y98.508 E5.5597
G1 X143.440 Y100.269 E5.6527
G1 X144.662 Y101.492 E5.7440
G1 X144.662 Y109.508 E6.1673
G1 X141.897 Y112.273 E6.3737
G1 X58.103 Y112.273 E10.7984
G1 X55.338 Y109.508 E11.0049
G1 X55.338 Y101.492 E11.4282
G1 X56.560 Y100.269 E11.5195
G1 X56.560 Y98.508 E11.6125
G1 X54.116 Y96.064 E11.7950
G1 X54.116 Y84.380 E12.4119
G1 X56.880 Y81.616 E12.6184
G92 E0.0000
G1 E-0.7000 F1500
G1 X57.079 Y82.096 F4800
G1 E0.0000 F1500
G92 E0.0000
G1 X142.921 Y82.096 E4.5328 F1800
G1 X145.404 Y84.579 E4.7182
G1 X145.404 Y95.865 E5.3142
G1 X142.960 Y98.310 E5.4967
G1 X142.960 Y100.468 E5.6107
G1 X144.182 Y101.690 E5.7020
G1 X144.182 Y109.310 E6.1043
G1 X141.699 Y111.793 E6.2898
G1 X58.302 Y111.793 E10.6934
G1 X55.818 Y109.310 E10.8789
G1 X55.818 Y101.690 E11.2812
G1 X57.040 Y100.468 E11.3725
G1 X57.040 Y98.310 E11.4865
G1 X54.596 Y95.865 E11.6690
G1 X54.596 Y84.579 E12.2650
G1 X57.079 Y82.096 E12.4504
G92 E0.0000
G1 E-0.7000 F1500
; feature outer perimeter
G1 X62.227 Y93.915 F4800
G1 E0.0000 F1500
G92 E0.0000
G1 X137.749 Y93.915 E3.9878 F900
G1 X137.751 Y94.509 E4.0192
G1 X93.631 Y94.415 E6.3489
G1 X76.870 Y94.415 E7.2339
G1 X62.225 Y94.507 E8.0072
G1 X62.227 Y93.915 E8.0385
G92 E0.0000
G1 E-0.7000 F1500
; feature support
G1 X59.086 Y93.018 F4800
G1 E0.0000 F1500
G92 E0.0000
G1 X140.914 Y93.018 E4.3209 F1440
G1 X140.914 Y91.098 E4.4223
G1 X59.086 Y91.098 E8.7431
G1 X59.086 Y89.178 E8.8445
G1 X140.914 Y89.178 E13.1654
G1 X140.914 Y87.258 E13.2668
G1 X100.641 Y87.258 E15.3934
G1 X100.641 Y87.808 E15.4224
G1 X99.359 Y87.808 E15.4901
G1 X99.359 Y87.258 E15.5191
G1 X59.086 Y87.258 E17.6457
G92 E0.0000
G1 E-0.7000 F1500
G1 X61.530 Y98.778 F4800
G1 E0.0000 F1500
G92 E0.0000
G1 X65.137 Y98.778 E0.1904 F1440
G1 X65.137 Y100.698 E0.2918
G1 X61.530 Y100.698 E0.4823
G1 X61.530 Y102.618 E0.5837
G1 X65.137 Y102.618 E0.7741
G1 X65.137 Y104.538 E0.8755
G1 X60.308 Y104.538 E1.1305
G1 X60.308 Y106.458 E1.2319
G1 X65.137 Y106.458 E1.4868
G92 E0.0000
G1 E-0.7000 F1500
G1 X66.419 Y98.778 F4800
G1 E0.0000 F1500
G92 E0.0000
G1 X133.581 Y98.778 E3.5464 F1440
G1 X133.581 Y100.698 E3.6478
G1 X66.419 Y100.698 E7.1942
G1 X66.419 Y102.618 E7.2956
G1 X133.581 Y102.618 E10.8420
G1 X133.581 Y104.538 E10.9434
G1 X66.419 Y104.538 E14.4898
G1 X66.419 Y106.458 E14.5912
G1 X133.581 Y106.458 E18.1376
G92 E0.0000
G1 E-0.7000 F1500
G1 X139.692 Y106.458 F4800
G1 E0.0000 F1500
G92 E0.0000
G1 X134.863 Y106.458 E0.2550 F1440
G1 X134.863 Y104.538 E0.3564
G1 X139.692 Y104.538 E0.6114
G1 X139.692 Y103.697 E0.6558
G1 X138.470 Y103.697 E0.7203
G1 X138.470 Y102.618 E0.7773
G1 X134.863 Y102.618 E0.9677
G1 X134.863 Y100.698 E1.0691
G1 X138.470 Y100.698 E1.2595
G1 X138.470 Y98.778 E1.3609
G1 X134.863 Y98.778 E1.5514
G92 E0.0000
G1 E-0.7000 F1500
; layer 2, Z = 0.570
M106 S255
; feature inner perimeter
; tool H0.300 W0.480
G1 Z0.570 F1002
G1 X137.380 Y95.527 F4800
G1 E0.0000 F1500
G92 E0.0000
G1 X127.647 Y95.525 E0.5711 F2700
G1 X113.704 Y95.490 E1.3891
G1 X86.294 Y95.490 E2.9973
G1 X72.328 Y95.525 E3.8167
G1 X62.597 Y95.527 E4.3876
G1 X62.600 Y94.395 E4.4540
G1 X137.377 Y94.395 E8.8413
G1 X137.380 Y95.527 E8.9077
; feature outer perimeter
G1 X137.862 Y96.007 F4800
G92 E0.0000
G1 X127.646 Y96.005 E0.5994 F1800
G1 X113.704 Y95.970 E1.4174
G1 X86.295 Y95.970 E3.0255
G1 X72.329 Y96.005 E3.8449
G1 X62.115 Y96.007 E4.4441
G1 X62.121 Y93.915 E4.5668
G1 X137.856 Y93.915 E9.0103
G1 X137.862 Y96.007 E9.1330
; feature bridge
G1 X136.960 Y94.803 F4800
G92 E0.0000
G1 X136.960 Y95.119 E0.0185 F3600
G1 X136.480 Y95.119 E0.0467
G1 X136.480 Y94.803 E0.0652
G1 X136.000 Y94.803 E0.0934
G1 X136.000 Y95.119 E0.1119
G1 X135.520 Y95.119 E0.1401
G1 X135.520 Y94.803 E0.1586
G1 X135.040 Y94.803 E0.1867
G1 X135.040 Y95.119 E0.2052
G1 X134.560 Y95.118 E0.2334
G1 X134.560 Y94.803 E0.2519
G1 X134.080 Y94.803 E0.2801
G1 X134.080 Y95.118 E0.2986
G1 X133.600 Y95.118 E0.3267
G1 X133.600 Y94.803 E0.3452
G1 X133.120 Y94.803 E0.3734
G1 X133.120 Y95.118 E0.3919
G1 X132.640 Y95.118 E0.4201
G1 X132.640 Y94.803 E0.4385
G1 X132.160 Y94.803 E0.4667
G1 X132.160 Y95.118 E0.4852
G1 X131.680 Y95.118 E0.5134
G1 X131.680 Y94.803 E0.5318
G1 X131.200 Y94.803 E0.5600
G1 X131.200 Y95.118 E0.5785
G1 X130.720 Y95.118 E0.6066
G1 X130.720 Y94.803 E0.6251
G1 X130.240 Y94.803 E0.6533
G1 X130.240 Y95.118 E0.6717
G1 X129.760 Y95.118 E0.6999
G1 X129.760 Y94.803 E0.7184
G1 X129.280 Y94.803 E0.7465
G1 X129.280 Y95.118 E0.7650
G1 X128.800 Y95.118 E0.7931
G1 X128.800 Y94.803 E0.8116
G1 X128.320 Y94.803 E0.8398
G1 X128.320 Y95.118 E0.8582
G1 X127.840 Y95.117 E0.8864
G1 X127.840 Y94.803 E0.9048
G1 X127.360 Y94.803 E0.9330
G1 X127.360 Y95.117 E0.9514
G1 X126.880 Y95.115 E0.9795
G1 X126.880 Y94.803 E0.9979
G1 X126.400 Y94.803 E1.0260
G1 X126.400 Y95.114 E1.0443
G1 X125.920 Y95.113 E1.0724
G1 X125.920 Y94.803 E1.0906
G1 X125.440 Y94.803 E1.1188
G1 X125.440 Y95.112 E1.1369
G1 X124.960 Y95.111 E1.1651
G1 X124.960 Y94.803 E1.1831
G1 X124.480 Y94.803 E1.2113
G1 X124.480 Y95.109 E1.2292
G1 X124.000 Y95.108 E1.2574
G1 X124.000 Y94.803 E1.2753
G1 X123.520 Y94.803 E1.3035
G1 X123.520 Y95.107 E1.3213
G1 X123.040 Y95.106 E1.3494
G1 X123.040 Y94.803 E1.3672
G1 X122.560 Y94.803 E1.3954
G1 X122.560 Y95.104 E1.4130
G1 X122.080 Y95.103 E1.4412
G1 X122.080 Y94.803 E1.4588
G1 X121.600 Y94.803 E1.4870
G1 X121.600 Y95.102 E1.5045
G1 X121.120 Y95.101 E1.5327
G1 X121.120 Y94.803 E1.5501
G1 X120.640 Y94.803 E1.5783
G1 X120.640 Y95.100 E1.5957
G1 X120.160 Y95.098 E1.6239
G1 X120.160 Y94.803 E1.6412
G1 X119.680 Y94.803 E1.6693
G1 X119.680 Y95.097 E1.6866
G1 X119.200 Y95.096 E1.7147
G1 X119.200 Y94.803 E1.7319
G1 X118.720 Y94.803 E1.7601
G1 X118.720 Y95.095 E1.7772
G1 X118.240 Y95.093 E1.8054
G1 X118.240 Y94.803 E1.8224
G1 X117.760 Y94.803 E1.8506
G1 X117.760 Y95.092 E1.8675
G1 X117.280 Y95.091 E1.8957
G1 X117.280 Y94.803 E1.9126
G1 X116.800 Y94.803 E1.9407
G1 X116.800 Y95.090 E1.9575
G1 X116.320 Y95.089 E1.9857
G1 X116.320 Y94.803 E2.0025
G1 X115.840 Y94.803 E2.0306
G1 X115.840 Y95.087 E2.0473
G1 X115.360 Y95.086 E2.0755
G1 X115.360 Y94.803 E2.0921
G1 X114.880 Y94.803 E2.1202
G1 X114.880 Y95.085 E2.1368
G1 X114.400 Y95.084 E2.1649
G1 X114.400 Y94.803 E2.1814
G1 X113.920 Y94.803 E2.2095
G1 X113.920 Y95.082 E2.2259
G1 X113.705 Y95.082 E2.2386
G1 X113.440 Y95.082 E2.2541
G1 X113.440 Y94.803 E2.2704
G1 X112.960 Y94.803 E2.2986
G1 X112.960 Y95.082 E2.3150
G1 X112.480 Y95.082 E2.3431
G1 X112.480 Y94.803 E2.3595
G1 X112.000 Y94.803 E2.3876
G1 X112.000 Y95.082 E2.4040
G1 X111.520 Y95.082 E2.4322
G1 X111.520 Y94.803 E2.4485
G1 X111.040 Y94.803 E2.4767
G1 X111.040 Y95.082 E2.4930
G1 X110.560 Y95.082 E2.5212
G1 X110.560 Y94.803 E2.5376
G1 X110.080 Y94.803 E2.5657
G1 X110.080 Y95.082 E2.5821
G1 X109.600 Y95.082 E2.6102
G1 X109.600 Y94.803 E2.6266
G1 X109.120 Y94.803 E2.6547
G1 X109.120 Y95.082 E2.6711
G1 X108.640 Y95.082 E2.6993
G1 X108.640 Y94.803 E2.7156
G1 X108.160 Y94.803 E2.7438
G1 X108.160 Y95.082 E2.7601
G1 X107.680 Y95.082 E2.7883
G1 X107.680 Y94.803 E2.8047
G1 X107.200 Y94.803 E2.8328
G1 X107.200 Y95.082 E2.8492
G1 X106.720 Y95.082 E2.8773
G1 X106.720 Y94.803 E2.8937
G1 X106.240 Y94.803 E2.9219
G1 X106.240 Y95.082 E2.9382
G1 X105.760 Y95.082 E2.9664
G1 X105.760 Y94.803 E2.9827
G1 X105.280 Y94.803 E3.0109
G1 X105.280 Y95.082 E3.0272
G1 X104.800 Y95.082 E3.0554
G1 X104.800 Y94.803 E3.0718
G1 X104.320 Y94.803 E3.0999
G1 X104.320 Y95.082 E3.1163
G1 X103.840 Y95.082 E3.1444
G1 X103.840 Y94.803 E3.1608
G1 X103.360 Y94.803 E3.1890
G1 X103.360 Y95.082 E3.2053
G1 X102.880 Y95.082 E3.2335
G1 X102.880 Y94.803 E3.2498
G1 X102.400 Y94.803 E3.2780
G1 X102.400 Y95.082 E3.2944
G1 X101.920 Y95.082 E3.3225
G1 X101.920 Y94.803 E3.3389
G1 X101.440 Y94.803 E3.3670
G1 X101.440 Y95.082 E3.3834
G1 X100.960 Y95.082 E3.4115
G1 X100.960 Y94.803 E3.4279
G1 X100.480 Y94.803 E3.4561
G1 X100.480 Y95.082 E3.4724
G1 X100.000 Y95.082 E3.5006
G1 X100.000 Y94.803 E3.5169
G1 X99.520 Y94.803 E3.5451
G1 X99.520 Y95.082 E3.5615
G1 X99.040 Y95.082 E3.5896
G1 X99.040 Y94.803 E3.6060
G1 X98.560 Y94.803 E3.6341
G1 X98.560 Y95.082 E3.6505
G1 X98.080 Y95.082 E3.6787
G1 X98.080 Y94.803 E3.6950
G1 X97.600 Y94.803 E3.7232
G1 X97.600 Y95.082 E3.7395
G1 X97.120 Y95.082 E3.7677
G1 X97.120 Y94.803 E3.7840
G1 X96.640 Y94.803 E3.8122
G1 X96.640 Y95.082 E3.8286
G1 X96.160 Y95.082 E3.8567
G1 X96.160 Y94.803 E3.8731
G1 X95.680 Y94.803 E3.9012
G1 X95.680 Y95.082 E3.9176
G1 X95.200 Y95.082 E3.9458
G1 X95.200 Y94.803 E3.9621
G1 X94.720 Y94.803 E3.9903
G1 X94.720 Y95.082 E4.0066
G1 X94.240 Y95.082 E4.0348
G1 X94.240 Y94.803 E4.0512
G1 X93.760 Y94.803 E4.0793
G1 X93.760 Y95.082 E4.0957
G1 X93.280 Y95.082 E4.1238
G1 X93.280 Y94.803 E4.1402
G1 X92.800 Y94.803 E4.1684
G1 X92.800 Y95.082 E4.1847
G1 X92.320 Y95.082 E4.2129
G1 X92.320 Y94.803 E4.2292
G1 X91.840 Y94.803 E4.2574
G1 X91.840 Y95.082 E4.2737
G1 X91.360 Y95.082 E4.3019
G1 X91.360 Y94.803 E4.3183
G1 X90.880 Y94.803 E4.3464
G1 X90.880 Y95.082 E4.3628
G1 X90.400 Y95.082 E4.3909
G1 X90.400 Y94.803 E4.4073
G1 X89.920 Y94.803 E4.4355
G1 X89.920 Y95.082 E4.4518
G1 X89.440 Y95.082 E4.4800
G1 X89.440 Y94.803 E4.4963
G1 X88.960 Y94.803 E4.5245
G1 X88.960 Y95.082 E4.5408
G1 X88.480 Y95.082 E4.5690
G1 X88.480 Y94.803 E4.5854
G1 X88.000 Y94.803 E4.6135
G1 X88.000 Y95.082 E4.6299
G1 X87.520 Y95.082 E4.6580
G1 X87.520 Y94.803 E4.6744
G1 X87.040 Y94.803 E4.7026
G1 X87.040 Y95.082 E4.7189
G1 X86.560 Y95.082 E4.7471
G1 X86.560 Y94.803 E4.7634
G1 X86.080 Y94.803 E4.7916
G1 X86.080 Y95.082 E4.8080
G1 X85.600 Y95.084 E4.8361
G1 X85.600 Y94.803 E4.8526
G1 X85.120 Y94.803 E4.8808
G1 X85.120 Y95.085 E4.8973
G1 X84.640 Y95.086 E4.9255
G1 X84.640 Y94.803 E4.9421
G1 X84.160 Y94.803 E4.9702
G1 X84.160 Y95.087 E4.9869
G1 X83.680 Y95.088 E5.0151
G1 X83.680 Y94.803 E5.0318
G1 X83.200 Y94.803 E5.0600
G1 X83.200 Y95.090 E5.0768
G1 X82.720 Y95.091 E5.1050
G1 X82.720 Y94.803 E5.1218
G1 X82.240 Y94.803 E5.1500
G1 X82.240 Y95.092 E5.1670
G1 X81.760 Y95.093 E5.1951
G1 X81.760 Y94.803 E5.2122
G1 X81.280 Y94.803 E5.2403
G1 X81.280 Y95.095 E5.2574
G1 X80.800 Y95.096 E5.2856
G1 X80.800 Y94.803 E5.3028
G1 X80.320 Y94.803 E5.3309
G1 X80.320 Y95.097 E5.3482
G1 X79.840 Y95.098 E5.3763
G1 X79.840 Y94.803 E5.3937
G1 X79.360 Y94.803 E5.4218
