; G-Code generated by Simplify3D(R) Version 4.1.1
; Apr 25, 2021 at 7:28:37 PM
; Settings Summary
;   processName,Trideo BOX
;   applyToModels,FingerMechanismHolder
;   profileName,Trideo BOX
;   profileVersion,2021-04-15 09:48:16
;   baseProfile,Default
;   printMaterial,PLA
;   printQuality,Fast
;   printExtruders,
;   extruderName,Primary Extruder
;   extruderToolheadNumber,0
;   extruderDiameter,0.4
;   extruderAutoWidth,1
;   extruderWidth,0.48
;   extrusionMultiplier,0.98
;   extruderUseRetract,1
;   extruderRetractionDistance,0.7
;   extruderExtraRestartDistance,0
;   extruderRetractionZLift,0
;   extruderRetractionSpeed,1500
;   extruderUseCoasting,0
;   extruderCoastingDistance,0.2
;   extruderUseWipe,0
;   extruderWipeDistance,5
;   primaryExtruder,0
;   layerHeight,0.3
;   topSolidLayers,3
;   bottomSolidLayers,3
;   perimeterOutlines,2
;   printPerimetersInsideOut,1
;   startPointOption,2
;   startPointOriginX,0
;   startPointOriginY,0
;   sequentialIslands,0
;   spiralVaseMode,0
;   firstLayerHeightPercentage,90
;   firstLayerWidthPercentage,100
;   firstLayerUnderspeed,0.5
;   useRaft,0
;   raftExtruder,0
;   raftTopLayers,3
;   raftBaseLayers,2
;   raftOffset,3
;   raftSeparationDistance,0.14
;   raftTopInfill,100
;   aboveRaftSpeedMultiplier,0.3
;   useSkirt,1
;   skirtExtruder,0
;   skirtLayers,1
;   skirtOutlines,2
;   skirtOffset,4
;   usePrimePillar,0
;   primePillarExtruder,999
;   primePillarWidth,12
;   primePillarLocation,7
;   primePillarSpeedMultiplier,1
;   useOozeShield,0
;   oozeShieldExtruder,999
;   oozeShieldOffset,2
;   oozeShieldOutlines,1
;   oozeShieldSidewallShape,1
;   oozeShieldSidewallAngle,30
;   oozeShieldSpeedMultiplier,1
;   infillExtruder,0
;   internalInfillPattern,Rectilinear
;   externalInfillPattern,Rectilinear
;   infillPercentage,15
;   outlineOverlapPercentage,15
;   infillExtrusionWidthPercentage,100
;   minInfillLength,5
;   infillLayerInterval,1
;   internalInfillAngles,45,-45
;   overlapInternalInfillAngles,0
;   externalInfillAngles,45,-45
;   generateSupport,1
;   supportExtruder,0
;   supportInfillPercentage,25
;   supportExtraInflation,0
;   supportBaseLayers,0
;   denseSupportExtruder,0
;   denseSupportLayers,0
;   denseSupportInfillPercentage,70
;   supportLayerInterval,1
;   supportHorizontalPartOffset,0.3
;   supportUpperSeparationLayers,1
;   supportLowerSeparationLayers,1
;   supportType,0
;   supportGridSpacing,4
;   maxOverhangAngle,45
;   supportAngles,0
;   temperatureName,Primary Extruder,Heated bed
;   temperatureNumber,0,0
;   temperatureSetpointCount,1,1
;   temperatureSetpointLayers,1,1
;   temperatureSetpointTemperatures,190,60
;   temperatureStabilizeAtStartup,1,1
;   temperatureHeatedBed,0,1
;   fanLayers,1,2
;   fanSpeeds,0,100
;   blipFanToFullPower,0
;   adjustSpeedForCooling,1
;   minSpeedLayerTime,15
;   minCoolingSpeedSlowdown,20
;   increaseFanForCooling,0
;   minFanLayerTime,45
;   maxCoolingFanSpeed,100
;   increaseFanForBridging,0
;   bridgingFanSpeed,100
;   use5D,1
;   relativeEdistances,0
;   allowEaxisZeroing,1
;   independentExtruderAxes,0
;   includeM10123,0
;   stickySupport,1
;   applyToolheadOffsets,0
;   gcodeXoffset,0
;   gcodeYoffset,0
;   gcodeZoffset,0
;   overrideMachineDefinition,1
;   machineTypeOverride,0
;   strokeXoverride,200
;   strokeYoverride,200
;   strokeZoverride,200
;   originOffsetXoverride,0
;   originOffsetYoverride,0
;   originOffsetZoverride,0
;   homeXdirOverride,-1
;   homeYdirOverride,-1
;   homeZdirOverride,-1
;   flipXoverride,1
;   flipYoverride,-1
;   flipZoverride,1
;   toolheadOffsets,0,0|0,0|0,0|0,0|0,0|0,0
;   overrideFirmwareConfiguration,0
;   firmwareTypeOverride,RepRap (Marlin/Repetier/Sprinter)
;   GPXconfigOverride,r2
;   baudRateOverride,115200
;   overridePrinterModels,0
;   printerModelsOverride
;   startingGcode,G28 X0 Y0; home XY,G1 X20 Y20,G28 Z0,G1 Z5 F5000; Lift NZ
;   layerChangeGcode,
;   retractionGcode,
;   toolChangeGcode,
;   endingGcode,M104 S0 ; turn off extruder,G28 X0 ; home x,M140 S0 ; turn off bed,M84 ; disable motors,M107 ;
;   exportFileFormat,gcode
;   celebration,0
;   celebrationSong,Looney Toons
;   postProcessing,
;   defaultSpeed,3600
;   outlineUnderspeed,0.5
;   solidInfillUnderspeed,0.8
;   supportUnderspeed,0.8
;   rapidXYspeed,4800
;   rapidZspeed,1002
;   minBridgingArea,50
;   bridgingExtraInflation,0
;   bridgingExtrusionMultiplier,1
;   bridgingSpeedMultiplier,1
;   useFixedBridgingAngle,0
;   fixedBridgingAngle,0
;   applyBridgingToPerimeters,0
;   filamentDiameters,1.75|1.75|1.75|1.75|1.75|1.75
;   filamentPricesPerKg,46|46|46|46|46|46
;   filamentDensities,1.25|1.25|1.25|1.25|1.25|1.25
;   useMinPrintHeight,0
;   minPrintHeight,0
;   useMaxPrintHeight,0
;   maxPrintHeight,0
;   useDiaphragm,0
;   diaphragmLayerInterval,20
;   robustSlicing,1
;   mergeAllIntoSolid,0
;   onlyRetractWhenCrossingOutline,1
;   retractBetweenLayers,1
;   useRetractionMinTravel,0
;   retractionMinTravel,3
;   retractWhileWiping,0
;   onlyWipeOutlines,1
;   avoidCrossingOutline,0
;   maxMovementDetourFactor,3
;   toolChangeRetractionDistance,12
;   toolChangeExtraRestartDistance,-0.5
;   toolChangeRetractionSpeed,600
;   externalThinWallType,0
;   internalThinWallType,2
;   thinWallAllowedOverlapPercentage,10
;   singleExtrusionMinLength,1
;   singleExtrusionMinPrintingWidthPercentage,50
;   singleExtrusionMaxPrintingWidthPercentage,200
;   singleExtrusionEndpointExtension,0.2
;   horizontalSizeCompensation,0
G90
M82
M106 S0
M140 S60
M190 S60
M104 S190 T0
M109 S190 T0
G28 X0 Y0; home XY
G1 X20 Y20
G28 Z0
G1 Z5 F5000; Lift NZ
; process Trideo BOX
; layer 1, Z = 0.270
T0
G92 E0.0000
G1 E-0.7000 F1500
; feature skirt
; tool H0.270 W0.480
G1 Z0.270 F1002
G1 X53.158 Y80.393 F4800
G1 E0.0000 F1500
G92 E0.0000
G1 X146.842 Y80.393 E4.9468 F1800
G1 X149.607 Y83.158 E5.1533
G1 X149.607 Y95.508 E5.8055
G1 X146.940 Y98.175 E6.0046
G1 X146.940 Y100.492 E6.1269
G1 X148.273 Y101.825 E6.2265
G1 X148.273 Y110.175 E6.6674
G1 X145.508 Y112.940 E6.8739
G1 X54.492 Y112.940 E11.6799
G1 X51.727 Y110.175 E11.8864
G1 X51.727 Y101.825 E12.3273
G1 X53.060 Y100.492 E12.4269
G1 X53.060 Y98.175 E12.5492
G1 X50.393 Y95.508 E12.7483
G1 X50.393 Y83.158 E13.4005
G1 X53.158 Y80.393 E13.6069
G92 E0.0000
G1 E-0.7000 F1500
G1 X53.357 Y80.873 F4800
G1 E0.0000 F1500
G92 E0.0000
G1 X146.643 Y80.873 E4.9258 F1800
G1 X149.127 Y83.357 E5.1113
G1 X149.127 Y95.310 E5.7425
G1 X146.643 Y97.793 E5.9279
G1 X146.460 Y97.793 E5.9376
G1 X146.460 Y100.690 E6.0906
G1 X147.793 Y102.024 E6.1901
G1 X147.793 Y109.976 E6.6101
G1 X145.310 Y112.460 E6.7955
G1 X54.690 Y112.460 E11.5806
G1 X52.207 Y109.976 E11.7661
G1 X52.207 Y102.024 E12.1860
G1 X53.540 Y100.690 E12.2855
G1 X53.540 Y97.793 E12.4385
G1 X53.357 Y97.793 E12.4482
G1 X50.873 Y95.310 E12.6337
G1 X50.873 Y83.357 E13.2648
G1 X53.357 Y80.873 E13.4503
G92 E0.0000
G1 E-0.7000 F1500
; feature outer perimeter
G1 X58.776 Y93.340 F4800
G1 E0.0000 F1500
G92 E0.0000
G1 X141.198 Y93.340 E4.3522 F900
G1 X141.199 Y93.939 E4.3838
G1 X135.844 Y93.939 E4.6666
G1 X90.179 Y93.840 E7.0779
G1 X73.419 Y93.840 E7.9629
G1 X58.774 Y93.938 E8.7362
G1 X58.776 Y93.340 E8.7678
G92 E0.0000
G1 E-0.7000 F1500
; feature support
G1 X55.363 Y92.907 F4800
G1 E0.0000 F1500
G92 E0.0000
G1 X57.891 Y92.907 E0.1335 F1440
G1 X57.892 Y92.560 E0.1518
G1 X57.988 Y92.560 E0.1568
G1 X57.988 Y92.550 E0.1574
G1 X141.986 Y92.550 E4.5928
G1 X141.986 Y92.560 E4.5933
G1 X142.083 Y92.560 E4.5984
G1 X142.084 Y92.907 E4.6167
G1 X144.637 Y92.907 E4.7515
G1 X144.637 Y90.987 E4.8529
G1 X55.363 Y90.987 E9.5669
G1 X55.363 Y89.067 E9.6683
G1 X144.637 Y89.067 E14.3822
G1 X144.637 Y87.147 E14.4836
G1 X55.363 Y87.147 E19.1976
G92 E0.0000
G1 E-0.7000 F1500
G1 X58.030 Y98.667 F4800
G1 E0.0000 F1500
G92 E0.0000
G1 X61.970 Y98.667 E0.2080 F1440
G1 X61.970 Y100.587 E0.3094
G1 X58.030 Y100.587 E0.5175
G1 X58.030 Y102.507 E0.6189
G1 X61.970 Y102.507 E0.8269
G1 X61.970 Y104.427 E0.9283
G1 X56.697 Y104.427 E1.2067
G1 X56.697 Y106.347 E1.3081
G1 X61.970 Y106.347 E1.5866
G92 E0.0000
G1 E-0.7000 F1500
G1 X63.363 Y98.667 F4800
G1 E0.0000 F1500
G92 E0.0000
G1 X136.637 Y98.667 E3.8691 F1440
G1 X136.637 Y100.587 E3.9705
G1 X63.363 Y100.587 E7.8396
G1 X63.363 Y102.507 E7.9410
G1 X136.637 Y102.507 E11.8101
G1 X136.637 Y104.427 E11.9115
G1 X63.363 Y104.427 E15.7806
G1 X63.363 Y106.347 E15.8820
G1 X136.637 Y106.347 E19.7511
G92 E0.0000
G1 E-0.7000 F1500
G1 X143.303 Y106.347 F4800
G1 E0.0000 F1500
G92 E0.0000
G1 X138.030 Y106.347 E0.2785 F1440
G1 X138.030 Y104.427 E0.3798
G1 X143.303 Y104.427 E0.6583
G1 X143.303 Y104.030 E0.6792
G1 X141.970 Y104.030 E0.7496
G1 X141.970 Y102.507 E0.8301
G1 X138.030 Y102.507 E1.0381
G1 X138.030 Y100.587 E1.1395
G1 X141.970 Y100.587 E1.3476
G1 X141.970 Y98.667 E1.4489
G1 X138.030 Y98.667 E1.6570
G92 E0.0000
G1 E-0.7000 F1500
; layer 2, Z = 0.570
M106 S255
; feature inner perimeter
; tool H0.300 W0.480
G1 Z0.570 F1002
G1 X140.829 Y95.016 F4800
G1 E0.0000 F1500
G92 E0.0000
G1 X133.999 Y95.015 E0.4007 F2700
G1 X114.950 Y94.967 E1.5184
G1 X85.048 Y94.967 E3.2727
G1 X65.966 Y95.015 E4.3923
G1 X59.145 Y95.016 E4.7925
G1 X59.149 Y93.820 E4.8627
G1 X140.826 Y93.820 E9.6547
G1 X140.829 Y95.016 E9.7249
; feature outer perimeter
G1 X141.311 Y95.496 F4800
G92 E0.0000
G1 X133.998 Y95.495 E0.4291 F1800
G1 X114.949 Y95.447 E1.5467
G1 X85.049 Y95.447 E3.3009
G1 X65.968 Y95.495 E4.4204
G1 X58.664 Y95.496 E4.8490
G1 X58.670 Y93.340 E4.9755
G1 X141.305 Y93.340 E9.8237
G1 X141.311 Y95.496 E9.9502
; feature bridge
G1 X140.320 Y94.228 F4800
G92 E0.0000
G1 X140.320 Y94.608 E0.0223 F3600
G1 X139.840 Y94.608 E0.0505
G1 X139.840 Y94.228 E0.0728
G1 X139.360 Y94.228 E0.1009
G1 X139.360 Y94.608 E0.1232
G1 X138.880 Y94.608 E0.1514
G1 X138.880 Y94.228 E0.1737
G1 X138.400 Y94.228 E0.2018
G1 X138.400 Y94.608 E0.2241
G1 X137.920 Y94.608 E0.2523
G1 X137.920 Y94.228 E0.2745
G1 X137.440 Y94.228 E0.3027
G1 X137.440 Y94.608 E0.3250
G1 X136.960 Y94.608 E0.3531
G1 X136.960 Y94.228 E0.3754
G1 X136.480 Y94.228 E0.4036
G1 X136.480 Y94.608 E0.4258
G1 X136.000 Y94.607 E0.4540
G1 X136.000 Y94.228 E0.4762
G1 X135.520 Y94.228 E0.5044
G1 X135.520 Y94.607 E0.5267
G1 X135.040 Y94.607 E0.5548
G1 X135.040 Y94.228 E0.5771
G1 X134.560 Y94.228 E0.6052
G1 X134.560 Y94.607 E0.6275
G1 X134.080 Y94.607 E0.6556
G1 X134.080 Y94.228 E0.6779
G1 X133.600 Y94.228 E0.7060
G1 X133.600 Y94.606 E0.7282
G1 X133.120 Y94.605 E0.7564
G1 X133.120 Y94.228 E0.7785
G1 X132.640 Y94.228 E0.8067
G1 X132.640 Y94.604 E0.8287
G1 X132.160 Y94.602 E0.8569
G1 X132.160 Y94.228 E0.8788
G1 X131.680 Y94.228 E0.9070
G1 X131.680 Y94.601 E0.9289
G1 X131.200 Y94.600 E0.9570
G1 X131.200 Y94.228 E0.9789
G1 X130.720 Y94.228 E1.0070
G1 X130.720 Y94.599 E1.0288
G1 X130.240 Y94.598 E1.0569
G1 X130.240 Y94.228 E1.0786
G1 X129.760 Y94.228 E1.1068
G1 X129.760 Y94.596 E1.1284
G1 X129.280 Y94.595 E1.1565
G1 X129.280 Y94.228 E1.1781
G1 X128.800 Y94.228 E1.2062
G1 X128.800 Y94.594 E1.2277
G1 X128.320 Y94.593 E1.2559
G1 X128.320 Y94.228 E1.2772
G1 X127.840 Y94.228 E1.3054
G1 X127.840 Y94.591 E1.3267
G1 X127.360 Y94.590 E1.3549
G1 X127.360 Y94.228 E1.3761
G1 X126.880 Y94.228 E1.4043
G1 X126.880 Y94.589 E1.4255
G1 X126.400 Y94.588 E1.4536
G1 X126.400 Y94.228 E1.4747
G1 X125.920 Y94.228 E1.5029
G1 X125.920 Y94.587 E1.5239
G1 X125.440 Y94.585 E1.5521
G1 X125.440 Y94.228 E1.5730
G1 X124.960 Y94.228 E1.6012
G1 X124.960 Y94.584 E1.6221
G1 X124.480 Y94.583 E1.6503
G1 X124.480 Y94.228 E1.6711
G1 X124.000 Y94.228 E1.6992
G1 X124.000 Y94.582 E1.7200
G1 X123.520 Y94.580 E1.7481
G1 X123.520 Y94.228 E1.7688
G1 X123.040 Y94.228 E1.7970
G1 X123.040 Y94.579 E1.8176
G1 X122.560 Y94.578 E1.8457
G1 X122.560 Y94.228 E1.8663
G1 X122.080 Y94.228 E1.8944
G1 X122.080 Y94.577 E1.9149
G1 X121.600 Y94.576 E1.9430
G1 X121.600 Y94.228 E1.9634
G1 X121.120 Y94.228 E1.9916
G1 X121.120 Y94.574 E2.0119
G1 X120.640 Y94.573 E2.0401
G1 X120.640 Y94.228 E2.0603
G1 X120.160 Y94.228 E2.0885
G1 X120.160 Y94.572 E2.1086
G1 X119.680 Y94.571 E2.1368
G1 X119.680 Y94.228 E2.1569
G1 X119.200 Y94.228 E2.1850
G1 X119.200 Y94.569 E2.2051
G1 X118.720 Y94.568 E2.2332
G1 X118.720 Y94.228 E2.2532
G1 X118.240 Y94.228 E2.2813
G1 X118.240 Y94.567 E2.3012
G1 X117.760 Y94.566 E2.3294
G1 X117.760 Y94.228 E2.3492
G1 X117.280 Y94.228 E2.3774
G1 X117.280 Y94.564 E2.3971
G1 X116.800 Y94.563 E2.4253
G1 X116.800 Y94.228 E2.4449
G1 X116.320 Y94.228 E2.4731
G1 X116.320 Y94.562 E2.4927
G1 X115.840 Y94.561 E2.5208
G1 X115.840 Y94.228 E2.5404
G1 X115.360 Y94.228 E2.5685
G1 X115.360 Y94.560 E2.5880
G1 X114.951 Y94.559 E2.6120
G1 X114.880 Y94.559 E2.6161
G1 X114.880 Y94.228 E2.6355
G1 X114.400 Y94.228 E2.6637
G1 X114.400 Y94.559 E2.6831
G1 X113.920 Y94.559 E2.7112
G1 X113.920 Y94.228 E2.7306
G1 X113.440 Y94.228 E2.7588
G1 X113.440 Y94.559 E2.7782
G1 X112.960 Y94.559 E2.8063
G1 X112.960 Y94.228 E2.8257
G1 X112.480 Y94.228 E2.8539
G1 X112.480 Y94.559 E2.8733
G1 X112.000 Y94.559 E2.9014
G1 X112.000 Y94.228 E2.9208
G1 X111.520 Y94.228 E2.9490
G1 X111.520 Y94.559 E2.9684
G1 X111.040 Y94.559 E2.9965
G1 X111.040 Y94.228 E3.0159
G1 X110.560 Y94.228 E3.0441
G1 X110.560 Y94.559 E3.0635
G1 X110.080 Y94.559 E3.0916
G1 X110.080 Y94.228 E3.1110
G1 X109.600 Y94.228 E3.1392
G1 X109.600 Y94.559 E3.1586
G1 X109.120 Y94.559 E3.1867
G1 X109.120 Y94.228 E3.2061
G1 X108.640 Y94.228 E3.2343
G1 X108.640 Y94.559 E3.2537
G1 X108.160 Y94.559 E3.2818
G1 X108.160 Y94.228 E3.3012
G1 X107.680 Y94.228 E3.3294
G1 X107.680 Y94.559 E3.3488
G1 X107.200 Y94.559 E3.3769
G1 X107.200 Y94.228 E3.3963
G1 X106.720 Y94.228 E3.4245
G1 X106.720 Y94.559 E3.4439
G1 X106.240 Y94.559 E3.4720
G1 X106.240 Y94.228 E3.4914
G1 X105.760 Y94.228 E3.5196
G1 X105.760 Y94.559 E3.5390
G1 X105.280 Y94.559 E3.5671
G1 X105.280 Y94.228 E3.5865
G1 X104.800 Y94.228 E3.6147
G1 X104.800 Y94.559 E3.6341
G1 X104.320 Y94.559 E3.6622
G1 X104.320 Y94.228 E3.6816
G1 X103.840 Y94.228 E3.7098
G1 X103.840 Y94.559 E3.7292
G1 X103.360 Y94.559 E3.7573
G1 X103.360 Y94.228 E3.7767
G1 X102.880 Y94.228 E3.8049
G1 X102.880 Y94.559 E3.8243
G1 X102.400 Y94.559 E3.8525
G1 X102.400 Y94.228 E3.8718
G1 X101.920 Y94.228 E3.9000
G1 X101.920 Y94.559 E3.9194
G1 X101.440 Y94.559 E3.9476
G1 X101.440 Y94.228 E3.9669
G1 X100.960 Y94.228 E3.9951
G1 X100.960 Y94.559 E4.0145
G1 X100.480 Y94.559 E4.0427
G1 X100.480 Y94.228 E4.0620
G1 X100.000 Y94.228 E4.0902
G1 X100.000 Y94.559 E4.1096
G1 X99.520 Y94.559 E4.1378
G1 X99.520 Y94.228 E4.1571
G1 X99.040 Y94.228 E4.1853
G1 X99.040 Y94.559 E4.2047
G1 X98.560 Y94.559 E4.2329
G1 X98.560 Y94.228 E4.2522
G1 X98.080 Y94.228 E4.2804
G1 X98.080 Y94.559 E4.2998
G1 X97.600 Y94.559 E4.3280
G1 X97.600 Y94.228 E4.3473
G1 X97.120 Y94.228 E4.3755
G1 X97.120 Y94.559 E4.3949
G1 X96.640 Y94.559 E4.4231
G1 X96.640 Y94.228 E4.4424
G1 X96.160 Y94.228 E4.4706
G1 X96.160 Y94.559 E4.4900
G1 X95.680 Y94.559 E4.5182
G1 X95.680 Y94.228 E4.5375
G1 X95.200 Y94.228 E4.5657
G1 X95.200 Y94.559 E4.5851
G1 X94.720 Y94.559 E4.6133
G1 X94.720 Y94.228 E4.6326
G1 X94.240 Y94.228 E4.6608
G1 X94.240 Y94.559 E4.6802
G1 X93.760 Y94.559 E4.7084
G1 X93.760 Y94.228 E4.7277
G1 X93.280 Y94.228 E4.7559
G1 X93.280 Y94.559 E4.7753
G1 X92.800 Y94.559 E4.8035
G1 X92.800 Y94.228 E4.8228
G1 X92.320 Y94.228 E4.8510
G1 X92.320 Y94.559 E4.8704
G1 X91.840 Y94.559 E4.8986
G1 X91.840 Y94.228 E4.9179
G1 X91.360 Y94.228 E4.9461
G1 X91.360 Y94.559 E4.9655
G1 X90.880 Y94.559 E4.9937
G1 X90.880 Y94.228 E5.0130
G1 X90.400 Y94.228 E5.0412
G1 X90.400 Y94.559 E5.0606
G1 X89.920 Y94.559 E5.0888
G1 X89.920 Y94.228 E5.1081
G1 X89.440 Y94.228 E5.1363
G1 X89.440 Y94.559 E5.1557
G1 X88.960 Y94.559 E5.1839
G1 X88.960 Y94.228 E5.2033
G1 X88.480 Y94.228 E5.2314
G1 X88.480 Y94.559 E5.2508
G1 X88.000 Y94.559 E5.2790
G1 X88.000 Y94.228 E5.2984
G1 X87.520 Y94.228 E5.3265
G1 X87.520 Y94.559 E5.3459
G1 X87.040 Y94.559 E5.3741
G1 X87.040 Y94.228 E5.3935
G1 X86.560 Y94.228 E5.4216
G1 X86.560 Y94.559 E5.4410
G1 X86.080 Y94.559 E5.4692
G1 X86.080 Y94.228 E5.4886
G1 X85.600 Y94.228 E5.5167
G1 X85.600 Y94.559 E5.5361
G1 X85.120 Y94.559 E5.5643
G1 X85.120 Y94.228 E5.5837
G1 X84.640 Y94.228 E5.6118
