; G-Code generated by Simplify3D(R) Version 4.1.1
; Apr 25, 2021 at 7:30:27 PM
; Settings Summary
;   processName,Trideo BOX
;   applyToModels,FingerMechanismHolder,FingerMechanismHolder(2),FingerMechanismHolder(3)
;   profileName,Trideo BOX
;   profileVersion,2021-04-15 09:48:16
;   baseProfile,Default
;   printMaterial,PLA
;   printQuality,Fast
;   printExtruders,
;   extruderName,Primary Extruder
;   extruderToolheadNumber,0
;   extruderDiameter,0.4
;   extruderAutoWidth,1
;   extruderWidth,0.48
;   extrusionMultiplier,0.98
;   extruderUseRetract,1
;   extruderRetractionDistance,0.7
;   extruderExtraRestartDistance,0
;   extruderRetractionZLift,0
;   extruderRetractionSpeed,1500
;   extruderUseCoasting,0
;   extruderCoastingDistance,0.2
;   extruderUseWipe,0
;   extruderWipeDistance,5
;   primaryExtruder,0
;   layerHeight,0.3
;   topSolidLayers,3
;   bottomSolidLayers,3
;   perimeterOutlines,2
;   printPerimetersInsideOut,1
;   startPointOption,2
;   startPointOriginX,0
;   startPointOriginY,0
;   sequentialIslands,0
;   spiralVaseMode,0
;   firstLayerHeightPercentage,90
;   firstLayerWidthPercentage,100
;   firstLayerUnderspeed,0.5
;   useRaft,0
;   raftExtruder,0
;   raftTopLayers,3
;   raftBaseLayers,2
;   raftOffset,3
;   raftSeparationDistance,0.14
;   raftTopInfill,100
;   aboveRaftSpeedMultiplier,0.3
;   useSkirt,1
;   skirtExtruder,0
;   skirtLayers,1
;   skirtOutlines,2
;   skirtOffset,4
;   usePrimePillar,0
;   primePillarExtruder,999
;   primePillarWidth,12
;   primePillarLocation,7
;   primePillarSpeedMultiplier,1
;   useOozeShield,0
;   oozeShieldExtruder,999
;   oozeShieldOffset,2
;   oozeShieldOutlines,1
;   oozeShieldSidewallShape,1
;   oozeShieldSidewallAngle,30
;   oozeShieldSpeedMultiplier,1
;   infillExtruder,0
;   internalInfillPattern,Rectilinear
;   externalInfillPattern,Rectilinear
;   infillPercentage,15
;   outlineOverlapPercentage,15
;   infillExtrusionWidthPercentage,100
;   minInfillLength,5
;   infillLayerInterval,1
;   internalInfillAngles,45,-45
;   overlapInternalInfillAngles,0
;   externalInfillAngles,45,-45
;   generateSupport,1
;   supportExtruder,0
;   supportInfillPercentage,25
;   supportExtraInflation,0
;   supportBaseLayers,0
;   denseSupportExtruder,0
;   denseSupportLayers,0
;   denseSupportInfillPercentage,70
;   supportLayerInterval,1
;   supportHorizontalPartOffset,0.3
;   supportUpperSeparationLayers,1
;   supportLowerSeparationLayers,1
;   supportType,0
;   supportGridSpacing,4
;   maxOverhangAngle,45
;   supportAngles,0
;   temperatureName,Primary Extruder,Heated bed
;   temperatureNumber,0,0
;   temperatureSetpointCount,1,1
;   temperatureSetpointLayers,1,1
;   temperatureSetpointTemperatures,190,60
;   temperatureStabilizeAtStartup,1,1
;   temperatureHeatedBed,0,1
;   fanLayers,1,2
;   fanSpeeds,0,100
;   blipFanToFullPower,0
;   adjustSpeedForCooling,1
;   minSpeedLayerTime,15
;   minCoolingSpeedSlowdown,20
;   increaseFanForCooling,0
;   minFanLayerTime,45
;   maxCoolingFanSpeed,100
;   increaseFanForBridging,0
;   bridgingFanSpeed,100
;   use5D,1
;   relativeEdistances,0
;   allowEaxisZeroing,1
;   independentExtruderAxes,0
;   includeM10123,0
;   stickySupport,1
;   applyToolheadOffsets,0
;   gcodeXoffset,0
;   gcodeYoffset,0
;   gcodeZoffset,0
;   overrideMachineDefinition,1
;   machineTypeOverride,0
;   strokeXoverride,200
;   strokeYoverride,200
;   strokeZoverride,200
;   originOffsetXoverride,0
;   originOffsetYoverride,0
;   originOffsetZoverride,0
;   homeXdirOverride,-1
;   homeYdirOverride,-1
;   homeZdirOverride,-1
;   flipXoverride,1
;   flipYoverride,-1
;   flipZoverride,1
;   toolheadOffsets,0,0|0,0|0,0|0,0|0,0|0,0
;   overrideFirmwareConfiguration,0
;   firmwareTypeOverride,RepRap (Marlin/Repetier/Sprinter)
;   GPXconfigOverride,r2
;   baudRateOverride,115200
;   overridePrinterModels,0
;   printerModelsOverride
;   startingGcode,G28 X0 Y0; home XY,G1 X20 Y20,G28 Z0,G1 Z5 F5000; Lift NZ
;   layerChangeGcode,
;   retractionGcode,
;   toolChangeGcode,
;   endingGcode,M104 S0 ; turn off extruder,G28 X0 ; home x,M140 S0 ; turn off bed,M84 ; disable motors,M107 ;
;   exportFileFormat,gcode
;   celebration,0
;   celebrationSong,Looney Toons
;   postProcessing,
;   defaultSpeed,3600
;   outlineUnderspeed,0.5
;   solidInfillUnderspeed,0.8
;   supportUnderspeed,0.8
;   rapidXYspeed,4800
;   rapidZspeed,1002
;   minBridgingArea,50
;   bridgingExtraInflation,0
;   bridgingExtrusionMultiplier,1
;   bridgingSpeedMultiplier,1
;   useFixedBridgingAngle,0
;   fixedBridgingAngle,0
;   applyBridgingToPerimeters,0
;   filamentDiameters,1.75|1.75|1.75|1.75|1.75|1.75
;   filamentPricesPerKg,46|46|46|46|46|46
;   filamentDensities,1.25|1.25|1.25|1.25|1.25|1.25
;   useMinPrintHeight,0
;   minPrintHeight,0
;   useMaxPrintHeight,0
;   maxPrintHeight,0
;   useDiaphragm,0
;   diaphragmLayerInterval,20
;   robustSlicing,1
;   mergeAllIntoSolid,0
;   onlyRetractWhenCrossingOutline,1
;   retractBetweenLayers,1
;   useRetractionMinTravel,0
;   retractionMinTravel,3
;   retractWhileWiping,0
;   onlyWipeOutlines,1
;   avoidCrossingOutline,0
;   maxMovementDetourFactor,3
;   toolChangeRetractionDistance,12
;   toolChangeExtraRestartDistance,-0.5
;   toolChangeRetractionSpeed,600
;   externalThinWallType,0
;   internalThinWallType,2
;   thinWallAllowedOverlapPercentage,10
;   singleExtrusionMinLength,1
;   singleExtrusionMinPrintingWidthPercentage,50
;   singleExtrusionMaxPrintingWidthPercentage,200
;   singleExtrusionEndpointExtension,0.2
;   horizontalSizeCompensation,0
G90
M82
M106 S0
M140 S60
M190 S60
M104 S190 T0
M109 S190 T0
G28 X0 Y0; home XY
G1 X20 Y20
G28 Z0
G1 Z5 F5000; Lift NZ
; process Trideo BOX
; layer 1, Z = 0.270
T0
G92 E0.0000
G1 E-0.7000 F1500
; feature skirt
; tool H0.270 W0.480
G1 Z0.270 F1002
G1 X57.838 Y56.103 F4800
G1 E0.0000 F1500
G92 E0.0000
G1 X60.603 Y53.338 E0.2065 F1800
G1 X139.397 Y53.338 E4.3671
G1 X142.162 Y56.103 E4.5736
G1 X142.162 Y67.119 E5.1553
G1 X139.940 Y69.342 E5.3213
G1 X139.940 Y70.547 E5.3849
G1 X141.051 Y71.658 E5.4679
G1 X141.051 Y79.342 E5.8736
G1 X138.286 Y82.107 E6.0801
G1 X61.714 Y82.107 E10.1234
G1 X58.949 Y79.342 E10.3299
G1 X58.949 Y71.658 E10.7356
G1 X60.060 Y70.547 E10.8186
G1 X60.060 Y69.342 E10.8822
G1 X57.838 Y67.119 E11.0482
G1 X57.838 Y56.103 E11.6299
G92 E0.0000
G1 E-0.7000 F1500
G1 X58.318 Y56.301 F4800
G1 E0.0000 F1500
G92 E0.0000
G1 X60.802 Y53.818 E0.1855 F1800
G1 X139.198 Y53.818 E4.3251
G1 X141.682 Y56.301 E4.5106
G1 X141.682 Y66.921 E5.0713
G1 X139.460 Y69.143 E5.2373
G1 X139.460 Y70.746 E5.3219
G1 X140.571 Y71.857 E5.4049
G1 X140.571 Y79.143 E5.7896
G1 X138.087 Y81.627 E5.9751
G1 X61.913 Y81.627 E9.9974
G1 X59.429 Y79.143 E10.1829
G1 X59.429 Y71.857 E10.5676
G1 X60.540 Y70.746 E10.6506
G1 X60.540 Y69.143 E10.7352
G1 X58.318 Y66.921 E10.9012
G1 X58.318 Y56.301 E11.4619
G92 E0.0000
G1 E-0.7000 F1500
G1 X60.603 Y82.838 F4800
G1 E0.0000 F1500
G92 E0.0000
G1 X139.397 Y82.838 E4.1607 F1800
G1 X142.162 Y85.603 E4.3671
G1 X142.162 Y96.620 E4.9489
G1 X139.940 Y98.842 E5.1148
G1 X139.940 Y100.047 E5.1785
G1 X141.051 Y101.158 E5.2614
G1 X141.051 Y108.842 E5.6671
G1 X138.286 Y111.607 E5.8736
G1 X61.714 Y111.607 E9.9169
G1 X58.949 Y108.842 E10.1234
G1 X58.949 Y101.158 E10.5291
G1 X60.060 Y100.047 E10.6121
G1 X60.060 Y98.842 E10.6757
G1 X57.838 Y96.620 E10.8417
G1 X57.838 Y85.603 E11.4234
G1 X60.603 Y82.838 E11.6299
G92 E0.0000
G1 E-0.7000 F1500
G1 X60.802 Y83.318 F4800
G1 E0.0000 F1500
G92 E0.0000
G1 X139.199 Y83.318 E4.1397 F1800
G1 X141.682 Y85.802 E4.3251
G1 X141.682 Y96.421 E4.8859
G1 X139.460 Y98.643 E5.0518
G1 X139.460 Y100.246 E5.1365
G1 X140.571 Y101.357 E5.2194
G1 X140.571 Y108.643 E5.6042
G1 X138.087 Y111.127 E5.7896
G1 X61.913 Y111.127 E9.8119
G1 X59.429 Y108.643 E9.9974
G1 X59.429 Y101.357 E10.3821
G1 X60.540 Y100.246 E10.4651
G1 X60.540 Y98.643 E10.5498
G1 X58.318 Y96.421 E10.7157
G1 X58.318 Y85.802 E11.2764
G1 X60.802 Y83.318 E11.4619
G92 E0.0000
G1 E-0.7000 F1500
G1 X60.603 Y112.338 F4800
G1 E0.0000 F1500
G92 E0.0000
G1 X139.397 Y112.338 E4.1607 F1800
G1 X142.162 Y115.103 E4.3671
G1 X142.162 Y126.120 E4.9489
G1 X139.940 Y128.342 E5.1148
G1 X139.940 Y129.547 E5.1785
G1 X141.051 Y130.658 E5.2614
G1 X141.051 Y138.342 E5.6671
G1 X138.286 Y141.107 E5.8736
G1 X61.714 Y141.107 E9.9169
G1 X58.949 Y138.342 E10.1234
G1 X58.949 Y130.658 E10.5291
G1 X60.060 Y129.547 E10.6121
G1 X60.060 Y128.342 E10.6757
G1 X57.838 Y126.120 E10.8417
G1 X57.838 Y115.103 E11.4234
G1 X60.603 Y112.338 E11.6299
G92 E0.0000
G1 E-0.7000 F1500
G1 X60.802 Y112.818 F4800
G1 E0.0000 F1500
G92 E0.0000
G1 X139.199 Y112.818 E4.1397 F1800
G1 X141.682 Y115.302 E4.3251
G1 X141.682 Y125.921 E4.8859
G1 X139.460 Y128.143 E5.0518
G1 X139.460 Y129.746 E5.1365
G1 X140.571 Y130.857 E5.2194
G1 X140.571 Y138.143 E5.6042
G1 X138.087 Y140.627 E5.7896
G1 X61.913 Y140.627 E9.8119
G1 X59.429 Y138.143 E9.9974
G1 X59.429 Y130.857 E10.3821
G1 X60.540 Y129.746 E10.4651
G1 X60.540 Y128.143 E10.5498
G1 X58.318 Y125.921 E10.7157
G1 X58.318 Y115.302 E11.2764
G1 X60.802 Y112.818 E11.4619
G92 E0.0000
G1 E-0.7000 F1500
; feature outer perimeter
G1 X65.677 Y65.557 F4800
G1 E0.0000 F1500
G92 E0.0000
G1 X65.678 Y64.990 E0.0299 F900
G1 X134.300 Y64.990 E3.6534
G1 X134.302 Y65.557 E3.6834
G1 X130.580 Y65.563 E3.8799
G1 X97.082 Y65.490 E5.6487
G1 X80.321 Y65.490 E6.5338
G1 X69.402 Y65.563 E7.1103
G1 X65.677 Y65.557 E7.3070
G92 E0.0000
G1 E-0.7000 F1500
G1 X65.678 Y94.490 F4800
G1 E0.0000 F1500
G92 E0.0000
G1 X134.300 Y94.490 E3.6235 F900
G1 X134.302 Y95.057 E3.6534
G1 X130.580 Y95.063 E3.8499
G1 X97.082 Y94.990 E5.6188
G1 X80.321 Y94.990 E6.5038
G1 X69.402 Y95.063 E7.0804
G1 X65.677 Y95.057 E7.2771
G1 X65.678 Y94.490 E7.3070
G92 E0.0000
G1 E-0.7000 F1500
G1 X65.678 Y123.990 F4800
G1 E0.0000 F1500
G92 E0.0000
G1 X134.300 Y123.990 E3.6235 F900
G1 X134.302 Y124.557 E3.6534
G1 X130.580 Y124.563 E3.8499
G1 X97.082 Y124.490 E5.6188
G1 X80.321 Y124.490 E6.5038
G1 X69.402 Y124.563 E7.0804
G1 X65.677 Y124.557 E7.2771
G1 X65.678 Y123.990 E7.3070
G92 E0.0000
G1 E-0.7000 F1500
; feature support
G1 X62.808 Y123.849 F4800
G1 E0.0000 F1500
G92 E0.0000
G1 X64.793 Y123.849 E0.1048 F1440
G1 X64.794 Y123.210 E0.1385
G1 X64.890 Y123.210 E0.1436
G1 X64.890 Y123.200 E0.1441
G1 X135.088 Y123.200 E3.8508
G1 X135.088 Y123.210 E3.8514
G1 X135.185 Y123.210 E3.8565
G1 X135.187 Y123.849 E3.8902
G1 X137.192 Y123.849 E3.9961
G1 X137.192 Y121.929 E4.0975
G1 X62.808 Y121.929 E8.0253
G1 X62.808 Y120.009 E8.1266
G1 X137.192 Y120.009 E12.0544
G1 X137.192 Y118.089 E12.1558
G1 X100.586 Y118.089 E14.0888
G1 X100.586 Y118.419 E14.1062
G1 X99.414 Y118.419 E14.1680
G1 X99.414 Y118.089 E14.1855
G1 X62.808 Y118.089 E16.1184
G92 E0.0000
G1 E-0.7000 F1500
G1 X65.030 Y127.689 F4800
G1 E0.0000 F1500
G92 E0.0000
G1 X68.303 Y127.689 E0.1728 F1440
G1 X68.303 Y129.609 E0.2742
G1 X65.030 Y129.609 E0.4471
G1 X65.030 Y131.529 E0.5485
G1 X68.303 Y131.529 E0.7213
G1 X68.303 Y133.449 E0.8227
G1 X63.919 Y133.449 E1.0542
G1 X63.919 Y135.369 E1.1556
G1 X68.303 Y135.369 E1.3871
G92 E0.0000
G1 E-0.7000 F1500
G1 X69.474 Y127.689 F4800
G1 E0.0000 F1500
G92 E0.0000
G1 X130.526 Y127.689 E3.2237 F1440
G1 X130.526 Y129.609 E3.3251
G1 X69.474 Y129.609 E6.5488
G1 X69.474 Y131.529 E6.6502
G1 X130.526 Y131.529 E9.8740
G1 X130.526 Y133.449 E9.9753
G1 X69.474 Y133.449 E13.1991
G1 X69.474 Y135.369 E13.3005
G1 X130.526 Y135.369 E16.5242
G92 E0.0000
G1 E-0.7000 F1500
G1 X136.081 Y135.369 F4800
G1 E0.0000 F1500
G92 E0.0000
G1 X131.697 Y135.369 E0.2315 F1440
G1 X131.697 Y133.449 E0.3329
G1 X136.081 Y133.449 E0.5644
G1 X136.081 Y132.863 E0.5953
G1 X134.970 Y132.863 E0.6540
G1 X134.970 Y131.529 E0.7245
G1 X131.697 Y131.529 E0.8973
G1 X131.697 Y129.609 E0.9987
G1 X134.970 Y129.609 E1.1715
G1 X134.970 Y127.689 E1.2729
G1 X131.697 Y127.689 E1.4458
G92 E0.0000
G1 E-0.7000 F1500
G1 X130.526 Y106.569 F4800
G1 E0.0000 F1500
G92 E0.0000
G1 X69.474 Y106.569 E3.2237 F1440
G1 X69.474 Y104.649 E3.3251
G1 X130.526 Y104.649 E6.5488
G1 X130.526 Y102.729 E6.6502
G1 X69.474 Y102.729 E9.8740
G1 X69.474 Y100.809 E9.9753
G1 X130.526 Y100.809 E13.1991
G1 X130.526 Y98.889 E13.3005
G1 X69.474 Y98.889 E16.5242
G92 E0.0000
G1 E-0.7000 F1500
G1 X65.030 Y98.889 F4800
G1 E0.0000 F1500
G92 E0.0000
G1 X68.303 Y98.889 E0.1728 F1440
G1 X68.303 Y100.809 E0.2742
G1 X65.030 Y100.809 E0.4471
G1 X65.030 Y102.729 E0.5485
G1 X68.303 Y102.729 E0.7213
G1 X68.303 Y104.649 E0.8227
G1 X63.919 Y104.649 E1.0542
G1 X63.919 Y106.569 E1.1556
G1 X68.303 Y106.569 E1.3871
G92 E0.0000
G1 E-0.7000 F1500
G1 X62.808 Y89.289 F4800
G1 E0.0000 F1500
G92 E0.0000
G1 X137.192 Y89.289 E3.9278 F1440
G1 X137.192 Y91.209 E4.0292
G1 X62.808 Y91.209 E7.9569
G1 X62.808 Y93.129 E8.0583
G1 X137.192 Y93.129 E11.9861
G92 E0.0000
G1 E-0.7000 F1500
G1 X131.697 Y98.889 F4800
G1 E0.0000 F1500
G92 E0.0000
G1 X134.970 Y98.889 E0.1728 F1440
G1 X134.970 Y100.809 E0.2742
G1 X131.697 Y100.809 E0.4471
G1 X131.697 Y102.729 E0.5485
G1 X134.970 Y102.729 E0.7213
G1 X134.970 Y103.363 E0.7548
G1 X136.081 Y103.363 E0.8135
G1 X136.081 Y104.649 E0.8814
G1 X131.697 Y104.649 E1.1129
G1 X131.697 Y106.569 E1.2143
G1 X136.081 Y106.569 E1.4458
G92 E0.0000
G1 E-0.7000 F1500
G1 X131.697 Y75.849 F4800
G1 E0.0000 F1500
G92 E0.0000
G1 X136.081 Y75.849 E0.2315 F1440
G1 X136.081 Y73.929 E0.3329
G1 X131.697 Y73.929 E0.5644
G1 X131.697 Y72.009 E0.6658
G1 X134.970 Y72.009 E0.8386
G1 X134.970 Y70.089 E0.9400
G1 X131.697 Y70.089 E1.1129
G92 E0.0000
G1 E-0.7000 F1500
G1 X69.474 Y70.089 F4800
G1 E0.0000 F1500
G92 E0.0000
G1 X130.526 Y70.089 E3.2237 F1440
G1 X130.526 Y72.009 E3.3251
G1 X69.474 Y72.009 E6.5488
G1 X69.474 Y73.929 E6.6502
G1 X130.526 Y73.929 E9.8740
G1 X130.526 Y75.849 E9.9753
G1 X69.474 Y75.849 E13.1991
G92 E0.0000
G1 E-0.7000 F1500
G1 X63.919 Y75.849 F4800
G1 E0.0000 F1500
G92 E0.0000
G1 X68.303 Y75.849 E0.2315 F1440
G1 X68.303 Y73.929 E0.3329
G1 X63.919 Y73.929 E0.5644
G1 X63.919 Y73.863 E0.5679
G1 X65.030 Y73.863 E0.6266
G1 X65.030 Y72.009 E0.7245
G1 X68.303 Y72.009 E0.8973
G1 X68.303 Y70.089 E0.9987
G1 X65.030 Y70.089 E1.1715
G92 E0.0000
G1 E-0.7000 F1500
G1 X62.808 Y64.329 F4800
G1 E0.0000 F1500
G92 E0.0000
G1 X64.794 Y64.329 E0.1049 F1440
G1 X64.794 Y64.210 E0.1112
G1 X64.890 Y64.210 E0.1162
G1 X64.890 Y64.200 E0.1167
G1 X135.088 Y64.200 E3.8235
G1 X135.088 Y64.210 E3.8240
G1 X135.185 Y64.210 E3.8291
G1 X135.185 Y64.329 E3.8354
G1 X137.192 Y64.329 E3.9414
G1 X137.192 Y62.409 E4.0427
G1 X62.808 Y62.409 E7.9705
G1 X62.808 Y60.489 E8.0719
G1 X137.192 Y60.489 E11.9997
G1 X137.192 Y58.569 E12.1011
G1 X100.586 Y58.569 E14.0340
G1 X100.586 Y59.419 E14.0789
G1 X99.414 Y59.419 E14.1408
G1 X99.414 Y58.569 E14.1856
G1 X62.808 Y58.569 E16.1186
G92 E0.0000
G1 E-0.7000 F1500
; layer 2, Z = 0.570
M106 S255
; feature inner perimeter
; tool H0.300 W0.480
G1 Z0.570 F1002
G1 X66.051 Y65.470 F4800
G1 E0.0000 F1500
G92 E0.0000
G1 X133.928 Y65.470 E3.9824 F2700
G1 X133.931 Y66.537 E4.0451
G1 X87.540 Y66.513 E6.7668
G1 X78.689 Y66.536 E7.2862
G1 X66.048 Y66.537 E8.0278
G1 X66.051 Y65.470 E8.0905
; feature outer perimeter
G1 X65.572 Y64.990 F4800
G92 E0.0000
G1 X134.407 Y64.990 E4.0386 F1800
G1 X134.413 Y67.018 E4.1576
G1 X87.541 Y66.993 E6.9076
G1 X78.690 Y67.016 E7.4269
G1 X65.567 Y67.017 E8.1968
G1 X65.572 Y64.990 E8.3158
; feature bridge
G1 X66.880 Y66.129 F4800
G92 E0.0000
G1 X66.880 Y65.878 E0.0147 F3600
G1 X67.360 Y65.878 E0.0429
G1 X67.360 Y66.129 E0.0576
G1 X67.840 Y66.129 E0.0858
G1 X67.840 Y65.878 E0.1005
G1 X68.320 Y65.878 E0.1287
G1 X68.320 Y66.129 E0.1434
G1 X68.800 Y66.129 E0.1716
G1 X68.800 Y65.878 E0.1863
G1 X69.280 Y65.878 E0.2145
G1 X69.280 Y66.129 E0.2292
G1 X69.760 Y66.129 E0.2574
G1 X69.760 Y65.878 E0.2721
G1 X70.240 Y65.878 E0.3003
G1 X70.240 Y66.129 E0.3150
G1 X70.720 Y66.129 E0.3431
G1 X70.720 Y65.878 E0.3578
G1 X71.200 Y65.878 E0.3860
G1 X71.200 Y66.129 E0.4007
G1 X71.680 Y66.129 E0.4289
G1 X71.680 Y65.878 E0.4436
G1 X72.160 Y65.878 E0.4717
G1 X72.160 Y66.128 E0.4864
G1 X72.640 Y66.128 E0.5146
G1 X72.640 Y65.878 E0.5293
G1 X73.120 Y65.878 E0.5575
G1 X73.120 Y66.128 E0.5722
G1 X73.600 Y66.128 E0.6003
G1 X73.600 Y65.878 E0.6150
