; G-Code generated by Simplify3D(R) Version 4.1.1
; Apr 25, 2021 at 7:29:19 PM
; Settings Summary
;   processName,Trideo BOX
;   applyToModels,FingerMechanismHolder,FingerMechanismHolder(2),FingerMechanismHolder(3)
;   profileName,Trideo BOX
;   profileVersion,2021-04-15 09:48:16
;   baseProfile,Default
;   printMaterial,PLA
;   printQuality,Fast
;   printExtruders,
;   extruderName,Primary Extruder
;   extruderToolheadNumber,0
;   extruderDiameter,0.4
;   extruderAutoWidth,1
;   extruderWidth,0.48
;   extrusionMultiplier,0.98
;   extruderUseRetract,1
;   extruderRetractionDistance,0.7
;   extruderExtraRestartDistance,0
;   extruderRetractionZLift,0
;   extruderRetractionSpeed,1500
;   extruderUseCoasting,0
;   extruderCoastingDistance,0.2
;   extruderUseWipe,0
;   extruderWipeDistance,5
;   primaryExtruder,0
;   layerHeight,0.3
;   topSolidLayers,3
;   bottomSolidLayers,3
;   perimeterOutlines,2
;   printPerimetersInsideOut,1
;   startPointOption,2
;   startPointOriginX,0
;   startPointOriginY,0
;   sequentialIslands,0
;   spiralVaseMode,0
;   firstLayerHeightPercentage,90
;   firstLayerWidthPercentage,100
;   firstLayerUnderspeed,0.5
;   useRaft,0
;   raftExtruder,0
;   raftTopLayers,3
;   raftBaseLayers,2
;   raftOffset,3
;   raftSeparationDistance,0.14
;   raftTopInfill,100
;   aboveRaftSpeedMultiplier,0.3
;   useSkirt,1
;   skirtExtruder,0
;   skirtLayers,1
;   skirtOutlines,2
;   skirtOffset,4
;   usePrimePillar,0
;   primePillarExtruder,999
;   primePillarWidth,12
;   primePillarLocation,7
;   primePillarSpeedMultiplier,1
;   useOozeShield,0
;   oozeShieldExtruder,999
;   oozeShieldOffset,2
;   oozeShieldOutlines,1
;   oozeShieldSidewallShape,1
;   oozeShieldSidewallAngle,30
;   oozeShieldSpeedMultiplier,1
;   infillExtruder,0
;   internalInfillPattern,Rectilinear
;   externalInfillPattern,Rectilinear
;   infillPercentage,15
;   outlineOverlapPercentage,15
;   infillExtrusionWidthPercentage,100
;   minInfillLength,5
;   infillLayerInterval,1
;   internalInfillAngles,45,-45
;   overlapInternalInfillAngles,0
;   externalInfillAngles,45,-45
;   generateSupport,1
;   supportExtruder,0
;   supportInfillPercentage,25
;   supportExtraInflation,0
;   supportBaseLayers,0
;   denseSupportExtruder,0
;   denseSupportLayers,0
;   denseSupportInfillPercentage,70
;   supportLayerInterval,1
;   supportHorizontalPartOffset,0.3
;   supportUpperSeparationLayers,1
;   supportLowerSeparationLayers,1
;   supportType,0
;   supportGridSpacing,4
;   maxOverhangAngle,45
;   supportAngles,0
;   temperatureName,Primary Extruder,Heated bed
;   temperatureNumber,0,0
;   temperatureSetpointCount,1,1
;   temperatureSetpointLayers,1,1
;   temperatureSetpointTemperatures,190,60
;   temperatureStabilizeAtStartup,1,1
;   temperatureHeatedBed,0,1
;   fanLayers,1,2
;   fanSpeeds,0,100
;   blipFanToFullPower,0
;   adjustSpeedForCooling,1
;   minSpeedLayerTime,15
;   minCoolingSpeedSlowdown,20
;   increaseFanForCooling,0
;   minFanLayerTime,45
;   maxCoolingFanSpeed,100
;   increaseFanForBridging,0
;   bridgingFanSpeed,100
;   use5D,1
;   relativeEdistances,0
;   allowEaxisZeroing,1
;   independentExtruderAxes,0
;   includeM10123,0
;   stickySupport,1
;   applyToolheadOffsets,0
;   gcodeXoffset,0
;   gcodeYoffset,0
;   gcodeZoffset,0
;   overrideMachineDefinition,1
;   machineTypeOverride,0
;   strokeXoverride,200
;   strokeYoverride,200
;   strokeZoverride,200
;   originOffsetXoverride,0
;   originOffsetYoverride,0
;   originOffsetZoverride,0
;   homeXdirOverride,-1
;   homeYdirOverride,-1
;   homeZdirOverride,-1
;   flipXoverride,1
;   flipYoverride,-1
;   flipZoverride,1
;   toolheadOffsets,0,0|0,0|0,0|0,0|0,0|0,0
;   overrideFirmwareConfiguration,0
;   firmwareTypeOverride,RepRap (Marlin/Repetier/Sprinter)
;   GPXconfigOverride,r2
;   baudRateOverride,115200
;   overridePrinterModels,0
;   printerModelsOverride
;   startingGcode,G28 X0 Y0; home XY,G1 X20 Y20,G28 Z0,G1 Z5 F5000; Lift NZ
;   layerChangeGcode,
;   retractionGcode,
;   toolChangeGcode,
;   endingGcode,M104 S0 ; turn off extruder,G28 X0 ; home x,M140 S0 ; turn off bed,M84 ; disable motors,M107 ;
;   exportFileFormat,gcode
;   celebration,0
;   celebrationSong,Looney Toons
;   postProcessing,
;   defaultSpeed,3600
;   outlineUnderspeed,0.5
;   solidInfillUnderspeed,0.8
;   supportUnderspeed,0.8
;   rapidXYspeed,4800
;   rapidZspeed,1002
;   minBridgingArea,50
;   bridgingExtraInflation,0
;   bridgingExtrusionMultiplier,1
;   bridgingSpeedMultiplier,1
;   useFixedBridgingAngle,0
;   fixedBridgingAngle,0
;   applyBridgingToPerimeters,0
;   filamentDiameters,1.75|1.75|1.75|1.75|1.75|1.75
;   filamentPricesPerKg,46|46|46|46|46|46
;   filamentDensities,1.25|1.25|1.25|1.25|1.25|1.25
;   useMinPrintHeight,0
;   minPrintHeight,0
;   useMaxPrintHeight,0
;   maxPrintHeight,0
;   useDiaphragm,0
;   diaphragmLayerInterval,20
;   robustSlicing,1
;   mergeAllIntoSolid,0
;   onlyRetractWhenCrossingOutline,1
;   retractBetweenLayers,1
;   useRetractionMinTravel,0
;   retractionMinTravel,3
;   retractWhileWiping,0
;   onlyWipeOutlines,1
;   avoidCrossingOutline,0
;   maxMovementDetourFactor,3
;   toolChangeRetractionDistance,12
;   toolChangeExtraRestartDistance,-0.5
;   toolChangeRetractionSpeed,600
;   externalThinWallType,0
;   internalThinWallType,2
;   thinWallAllowedOverlapPercentage,10
;   singleExtrusionMinLength,1
;   singleExtrusionMinPrintingWidthPercentage,50
;   singleExtrusionMaxPrintingWidthPercentage,200
;   singleExtrusionEndpointExtension,0.2
;   horizontalSizeCompensation,0
G90
M82
M106 S0
M140 S60
M190 S60
M104 S190 T0
M109 S190 T0
G28 X0 Y0; home XY
G1 X20 Y20
G28 Z0
G1 Z5 F5000; Lift NZ
; process Trideo BOX
; layer 1, Z = 0.270
T0
G92 E0.0000
G1 E-0.7000 F1500
; feature skirt
; tool H0.270 W0.480
G1 Z0.270 F1002
G1 X54.116 Y52.430 F4800
G1 E0.0000 F1500
G92 E0.0000
G1 X56.880 Y49.665 E0.2065 F1800
G1 X143.120 Y49.665 E4.7602
G1 X145.884 Y52.430 E4.9667
G1 X145.884 Y64.114 E5.5836
G1 X143.440 Y66.558 E5.7662
G1 X143.440 Y68.319 E5.8592
G1 X144.662 Y69.541 E5.9504
G1 X144.662 Y77.558 E6.3737
G1 X141.897 Y80.323 E6.5802
G1 X58.103 Y80.323 E11.0049
G1 X55.338 Y77.558 E11.2114
G1 X55.338 Y69.541 E11.6347
G1 X56.560 Y68.319 E11.7259
G1 X56.560 Y66.558 E11.8189
G1 X54.116 Y64.114 E12.0015
G1 X54.116 Y52.430 E12.6184
G92 E0.0000
G1 E-0.7000 F1500
G1 X54.596 Y52.629 F4800
G1 E0.0000 F1500
G92 E0.0000
G1 X57.079 Y50.145 E0.1855 F1800
G1 X142.921 Y50.145 E4.7182
G1 X145.404 Y52.629 E4.9037
G1 X145.404 Y63.915 E5.4996
G1 X142.960 Y66.359 E5.6822
G1 X142.960 Y68.518 E5.7962
G1 X144.182 Y69.740 E5.8874
G1 X144.182 Y77.359 E6.2898
G1 X141.698 Y79.843 E6.4752
G1 X58.302 Y79.843 E10.8789
G1 X55.818 Y77.359 E11.0644
G1 X55.818 Y69.740 E11.4667
G1 X57.040 Y68.518 E11.5580
G1 X57.040 Y66.359 E11.6720
G1 X54.596 Y63.915 E11.8545
G1 X54.596 Y52.629 E12.4504
G92 E0.0000
G1 E-0.7000 F1500
G1 X56.880 Y81.616 F4800
G1 E0.0000 F1500
G92 E0.0000
G1 X143.120 Y81.616 E4.5537 F1800
G1 X145.884 Y84.380 E4.7602
G1 X145.884 Y96.064 E5.3772
G1 X143.440 Y98.508 E5.5597
G1 X143.440 Y100.269 E5.6527
G1 X144.662 Y101.492 E5.7440
G1 X144.662 Y109.508 E6.1673
G1 X141.897 Y112.273 E6.3737
G1 X58.103 Y112.273 E10.7984
G1 X55.338 Y109.508 E11.0049
G1 X55.338 Y101.492 E11.4282
G1 X56.560 Y100.269 E11.5195
G1 X56.560 Y98.508 E11.6125
G1 X54.116 Y96.064 E11.7950
G1 X54.116 Y84.380 E12.4119
G1 X56.880 Y81.616 E12.6184
G92 E0.0000
G1 E-0.7000 F1500
G1 X57.079 Y82.096 F4800
G1 E0.0000 F1500
G92 E0.0000
G1 X142.921 Y82.096 E4.5328 F1800
G1 X145.404 Y84.579 E4.7182
G1 X145.404 Y95.865 E5.3142
G1 X142.960 Y98.310 E5.4967
G1 X142.960 Y100.468 E5.6107
G1 X144.182 Y101.690 E5.7020
G1 X144.182 Y109.310 E6.1043
G1 X141.699 Y111.793 E6.2898
G1 X58.302 Y111.793 E10.6934
G1 X55.818 Y109.310 E10.8789
G1 X55.818 Y101.690 E11.2812
G1 X57.040 Y100.468 E11.3725
G1 X57.040 Y98.310 E11.4865
G1 X54.596 Y95.865 E11.6690
G1 X54.596 Y84.579 E12.2650
G1 X57.079 Y82.096 E12.4504
G92 E0.0000
G1 E-0.7000 F1500
G1 X56.880 Y113.566 F4800
G1 E0.0000 F1500
G92 E0.0000
G1 X143.120 Y113.566 E4.5538 F1800
G1 X145.884 Y116.331 E4.7602
G1 X145.884 Y128.014 E5.3772
G1 X143.440 Y130.459 E5.5597
G1 X143.440 Y132.220 E5.6527
G1 X144.662 Y133.442 E5.7440
G1 X144.662 Y141.459 E6.1673
G1 X141.897 Y144.223 E6.3737
G1 X58.103 Y144.223 E10.7984
G1 X55.338 Y141.459 E11.0049
G1 X55.338 Y133.442 E11.4282
G1 X56.560 Y132.220 E11.5195
G1 X56.560 Y130.459 E11.6125
G1 X54.116 Y128.014 E11.7950
G1 X54.116 Y116.331 E12.4119
G1 X56.880 Y113.566 E12.6184
G92 E0.0000
G1 E-0.7000 F1500
G1 X57.079 Y114.046 F4800
G1 E0.0000 F1500
G92 E0.0000
G1 X142.921 Y114.046 E4.5328 F1800
G1 X145.404 Y116.529 E4.7182
G1 X145.404 Y127.815 E5.3142
G1 X142.960 Y130.260 E5.4967
G1 X142.960 Y132.418 E5.6107
G1 X144.182 Y133.641 E5.7020
G1 X144.182 Y141.260 E6.1043
G1 X141.699 Y143.743 E6.2898
G1 X58.302 Y143.743 E10.6934
G1 X55.818 Y141.260 E10.8789
G1 X55.818 Y133.641 E11.2812
G1 X57.040 Y132.418 E11.3725
G1 X57.040 Y130.260 E11.4865
G1 X54.596 Y127.815 E11.6690
G1 X54.596 Y116.529 E12.2650
G1 X57.079 Y114.046 E12.4504
G92 E0.0000
G1 E-0.7000 F1500
; feature outer perimeter
G1 X62.225 Y62.557 F4800
G1 E0.0000 F1500
G92 E0.0000
G1 X62.227 Y61.965 E0.0313 F900
G1 X137.749 Y61.965 E4.0191
G1 X137.751 Y62.558 E4.0505
G1 X93.631 Y62.465 E6.3802
G1 X76.870 Y62.465 E7.2652
G1 X62.225 Y62.557 E8.0385
G92 E0.0000
G1 E-0.7000 F1500
G1 X62.227 Y93.915 F4800
G1 E0.0000 F1500
G92 E0.0000
G1 X137.749 Y93.915 E3.9878 F900
G1 X137.751 Y94.509 E4.0192
G1 X93.631 Y94.415 E6.3489
G1 X76.870 Y94.415 E7.2339
G1 X62.225 Y94.507 E8.0072
G1 X62.227 Y93.915 E8.0385
G92 E0.0000
G1 E-0.7000 F1500
G1 X62.227 Y125.865 F4800
G1 E0.0000 F1500
G92 E0.0000
G1 X137.749 Y125.865 E3.9878 F900
G1 X137.751 Y126.459 E4.0192
G1 X93.631 Y126.365 E6.3489
G1 X76.870 Y126.365 E7.2339
G1 X62.225 Y126.458 E8.0072
G1 X62.227 Y125.865 E8.0385
G92 E0.0000
G1 E-0.7000 F1500
; feature support
G1 X59.086 Y125.658 F4800
G1 E0.0000 F1500
G92 E0.0000
G1 X61.342 Y125.658 E0.1191 F1440
G1 X61.343 Y125.085 E0.1494
G1 X61.439 Y125.085 E0.1544
G1 X61.439 Y125.075 E0.1549
G1 X138.537 Y125.075 E4.2260
G1 X138.537 Y125.085 E4.2265
G1 X138.634 Y125.085 E4.2316
G1 X138.635 Y125.658 E4.2619
G1 X140.914 Y125.658 E4.3822
G1 X140.914 Y123.738 E4.4836
G1 X59.086 Y123.738 E8.8045
G1 X59.086 Y121.818 E8.9059
G1 X140.914 Y121.818 E13.2267
G1 X140.914 Y119.898 E13.3281
G1 X59.086 Y119.898 E17.6490
G92 E0.0000
G1 E-0.7000 F1500
G1 X61.530 Y131.418 F4800
G1 E0.0000 F1500
G92 E0.0000
G1 X65.137 Y131.418 E0.1904 F1440
G1 X65.137 Y133.338 E0.2918
G1 X61.530 Y133.338 E0.4823
G1 X61.530 Y135.258 E0.5837
G1 X65.137 Y135.258 E0.7741
G1 X65.137 Y137.178 E0.8755
G1 X60.308 Y137.178 E1.1305
G1 X60.308 Y139.098 E1.2319
G1 X65.137 Y139.098 E1.4868
G92 E0.0000
G1 E-0.7000 F1500
G1 X66.419 Y131.418 F4800
G1 E0.0000 F1500
G92 E0.0000
G1 X133.581 Y131.418 E3.5464 F1440
G1 X133.581 Y133.338 E3.6478
G1 X66.419 Y133.338 E7.1942
G1 X66.419 Y135.258 E7.2956
G1 X133.581 Y135.258 E10.8420
G1 X133.581 Y137.178 E10.9434
G1 X66.419 Y137.178 E14.4898
G1 X66.419 Y139.098 E14.5912
G1 X133.581 Y139.098 E18.1376
G92 E0.0000
G1 E-0.7000 F1500
G1 X139.692 Y139.098 F4800
G1 E0.0000 F1500
G92 E0.0000
G1 X134.863 Y139.098 E0.2550 F1440
G1 X134.863 Y137.178 E0.3564
G1 X139.692 Y137.178 E0.6114
G1 X139.692 Y135.647 E0.6922
G1 X138.470 Y135.647 E0.7567
G1 X138.470 Y135.258 E0.7773
G1 X134.863 Y135.258 E0.9677
G1 X134.863 Y133.338 E1.0691
G1 X138.470 Y133.338 E1.2595
G1 X138.470 Y131.418 E1.3609
G1 X134.863 Y131.418 E1.5514
G92 E0.0000
G1 E-0.7000 F1500
G1 X133.581 Y106.458 F4800
G1 E0.0000 F1500
G92 E0.0000
G1 X66.419 Y106.458 E3.5464 F1440
G1 X66.419 Y104.538 E3.6478
G1 X133.581 Y104.538 E7.1942
G1 X133.581 Y102.618 E7.2956
G1 X66.419 Y102.618 E10.8420
G1 X66.419 Y100.698 E10.9434
G1 X133.581 Y100.698 E14.4898
G1 X133.581 Y98.778 E14.5912
G1 X66.419 Y98.778 E18.1376
G92 E0.0000
G1 E-0.7000 F1500
G1 X61.530 Y98.778 F4800
G1 E0.0000 F1500
G92 E0.0000
G1 X65.137 Y98.778 E0.1904 F1440
G1 X65.137 Y100.698 E0.2918
G1 X61.530 Y100.698 E0.4823
G1 X61.530 Y102.618 E0.5837
G1 X65.137 Y102.618 E0.7741
G1 X65.137 Y104.538 E0.8755
G1 X60.308 Y104.538 E1.1305
G1 X60.308 Y106.458 E1.2319
G1 X65.137 Y106.458 E1.4868
G92 E0.0000
G1 E-0.7000 F1500
G1 X59.086 Y93.018 F4800
G1 E0.0000 F1500
G92 E0.0000
G1 X140.914 Y93.018 E4.3209 F1440
G1 X140.914 Y91.098 E4.4223
G1 X59.086 Y91.098 E8.7431
G1 X59.086 Y89.178 E8.8445
G1 X140.914 Y89.178 E13.1654
G1 X140.914 Y87.258 E13.2668
G1 X100.641 Y87.258 E15.3934
G1 X100.641 Y87.808 E15.4224
G1 X99.359 Y87.808 E15.4901
G1 X99.359 Y87.258 E15.5192
G1 X59.086 Y87.258 E17.6457
G92 E0.0000
G1 E-0.7000 F1500
G1 X65.137 Y73.818 F4800
G1 E0.0000 F1500
G92 E0.0000
G1 X60.308 Y73.818 E0.2550 F1440
G1 X60.308 Y71.898 E0.3564
G1 X65.137 Y71.898 E0.6114
G1 X65.137 Y69.978 E0.7127
G1 X61.530 Y69.978 E0.9032
G1 X61.530 Y68.058 E1.0046
G1 X65.137 Y68.058 E1.1950
G1 X65.137 Y66.138 E1.2964
G1 X61.530 Y66.138 E1.4868
G92 E0.0000
G1 E-0.7000 F1500
G1 X66.419 Y66.138 F4800
G1 E0.0000 F1500
G92 E0.0000
G1 X133.581 Y66.138 E3.5464 F1440
G1 X133.581 Y68.058 E3.6478
G1 X66.419 Y68.058 E7.1942
G1 X66.419 Y69.978 E7.2956
G1 X133.581 Y69.978 E10.8420
G1 X133.581 Y71.898 E10.9434
G1 X66.419 Y71.898 E14.4898
G1 X66.419 Y73.818 E14.5912
G1 X133.581 Y73.818 E18.1376
G92 E0.0000
G1 E-0.7000 F1500
G1 X139.692 Y73.818 F4800
G1 E0.0000 F1500
G92 E0.0000
G1 X134.863 Y73.818 E0.2550 F1440
G1 X134.863 Y71.898 E0.3564
G1 X139.692 Y71.898 E0.6114
G1 X139.692 Y71.747 E0.6193
G1 X138.470 Y71.747 E0.6839
G1 X138.470 Y69.978 E0.7773
G1 X134.863 Y69.978 E0.9677
G1 X134.863 Y68.058 E1.0691
G1 X138.470 Y68.058 E1.2595
G1 X138.470 Y66.138 E1.3609
G1 X134.863 Y66.138 E1.5514
G92 E0.0000
G1 E-0.7000 F1500
G1 X140.914 Y60.378 F4800
G1 E0.0000 F1500
G92 E0.0000
G1 X59.086 Y60.378 E4.3209 F1440
G1 X59.086 Y58.458 E4.4223
G1 X140.914 Y58.458 E8.7431
G1 X140.914 Y56.538 E8.8445
G1 X59.086 Y56.538 E13.1654
G92 E0.0000
G1 E-0.7000 F1500
G1 X134.863 Y98.778 F4800
G1 E0.0000 F1500
G92 E0.0000
G1 X138.470 Y98.778 E0.1904 F1440
G1 X138.470 Y100.698 E0.2918
G1 X134.863 Y100.698 E0.4823
G1 X134.863 Y102.618 E0.5837
G1 X138.470 Y102.618 E0.7741
G1 X138.470 Y103.697 E0.8311
G1 X139.692 Y103.697 E0.8956
G1 X139.692 Y104.538 E0.9400
G1 X134.863 Y104.538 E1.1950
G1 X134.863 Y106.458 E1.2964
G1 X139.692 Y106.458 E1.5514
G92 E0.0000
G1 E-0.7000 F1500
; layer 2, Z = 0.570
M106 S255
; feature inner perimeter
; tool H0.300 W0.480
G1 Z0.570 F1002
G1 X137.380 Y95.527 F4800
G1 E0.0000 F1500
G92 E0.0000
G1 X127.647 Y95.525 E0.5711 F2700
G1 X113.704 Y95.490 E1.3891
G1 X86.294 Y95.490 E2.9973
G1 X72.328 Y95.525 E3.8167
G1 X62.597 Y95.527 E4.3876
G1 X62.600 Y94.395 E4.4540
G1 X137.377 Y94.395 E8.8413
G1 X137.380 Y95.527 E8.9077
; feature outer perimeter
G1 X137.862 Y96.007 F4800
G92 E0.0000
G1 X127.646 Y96.005 E0.5994 F1800
G1 X113.704 Y95.970 E1.4174
G1 X86.295 Y95.970 E3.0255
G1 X72.329 Y96.005 E3.8449
G1 X62.115 Y96.007 E4.4441
G1 X62.121 Y93.915 E4.5668
G1 X137.856 Y93.915 E9.0103
G1 X137.862 Y96.007 E9.1330
; feature bridge
G1 X136.960 Y94.803 F4800
G92 E0.0000
G1 X136.960 Y95.119 E0.0185 F3600
G1 X136.480 Y95.119 E0.0467
G1 X136.480 Y94.803 E0.0652
G1 X136.000 Y94.803 E0.0934
G1 X136.000 Y95.119 E0.1119
G1 X135.520 Y95.119 E0.1401
G1 X135.520 Y94.803 E0.1586
G1 X135.040 Y94.803 E0.1867
G1 X135.040 Y95.119 E0.2052
G1 X134.560 Y95.119 E0.2334
G1 X134.560 Y94.803 E0.2519
G1 X134.080 Y94.803 E0.2801
G1 X134.080 Y95.118 E0.2986
G1 X133.600 Y95.118 E0.3267
G1 X133.600 Y94.803 E0.3452
G1 X133.120 Y94.803 E0.3734
G1 X133.120 Y95.118 E0.3919
G1 X132.640 Y95.118 E0.4201
G1 X132.640 Y94.803 E0.4385
G1 X132.160 Y94.803 E0.4667
G1 X132.160 Y95.118 E0.4852
G1 X131.680 Y95.118 E0.5134
G1 X131.680 Y94.803 E0.5318
G1 X131.200 Y94.803 E0.5600
G1 X131.200 Y95.118 E0.5785
G1 X130.720 Y95.118 E0.6066
G1 X130.720 Y94.803 E0.6251
G1 X130.240 Y94.803 E0.6533
G1 X130.240 Y95.118 E0.6717
G1 X129.760 Y95.118 E0.6999
G1 X129.760 Y94.803 E0.7184
G1 X129.280 Y94.803 E0.7465
G1 X129.280 Y95.118 E0.7650
G1 X128.800 Y95.118 E0.7931
G1 X128.800 Y94.803 E0.8116
