; G-Code generated by Simplify3D(R) Version 4.1.1
; Apr 25, 2021 at 7:28:49 PM
; Settings Summary
;   processName,Trideo BOX
;   applyToModels,FingerMechanismHolder,FingerMechanismHolder(2),FingerMechanismHolder(3)
;   profileName,Trideo BOX
;   profileVersion,2021-04-15 09:48:16
;   baseProfile,Default
;   printMaterial,PLA
;   printQuality,Fast
;   printExtruders,
;   extruderName,Primary Extruder
;   extruderToolheadNumber,0
;   extruderDiameter,0.4
;   extruderAutoWidth,1
;   extruderWidth,0.48
;   extrusionMultiplier,0.98
;   extruderUseRetract,1
;   extruderRetractionDistance,0.7
;   extruderExtraRestartDistance,0
;   extruderRetractionZLift,0
;   extruderRetractionSpeed,1500
;   extruderUseCoasting,0
;   extruderCoastingDistance,0.2
;   extruderUseWipe,0
;   extruderWipeDistance,5
;   primaryExtruder,0
;   layerHeight,0.3
;   topSolidLayers,3
;   bottomSolidLayers,3
;   perimeterOutlines,2
;   printPerimetersInsideOut,1
;   startPointOption,2
;   startPointOriginX,0
;   startPointOriginY,0
;   sequentialIslands,0
;   spiralVaseMode,0
;   firstLayerHeightPercentage,90
;   firstLayerWidthPercentage,100
;   firstLayerUnderspeed,0.5
;   useRaft,0
;   raftExtruder,0
;   raftTopLayers,3
;   raftBaseLayers,2
;   raftOffset,3
;   raftSeparationDistance,0.14
;   raftTopInfill,100
;   aboveRaftSpeedMultiplier,0.3
;   useSkirt,1
;   skirtExtruder,0
;   skirtLayers,1
;   skirtOutlines,2
;   skirtOffset,4
;   usePrimePillar,0
;   primePillarExtruder,999
;   primePillarWidth,12
;   primePillarLocation,7
;   primePillarSpeedMultiplier,1
;   useOozeShield,0
;   oozeShieldExtruder,999
;   oozeShieldOffset,2
;   oozeShieldOutlines,1
;   oozeShieldSidewallShape,1
;   oozeShieldSidewallAngle,30
;   oozeShieldSpeedMultiplier,1
;   infillExtruder,0
;   internalInfillPattern,Rectilinear
;   externalInfillPattern,Rectilinear
;   infillPercentage,15
;   outlineOverlapPercentage,15
;   infillExtrusionWidthPercentage,100
;   minInfillLength,5
;   infillLayerInterval,1
;   internalInfillAngles,45,-45
;   overlapInternalInfillAngles,0
;   externalInfillAngles,45,-45
;   generateSupport,1
;   supportExtruder,0
;   supportInfillPercentage,25
;   supportExtraInflation,0
;   supportBaseLayers,0
;   denseSupportExtruder,0
;   denseSupportLayers,0
;   denseSupportInfillPercentage,70
;   supportLayerInterval,1
;   supportHorizontalPartOffset,0.3
;   supportUpperSeparationLayers,1
;   supportLowerSeparationLayers,1
;   supportType,0
;   supportGridSpacing,4
;   maxOverhangAngle,45
;   supportAngles,0
;   temperatureName,Primary Extruder,Heated bed
;   temperatureNumber,0,0
;   temperatureSetpointCount,1,1
;   temperatureSetpointLayers,1,1
;   temperatureSetpointTemperatures,190,60
;   temperatureStabilizeAtStartup,1,1
;   temperatureHeatedBed,0,1
;   fanLayers,1,2
;   fanSpeeds,0,100
;   blipFanToFullPower,0
;   adjustSpeedForCooling,1
;   minSpeedLayerTime,15
;   minCoolingSpeedSlowdown,20
;   increaseFanForCooling,0
;   minFanLayerTime,45
;   maxCoolingFanSpeed,100
;   increaseFanForBridging,0
;   bridgingFanSpeed,100
;   use5D,1
;   relativeEdistances,0
;   allowEaxisZeroing,1
;   independentExtruderAxes,0
;   includeM10123,0
;   stickySupport,1
;   applyToolheadOffsets,0
;   gcodeXoffset,0
;   gcodeYoffset,0
;   gcodeZoffset,0
;   overrideMachineDefinition,1
;   machineTypeOverride,0
;   strokeXoverride,200
;   strokeYoverride,200
;   strokeZoverride,200
;   originOffsetXoverride,0
;   originOffsetYoverride,0
;   originOffsetZoverride,0
;   homeXdirOverride,-1
;   homeYdirOverride,-1
;   homeZdirOverride,-1
;   flipXoverride,1
;   flipYoverride,-1
;   flipZoverride,1
;   toolheadOffsets,0,0|0,0|0,0|0,0|0,0|0,0
;   overrideFirmwareConfiguration,0
;   firmwareTypeOverride,RepRap (Marlin/Repetier/Sprinter)
;   GPXconfigOverride,r2
;   baudRateOverride,115200
;   overridePrinterModels,0
;   printerModelsOverride
;   startingGcode,G28 X0 Y0; home XY,G1 X20 Y20,G28 Z0,G1 Z5 F5000; Lift NZ
;   layerChangeGcode,
;   retractionGcode,
;   toolChangeGcode,
;   endingGcode,M104 S0 ; turn off extruder,G28 X0 ; home x,M140 S0 ; turn off bed,M84 ; disable motors,M107 ;
;   exportFileFormat,gcode
;   celebration,0
;   celebrationSong,Looney Toons
;   postProcessing,
;   defaultSpeed,3600
;   outlineUnderspeed,0.5
;   solidInfillUnderspeed,0.8
;   supportUnderspeed,0.8
;   rapidXYspeed,4800
;   rapidZspeed,1002
;   minBridgingArea,50
;   bridgingExtraInflation,0
;   bridgingExtrusionMultiplier,1
;   bridgingSpeedMultiplier,1
;   useFixedBridgingAngle,0
;   fixedBridgingAngle,0
;   applyBridgingToPerimeters,0
;   filamentDiameters,1.75|1.75|1.75|1.75|1.75|1.75
;   filamentPricesPerKg,46|46|46|46|46|46
;   filamentDensities,1.25|1.25|1.25|1.25|1.25|1.25
;   useMinPrintHeight,0
;   minPrintHeight,0
;   useMaxPrintHeight,0
;   maxPrintHeight,0
;   useDiaphragm,0
;   diaphragmLayerInterval,20
;   robustSlicing,1
;   mergeAllIntoSolid,0
;   onlyRetractWhenCrossingOutline,1
;   retractBetweenLayers,1
;   useRetractionMinTravel,0
;   retractionMinTravel,3
;   retractWhileWiping,0
;   onlyWipeOutlines,1
;   avoidCrossingOutline,0
;   maxMovementDetourFactor,3
;   toolChangeRetractionDistance,12
;   toolChangeExtraRestartDistance,-0.5
;   toolChangeRetractionSpeed,600
;   externalThinWallType,0
;   internalThinWallType,2
;   thinWallAllowedOverlapPercentage,10
;   singleExtrusionMinLength,1
;   singleExtrusionMinPrintingWidthPercentage,50
;   singleExtrusionMaxPrintingWidthPercentage,200
;   singleExtrusionEndpointExtension,0.2
;   horizontalSizeCompensation,0
G90
M82
M106 S0
M140 S60
M190 S60
M104 S190 T0
M109 S190 T0
G28 X0 Y0; home XY
G1 X20 Y20
G28 Z0
G1 Z5 F5000; Lift NZ
; process Trideo BOX
; layer 1, Z = 0.270
T0
G92 E0.0000
G1 E-0.7000 F1500
; feature skirt
; tool H0.270 W0.480
G1 Z0.270 F1002
G1 X50.393 Y48.758 F4800
G1 E0.0000 F1500
G92 E0.0000
G1 X53.158 Y45.993 E0.2065 F1800
G1 X146.842 Y45.993 E5.1533
G1 X149.607 Y48.758 E5.3598
G1 X149.607 Y61.108 E6.0119
G1 X146.940 Y63.775 E6.2111
G1 X146.940 Y66.091 E6.3334
G1 X148.273 Y67.425 E6.4329
G1 X148.273 Y75.775 E6.8739
G1 X145.508 Y78.540 E7.0803
G1 X54.492 Y78.540 E11.8864
G1 X51.727 Y75.775 E12.0928
G1 X51.727 Y67.425 E12.5338
G1 X53.060 Y66.091 E12.6333
G1 X53.060 Y63.775 E12.7557
G1 X50.393 Y61.108 E12.9548
G1 X50.393 Y48.758 E13.6069
G92 E0.0000
G1 E-0.7000 F1500
G1 X50.873 Y48.957 F4800
G1 E0.0000 F1500
G92 E0.0000
G1 X53.357 Y46.473 E0.1855 F1800
G1 X146.643 Y46.473 E5.1113
G1 X149.127 Y48.957 E5.2968
G1 X149.127 Y60.909 E5.9279
G1 X146.643 Y63.393 E6.1134
G1 X146.460 Y63.393 E6.1231
G1 X146.460 Y66.290 E6.2760
G1 X147.793 Y67.624 E6.3756
G1 X147.793 Y75.576 E6.7955
G1 X145.310 Y78.060 E6.9810
G1 X54.690 Y78.060 E11.7661
G1 X52.207 Y75.576 E11.9515
G1 X52.207 Y67.624 E12.3715
G1 X53.540 Y66.290 E12.4710
G1 X53.540 Y63.393 E12.6240
G1 X53.357 Y63.393 E12.6337
G1 X50.873 Y60.909 E12.8191
G1 X50.873 Y48.957 E13.4503
G92 E0.0000
G1 E-0.7000 F1500
G1 X53.158 Y80.393 F4800
G1 E0.0000 F1500
G92 E0.0000
G1 X146.842 Y80.393 E4.9468 F1800
G1 X149.607 Y83.158 E5.1533
G1 X149.607 Y95.508 E5.8055
G1 X146.940 Y98.175 E6.0046
G1 X146.940 Y100.492 E6.1269
G1 X148.273 Y101.825 E6.2265
G1 X148.273 Y110.175 E6.6674
G1 X145.508 Y112.940 E6.8739
G1 X54.492 Y112.940 E11.6799
G1 X51.727 Y110.175 E11.8864
G1 X51.727 Y101.825 E12.3273
G1 X53.060 Y100.492 E12.4269
G1 X53.060 Y98.175 E12.5492
G1 X50.393 Y95.508 E12.7483
G1 X50.393 Y83.158 E13.4005
G1 X53.158 Y80.393 E13.6069
G92 E0.0000
G1 E-0.7000 F1500
G1 X53.357 Y80.873 F4800
G1 E0.0000 F1500
G92 E0.0000
G1 X146.643 Y80.873 E4.9258 F1800
G1 X149.127 Y83.357 E5.1113
G1 X149.127 Y95.310 E5.7425
G1 X146.643 Y97.793 E5.9279
G1 X146.460 Y97.793 E5.9376
G1 X146.460 Y100.690 E6.0906
G1 X147.793 Y102.024 E6.1901
G1 X147.793 Y109.976 E6.6101
G1 X145.310 Y112.460 E6.7955
G1 X54.690 Y112.460 E11.5806
G1 X52.207 Y109.976 E11.7661
G1 X52.207 Y102.024 E12.1860
G1 X53.540 Y100.690 E12.2855
G1 X53.540 Y97.793 E12.4385
G1 X53.357 Y97.793 E12.4482
G1 X50.873 Y95.310 E12.6337
G1 X50.873 Y83.357 E13.2648
G1 X53.357 Y80.873 E13.4503
G92 E0.0000
G1 E-0.7000 F1500
G1 X53.158 Y114.793 F4800
G1 E0.0000 F1500
G92 E0.0000
G1 X146.842 Y114.793 E4.9468 F1800
G1 X149.607 Y117.558 E5.1533
G1 X149.607 Y129.909 E5.8055
G1 X146.940 Y132.575 E6.0046
G1 X146.940 Y134.892 E6.1269
G1 X148.273 Y136.225 E6.2265
G1 X148.273 Y144.575 E6.6674
G1 X145.508 Y147.340 E6.8739
G1 X54.492 Y147.340 E11.6799
G1 X51.727 Y144.575 E11.8864
G1 X51.727 Y136.225 E12.3273
G1 X53.060 Y134.892 E12.4269
G1 X53.060 Y132.575 E12.5492
G1 X50.393 Y129.909 E12.7483
G1 X50.393 Y117.558 E13.4005
G1 X53.158 Y114.793 E13.6069
G92 E0.0000
G1 E-0.7000 F1500
G1 X53.357 Y115.273 F4800
G1 E0.0000 F1500
G92 E0.0000
G1 X146.643 Y115.273 E4.9258 F1800
G1 X149.127 Y117.757 E5.1113
G1 X149.127 Y129.710 E5.7425
G1 X146.643 Y132.194 E5.9279
G1 X146.460 Y132.194 E5.9376
G1 X146.460 Y135.091 E6.0906
G1 X147.793 Y136.424 E6.1901
G1 X147.793 Y144.376 E6.6101
G1 X145.310 Y146.860 E6.7955
G1 X54.690 Y146.860 E11.5806
G1 X52.207 Y144.376 E11.7661
G1 X52.207 Y136.424 E12.1860
G1 X53.540 Y135.091 E12.2855
G1 X53.540 Y132.194 E12.4385
G1 X53.357 Y132.194 E12.4482
G1 X50.873 Y129.710 E12.6337
G1 X50.873 Y117.757 E13.2648
G1 X53.357 Y115.273 E13.4503
G92 E0.0000
G1 E-0.7000 F1500
; feature outer perimeter
G1 X58.774 Y59.537 F4800
G1 E0.0000 F1500
G92 E0.0000
G1 X58.776 Y58.940 E0.0315 F900
G1 X141.198 Y58.940 E4.3837
G1 X141.199 Y59.539 E4.4154
G1 X135.844 Y59.539 E4.6982
G1 X90.179 Y59.440 E7.1094
G1 X73.419 Y59.440 E7.9945
G1 X58.774 Y59.537 E8.7678
G92 E0.0000
G1 E-0.7000 F1500
G1 X58.776 Y93.340 F4800
G1 E0.0000 F1500
G92 E0.0000
G1 X141.198 Y93.340 E4.3522 F900
G1 X141.199 Y93.939 E4.3838
G1 X135.844 Y93.939 E4.6666
G1 X90.179 Y93.840 E7.0779
G1 X73.419 Y93.840 E7.9629
G1 X58.774 Y93.938 E8.7362
G1 X58.776 Y93.340 E8.7678
G92 E0.0000
G1 E-0.7000 F1500
G1 X58.776 Y127.740 F4800
G1 E0.0000 F1500
G92 E0.0000
G1 X141.198 Y127.740 E4.3522 F900
G1 X141.199 Y128.339 E4.3838
G1 X135.844 Y128.339 E4.6666
G1 X90.179 Y128.240 E7.0779
G1 X73.419 Y128.240 E7.9629
G1 X58.774 Y128.338 E8.7362
G1 X58.776 Y127.740 E8.7678
G92 E0.0000
G1 E-0.7000 F1500
; feature support
G1 X58.030 Y133.227 F4800
G1 E0.0000 F1500
G92 E0.0000
G1 X61.970 Y133.227 E0.2080 F1440
G1 X61.970 Y135.147 E0.3094
G1 X58.030 Y135.147 E0.5175
G1 X58.030 Y137.067 E0.6189
G1 X61.970 Y137.067 E0.8269
G1 X61.970 Y138.987 E0.9283
G1 X56.697 Y138.987 E1.2067
G1 X56.697 Y140.907 E1.3081
G1 X61.970 Y140.907 E1.5866
G92 E0.0000
G1 E-0.7000 F1500
G1 X63.363 Y133.227 F4800
G1 E0.0000 F1500
G92 E0.0000
G1 X136.637 Y133.227 E3.8691 F1440
G1 X136.637 Y135.147 E3.9705
G1 X63.363 Y135.147 E7.8396
G1 X63.363 Y137.067 E7.9410
G1 X136.637 Y137.067 E11.8101
G1 X136.637 Y138.987 E11.9115
G1 X63.363 Y138.987 E15.7806
G1 X63.363 Y140.907 E15.8820
G1 X136.637 Y140.907 E19.7511
G92 E0.0000
G1 E-0.7000 F1500
G1 X143.303 Y140.907 F4800
G1 E0.0000 F1500
G92 E0.0000
G1 X138.030 Y140.907 E0.2785 F1440
G1 X138.030 Y138.987 E0.3798
G1 X143.303 Y138.987 E0.6583
G1 X143.303 Y138.430 E0.6877
G1 X141.970 Y138.430 E0.7581
G1 X141.970 Y137.067 E0.8301
G1 X138.030 Y137.067 E1.0381
G1 X138.030 Y135.147 E1.1395
G1 X141.970 Y135.147 E1.3476
G1 X141.970 Y133.227 E1.4489
G1 X138.030 Y133.227 E1.6570
G92 E0.0000
G1 E-0.7000 F1500
G1 X144.637 Y127.467 F4800
G1 E0.0000 F1500
G92 E0.0000
G1 X142.084 Y127.467 E0.1348 F1440
G1 X142.083 Y126.960 E0.1615
G1 X141.986 Y126.960 E0.1666
G1 X141.986 Y126.950 E0.1672
G1 X57.988 Y126.950 E4.6026
G1 X57.988 Y126.960 E4.6031
G1 X57.892 Y126.960 E4.6082
G1 X57.891 Y127.467 E4.6349
G1 X55.363 Y127.467 E4.7684
G1 X55.363 Y125.547 E4.8697
G1 X144.637 Y125.547 E9.5837
G1 X144.637 Y123.627 E9.6851
G1 X55.363 Y123.627 E14.3991
G1 X55.363 Y121.707 E14.5004
G1 X144.637 Y121.707 E19.2144
G1 X144.637 Y119.787 E19.3158
G1 X100.697 Y119.787 E21.6360
G1 X100.697 Y121.097 E21.7052
G1 X99.303 Y121.097 E21.7788
G1 X99.303 Y119.787 E21.8479
G1 X55.363 Y119.787 E24.1681
G92 E0.0000
G1 E-0.7000 F1500
G1 X61.970 Y106.347 F4800
G1 E0.0000 F1500
G92 E0.0000
G1 X56.697 Y106.347 E0.2785 F1440
G1 X56.697 Y104.427 E0.3798
G1 X61.970 Y104.427 E0.6583
G1 X61.970 Y102.507 E0.7597
G1 X58.030 Y102.507 E0.9677
G1 X58.030 Y100.587 E1.0691
G1 X61.970 Y100.587 E1.2771
G1 X61.970 Y98.667 E1.3785
G1 X58.030 Y98.667 E1.5866
G92 E0.0000
G1 E-0.7000 F1500
G1 X63.363 Y98.667 F4800
G1 E0.0000 F1500
G92 E0.0000
G1 X136.637 Y98.667 E3.8691 F1440
G1 X136.637 Y100.587 E3.9705
G1 X63.363 Y100.587 E7.8396
G1 X63.363 Y102.507 E7.9410
G1 X136.637 Y102.507 E11.8101
G1 X136.637 Y104.427 E11.9115
G1 X63.363 Y104.427 E15.7806
G1 X63.363 Y106.347 E15.8820
G1 X136.637 Y106.347 E19.7511
G92 E0.0000
G1 E-0.7000 F1500
G1 X143.303 Y106.347 F4800
G1 E0.0000 F1500
G92 E0.0000
G1 X138.030 Y106.347 E0.2785 F1440
G1 X138.030 Y104.427 E0.3798
G1 X143.303 Y104.427 E0.6583
G1 X143.303 Y104.030 E0.6792
G1 X141.970 Y104.030 E0.7496
G1 X141.970 Y102.507 E0.8301
G1 X138.030 Y102.507 E1.0381
G1 X138.030 Y100.587 E1.1395
G1 X141.970 Y100.587 E1.3476
G1 X141.970 Y98.667 E1.4489
G1 X138.030 Y98.667 E1.6570
G92 E0.0000
G1 E-0.7000 F1500
G1 X136.637 Y71.787 F4800
G1 E0.0000 F1500
G92 E0.0000
G1 X63.363 Y71.787 E3.8691 F1440
G1 X63.363 Y69.867 E3.9705
G1 X136.637 Y69.867 E7.8396
G1 X136.637 Y67.947 E7.9410
G1 X63.363 Y67.947 E11.8101
G1 X63.363 Y66.027 E11.9115
G1 X136.637 Y66.027 E15.7806
G1 X136.637 Y64.107 E15.8820
G1 X63.363 Y64.107 E19.7511
G92 E0.0000
G1 E-0.7000 F1500
G1 X58.030 Y64.107 F4800
G1 E0.0000 F1500
G92 E0.0000
G1 X61.970 Y64.107 E0.2080 F1440
G1 X61.970 Y66.027 E0.3094
G1 X58.030 Y66.027 E0.5175
G1 X58.030 Y67.947 E0.6189
G1 X61.970 Y67.947 E0.8269
G1 X61.970 Y69.867 E0.9283
G1 X56.697 Y69.867 E1.2067
G1 X56.697 Y71.787 E1.3081
G1 X61.970 Y71.787 E1.5866
G92 E0.0000
G1 E-0.7000 F1500
G1 X55.363 Y58.347 F4800
G1 E0.0000 F1500
G92 E0.0000
G1 X57.892 Y58.347 E0.1335 F1440
G1 X57.892 Y58.160 E0.1434
G1 X57.988 Y58.160 E0.1484
G1 X57.988 Y58.150 E0.1489
G1 X141.986 Y58.150 E4.5844
G1 X141.986 Y58.160 E4.5849
G1 X142.083 Y58.160 E4.5900
G1 X142.083 Y58.347 E4.5998
G1 X144.637 Y58.347 E4.7347
G1 X144.637 Y56.427 E4.8361
G1 X55.363 Y56.427 E9.5500
G1 X55.363 Y54.507 E9.6514
G1 X144.637 Y54.507 E14.3654
G1 X144.637 Y52.587 E14.4668
G1 X55.363 Y52.587 E19.1808
G92 E0.0000
G1 E-0.7000 F1500
G1 X55.363 Y87.147 F4800
G1 E0.0000 F1500
G92 E0.0000
G1 X144.637 Y87.147 E4.7140 F1440
G1 X144.637 Y89.067 E4.8154
G1 X55.363 Y89.067 E9.5293
G1 X55.363 Y90.987 E9.6307
G1 X144.637 Y90.987 E14.3447
G1 X144.637 Y92.907 E14.4461
G1 X142.084 Y92.907 E14.5809
G1 X142.083 Y92.560 E14.5992
G1 X141.986 Y92.560 E14.6043
G1 X141.986 Y92.550 E14.6048
G1 X57.988 Y92.550 E19.0402
G1 X57.988 Y92.560 E19.0408
G1 X57.892 Y92.560 E19.0458
G1 X57.891 Y92.907 E19.0641
G1 X55.363 Y92.907 E19.1976
G92 E0.0000
G1 E-0.7000 F1500
G1 X138.030 Y64.107 F4800
G1 E0.0000 F1500
G92 E0.0000
G1 X141.970 Y64.107 E0.2080 F1440
G1 X141.970 Y66.027 E0.3094
G1 X138.030 Y66.027 E0.5175
G1 X138.030 Y67.947 E0.6189
G1 X141.970 Y67.947 E0.8269
G1 X141.970 Y69.630 E0.9158
G1 X143.303 Y69.630 E0.9862
G1 X143.303 Y69.867 E0.9987
G1 X138.030 Y69.867 E1.2771
G1 X138.030 Y71.787 E1.3785
G1 X143.303 Y71.787 E1.6570
G92 E0.0000
G1 E-0.7000 F1500
; layer 2, Z = 0.570
M106 S255
; feature inner perimeter
; tool H0.300 W0.480
G1 Z0.570 F1002
G1 X140.829 Y60.616 F4800
G1 E0.0000 F1500
G92 E0.0000
G1 X133.999 Y60.615 E0.4007 F2700
G1 X114.950 Y60.566 E1.5184
G1 X85.048 Y60.566 E3.2727
G1 X65.966 Y60.615 E4.3923
G1 X59.145 Y60.616 E4.7925
G1 X59.149 Y59.420 E4.8627
G1 X140.826 Y59.420 E9.6547
G1 X140.829 Y60.616 E9.7249
; feature outer perimeter
G1 X141.311 Y61.096 F4800
G92 E0.0000
G1 X133.998 Y61.095 E0.4291 F1800
G1 X114.949 Y61.046 E1.5467
G1 X85.049 Y61.046 E3.3009
G1 X65.968 Y61.095 E4.4204
G1 X58.664 Y61.096 E4.8490
G1 X58.670 Y58.940 E4.9755
G1 X141.305 Y58.940 E9.8237
G1 X141.311 Y61.096 E9.9502
; feature bridge
G1 X140.320 Y59.828 F4800
G92 E0.0000
G1 X140.320 Y60.208 E0.0223 F3600
G1 X139.840 Y60.208 E0.0505
G1 X139.840 Y59.828 E0.0728
G1 X139.360 Y59.828 E0.1009
G1 X139.360 Y60.208 E0.1232
G1 X138.880 Y60.208 E0.1514
