; G-Code generated by Simplify3D(R) Version 4.1.1
; Apr 25, 2021 at 7:30:55 PM
; Settings Summary
;   processName,Trideo BOX
;   applyToModels,FingerMechanismHolder,FingerMechanismHolder(2),FingerMechanismHolder(3)
;   profileName,Trideo BOX
;   profileVersion,2021-04-15 09:48:16
;   baseProfile,Default
;   printMaterial,PLA
;   printQuality,Fast
;   printExtruders,
;   extruderName,Primary Extruder
;   extruderToolheadNumber,0
;   extruderDiameter,0.4
;   extruderAutoWidth,1
;   extruderWidth,0.48
;   extrusionMultiplier,0.98
;   extruderUseRetract,1
;   extruderRetractionDistance,0.7
;   extruderExtraRestartDistance,0
;   extruderRetractionZLift,0
;   extruderRetractionSpeed,1500
;   extruderUseCoasting,0
;   extruderCoastingDistance,0.2
;   extruderUseWipe,0
;   extruderWipeDistance,5
;   primaryExtruder,0
;   layerHeight,0.3
;   topSolidLayers,3
;   bottomSolidLayers,3
;   perimeterOutlines,2
;   printPerimetersInsideOut,1
;   startPointOption,2
;   startPointOriginX,0
;   startPointOriginY,0
;   sequentialIslands,0
;   spiralVaseMode,0
;   firstLayerHeightPercentage,90
;   firstLayerWidthPercentage,100
;   firstLayerUnderspeed,0.5
;   useRaft,0
;   raftExtruder,0
;   raftTopLayers,3
;   raftBaseLayers,2
;   raftOffset,3
;   raftSeparationDistance,0.14
;   raftTopInfill,100
;   aboveRaftSpeedMultiplier,0.3
;   useSkirt,1
;   skirtExtruder,0
;   skirtLayers,1
;   skirtOutlines,2
;   skirtOffset,4
;   usePrimePillar,0
;   primePillarExtruder,999
;   primePillarWidth,12
;   primePillarLocation,7
;   primePillarSpeedMultiplier,1
;   useOozeShield,0
;   oozeShieldExtruder,999
;   oozeShieldOffset,2
;   oozeShieldOutlines,1
;   oozeShieldSidewallShape,1
;   oozeShieldSidewallAngle,30
;   oozeShieldSpeedMultiplier,1
;   infillExtruder,0
;   internalInfillPattern,Rectilinear
;   externalInfillPattern,Rectilinear
;   infillPercentage,15
;   outlineOverlapPercentage,15
;   infillExtrusionWidthPercentage,100
;   minInfillLength,5
;   infillLayerInterval,1
;   internalInfillAngles,45,-45
;   overlapInternalInfillAngles,0
;   externalInfillAngles,45,-45
;   generateSupport,1
;   supportExtruder,0
;   supportInfillPercentage,25
;   supportExtraInflation,0
;   supportBaseLayers,0
;   denseSupportExtruder,0
;   denseSupportLayers,0
;   denseSupportInfillPercentage,70
;   supportLayerInterval,1
;   supportHorizontalPartOffset,0.3
;   supportUpperSeparationLayers,1
;   supportLowerSeparationLayers,1
;   supportType,0
;   supportGridSpacing,4
;   maxOverhangAngle,45
;   supportAngles,0
;   temperatureName,Primary Extruder,Heated bed
;   temperatureNumber,0,0
;   temperatureSetpointCount,1,1
;   temperatureSetpointLayers,1,1
;   temperatureSetpointTemperatures,190,60
;   temperatureStabilizeAtStartup,1,1
;   temperatureHeatedBed,0,1
;   fanLayers,1,2
;   fanSpeeds,0,100
;   blipFanToFullPower,0
;   adjustSpeedForCooling,1
;   minSpeedLayerTime,15
;   minCoolingSpeedSlowdown,20
;   increaseFanForCooling,0
;   minFanLayerTime,45
;   maxCoolingFanSpeed,100
;   increaseFanForBridging,0
;   bridgingFanSpeed,100
;   use5D,1
;   relativeEdistances,0
;   allowEaxisZeroing,1
;   independentExtruderAxes,0
;   includeM10123,0
;   stickySupport,1
;   applyToolheadOffsets,0
;   gcodeXoffset,0
;   gcodeYoffset,0
;   gcodeZoffset,0
;   overrideMachineDefinition,1
;   machineTypeOverride,0
;   strokeXoverride,200
;   strokeYoverride,200
;   strokeZoverride,200
;   originOffsetXoverride,0
;   originOffsetYoverride,0
;   originOffsetZoverride,0
;   homeXdirOverride,-1
;   homeYdirOverride,-1
;   homeZdirOverride,-1
;   flipXoverride,1
;   flipYoverride,-1
;   flipZoverride,1
;   toolheadOffsets,0,0|0,0|0,0|0,0|0,0|0,0
;   overrideFirmwareConfiguration,0
;   firmwareTypeOverride,RepRap (Marlin/Repetier/Sprinter)
;   GPXconfigOverride,r2
;   baudRateOverride,115200
;   overridePrinterModels,0
;   printerModelsOverride
;   startingGcode,G28 X0 Y0; home XY,G1 X20 Y20,G28 Z0,G1 Z5 F5000; Lift NZ
;   layerChangeGcode,
;   retractionGcode,
;   toolChangeGcode,
;   endingGcode,M104 S0 ; turn off extruder,G28 X0 ; home x,M140 S0 ; turn off bed,M84 ; disable motors,M107 ;
;   exportFileFormat,gcode
;   celebration,0
;   celebrationSong,Looney Toons
;   postProcessing,
;   defaultSpeed,3600
;   outlineUnderspeed,0.5
;   solidInfillUnderspeed,0.8
;   supportUnderspeed,0.8
;   rapidXYspeed,4800
;   rapidZspeed,1002
;   minBridgingArea,50
;   bridgingExtraInflation,0
;   bridgingExtrusionMultiplier,1
;   bridgingSpeedMultiplier,1
;   useFixedBridgingAngle,0
;   fixedBridgingAngle,0
;   applyBridgingToPerimeters,0
;   filamentDiameters,1.75|1.75|1.75|1.75|1.75|1.75
;   filamentPricesPerKg,46|46|46|46|46|46
;   filamentDensities,1.25|1.25|1.25|1.25|1.25|1.25
;   useMinPrintHeight,0
;   minPrintHeight,0
;   useMaxPrintHeight,0
;   maxPrintHeight,0
;   useDiaphragm,0
;   diaphragmLayerInterval,20
;   robustSlicing,1
;   mergeAllIntoSolid,0
;   onlyRetractWhenCrossingOutline,1
;   retractBetweenLayers,1
;   useRetractionMinTravel,0
;   retractionMinTravel,3
;   retractWhileWiping,0
;   onlyWipeOutlines,1
;   avoidCrossingOutline,0
;   maxMovementDetourFactor,3
;   toolChangeRetractionDistance,12
;   toolChangeExtraRestartDistance,-0.5
;   toolChangeRetractionSpeed,600
;   externalThinWallType,0
;   internalThinWallType,2
;   thinWallAllowedOverlapPercentage,10
;   singleExtrusionMinLength,1
;   singleExtrusionMinPrintingWidthPercentage,50
;   singleExtrusionMaxPrintingWidthPercentage,200
;   singleExtrusionEndpointExtension,0.2
;   horizontalSizeCompensation,0
G90
M82
M106 S0
M140 S60
M190 S60
M104 S190 T0
M109 S190 T0
G28 X0 Y0; home XY
G1 X20 Y20
G28 Z0
G1 Z5 F5000; Lift NZ
; process Trideo BOX
; layer 1, Z = 0.270
T0
G92 E0.0000
G1 E-0.7000 F1500
; feature skirt
; tool H0.270 W0.480
G1 Z0.270 F1002
G1 X61.560 Y59.775 F4800
G1 E0.0000 F1500
G92 E0.0000
G1 X64.325 Y57.010 E0.2065 F1800
G1 X135.675 Y57.010 E3.9740
G1 X138.440 Y59.775 E4.1805
G1 X138.440 Y70.125 E4.7270
G1 X136.440 Y72.125 E4.8764
G1 X136.440 Y72.775 E4.9107
G1 X137.440 Y73.775 E4.9854
G1 X137.440 Y81.125 E5.3735
G1 X134.675 Y83.890 E5.5800
G1 X65.325 Y83.890 E9.2419
G1 X62.560 Y81.125 E9.4484
G1 X62.560 Y73.775 E9.8365
G1 X63.560 Y72.775 E9.9112
G1 X63.560 Y72.125 E9.9455
G1 X61.560 Y70.125 E10.0948
G1 X61.560 Y59.775 E10.6414
G92 E0.0000
G1 E-0.7000 F1500
G1 X62.040 Y59.974 F4800
G1 E0.0000 F1500
G92 E0.0000
G1 X64.524 Y57.490 E0.1855 F1800
G1 X135.476 Y57.490 E3.9320
G1 X137.960 Y59.974 E4.1175
G1 X137.960 Y69.926 E4.6430
G1 X135.960 Y71.926 E4.7924
G1 X135.960 Y72.974 E4.8477
G1 X136.960 Y73.974 E4.9224
G1 X136.960 Y80.926 E5.2895
G1 X134.476 Y83.410 E5.4750
G1 X65.524 Y83.410 E9.1159
G1 X63.040 Y80.926 E9.3014
G1 X63.040 Y73.974 E9.6685
G1 X64.040 Y72.974 E9.7432
G1 X64.040 Y71.926 E9.7985
G1 X62.040 Y69.926 E9.9479
G1 X62.040 Y59.974 E10.4734
G92 E0.0000
G1 E-0.7000 F1500
G1 X64.325 Y84.060 F4800
G1 E0.0000 F1500
G92 E0.0000
G1 X135.675 Y84.060 E3.7676 F1800
G1 X138.440 Y86.825 E3.9740
G1 X138.440 Y97.175 E4.5206
G1 X136.440 Y99.175 E4.6699
G1 X136.440 Y99.825 E4.7042
G1 X137.440 Y100.825 E4.7789
G1 X137.440 Y108.175 E5.1670
G1 X134.675 Y110.940 E5.3735
G1 X65.325 Y110.940 E9.0354
G1 X62.560 Y108.175 E9.2419
G1 X62.560 Y100.825 E9.6300
G1 X63.560 Y99.825 E9.7047
G1 X63.560 Y99.175 E9.7390
G1 X61.560 Y97.175 E9.8884
G1 X61.560 Y86.825 E10.4349
G1 X64.325 Y84.060 E10.6414
G92 E0.0000
G1 E-0.7000 F1500
G1 X64.524 Y84.540 F4800
G1 E0.0000 F1500
G92 E0.0000
G1 X135.476 Y84.540 E3.7466 F1800
G1 X137.960 Y87.024 E3.9320
G1 X137.960 Y96.976 E4.4576
G1 X135.960 Y98.976 E4.6069
G1 X135.960 Y100.024 E4.6622
G1 X136.960 Y101.024 E4.7369
G1 X136.960 Y107.976 E5.1040
G1 X134.476 Y110.460 E5.2895
G1 X65.524 Y110.460 E8.9305
G1 X63.040 Y107.976 E9.1159
G1 X63.040 Y101.024 E9.4831
G1 X64.040 Y100.024 E9.5577
G1 X64.040 Y98.976 E9.6130
G1 X62.040 Y96.976 E9.7624
G1 X62.040 Y87.024 E10.2879
G1 X64.524 Y84.540 E10.4734
G92 E0.0000
G1 E-0.7000 F1500
G1 X64.325 Y111.110 F4800
G1 E0.0000 F1500
G92 E0.0000
G1 X135.675 Y111.110 E3.7676 F1800
G1 X138.440 Y113.875 E3.9740
G1 X138.440 Y124.225 E4.5206
G1 X136.440 Y126.225 E4.6699
G1 X136.440 Y126.875 E4.7042
G1 X137.440 Y127.875 E4.7789
G1 X137.440 Y135.225 E5.1670
G1 X134.675 Y137.990 E5.3735
G1 X65.325 Y137.990 E9.0354
G1 X62.560 Y135.225 E9.2419
G1 X62.560 Y127.875 E9.6300
G1 X63.560 Y126.875 E9.7047
G1 X63.560 Y126.225 E9.7390
G1 X61.560 Y124.225 E9.8884
G1 X61.560 Y113.875 E10.4349
G1 X64.325 Y111.110 E10.6414
G92 E0.0000
G1 E-0.7000 F1500
G1 X64.524 Y111.590 F4800
G1 E0.0000 F1500
G92 E0.0000
G1 X135.476 Y111.590 E3.7466 F1800
G1 X137.960 Y114.074 E3.9320
G1 X137.960 Y124.026 E4.4576
G1 X135.960 Y126.026 E4.6069
G1 X135.960 Y127.074 E4.6622
G1 X136.960 Y128.074 E4.7369
G1 X136.960 Y135.026 E5.1040
G1 X134.476 Y137.510 E5.2895
G1 X65.524 Y137.510 E8.9305
G1 X63.040 Y135.026 E9.1159
G1 X63.040 Y128.074 E9.4831
G1 X64.040 Y127.074 E9.5577
G1 X64.040 Y126.026 E9.6130
G1 X62.040 Y124.026 E9.7624
G1 X62.040 Y114.074 E10.2879
G1 X64.524 Y111.590 E10.4734
G92 E0.0000
G1 E-0.7000 F1500
; feature outer perimeter
G1 X69.128 Y68.554 F4800
G1 E0.0000 F1500
G92 E0.0000
G1 X69.129 Y68.015 E0.0285 F900
G1 X130.851 Y68.015 E3.2876
G1 X130.853 Y68.554 E3.3161
G1 X123.799 Y68.565 E3.6886
G1 X100.533 Y68.515 E4.9171
G1 X83.772 Y68.515 E5.8022
G1 X76.189 Y68.565 E6.2026
G1 X69.128 Y68.554 E6.5755
G92 E0.0000
G1 E-0.7000 F1500
G1 X69.129 Y95.065 F4800
G1 E0.0000 F1500
G92 E0.0000
G1 X130.851 Y95.065 E3.2592 F900
G1 X130.853 Y95.605 E3.2876
G1 X123.799 Y95.615 E3.6601
G1 X100.533 Y95.565 E4.8887
G1 X83.772 Y95.565 E5.7737
G1 X76.189 Y95.615 E6.1741
G1 X69.128 Y95.605 E6.5470
G1 X69.129 Y95.065 E6.5755
G92 E0.0000
G1 E-0.7000 F1500
G1 X69.129 Y122.115 F4800
G1 E0.0000 F1500
G92 E0.0000
G1 X130.851 Y122.115 E3.2592 F900
G1 X130.853 Y122.655 E3.2876
G1 X123.799 Y122.666 E3.6601
G1 X100.533 Y122.615 E4.8887
G1 X83.772 Y122.615 E5.7737
G1 X76.189 Y122.666 E6.1741
G1 X69.128 Y122.655 E6.5470
G1 X69.129 Y122.115 E6.5754
G92 E0.0000
G1 E-0.7000 F1500
; feature support
G1 X68.530 Y125.880 F4800
G1 E0.0000 F1500
G92 E0.0000
G1 X71.470 Y125.880 E0.1552 F1440
G1 X71.470 Y127.800 E0.2566
G1 X68.530 Y127.800 E0.4119
G1 X68.530 Y129.720 E0.5133
G1 X71.470 Y129.720 E0.6685
G1 X71.470 Y131.640 E0.7699
G1 X67.530 Y131.640 E0.9779
G92 E0.0000
G1 E-0.7000 F1500
G1 X72.530 Y131.640 F4800
G1 E0.0000 F1500
G92 E0.0000
G1 X127.470 Y131.640 E2.9010 F1440
G1 X127.470 Y129.720 E3.0024
G1 X72.530 Y129.720 E5.9035
G1 X72.530 Y127.800 E6.0048
G1 X127.470 Y127.800 E8.9059
G1 X127.470 Y125.880 E9.0073
G1 X72.530 Y125.880 E11.9083
G92 E0.0000
G1 E-0.7000 F1500
G1 X66.530 Y116.280 F4800
G1 E0.0000 F1500
G92 E0.0000
G1 X99.470 Y116.280 E1.7394 F1440
G1 X99.470 Y117.080 E1.7816
G1 X100.530 Y117.080 E1.8376
G1 X100.530 Y116.280 E1.8798
G1 X133.470 Y116.280 E3.6192
G1 X133.470 Y118.200 E3.7206
G1 X66.530 Y118.200 E7.2553
G1 X66.530 Y120.120 E7.3566
G1 X133.470 Y120.120 E10.8913
G92 E0.0000
G1 E-0.7000 F1500
G1 X128.530 Y125.880 F4800
G1 E0.0000 F1500
G92 E0.0000
G1 X131.470 Y125.880 E0.1552 F1440
G1 X131.470 Y127.800 E0.2566
G1 X128.530 Y127.800 E0.4119
G1 X128.530 Y129.720 E0.5133
G1 X131.470 Y129.720 E0.6685
G1 X131.470 Y130.080 E0.6875
G1 X132.470 Y130.080 E0.7403
G1 X132.470 Y131.640 E0.8227
G1 X128.530 Y131.640 E1.0307
G92 E0.0000
G1 E-0.7000 F1500
G1 X128.530 Y104.760 F4800
G1 E0.0000 F1500
G92 E0.0000
G1 X132.470 Y104.760 E0.2080 F1440
G1 X132.470 Y103.030 E0.2994
G1 X131.470 Y103.030 E0.3522
G1 X131.470 Y102.840 E0.3622
G1 X128.530 Y102.840 E0.5175
G1 X128.530 Y100.920 E0.6189
G1 X131.470 Y100.920 E0.7741
G1 X131.470 Y99.000 E0.8755
G1 X128.530 Y99.000 E1.0307
G92 E0.0000
G1 E-0.7000 F1500
G1 X133.470 Y93.240 F4800
G1 E0.0000 F1500
G92 E0.0000
G1 X66.530 Y93.240 E3.5347 F1440
G1 X66.530 Y91.320 E3.6361
G1 X133.470 Y91.320 E7.1708
G1 X133.470 Y89.400 E7.2721
G1 X100.530 Y89.400 E9.0115
G1 X100.530 Y90.030 E9.0448
G1 X99.470 Y90.030 E9.1007
G1 X99.470 Y89.400 E9.1340
G1 X66.530 Y89.400 E10.8734
G92 E0.0000
G1 E-0.7000 F1500
G1 X68.530 Y99.000 F4800
G1 E0.0000 F1500
G92 E0.0000
G1 X71.470 Y99.000 E0.1552 F1440
G1 X71.470 Y100.920 E0.2566
G1 X68.530 Y100.920 E0.4119
G1 X68.530 Y102.840 E0.5133
G1 X71.470 Y102.840 E0.6685
G1 X71.470 Y104.760 E0.7699
G1 X67.530 Y104.760 E0.9779
G92 E0.0000
G1 E-0.7000 F1500
G1 X72.530 Y104.760 F4800
G1 E0.0000 F1500
G92 E0.0000
G1 X127.470 Y104.760 E2.9010 F1440
G1 X127.470 Y102.840 E3.0024
G1 X72.530 Y102.840 E5.9035
G1 X72.530 Y100.920 E6.0048
G1 X127.470 Y100.920 E8.9059
G1 X127.470 Y99.000 E9.0073
G1 X72.530 Y99.000 E11.9083
G92 E0.0000
G1 E-0.7000 F1500
G1 X72.530 Y77.880 F4800
G1 E0.0000 F1500
G92 E0.0000
G1 X127.470 Y77.880 E2.9010 F1440
G1 X127.470 Y75.960 E3.0024
G1 X72.530 Y75.960 E5.9035
G1 X72.530 Y74.040 E6.0048
G1 X127.470 Y74.040 E8.9059
G1 X127.470 Y72.120 E9.0073
G1 X72.530 Y72.120 E11.9083
G92 E0.0000
G1 E-0.7000 F1500
G1 X68.530 Y72.120 F4800
G1 E0.0000 F1500
G92 E0.0000
G1 X71.470 Y72.120 E0.1552 F1440
G1 X71.470 Y74.040 E0.2566
G1 X68.530 Y74.040 E0.4119
G1 X68.530 Y75.960 E0.5133
G1 X71.470 Y75.960 E0.6685
G1 X71.470 Y77.880 E0.7699
G1 X67.530 Y77.880 E0.9779
G92 E0.0000
G1 E-0.7000 F1500
G1 X66.530 Y62.520 F4800
G1 E0.0000 F1500
G92 E0.0000
G1 X99.470 Y62.520 E1.7394 F1440
G1 X99.470 Y62.980 E1.7636
G1 X100.530 Y62.980 E1.8196
G1 X100.530 Y62.520 E1.8439
G1 X133.470 Y62.520 E3.5833
G1 X133.470 Y64.440 E3.6846
G1 X66.530 Y64.440 E7.2193
G1 X66.530 Y66.360 E7.3207
G1 X133.470 Y66.360 E10.8554
G92 E0.0000
G1 E-0.7000 F1500
G1 X128.530 Y72.120 F4800
G1 E0.0000 F1500
G92 E0.0000
G1 X131.470 Y72.120 E0.1552 F1440
G1 X131.470 Y74.040 E0.2566
G1 X128.530 Y74.040 E0.4119
G1 X128.530 Y75.960 E0.5133
G1 X131.470 Y75.960 E0.6685
G1 X131.470 Y75.980 E0.6695
G1 X132.470 Y75.980 E0.7223
G1 X132.470 Y77.880 E0.8227
G1 X128.530 Y77.880 E1.0307
G92 E0.0000
G1 E-0.7000 F1500
; layer 2, Z = 0.570
M106 S255
; feature inner perimeter
; tool H0.300 W0.480
G1 Z0.570 F1002
G1 X130.482 Y69.498 F4800
G1 E0.0000 F1500
G92 E0.0000
G1 X108.204 Y69.486 E1.3071 F2700
G1 X69.499 Y69.498 E3.5779
G1 X69.502 Y68.495 E3.6368
G1 X130.479 Y68.495 E7.2144
G1 X130.482 Y69.498 E7.2732
; feature outer perimeter
G1 X130.964 Y69.978 F4800
G92 E0.0000
G1 X108.204 Y69.966 E1.3353 F1800
G1 X69.018 Y69.978 E3.6344
G1 X69.023 Y68.015 E3.7496
G1 X130.958 Y68.015 E7.3834
G1 X130.964 Y69.978 E7.4986
; feature bridge
G1 X129.760 Y68.903 F4800
G92 E0.0000
G1 X129.760 Y69.090 E0.0110 F3600
G1 X129.280 Y69.089 E0.0391
G1 X129.280 Y68.903 E0.0501
G1 X128.800 Y68.903 E0.0782
G1 X128.800 Y69.089 E0.0891
G1 X128.320 Y69.089 E0.1173
G1 X128.320 Y68.903 E0.1282
G1 X127.840 Y68.903 E0.1564
G1 X127.840 Y69.089 E0.1673
G1 X127.360 Y69.088 E0.1954
G1 X127.360 Y68.903 E0.2063
G1 X126.880 Y68.903 E0.2345
G1 X126.880 Y69.088 E0.2453
G1 X126.400 Y69.088 E0.2735
G1 X126.400 Y68.903 E0.2843
G1 X125.920 Y68.903 E0.3125
G1 X125.920 Y69.088 E0.3233
G1 X125.440 Y69.087 E0.3515
G1 X125.440 Y68.903 E0.3623
G1 X124.960 Y68.903 E0.3905
G1 X124.960 Y69.087 E0.4013
G1 X124.480 Y69.087 E0.4294
G1 X124.480 Y68.903 E0.4402
G1 X124.000 Y68.903 E0.4684
G1 X124.000 Y69.087 E0.4792
G1 X123.520 Y69.086 E0.5073
G1 X123.520 Y68.903 E0.5181
G1 X123.040 Y68.903 E0.5463
G1 X123.040 Y69.086 E0.5570
G1 X122.560 Y69.086 E0.5852
G1 X122.560 Y68.903 E0.5959
G1 X122.080 Y68.903 E0.6241
G1 X122.080 Y69.086 E0.6348
G1 X121.600 Y69.085 E0.6629
G1 X121.600 Y68.903 E0.6736
G1 X121.120 Y68.903 E0.7018
G1 X121.120 Y69.085 E0.7125
G1 X120.640 Y69.085 E0.7406
G1 X120.640 Y68.903 E0.7513
G1 X120.160 Y68.903 E0.7795
G1 X120.160 Y69.085 E0.7901
G1 X119.680 Y69.084 E0.8183
G1 X119.680 Y68.903 E0.8289
G1 X119.200 Y68.903 E0.8571
G1 X119.200 Y69.084 E0.8677
G1 X118.720 Y69.084 E0.8959
G1 X118.720 Y68.903 E0.9065
G1 X118.240 Y68.903 E0.9347
G1 X118.240 Y69.084 E0.9453
G1 X117.760 Y69.083 E0.9734
G1 X117.760 Y68.903 E0.9840
G1 X117.280 Y68.903 E1.0122
G1 X117.280 Y69.083 E1.0227
G1 X116.800 Y69.083 E1.0509
G1 X116.800 Y68.903 E1.0614
G1 X116.320 Y68.903 E1.0896
G1 X116.320 Y69.083 E1.1001
G1 X115.840 Y69.082 E1.1283
G1 X115.840 Y68.903 E1.1388
