;FLAVOR:Marlin
;TIME:2231
;Filament used: 3.2699m
;Layer height: 0.3
;MINX:3.891
;MINY:13.442
;MINZ:0.3
;MAXX:196.127
;MAXY:186.558
;MAXZ:7.8
;Generated with Cura_SteamEngine 4.4.1
M140 S55
M105
M190 S55
M104 S210
M105
M109 S210
M82 ;absolute extrusion mode
G21 ;metric values
G90 ;absolute positioning
M82 ;set extruder to absolute mode
M107 ;start with the fan off
G28 X0 Y0 ;move X/Y to min endstops
G28 Z0 ;move Z to min endstops
G1 Z15.0 F9000 ;move the platform down 15mm
G92 E0 ;zero the extruded length
G1 F200 E3 ;extrude 3mm of feed stock
G92 E0 ;zero the extruded length again
G1 F9000
;Put printing message on LCD screen
M117 Printing...
G92 E0
G92 E0
G1 F1500 E-6.5
;LAYER_COUNT:26
;LAYER:0
M107
G0 F3600 X24.797 Y35.639 Z0.3
;TYPE:SKIRT
G1 F1500 E0
G1 F2100 X24.89 Y35.575 E0.00563
G1 X25.768 Y34.992 E0.05821
G1 X25.854 Y34.937 E0.06331
G1 X26.757 Y34.378 E0.11629
G1 X26.8 Y34.352 E0.1188
G1 X27.57 Y33.892 E0.16355
G1 X27.641 Y33.851 E0.16764
G1 X27.847 Y33.735 E0.17943
G1 X27.865 Y33.725 E0.18046
G1 X28.705 Y33.259 E0.22838
G1 X28.747 Y33.236 E0.23077
G1 X29.302 Y32.939 E0.26218
G1 X29.391 Y32.893 E0.26717
G1 X30.045 Y32.569 E0.30359
G1 X30.082 Y32.551 E0.30564
G1 X31.506 Y31.868 E0.38443
G1 X31.551 Y31.847 E0.38691
G1 X32.035 Y31.624 E0.4135
G1 X32.122 Y31.585 E0.41825
G1 X33.025 Y31.201 E0.46721
G1 X33.072 Y31.182 E0.46974
G1 X34.376 Y30.652 E0.53996
G1 X34.421 Y30.634 E0.54238
G1 X35.11 Y30.366 E0.57926
G1 X35.19 Y30.336 E0.58353
G1 X35.776 Y30.126 E0.61458
G1 X35.816 Y30.112 E0.6167
G1 X37.213 Y29.632 E0.69039
G1 X37.255 Y29.618 E0.6926
G1 X38.178 Y29.315 E0.74107
G1 X38.25 Y29.292 E0.74484
G1 X38.465 Y29.227 E0.75605
G1 X38.493 Y29.219 E0.7575
G1 X40.289 Y28.694 E0.85085
G1 X40.329 Y28.682 E0.85293
G1 X41.145 Y28.455 E0.89519
G1 X41.227 Y28.434 E0.89941
G1 X41.475 Y28.372 E0.91217
G1 X41.501 Y28.365 E0.91351
G1 X44.209 Y27.712 E1.05249
G1 X44.258 Y27.701 E1.05499
G1 X45.818 Y27.351 E1.13475
G1 X45.864 Y27.341 E1.1371
G1 X46.409 Y27.227 E1.16488
G1 X46.447 Y27.219 E1.16682
G1 X48.966 Y26.724 E1.2949
G1 X48.991 Y26.719 E1.29617
G1 X50.734 Y26.391 E1.38465
G1 X50.745 Y26.389 E1.38521
G1 X52.245 Y26.112 E1.46131
G1 X52.258 Y26.11 E1.46197
G1 X56.772 Y25.296 E1.6908
G1 X58.852 Y24.903 E1.79641
G1 X61.491 Y24.335 E1.93109
G1 X64.203 Y23.671 E2.07039
G1 X66.81 Y22.953 E2.20529
G1 X69.457 Y22.143 E2.3434
G1 X72.052 Y21.268 E2.48002
G1 X74.589 Y20.332 E2.61493
G1 X77.152 Y19.303 E2.75272
G1 X77.754 Y19.045 E2.7854
G1 X77.791 Y19.03 E2.78739
G1 X78.352 Y18.798 E2.81768
G1 X78.412 Y18.774 E2.8209
G1 X80.23 Y18.065 E2.91826
G1 X80.276 Y18.047 E2.92072
G1 X80.743 Y17.873 E2.94558
G1 X80.816 Y17.847 E2.94945
G1 X82.791 Y17.165 E3.05369
G1 X82.851 Y17.145 E3.05685
G1 X83.278 Y17.007 E3.07924
G1 X83.341 Y16.988 E3.08252
G1 X85.32 Y16.393 E3.18562
G1 X85.377 Y16.376 E3.18858
G1 X85.905 Y16.228 E3.21594
G1 X85.965 Y16.212 E3.21904
G1 X87.734 Y15.753 E3.31022
G1 X87.792 Y15.738 E3.31321
G1 X88.455 Y15.579 E3.34722
G1 X88.509 Y15.567 E3.34998
G1 X90.107 Y15.213 E3.43164
G1 X90.154 Y15.203 E3.43404
G1 X90.737 Y15.083 E3.46373
G1 X90.784 Y15.073 E3.46613
G1 X92.104 Y14.822 E3.53316
G1 X92.147 Y14.814 E3.53535
G1 X93.056 Y14.654 E3.58139
G1 X93.1 Y14.647 E3.58362
G1 X94.422 Y14.433 E3.65043
G1 X94.464 Y14.427 E3.65255
G1 X95.26 Y14.309 E3.69269
G1 X95.303 Y14.303 E3.69486
G1 X96.664 Y14.12 E3.76337
G1 X96.705 Y14.114 E3.76544
G1 X97.473 Y14.021 E3.80403
G1 X97.514 Y14.017 E3.80609
G1 X98.744 Y13.884 E3.86781
G1 X98.783 Y13.88 E3.86977
G1 X99.43 Y13.818 E3.90219
G1 X99.46 Y13.815 E3.9037
G1 X100.34 Y13.739 E3.94777
G1 X100.37 Y13.736 E3.94927
G1 X101.203 Y13.672 E3.99095
G1 X101.24 Y13.67 E3.9928
G1 X102.404 Y13.594 E4.051
G1 X102.439 Y13.592 E4.05274
G1 X103.158 Y13.553 E4.08867
G1 X103.193 Y13.551 E4.09042
G1 X104.098 Y13.512 E4.13561
G1 X104.128 Y13.511 E4.13711
G1 X104.779 Y13.489 E4.1696
G1 X104.813 Y13.488 E4.1713
G1 X106.459 Y13.45 E4.25344
G1 X106.504 Y13.449 E4.25569
G1 X107.281 Y13.442 E4.29445
G1 X107.323 Y13.442 E4.29655
G1 X109.828 Y13.452 E4.42153
G1 X109.858 Y13.452 E4.42302
G1 X112.114 Y13.482 E4.53558
G1 X113.515 Y13.492 E4.60548
G1 X114.522 Y13.493 E4.65572
G1 X116.496 Y13.486 E4.75421
G1 X118.545 Y13.469 E4.85643
G1 X118.565 Y13.469 E4.85743
G1 X120.734 Y13.464 E4.96564
G1 X120.761 Y13.464 E4.96699
G1 X121.57 Y13.469 E5.00735
G1 X121.594 Y13.469 E5.00855
G1 X123.573 Y13.496 E5.10729
G1 X123.6 Y13.497 E5.10864
G1 X124.37 Y13.514 E5.14707
G1 X124.397 Y13.514 E5.14841
G1 X126.654 Y13.583 E5.26107
G1 X126.68 Y13.584 E5.26237
G1 X127.451 Y13.614 E5.30086
G1 X127.48 Y13.616 E5.30231
G1 X129.679 Y13.721 E5.41214
G1 X129.705 Y13.722 E5.41344
G1 X130.598 Y13.772 E5.45806
G1 X130.623 Y13.774 E5.45931
G1 X132.609 Y13.901 E5.5586
G1 X132.645 Y13.903 E5.5604
G1 X133.802 Y13.99 E5.61828
G1 X133.834 Y13.993 E5.61989
G1 X135.407 Y14.127 E5.69865
G1 X135.448 Y14.13 E5.7007
G1 X136.77 Y14.26 E5.76697
G1 X136.81 Y14.265 E5.76898
G1 X137.828 Y14.378 E5.82008
G1 X137.887 Y14.385 E5.82305
G1 X139.605 Y14.608 E5.90948
G1 X139.658 Y14.615 E5.91215
G1 X140.345 Y14.716 E5.94679
G1 X140.392 Y14.723 E5.94916
G1 X141.355 Y14.879 E5.99783
G1 X141.45 Y14.896 E6.00264
G1 X142.496 Y15.098 E6.05579
G1 X142.542 Y15.107 E6.05813
G1 X143.333 Y15.272 E6.09845
G1 X143.413 Y15.29 E6.10254
G1 X143.876 Y15.399 E6.12627
G1 X143.917 Y15.409 E6.12837
G1 X144.651 Y15.592 E6.16611
G1 X144.692 Y15.603 E6.16823
G1 X145.174 Y15.73 E6.1931
G1 X145.272 Y15.757 E6.19817
G1 X146.276 Y16.056 E6.25043
G1 X146.33 Y16.073 E6.25326
G1 X148.02 Y16.609 E6.34171
G1 X148.07 Y16.625 E6.34433
G1 X149.55 Y17.121 E6.4222
G1 X149.599 Y17.138 E6.42479
G1 X150.675 Y17.518 E6.48172
G1 X150.706 Y17.529 E6.48336
G1 X154.477 Y18.905 E6.68363
G1 X154.489 Y18.909 E6.68426
G1 X156.693 Y19.723 E6.80148
G1 X156.714 Y19.731 E6.8026
G1 X159.168 Y20.657 E6.93346
G1 X159.202 Y20.67 E6.93528
G1 X161.382 Y21.521 E7.05203
G1 X161.431 Y21.541 E7.05467
G1 X162.024 Y21.784 E7.08664
G1 X162.045 Y21.793 E7.08778
G1 X165.386 Y23.19 E7.26845
G1 X165.431 Y23.209 E7.27089
G1 X166.764 Y23.79 E7.34343
G1 X166.806 Y23.808 E7.34571
G1 X167.98 Y24.34 E7.41002
G1 X168.013 Y24.356 E7.41185
G1 X169.064 Y24.847 E7.46972
G1 X169.1 Y24.864 E7.47171
G1 X170.979 Y25.77 E7.57578
G1 X171.009 Y25.784 E7.57743
G1 X172.144 Y26.346 E7.64062
G1 X174.61 Y27.523 E7.77694
G1 X176.144 Y28.214 E7.86088
G1 X177.542 Y28.828 E7.93706
G1 X177.586 Y28.848 E7.93947
G1 X178.371 Y29.207 E7.98253
G1 X178.436 Y29.238 E7.98613
G1 X178.669 Y29.351 E7.99905
G1 X178.746 Y29.389 E8.00333
G1 X179.263 Y29.657 E8.03238
G1 X179.412 Y29.74 E8.04089
G1 X179.888 Y30.02 E8.06844
G1 X179.969 Y30.069 E8.07317
G1 X180.51 Y30.409 E8.10504
G1 X180.705 Y30.542 E8.11682
G1 X181.108 Y30.839 E8.1418
G1 X181.19 Y30.901 E8.14693
G1 X181.718 Y31.317 E8.18046
G1 X181.928 Y31.498 E8.19429
G1 X182.467 Y32.004 E8.23118
G1 X182.534 Y32.069 E8.23583
G1 X182.966 Y32.499 E8.26624
G1 X183.144 Y32.691 E8.2793
G1 X183.664 Y33.301 E8.31929
G1 X183.72 Y33.368 E8.32365
G1 X184.154 Y33.906 E8.35814
G1 X184.263 Y34.049 E8.36711
G1 X184.418 Y34.265 E8.38037
G1 X184.471 Y34.341 E8.38499
G1 X184.78 Y34.799 E8.41256
G1 X184.81 Y34.846 E8.41534
G1 X185.194 Y35.437 E8.4505
G1 X185.282 Y35.58 E8.45888
G1 X185.614 Y36.155 E8.492
G1 X185.64 Y36.2 E8.4946
G1 X185.843 Y36.565 E8.51543
G1 X185.865 Y36.605 E8.51771
G1 X186.058 Y36.964 E8.53805
G1 X186.108 Y37.061 E8.54349
G1 X186.681 Y38.22 E8.60799
G1 X186.723 Y38.31 E8.61295
G1 X187.108 Y39.154 E8.65923
G1 X187.152 Y39.253 E8.66464
G1 X187.474 Y40.027 E8.70646
G1 X187.505 Y40.104 E8.7106
G1 X188.227 Y41.976 E8.8107
G1 X188.25 Y42.039 E8.81405
G1 X188.398 Y42.448 E8.83575
G1 X188.416 Y42.498 E8.8384
G1 X188.973 Y44.12 E8.92396
G1 X188.99 Y44.172 E8.92669
G1 X189.235 Y44.928 E8.96634
G1 X189.247 Y44.966 E8.96832
G1 X189.648 Y46.257 E9.03577
G1 X189.66 Y46.297 E9.03785
G1 X190.001 Y47.448 E9.09774
G1 X190.01 Y47.479 E9.09935
G1 X190.281 Y48.429 E9.14864
G1 X190.291 Y48.463 E9.15041
G1 X190.664 Y49.827 E9.22095
G1 X190.675 Y49.869 E9.22312
G1 X191.006 Y51.147 E9.28898
G1 X191.015 Y51.184 E9.29088
G1 X191.929 Y54.896 E9.48161
G1 X191.936 Y54.926 E9.48314
G1 X192.213 Y56.099 E9.54328
G1 X192.222 Y56.136 E9.54518
G1 X192.635 Y57.985 E9.6397
G1 X192.641 Y58.014 E9.64117
G1 X193.22 Y60.724 E9.77943
G1 X193.227 Y60.758 E9.78116
G1 X193.695 Y63.071 E9.89889
G1 X193.702 Y63.104 E9.90058
G1 X194.089 Y65.125 E10.00324
G1 X194.094 Y65.152 E10.00461
G1 X194.469 Y67.206 E10.10877
G1 X194.474 Y67.237 E10.11034
G1 X194.785 Y69.04 E10.20162
G1 X194.791 Y69.075 E10.20339
G1 X195.062 Y70.758 E10.28844
G1 X195.068 Y70.795 E10.29031
G1 X195.273 Y72.17 E10.35967
G1 X195.279 Y72.211 E10.36173
G1 X195.37 Y72.88 E10.39542
G1 X195.373 Y72.904 E10.39663
G1 X195.485 Y73.777 E10.44054
G1 X195.492 Y73.836 E10.4435
G1 X195.629 Y75.089 E10.50639
G1 X195.635 Y75.153 E10.50959
G1 X195.677 Y75.624 E10.53318
G1 X195.684 Y75.718 E10.53789
G1 X195.797 Y77.619 E10.6329
G1 X195.801 Y77.686 E10.63624
G1 X195.868 Y79.426 E10.72312
G1 X195.869 Y79.452 E10.72442
G1 X195.897 Y80.374 E10.77044
G1 X195.897 Y80.403 E10.77188
G1 X195.93 Y81.956 E10.84938
G1 X195.93 Y81.965 E10.84983
G1 X196.052 Y88.596 E11.18071
G1 X196.053 Y88.613 E11.18156
G1 X196.089 Y91.347 E11.31797
G1 X196.089 Y91.363 E11.31877
G1 X196.106 Y93.471 E11.42394
G1 X196.106 Y93.48 E11.42439
G1 X196.121 Y96.257 E11.56293
G1 X196.121 Y96.27 E11.56358
G1 X196.127 Y100.823 E11.79073
G1 X196.127 Y100.832 E11.79118
G1 X196.122 Y103.875 E11.943
G1 X196.122 Y103.884 E11.94345
G1 X196.112 Y106.133 E12.05565
G1 X196.112 Y106.148 E12.0564
G1 X196.087 Y108.913 E12.19435
G1 X196.087 Y108.926 E12.195
G1 X196.059 Y111.078 E12.30237
G1 X196.059 Y111.088 E12.30287
G1 X196.021 Y113.412 E12.41883
G1 X196.02 Y113.421 E12.41928
G1 X195.907 Y119.332 E12.71424
G1 X195.907 Y119.361 E12.71569
G1 X195.884 Y120.181 E12.75661
G1 X195.883 Y120.211 E12.75811
G1 X195.806 Y122.27 E12.8609
G1 X195.803 Y122.333 E12.86405
G1 X195.704 Y124.065 E12.9506
G1 X195.697 Y124.159 E12.9553
G1 X195.635 Y124.872 E12.99101
G1 X195.627 Y124.948 E12.99482
G1 X195.488 Y126.201 E13.05772
G1 X195.481 Y126.261 E13.06073
G1 X195.322 Y127.482 E13.12216
G1 X195.317 Y127.517 E13.12393
G1 X195.229 Y128.139 E13.15527
G1 X195.224 Y128.175 E13.15708
G1 X194.995 Y129.673 E13.23268
G1 X194.99 Y129.707 E13.2344
G1 X194.736 Y131.255 E13.31266
G1 X194.731 Y131.284 E13.31413
G1 X194.407 Y133.151 E13.40867
G1 X194.402 Y133.181 E13.41018
G1 X194.116 Y134.741 E13.48931
G1 X194.11 Y134.771 E13.49084
G1 X193.634 Y137.235 E13.61604
G1 X193.628 Y137.265 E13.61757
G1 X193.17 Y139.521 E13.73241
G1 X193.164 Y139.552 E13.73399
G1 X192.652 Y141.951 E13.85637
G1 X192.644 Y141.985 E13.85811
G1 X192.182 Y144.04 E13.9632
G1 X192.175 Y144.07 E13.96473
G1 X191.973 Y144.93 E14.00881
G1 X191.966 Y144.962 E14.01044
G1 X191.121 Y148.401 E14.18712
G1 X191.112 Y148.433 E14.18878
G1 X190.804 Y149.632 E14.25054
G1 X190.795 Y149.667 E14.25234
G1 X190.4 Y151.135 E14.32818
G1 X190.39 Y151.172 E14.33009
G1 X190.045 Y152.396 E14.39354
G1 X190.035 Y152.432 E14.3954
G1 X189.7 Y153.57 E14.45459
G1 X189.689 Y153.606 E14.45647
G1 X189.338 Y154.748 E14.51607
G1 X189.326 Y154.785 E14.51801
G1 X189.047 Y155.655 E14.56359
G1 X189.031 Y155.705 E14.56621
G1 X188.514 Y157.231 E14.6466
G1 X188.497 Y157.278 E14.64909
G1 X188.368 Y157.64 E14.66826
G1 X188.345 Y157.703 E14.67161
G1 X187.619 Y159.612 E14.7735
G1 X187.596 Y159.672 E14.77671
G1 X187.446 Y160.044 E14.79672
G1 X187.428 Y160.087 E14.79905
G1 X187.109 Y160.846 E14.84012
G1 X187.074 Y160.926 E14.84448
G1 X186.862 Y161.394 E14.87011
G1 X186.848 Y161.424 E14.87176
G1 X186.632 Y161.888 E14.8973
G1 X186.612 Y161.931 E14.89966
G1 X186.406 Y162.357 E14.92327
G1 X186.358 Y162.452 E14.92858
G1 X185.823 Y163.471 E14.986
G1 X185.778 Y163.554 E14.99071
G1 X185.423 Y164.184 E15.02679
G1 X185.34 Y164.323 E15.03486
G1 X185.029 Y164.815 E15.0639
G1 X184.999 Y164.862 E15.06668
G1 X184.8 Y165.165 E15.08477
G1 X184.775 Y165.202 E15.087
G1 X184.373 Y165.796 E15.12278
G1 X184.266 Y165.944 E15.13189
G1 X184.098 Y166.164 E15.1457
G1 X184.045 Y166.231 E15.14996
G1 X183.786 Y166.552 E15.17054
G1 X183.751 Y166.596 E15.17335
G1 X183.276 Y167.164 E15.21029
G1 X183.111 Y167.346 E15.22254
G1 X182.743 Y167.723 E15.24883
G1 X182.679 Y167.787 E15.25334
G1 X182.107 Y168.341 E15.29307
G1 X181.885 Y168.537 E15.30785
G1 X181.244 Y169.052 E15.34887
G1 X181.16 Y169.117 E15.35417
G1 X180.792 Y169.393 E15.37712
G1 X180.653 Y169.492 E15.38563
G1 X180.45 Y169.628 E15.39782
G1 X180.33 Y169.704 E15.40491
G1 X179.584 Y170.157 E15.44845
G1 X179.447 Y170.236 E15.45634
G1 X179.039 Y170.457 E15.47949
G1 X178.942 Y170.507 E15.48493
G1 X178.364 Y170.795 E15.51715
G1 X178.282 Y170.835 E15.5217
G1 X177.738 Y171.087 E15.55161
G1 X177.693 Y171.107 E15.55407
G1 X177.34 Y171.264 E15.57335
G1 X177.32 Y171.273 E15.57444
G1 X176.326 Y171.707 E15.62855
G1 X173.837 Y172.837 E15.76493
G1 X172.116 Y173.667 E15.86025
G1 X170.748 Y174.342 E15.93636
G1 X170.722 Y174.355 E15.93781
G1 X169.218 Y175.08 E16.0211
G1 X169.19 Y175.093 E16.02264
G1 X168.365 Y175.481 E16.06813
G1 X168.332 Y175.496 E16.06994
G1 X167.088 Y176.064 E16.13816
G1 X167.043 Y176.084 E16.14062
G1 X165.682 Y176.68 E16.21475
G1 X165.636 Y176.7 E16.21725
G1 X162.058 Y178.201 E16.41083
G1 X162.034 Y178.211 E16.41212
G1 X161.427 Y178.46 E16.44486
G1 X161.395 Y178.473 E16.44658
G1 X160.882 Y178.677 E16.47412
G1 X160.858 Y178.686 E16.4754
G1 X158.844 Y179.468 E16.58319
G1 X158.81 Y179.481 E16.58501
G1 X157.003 Y180.159 E16.68129
G1 X156.99 Y180.164 E16.68199
G1 X154.783 Y180.981 E16.7994
G1 X154.769 Y180.986 E16.80014
G1 X150.758 Y182.45 E17.01316
G1 X150.734 Y182.459 E17.01444
G1 X149.916 Y182.75 E17.05776
G1 X149.869 Y182.766 E17.06023
G1 X148.38 Y183.27 E17.13866
G1 X148.33 Y183.286 E17.14128
G1 X146.301 Y183.936 E17.24758
G1 X146.259 Y183.95 E17.24978
G1 X145.715 Y184.116 E17.27816
G1 X145.622 Y184.142 E17.28298
G1 X144.734 Y184.384 E17.3289
G1 X144.681 Y184.399 E17.33164
G1 X144.362 Y184.48 E17.34806
G1 X144.322 Y184.489 E17.35011
G1 X143.473 Y184.693 E17.39367
G1 X143.403 Y184.709 E17.39725
G1 X143.002 Y184.796 E17.41773
G1 X142.959 Y184.805 E17.41992
G1 X142.094 Y184.98 E17.46395
G1 X142.043 Y184.99 E17.46654
G1 X141.176 Y185.151 E17.51053
G1 X141.101 Y185.164 E17.51433
G1 X140.704 Y185.228 E17.53439
G1 X140.674 Y185.233 E17.53591
G1 X139.941 Y185.344 E17.5729
G1 X139.883 Y185.352 E17.57582
G1 X138.081 Y185.591 E17.66651
G1 X138.024 Y185.598 E17.66937
G1 X137.047 Y185.71 E17.71843
G1 X137.002 Y185.715 E17.72069
G1 X135.714 Y185.844 E17.78527
G1 X135.673 Y185.848 E17.78733
G1 X134.033 Y185.991 E17.86946
G1 X134.001 Y185.994 E17.87106
G1 X132.988 Y186.072 E17.92175
G1 X132.954 Y186.074 E17.92345
G1 X130.902 Y186.21 E18.02605
G1 X130.873 Y186.212 E18.0275
G1 X130.001 Y186.262 E18.07108
G1 X129.974 Y186.263 E18.07242
G1 X127.697 Y186.374 E18.18616
G1 X127.67 Y186.375 E18.18751
G1 X126.925 Y186.405 E18.2247
G1 X126.897 Y186.406 E18.2261
G1 X124.68 Y186.476 E18.33676
G1 X124.653 Y186.477 E18.33811
G1 X123.831 Y186.496 E18.37913
G1 X123.805 Y186.497 E18.38043
G1 X121.735 Y186.528 E18.48371
G1 X121.711 Y186.528 E18.48491
G1 X121.035 Y186.533 E18.51864
G1 X118.65 Y186.533 E18.63763
G1 X114.785 Y186.506 E18.83046
G1 X113.607 Y186.506 E18.88923
G1 X111.741 Y186.521 E18.98233
G1 X109.71 Y186.548 E19.08366
G1 X109.693 Y186.548 E19.08451
G1 X108.454 Y186.558 E19.14633
G1 X107.342 Y186.558 E19.2018
G1 X105.983 Y186.543 E19.26961
G1 X105.942 Y186.542 E19.27166
G1 X105.019 Y186.52 E19.31772
G1 X104.991 Y186.519 E19.31911
