; G-Code generated by Simplify3D(R) Version 4.1.1
; Apr 28, 2021 at 7:27:48 PM
; Settings Summary
;   processName,Trideo BOX
;   applyToModels,bicepelbow
;   profileName,Trideo BOX
;   profileVersion,2021-04-15 09:48:16
;   baseProfile,Default
;   printMaterial,PLA
;   printQuality,Fast
;   printExtruders,
;   extruderName,Primary Extruder
;   extruderToolheadNumber,0
;   extruderDiameter,0.4
;   extruderAutoWidth,1
;   extruderWidth,0.48
;   extrusionMultiplier,0.98
;   extruderUseRetract,1
;   extruderRetractionDistance,0.7
;   extruderExtraRestartDistance,0
;   extruderRetractionZLift,0
;   extruderRetractionSpeed,1500
;   extruderUseCoasting,0
;   extruderCoastingDistance,0.2
;   extruderUseWipe,0
;   extruderWipeDistance,5
;   primaryExtruder,0
;   layerHeight,0.3
;   topSolidLayers,3
;   bottomSolidLayers,3
;   perimeterOutlines,2
;   printPerimetersInsideOut,1
;   startPointOption,2
;   startPointOriginX,0
;   startPointOriginY,0
;   sequentialIslands,0
;   spiralVaseMode,0
;   firstLayerHeightPercentage,90
;   firstLayerWidthPercentage,100
;   firstLayerUnderspeed,0.5
;   useRaft,0
;   raftExtruder,0
;   raftTopLayers,3
;   raftBaseLayers,2
;   raftOffset,3
;   raftSeparationDistance,0.14
;   raftTopInfill,100
;   aboveRaftSpeedMultiplier,0.3
;   useSkirt,1
;   skirtExtruder,0
;   skirtLayers,1
;   skirtOutlines,2
;   skirtOffset,4
;   usePrimePillar,0
;   primePillarExtruder,999
;   primePillarWidth,12
;   primePillarLocation,7
;   primePillarSpeedMultiplier,1
;   useOozeShield,0
;   oozeShieldExtruder,999
;   oozeShieldOffset,2
;   oozeShieldOutlines,1
;   oozeShieldSidewallShape,1
;   oozeShieldSidewallAngle,30
;   oozeShieldSpeedMultiplier,1
;   infillExtruder,0
;   internalInfillPattern,Rectilinear
;   externalInfillPattern,Rectilinear
;   infillPercentage,15
;   outlineOverlapPercentage,15
;   infillExtrusionWidthPercentage,100
;   minInfillLength,5
;   infillLayerInterval,1
;   internalInfillAngles,45,-45
;   overlapInternalInfillAngles,0
;   externalInfillAngles,45,-45
;   generateSupport,1
;   supportExtruder,0
;   supportInfillPercentage,25
;   supportExtraInflation,0
;   supportBaseLayers,0
;   denseSupportExtruder,0
;   denseSupportLayers,0
;   denseSupportInfillPercentage,70
;   supportLayerInterval,1
;   supportHorizontalPartOffset,0.3
;   supportUpperSeparationLayers,1
;   supportLowerSeparationLayers,1
;   supportType,0
;   supportGridSpacing,4
;   maxOverhangAngle,45
;   supportAngles,0
;   temperatureName,Primary Extruder,Heated bed
;   temperatureNumber,0,0
;   temperatureSetpointCount,1,1
;   temperatureSetpointLayers,1,1
;   temperatureSetpointTemperatures,190,60
;   temperatureStabilizeAtStartup,1,1
;   temperatureHeatedBed,0,1
;   fanLayers,1,2
;   fanSpeeds,0,100
;   blipFanToFullPower,0
;   adjustSpeedForCooling,1
;   minSpeedLayerTime,15
;   minCoolingSpeedSlowdown,20
;   increaseFanForCooling,0
;   minFanLayerTime,45
;   maxCoolingFanSpeed,100
;   increaseFanForBridging,0
;   bridgingFanSpeed,100
;   use5D,1
;   relativeEdistances,0
;   allowEaxisZeroing,1
;   independentExtruderAxes,0
;   includeM10123,0
;   stickySupport,1
;   applyToolheadOffsets,0
;   gcodeXoffset,0
;   gcodeYoffset,0
;   gcodeZoffset,0
;   overrideMachineDefinition,1
;   machineTypeOverride,0
;   strokeXoverride,200
;   strokeYoverride,200
;   strokeZoverride,200
;   originOffsetXoverride,0
;   originOffsetYoverride,0
;   originOffsetZoverride,0
;   homeXdirOverride,-1
;   homeYdirOverride,-1
;   homeZdirOverride,-1
;   flipXoverride,1
;   flipYoverride,-1
;   flipZoverride,1
;   toolheadOffsets,0,0|0,0|0,0|0,0|0,0|0,0
;   overrideFirmwareConfiguration,0
;   firmwareTypeOverride,RepRap (Marlin/Repetier/Sprinter)
;   GPXconfigOverride,r2
;   baudRateOverride,115200
;   overridePrinterModels,0
;   printerModelsOverride
;   startingGcode,G28 X0 Y0; home XY,G1 X20 Y20,G28 Z0,G1 Z5 F5000; Lift NZ
;   layerChangeGcode,
;   retractionGcode,
;   toolChangeGcode,
;   endingGcode,M104 S0 ; turn off extruder,G28 X0 ; home x,M140 S0 ; turn off bed,M84 ; disable motors,M107 ;
;   exportFileFormat,gcode
;   celebration,0
;   celebrationSong,Looney Toons
;   postProcessing,
;   defaultSpeed,3600
;   outlineUnderspeed,0.5
;   solidInfillUnderspeed,0.8
;   supportUnderspeed,0.8
;   rapidXYspeed,4800
;   rapidZspeed,1002
;   minBridgingArea,50
;   bridgingExtraInflation,0
;   bridgingExtrusionMultiplier,1
;   bridgingSpeedMultiplier,1
;   useFixedBridgingAngle,0
;   fixedBridgingAngle,0
;   applyBridgingToPerimeters,0
;   filamentDiameters,1.75|1.75|1.75|1.75|1.75|1.75
;   filamentPricesPerKg,46|46|46|46|46|46
;   filamentDensities,1.25|1.25|1.25|1.25|1.25|1.25
;   useMinPrintHeight,0
;   minPrintHeight,0
;   useMaxPrintHeight,0
;   maxPrintHeight,0
;   useDiaphragm,0
;   diaphragmLayerInterval,20
;   robustSlicing,1
;   mergeAllIntoSolid,0
;   onlyRetractWhenCrossingOutline,1
;   retractBetweenLayers,1
;   useRetractionMinTravel,0
;   retractionMinTravel,3
;   retractWhileWiping,0
;   onlyWipeOutlines,1
;   avoidCrossingOutline,0
;   maxMovementDetourFactor,3
;   toolChangeRetractionDistance,12
;   toolChangeExtraRestartDistance,-0.5
;   toolChangeRetractionSpeed,600
;   externalThinWallType,0
;   internalThinWallType,2
;   thinWallAllowedOverlapPercentage,10
;   singleExtrusionMinLength,1
;   singleExtrusionMinPrintingWidthPercentage,50
;   singleExtrusionMaxPrintingWidthPercentage,200
;   singleExtrusionEndpointExtension,0.2
;   horizontalSizeCompensation,0
G90
M82
M106 S0
M140 S60
M190 S60
M104 S190 T0
M109 S190 T0
G28 X0 Y0; home XY
G1 X20 Y20
G28 Z0
G1 Z5 F5000; Lift NZ
; process Trideo BOX
; layer 1, Z = 0.270
T0
G92 E0.0000
G1 E-0.7000 F1500
; feature skirt
; tool H0.270 W0.480
G1 Z0.270 F1002
G1 X57.060 Y55.825 F4800
G1 E0.0000 F1500
G92 E0.0000
G1 X59.825 Y53.060 E0.2065 F1800
G1 X72.175 Y53.060 E0.8586
G1 X72.791 Y53.676 E0.9046
G1 X138.898 Y53.142 E4.3954
G1 X139.129 Y53.152 E4.4076
G1 X140.257 Y53.253 E4.4674
G1 X140.712 Y53.340 E4.4919
G1 X141.909 Y53.693 E4.5578
G1 X142.339 Y53.867 E4.5823
G1 X143.444 Y54.446 E4.6482
G1 X143.832 Y54.701 E4.6727
G1 X144.803 Y55.485 E4.7386
G1 X145.134 Y55.810 E4.7630
G1 X145.933 Y56.768 E4.8289
G1 X146.194 Y57.151 E4.8534
G1 X146.791 Y58.247 E4.9193
G1 X146.972 Y58.674 E4.9438
G1 X147.344 Y59.865 E5.0097
G1 X147.438 Y60.320 E5.0342
G1 X147.558 Y61.445 E5.0939
G1 X147.571 Y61.676 E5.1062
G1 X147.629 Y68.903 E5.4878
G1 X147.621 Y69.125 E5.4995
G1 X147.527 Y70.207 E5.5569
G1 X147.448 Y70.644 E5.5803
G1 X147.123 Y71.796 E5.6435
G1 X146.963 Y72.211 E5.6670
G1 X146.429 Y73.282 E5.7302
G1 X146.194 Y73.660 E5.7537
G1 X145.469 Y74.612 E5.8169
G1 X145.167 Y74.939 E5.8404
G1 X144.276 Y75.738 E5.9036
G1 X143.919 Y76.003 E5.9270
G1 X142.895 Y76.621 E5.9902
G1 X142.494 Y76.814 E6.0137
G1 X141.532 Y77.171 E6.0679
G1 X141.435 Y77.204 E6.0733
G1 X140.071 Y77.644 E6.1490
G1 X139.024 Y78.102 E6.2093
G1 X138.029 Y78.664 E6.2697
G1 X137.097 Y79.324 E6.3300
G1 X136.235 Y80.075 E6.3903
G1 X135.454 Y80.909 E6.4507
G1 X134.762 Y81.818 E6.5110
G1 X134.165 Y82.792 E6.5713
G1 X133.670 Y83.822 E6.6317
G1 X133.282 Y84.897 E6.6920
G1 X133.004 Y86.005 E6.7523
G1 X132.840 Y87.136 E6.8127
G1 X132.786 Y88.397 E6.8793
G1 X132.860 Y97.470 E7.3584
G1 X133.269 Y99.542 E7.4700
G1 X133.295 Y99.700 E7.4784
G1 X133.624 Y102.273 E7.6154
G1 X133.639 Y102.433 E7.6239
G1 X133.794 Y105.044 E7.7620
G1 X133.798 Y105.205 E7.7705
G1 X133.775 Y107.820 E7.9086
G1 X133.768 Y107.981 E7.9171
G1 X133.567 Y110.589 E8.0552
G1 X133.549 Y110.748 E8.0637
G1 X133.170 Y113.337 E8.2018
G1 X133.141 Y113.497 E8.2104
G1 X132.581 Y116.073 E8.3496
G1 X132.542 Y116.228 E8.3581
G1 X131.821 Y118.719 E8.4950
G1 X131.771 Y118.872 E8.5035
G1 X130.874 Y121.329 E8.6416
G1 X130.814 Y121.479 E8.6501
G1 X129.752 Y123.869 E8.7883
G1 X129.681 Y124.015 E8.7968
G1 X128.447 Y126.346 E8.9360
G1 X128.368 Y126.484 E8.9445
G1 X127.002 Y128.689 E9.0814
G1 X126.913 Y128.823 E9.0899
G1 X125.387 Y130.948 E9.2281
G1 X125.288 Y131.077 E9.2366
G1 X123.607 Y133.108 E9.3759
G1 X123.501 Y133.227 E9.3843
G1 X121.715 Y135.109 E9.5213
G1 X121.601 Y135.222 E9.5298
G1 X119.675 Y136.993 E9.6679
G1 X119.552 Y137.098 E9.6765
G1 X117.493 Y138.745 E9.8157
G1 X117.365 Y138.841 E9.8241
G1 X115.235 Y140.321 E9.9611
G1 X115.100 Y140.408 E9.9696
G1 X112.855 Y141.750 E10.1077
G1 X112.714 Y141.828 E10.1162
G1 X110.383 Y143.014 E10.2543
G1 X110.237 Y143.082 E10.2628
G1 X107.830 Y144.107 E10.4009
G1 X107.679 Y144.166 E10.4095
G1 X105.188 Y145.030 E10.5487
G1 X105.035 Y145.077 E10.5572
G1 X102.533 Y145.759 E10.6941
G1 X102.376 Y145.796 E10.7026
G1 X99.812 Y146.310 E10.8407
G1 X99.653 Y146.337 E10.8492
G1 X97.060 Y146.675 E10.9873
G1 X96.899 Y146.690 E10.9958
G1 X94.289 Y146.851 E11.1339
G1 X94.128 Y146.856 E11.1424
G1 X91.513 Y146.839 E11.2805
G1 X91.352 Y146.832 E11.2890
G1 X88.743 Y146.637 E11.4272
G1 X88.582 Y146.619 E11.4357
G1 X85.972 Y146.242 E11.5750
G1 X85.814 Y146.214 E11.5834
G1 X83.278 Y145.670 E11.7204
G1 X83.123 Y145.631 E11.7289
G1 X80.609 Y144.909 E11.8670
G1 X80.456 Y144.860 E11.8755
G1 X77.996 Y143.969 E12.0136
G1 X77.847 Y143.909 E12.0221
G1 X75.454 Y142.852 E12.1602
G1 X75.309 Y142.782 E12.1687
G1 X72.994 Y141.565 E12.3068
G1 X72.855 Y141.486 E12.3153
G1 X70.627 Y140.113 E12.4534
G1 X70.493 Y140.024 E12.4620
G1 X68.348 Y138.490 E12.6012
G1 X68.220 Y138.392 E12.6097
G1 X66.218 Y136.744 E12.7466
G1 X66.097 Y136.638 E12.7551
G1 X64.196 Y134.842 E12.8932
G1 X64.083 Y134.728 E12.9017
G1 X62.308 Y132.807 E13.0398
G1 X62.203 Y132.685 E13.0483
G1 X60.563 Y130.647 E13.1864
G1 X60.466 Y130.518 E13.1949
G1 X58.969 Y128.374 E13.3330
G1 X58.882 Y128.239 E13.3415
G1 X57.534 Y125.997 E13.4797
G1 X57.455 Y125.855 E13.4882
G1 X56.255 Y123.507 E13.6275
G1 X56.187 Y123.362 E13.6359
G1 X55.165 Y120.978 E13.7729
G1 X55.107 Y120.828 E13.7814
G1 X54.243 Y118.360 E13.9195
G1 X54.195 Y118.206 E13.9280
G1 X53.501 Y115.684 E14.0661
G1 X53.464 Y115.528 E14.0746
G1 X52.944 Y112.964 E14.2127
G1 X52.917 Y112.806 E14.2212
G1 X52.573 Y110.213 E14.3593
G1 X52.557 Y110.053 E14.3678
G1 X52.390 Y107.442 E14.5059
G1 X52.385 Y107.281 E14.5145
G1 X52.397 Y104.644 E14.6537
G1 X52.404 Y104.483 E14.6622
G1 X52.592 Y101.896 E14.7992
G1 X52.609 Y101.737 E14.8076
G1 X52.976 Y99.147 E14.9457
G1 X53.004 Y98.989 E14.9542
G1 X53.546 Y96.430 E15.0923
G1 X53.585 Y96.274 E15.1008
G1 X54.302 Y93.752 E15.2393
G1 X54.352 Y93.598 E15.2478
G1 X55.238 Y91.137 E15.3859
G1 X55.297 Y90.988 E15.3944
G1 X56.344 Y88.602 E15.5320
G1 X56.414 Y88.457 E15.5405
G1 X57.060 Y87.221 E15.6141
G1 X57.060 Y55.825 E17.2720
G92 E0.0000
G1 E-0.7000 F1500
G1 X57.540 Y56.024 F4800
G1 E0.0000 F1500
G92 E0.0000
G1 X60.024 Y53.540 E0.1855 F1800
G1 X71.976 Y53.540 E0.8166
G1 X72.594 Y54.157 E0.8627
G1 X138.890 Y53.622 E4.3635
G1 X139.098 Y53.631 E4.3745
G1 X140.190 Y53.729 E4.4324
G1 X140.599 Y53.807 E4.4544
G1 X141.751 Y54.147 E4.5178
G1 X142.137 Y54.303 E4.5398
G1 X143.200 Y54.860 E4.6032
G1 X143.549 Y55.089 E4.6252
G1 X144.483 Y55.843 E4.6886
G1 X144.780 Y56.135 E4.7106
G1 X145.549 Y57.057 E4.7740
G1 X145.783 Y57.402 E4.7960
G1 X146.358 Y58.456 E4.8594
G1 X146.521 Y58.840 E4.8814
G1 X146.878 Y59.986 E4.9448
G1 X146.963 Y60.394 E4.9668
G1 X147.079 Y61.484 E5.0247
G1 X147.091 Y61.692 E5.0357
G1 X147.149 Y68.896 E5.4161
G1 X147.142 Y69.095 E5.4266
G1 X147.051 Y70.143 E5.4822
G1 X146.979 Y70.536 E5.5033
G1 X146.667 Y71.645 E5.5641
G1 X146.524 Y72.017 E5.5852
G1 X146.010 Y73.048 E5.6460
G1 X145.798 Y73.387 E5.6671
G1 X145.100 Y74.303 E5.7279
G1 X144.830 Y74.597 E5.7490
G1 X143.973 Y75.366 E5.8098
G1 X143.652 Y75.603 E5.8309
G1 X142.666 Y76.199 E5.8917
G1 X142.306 Y76.372 E5.9128
G1 X141.370 Y76.719 E5.9655
G1 X141.283 Y76.749 E5.9703
G1 X139.900 Y77.194 E6.0470
G1 X138.809 Y77.672 E6.1099
G1 X137.772 Y78.258 E6.1729
G1 X136.799 Y78.946 E6.2358
G1 X135.901 Y79.729 E6.2987
G1 X135.087 Y80.599 E6.3616
G1 X134.365 Y81.546 E6.4245
G1 X133.743 Y82.562 E6.4874
G1 X133.227 Y83.636 E6.5503
G1 X132.822 Y84.756 E6.6132
G1 X132.533 Y85.912 E6.6761
G1 X132.362 Y87.091 E6.7390
G1 X132.306 Y88.389 E6.8076
G1 X132.380 Y97.518 E7.2897
G1 X132.797 Y99.627 E7.4032
G1 X132.820 Y99.769 E7.4108
G1 X133.147 Y102.325 E7.5469
G1 X133.161 Y102.469 E7.5545
G1 X133.315 Y105.064 E7.6918
G1 X133.318 Y105.208 E7.6994
G1 X133.295 Y107.808 E7.8366
G1 X133.289 Y107.952 E7.8443
G1 X133.089 Y110.543 E7.9815
G1 X133.073 Y110.687 E7.9891
G1 X132.696 Y113.259 E8.1264
G1 X132.670 Y113.403 E8.1341
G1 X132.114 Y115.963 E8.2725
G1 X132.078 Y116.102 E8.2801
G1 X131.362 Y118.578 E8.4162
G1 X131.317 Y118.715 E8.4238
G1 X130.426 Y121.157 E8.5610
G1 X130.372 Y121.291 E8.5687
G1 X129.316 Y123.667 E8.7059
G1 X129.253 Y123.798 E8.7136
G1 X128.027 Y126.114 E8.8520
G1 X127.955 Y126.238 E8.8596
G1 X126.598 Y128.430 E8.9957
G1 X126.518 Y128.550 E9.0033
G1 X125.002 Y130.661 E9.1406
G1 X124.913 Y130.777 E9.1483
G1 X123.242 Y132.795 E9.2866
G1 X123.147 Y132.903 E9.2942
G1 X121.373 Y134.773 E9.4303
G1 X121.270 Y134.874 E9.4379
G1 X119.356 Y136.634 E9.5752
G1 X119.246 Y136.728 E9.5829
G1 X117.200 Y138.366 E9.7213
G1 X117.085 Y138.452 E9.7288
G1 X114.968 Y139.922 E9.8649
G1 X114.846 Y140.000 E9.8726
G1 X112.616 Y141.334 E10.0098
G1 X112.489 Y141.404 E10.0174
G1 X110.173 Y142.583 E10.1547
G1 X110.042 Y142.644 E10.1623
G1 X107.650 Y143.662 E10.2996
G1 X107.514 Y143.715 E10.3073
G1 X105.038 Y144.574 E10.4457
G1 X104.901 Y144.616 E10.4532
G1 X102.414 Y145.294 E10.5893
G1 X102.274 Y145.327 E10.5970
G1 X99.726 Y145.838 E10.7342
G1 X99.583 Y145.862 E10.7418
G1 X97.006 Y146.198 E10.8791
G1 X96.862 Y146.212 E10.8867
G1 X94.268 Y146.372 E11.0240
G1 X94.123 Y146.376 E11.0316
G1 X91.524 Y146.359 E11.1688
G1 X91.379 Y146.353 E11.1765
G1 X88.787 Y146.158 E11.3137
G1 X88.642 Y146.143 E11.3214
G1 X86.049 Y145.768 E11.4598
G1 X85.907 Y145.743 E11.4674
G1 X83.387 Y145.202 E11.6035
G1 X83.247 Y145.167 E11.6111
G1 X80.749 Y144.450 E11.7484
G1 X80.611 Y144.406 E11.7560
G1 X78.168 Y143.520 E11.8932
G1 X78.033 Y143.466 E11.9009
G1 X75.656 Y142.417 E12.0381
G1 X75.526 Y142.354 E12.0457
G1 X73.225 Y141.144 E12.1830
G1 X73.099 Y141.073 E12.1906
G1 X70.886 Y139.709 E12.3279
G1 X70.765 Y139.629 E12.3356
G1 X68.633 Y138.104 E12.4739
G1 X68.519 Y138.017 E12.4816
G1 X66.529 Y136.378 E12.6177
G1 X66.421 Y136.283 E12.6253
G1 X64.531 Y134.499 E12.7625
G1 X64.430 Y134.396 E12.7701
G1 X62.666 Y132.487 E12.9074
G1 X62.572 Y132.377 E12.9150
G1 X60.942 Y130.353 E13.0523
G1 X60.855 Y130.237 E13.0599
G1 X59.367 Y128.106 E13.1971
G1 X59.289 Y127.984 E13.2048
G1 X57.949 Y125.756 E13.3420
G1 X57.879 Y125.629 E13.3497
G1 X56.686 Y123.296 E13.4881
G1 X56.625 Y123.166 E13.4957
G1 X55.610 Y120.796 E13.6318
G1 X55.558 Y120.662 E13.6394
G1 X54.699 Y118.209 E13.7767
G1 X54.656 Y118.071 E13.7843
G1 X53.966 Y115.565 E13.9215
G1 X53.933 Y115.424 E13.9292
G1 X53.416 Y112.877 E14.0664
G1 X53.392 Y112.734 E14.0740
G1 X53.050 Y110.158 E14.2113
G1 X53.035 Y110.014 E14.2189
G1 X52.869 Y107.420 E14.3562
G1 X52.865 Y107.275 E14.3639
G1 X52.877 Y104.654 E14.5022
G1 X52.883 Y104.510 E14.5099
G1 X53.070 Y101.939 E14.6460
G1 X53.086 Y101.796 E14.6536
G1 X53.450 Y99.223 E14.7908
G1 X53.475 Y99.080 E14.7984
G1 X54.014 Y96.538 E14.9357
G1 X54.049 Y96.397 E14.9433
G1 X54.762 Y93.891 E15.0809
G1 X54.806 Y93.753 E15.0886
G1 X55.686 Y91.307 E15.2258
G1 X55.740 Y91.173 E15.2334
G1 X56.780 Y88.803 E15.3701
G1 X56.843 Y88.672 E15.3778
G1 X57.540 Y87.339 E15.4572
G1 X57.540 Y56.024 E17.1108
G92 E0.0000
G1 E-0.7000 F1500
; feature inner perimeter
G1 X74.047 Y59.106 F4800
G1 E0.0000 F1500
G92 E0.0000
G1 X134.596 Y58.617 E3.1974 F1350
G1 X134.685 Y58.936 E3.2149
G1 X129.437 Y62.023 E3.5363
G1 X129.492 Y68.854 E3.8971
G1 X135.436 Y72.222 E4.2578
G1 X141.324 Y68.759 E4.6185
G1 X141.269 Y61.928 E4.9792
G1 X135.972 Y58.926 E5.3007
G1 X136.055 Y58.605 E5.3182
G1 X138.790 Y58.583 E5.4627
G1 X139.465 Y58.644 E5.4984
G1 X140.082 Y58.826 E5.5324
G1 X140.651 Y59.124 E5.5663
G1 X141.150 Y59.527 E5.6002
G1 X141.562 Y60.020 E5.6341
G1 X141.869 Y60.584 E5.6680
G1 X142.061 Y61.198 E5.7019
G1 X142.132 Y61.872 E5.7377
G1 X142.188 Y68.802 E6.1037
G1 X142.132 Y69.450 E6.1380
