; G-Code generated by Simplify3D(R) Version 4.1.1
; Apr 28, 2021 at 7:28:13 PM
; Settings Summary
;   processName,Trideo BOX
;   applyToModels,bicepelbow
;   profileName,Trideo BOX
;   profileVersion,2021-04-15 09:48:16
;   baseProfile,Default
;   printMaterial,PLA
;   printQuality,Fast
;   printExtruders,
;   extruderName,Primary Extruder
;   extruderToolheadNumber,0
;   extruderDiameter,0.4
;   extruderAutoWidth,1
;   extruderWidth,0.48
;   extrusionMultiplier,0.98
;   extruderUseRetract,1
;   extruderRetractionDistance,0.7
;   extruderExtraRestartDistance,0
;   extruderRetractionZLift,0
;   extruderRetractionSpeed,1500
;   extruderUseCoasting,0
;   extruderCoastingDistance,0.2
;   extruderUseWipe,0
;   extruderWipeDistance,5
;   primaryExtruder,0
;   layerHeight,0.3
;   topSolidLayers,3
;   bottomSolidLayers,3
;   perimeterOutlines,2
;   printPerimetersInsideOut,1
;   startPointOption,2
;   startPointOriginX,0
;   startPointOriginY,0
;   sequentialIslands,0
;   spiralVaseMode,0
;   firstLayerHeightPercentage,90
;   firstLayerWidthPercentage,100
;   firstLayerUnderspeed,0.5
;   useRaft,0
;   raftExtruder,0
;   raftTopLayers,3
;   raftBaseLayers,2
;   raftOffset,3
;   raftSeparationDistance,0.14
;   raftTopInfill,100
;   aboveRaftSpeedMultiplier,0.3
;   useSkirt,1
;   skirtExtruder,0
;   skirtLayers,1
;   skirtOutlines,2
;   skirtOffset,4
;   usePrimePillar,0
;   primePillarExtruder,999
;   primePillarWidth,12
;   primePillarLocation,7
;   primePillarSpeedMultiplier,1
;   useOozeShield,0
;   oozeShieldExtruder,999
;   oozeShieldOffset,2
;   oozeShieldOutlines,1
;   oozeShieldSidewallShape,1
;   oozeShieldSidewallAngle,30
;   oozeShieldSpeedMultiplier,1
;   infillExtruder,0
;   internalInfillPattern,Rectilinear
;   externalInfillPattern,Rectilinear
;   infillPercentage,15
;   outlineOverlapPercentage,15
;   infillExtrusionWidthPercentage,100
;   minInfillLength,5
;   infillLayerInterval,1
;   internalInfillAngles,45,-45
;   overlapInternalInfillAngles,0
;   externalInfillAngles,45,-45
;   generateSupport,1
;   supportExtruder,0
;   supportInfillPercentage,25
;   supportExtraInflation,0
;   supportBaseLayers,0
;   denseSupportExtruder,0
;   denseSupportLayers,0
;   denseSupportInfillPercentage,70
;   supportLayerInterval,1
;   supportHorizontalPartOffset,0.3
;   supportUpperSeparationLayers,1
;   supportLowerSeparationLayers,1
;   supportType,0
;   supportGridSpacing,4
;   maxOverhangAngle,45
;   supportAngles,0
;   temperatureName,Primary Extruder,Heated bed
;   temperatureNumber,0,0
;   temperatureSetpointCount,1,1
;   temperatureSetpointLayers,1,1
;   temperatureSetpointTemperatures,190,60
;   temperatureStabilizeAtStartup,1,1
;   temperatureHeatedBed,0,1
;   fanLayers,1,2
;   fanSpeeds,0,100
;   blipFanToFullPower,0
;   adjustSpeedForCooling,1
;   minSpeedLayerTime,15
;   minCoolingSpeedSlowdown,20
;   increaseFanForCooling,0
;   minFanLayerTime,45
;   maxCoolingFanSpeed,100
;   increaseFanForBridging,0
;   bridgingFanSpeed,100
;   use5D,1
;   relativeEdistances,0
;   allowEaxisZeroing,1
;   independentExtruderAxes,0
;   includeM10123,0
;   stickySupport,1
;   applyToolheadOffsets,0
;   gcodeXoffset,0
;   gcodeYoffset,0
;   gcodeZoffset,0
;   overrideMachineDefinition,1
;   machineTypeOverride,0
;   strokeXoverride,200
;   strokeYoverride,200
;   strokeZoverride,200
;   originOffsetXoverride,0
;   originOffsetYoverride,0
;   originOffsetZoverride,0
;   homeXdirOverride,-1
;   homeYdirOverride,-1
;   homeZdirOverride,-1
;   flipXoverride,1
;   flipYoverride,-1
;   flipZoverride,1
;   toolheadOffsets,0,0|0,0|0,0|0,0|0,0|0,0
;   overrideFirmwareConfiguration,0
;   firmwareTypeOverride,RepRap (Marlin/Repetier/Sprinter)
;   GPXconfigOverride,r2
;   baudRateOverride,115200
;   overridePrinterModels,0
;   printerModelsOverride
;   startingGcode,G28 X0 Y0; home XY,G1 X20 Y20,G28 Z0,G1 Z5 F5000; Lift NZ
;   layerChangeGcode,
;   retractionGcode,
;   toolChangeGcode,
;   endingGcode,M104 S0 ; turn off extruder,G28 X0 ; home x,M140 S0 ; turn off bed,M84 ; disable motors,M107 ;
;   exportFileFormat,gcode
;   celebration,0
;   celebrationSong,Looney Toons
;   postProcessing,
;   defaultSpeed,3600
;   outlineUnderspeed,0.5
;   solidInfillUnderspeed,0.8
;   supportUnderspeed,0.8
;   rapidXYspeed,4800
;   rapidZspeed,1002
;   minBridgingArea,50
;   bridgingExtraInflation,0
;   bridgingExtrusionMultiplier,1
;   bridgingSpeedMultiplier,1
;   useFixedBridgingAngle,0
;   fixedBridgingAngle,0
;   applyBridgingToPerimeters,0
;   filamentDiameters,1.75|1.75|1.75|1.75|1.75|1.75
;   filamentPricesPerKg,46|46|46|46|46|46
;   filamentDensities,1.25|1.25|1.25|1.25|1.25|1.25
;   useMinPrintHeight,0
;   minPrintHeight,0
;   useMaxPrintHeight,0
;   maxPrintHeight,0
;   useDiaphragm,0
;   diaphragmLayerInterval,20
;   robustSlicing,1
;   mergeAllIntoSolid,0
;   onlyRetractWhenCrossingOutline,1
;   retractBetweenLayers,1
;   useRetractionMinTravel,0
;   retractionMinTravel,3
;   retractWhileWiping,0
;   onlyWipeOutlines,1
;   avoidCrossingOutline,0
;   maxMovementDetourFactor,3
;   toolChangeRetractionDistance,12
;   toolChangeExtraRestartDistance,-0.5
;   toolChangeRetractionSpeed,600
;   externalThinWallType,0
;   internalThinWallType,2
;   thinWallAllowedOverlapPercentage,10
;   singleExtrusionMinLength,1
;   singleExtrusionMinPrintingWidthPercentage,50
;   singleExtrusionMaxPrintingWidthPercentage,200
;   singleExtrusionEndpointExtension,0.2
;   horizontalSizeCompensation,0
G90
M82
M106 S0
M140 S60
M190 S60
M104 S190 T0
M109 S190 T0
G28 X0 Y0; home XY
G1 X20 Y20
G28 Z0
G1 Z5 F5000; Lift NZ
; process Trideo BOX
; layer 1, Z = 0.270
T0
G92 E0.0000
G1 E-0.7000 F1500
; feature skirt
; tool H0.270 W0.480
G1 Z0.270 F1002
G1 X53.060 Y51.825 F4800
G1 E0.0000 F1500
G92 E0.0000
G1 X55.825 Y49.060 E0.2065 F1800
G1 X72.175 Y49.060 E1.0698
G1 X72.610 Y49.495 E1.1023
G1 X142.780 Y48.928 E4.8076
G1 X143.011 Y48.938 E4.8199
G1 X144.217 Y49.047 E4.8838
G1 X144.672 Y49.134 E4.9083
G1 X145.944 Y49.508 E4.9783
G1 X146.374 Y49.682 E5.0028
G1 X147.549 Y50.298 E5.0728
G1 X147.937 Y50.553 E5.0973
G1 X148.969 Y51.386 E5.1674
G1 X149.299 Y51.711 E5.1918
G1 X150.149 Y52.729 E5.2619
G1 X150.410 Y53.113 E5.2864
G1 X151.044 Y54.277 E5.3564
G1 X151.225 Y54.704 E5.3809
G1 X151.620 Y55.970 E5.4509
G1 X151.715 Y56.425 E5.4754
G1 X151.843 Y57.628 E5.5393
G1 X151.856 Y57.859 E5.5516
G1 X151.920 Y65.786 E5.9701
G1 X151.912 Y66.008 E5.9819
G1 X151.812 Y67.165 E6.0432
G1 X151.732 Y67.602 E6.0666
G1 X151.387 Y68.827 E6.1338
G1 X151.227 Y69.242 E6.1573
G1 X150.659 Y70.380 E6.2245
G1 X150.424 Y70.757 E6.2479
G1 X149.654 Y71.769 E6.3151
G1 X149.352 Y72.096 E6.3386
G1 X148.405 Y72.946 E6.4058
G1 X148.048 Y73.210 E6.4292
G1 X146.959 Y73.868 E6.4964
G1 X146.558 Y74.061 E6.5199
G1 X145.526 Y74.444 E6.5780
G1 X145.429 Y74.477 E6.5835
G1 X143.910 Y74.966 E6.6677
G1 X142.715 Y75.490 E6.7366
G1 X141.579 Y76.131 E6.8055
G1 X140.514 Y76.885 E6.8744
G1 X139.531 Y77.742 E6.9433
G1 X138.639 Y78.695 E7.0122
G1 X137.848 Y79.733 E7.0811
G1 X137.167 Y80.846 E7.1500
G1 X136.601 Y82.021 E7.2189
G1 X136.158 Y83.248 E7.2878
G1 X135.841 Y84.514 E7.3567
G1 X135.654 Y85.805 E7.4256
G1 X135.593 Y87.229 E7.5008
G1 X135.674 Y97.264 E8.0307
G1 X136.131 Y99.578 E8.1553
G1 X136.157 Y99.736 E8.1637
G1 X136.518 Y102.552 E8.3136
G1 X136.533 Y102.712 E8.3221
G1 X136.702 Y105.568 E8.4732
G1 X136.706 Y105.729 E8.4817
G1 X136.681 Y108.590 E8.6328
G1 X136.674 Y108.751 E8.6413
G1 X136.453 Y111.603 E8.7923
G1 X136.436 Y111.763 E8.8008
G1 X136.021 Y114.594 E8.9519
G1 X135.992 Y114.754 E8.9605
G1 X135.380 Y117.570 E9.1127
G1 X135.341 Y117.725 E9.1211
G1 X134.551 Y120.453 E9.2710
G1 X134.501 Y120.605 E9.2795
G1 X133.521 Y123.293 E9.4306
G1 X133.460 Y123.442 E9.4391
G1 X132.299 Y126.057 E9.5902
G1 X132.228 Y126.203 E9.5988
G1 X130.879 Y128.751 E9.7509
G1 X130.800 Y128.889 E9.7594
G1 X129.305 Y131.303 E9.9093
G1 X129.216 Y131.437 E9.9178
G1 X127.547 Y133.761 E10.0689
G1 X127.448 Y133.890 E10.0775
G1 X125.610 Y136.110 E10.2297
G1 X125.504 Y136.230 E10.2381
G1 X123.550 Y138.289 E10.3880
G1 X123.435 Y138.402 E10.3965
G1 X121.329 Y140.339 E10.5476
G1 X121.206 Y140.445 E10.5562
G1 X118.956 Y142.245 E10.7084
G1 X118.827 Y142.341 E10.7168
G1 X116.495 Y143.961 E10.8667
G1 X116.360 Y144.048 E10.8752
G1 X113.905 Y145.516 E11.0263
G1 X113.764 Y145.594 E11.0348
G1 X111.214 Y146.892 E11.1859
G1 X111.068 Y146.960 E11.1944
G1 X108.436 Y148.081 E11.3455
G1 X108.285 Y148.139 E11.3540
G1 X105.561 Y149.084 E11.5062
G1 X105.408 Y149.131 E11.5147
G1 X102.669 Y149.878 E11.6646
G1 X102.513 Y149.915 E11.6731
G1 X99.708 Y150.477 E11.8241
G1 X99.549 Y150.503 E11.8326
G1 X96.712 Y150.874 E11.9837
G1 X96.552 Y150.889 E11.9922
G1 X93.696 Y151.065 E12.1433
G1 X93.535 Y151.069 E12.1518
G1 X90.674 Y151.051 E12.3028
G1 X90.514 Y151.044 E12.3113
G1 X87.660 Y150.830 E12.4624
G1 X87.499 Y150.812 E12.4710
G1 X84.647 Y150.400 E12.6232
G1 X84.489 Y150.372 E12.6316
G1 X81.713 Y149.777 E12.7816
G1 X81.557 Y149.738 E12.7901
G1 X78.807 Y148.949 E12.9411
G1 X78.654 Y148.899 E12.9496
G1 X75.964 Y147.924 E13.1007
G1 X75.814 Y147.864 E13.1092
G1 X73.197 Y146.709 E13.2603
G1 X73.052 Y146.639 E13.2688
G1 X70.520 Y145.308 E13.4198
G1 X70.380 Y145.228 E13.4283
G1 X67.944 Y143.727 E13.5794
G1 X67.809 Y143.637 E13.5880
G1 X65.465 Y141.961 E13.7402
G1 X65.337 Y141.863 E13.7486
G1 X63.145 Y140.059 E13.8986
G1 X63.025 Y139.952 E13.9070
G1 X60.945 Y137.988 E14.0581
G1 X60.832 Y137.874 E14.0666
G1 X58.890 Y135.772 E14.2177
G1 X58.785 Y135.650 E14.2262
G1 X56.991 Y133.422 E14.3772
G1 X56.895 Y133.293 E14.3857
G1 X55.257 Y130.947 E14.5368
G1 X55.170 Y130.812 E14.5453
G1 X53.696 Y128.359 E14.6964
G1 X53.617 Y128.218 E14.7049
G1 X52.305 Y125.652 E14.8571
G1 X52.236 Y125.506 E14.8656
G1 X51.119 Y122.896 E15.0155
G1 X51.060 Y122.747 E15.0240
G1 X50.115 Y120.046 E15.1751
G1 X50.067 Y119.893 E15.1836
G1 X49.309 Y117.134 E15.3346
G1 X49.271 Y116.978 E15.3431
G1 X48.702 Y114.174 E15.4942
G1 X48.676 Y114.015 E15.5027
G1 X48.299 Y111.179 E15.6538
G1 X48.283 Y111.019 E15.6623
G1 X48.100 Y108.164 E15.8134
G1 X48.096 Y108.002 E15.8219
G1 X48.109 Y105.120 E15.9741
G1 X48.115 Y104.959 E15.9826
G1 X48.322 Y102.127 E16.1325
G1 X48.339 Y101.967 E16.1410
G1 X48.740 Y99.135 E16.2921
G1 X48.768 Y98.977 E16.3006
G1 X49.361 Y96.178 E16.4516
G1 X49.400 Y96.021 E16.4601
G1 X50.184 Y93.263 E16.6115
G1 X50.234 Y93.110 E16.6201
G1 X51.203 Y90.418 E16.7712
G1 X51.262 Y90.268 E16.7796
G1 X52.408 Y87.658 E16.9302
G1 X52.478 Y87.513 E16.9387
G1 X53.060 Y86.399 E17.0050
G1 X53.060 Y51.825 E18.8307
G92 E0.0000
G1 E-0.7000 F1500
G1 X53.540 Y52.024 F4800
G1 E0.0000 F1500
G92 E0.0000
G1 X56.024 Y49.540 E0.1855 F1800
G1 X71.976 Y49.540 E1.0278
G1 X72.413 Y49.977 E1.0604
G1 X142.772 Y49.408 E4.7758
G1 X142.980 Y49.417 E4.7868
G1 X144.150 Y49.523 E4.8488
G1 X144.559 Y49.601 E4.8708
G1 X145.786 Y49.962 E4.9383
G1 X146.172 Y50.118 E4.9603
G1 X147.305 Y50.712 E5.0279
G1 X147.654 Y50.941 E5.0499
G1 X148.649 Y51.744 E5.1174
G1 X148.946 Y52.037 E5.1394
G1 X149.765 Y53.019 E5.2070
G1 X149.999 Y53.363 E5.2290
G1 X150.612 Y54.486 E5.2965
G1 X150.774 Y54.870 E5.3185
G1 X151.155 Y56.091 E5.3860
G1 X151.240 Y56.499 E5.4080
G1 X151.364 Y57.667 E5.4701
G1 X151.376 Y57.875 E5.4811
G1 X151.440 Y65.779 E5.8984
G1 X151.432 Y65.978 E5.9090
G1 X151.335 Y67.101 E5.9685
G1 X151.264 Y67.494 E5.9896
G1 X150.931 Y68.675 E6.0544
G1 X150.788 Y69.048 E6.0754
G1 X150.240 Y70.145 E6.1402
G1 X150.029 Y70.485 E6.1613
G1 X149.285 Y71.460 E6.2261
G1 X149.014 Y71.754 E6.2472
G1 X148.102 Y72.574 E6.3120
G1 X147.781 Y72.811 E6.3331
G1 X146.730 Y73.445 E6.3978
G1 X146.370 Y73.619 E6.4190
G1 X145.364 Y73.992 E6.4756
G1 X145.277 Y74.022 E6.4805
G1 X143.740 Y74.517 E6.5657
G1 X142.500 Y75.060 E6.6372
G1 X141.322 Y75.725 E6.7087
G1 X140.217 Y76.507 E6.7801
G1 X139.197 Y77.396 E6.8516
G1 X138.272 Y78.385 E6.9231
G1 X137.452 Y79.461 E6.9946
G1 X136.745 Y80.616 E7.0660
G1 X136.158 Y81.835 E7.1375
G1 X135.698 Y83.108 E7.2090
G1 X135.369 Y84.421 E7.2804
G1 X135.175 Y85.761 E7.3519
G1 X135.113 Y87.220 E7.4291
G1 X135.194 Y97.313 E7.9620
G1 X135.659 Y99.663 E8.0885
G1 X135.682 Y99.805 E8.0961
G1 X136.041 Y102.605 E8.2451
G1 X136.054 Y102.749 E8.2528
G1 X136.223 Y105.588 E8.4030
G1 X136.226 Y105.733 E8.4106
G1 X136.201 Y108.577 E8.5608
G1 X136.195 Y108.722 E8.5684
G1 X135.975 Y111.558 E8.7187
G1 X135.959 Y111.702 E8.7263
G1 X135.547 Y114.517 E8.8765
G1 X135.521 Y114.660 E8.8842
G1 X134.913 Y117.460 E9.0355
G1 X134.877 Y117.600 E9.0431
G1 X134.093 Y120.311 E9.1922
G1 X134.048 Y120.449 E9.1998
G1 X133.073 Y123.121 E9.3500
G1 X133.018 Y123.255 E9.3576
G1 X131.863 Y125.855 E9.5079
G1 X131.800 Y125.986 E9.5156
G1 X130.459 Y128.519 E9.6669
G1 X130.388 Y128.643 E9.6745
G1 X128.901 Y131.043 E9.8235
G1 X128.821 Y131.164 E9.8312
G1 X127.162 Y133.475 E9.9814
G1 X127.073 Y133.590 E9.9891
G1 X125.246 Y135.798 E10.1404
G1 X125.150 Y135.905 E10.1480
G1 X123.207 Y137.953 E10.2971
G1 X123.104 Y138.054 E10.3047
G1 X121.010 Y139.980 E10.4549
G1 X120.900 Y140.075 E10.4626
G1 X118.662 Y141.866 E10.6139
G1 X118.547 Y141.952 E10.6215
G1 X116.228 Y143.562 E10.7706
G1 X116.107 Y143.640 E10.7782
G1 X113.666 Y145.100 E10.9284
G1 X113.539 Y145.170 E10.9361
G1 X111.004 Y146.460 E11.0863
G1 X110.873 Y146.521 E11.0939
G1 X108.255 Y147.636 E11.2441
G1 X108.119 Y147.688 E11.2518
G1 X105.412 Y148.628 E11.4031
G1 X105.274 Y148.670 E11.4107
G1 X102.551 Y149.412 E11.5598
G1 X102.410 Y149.445 E11.5674
G1 X99.621 Y150.005 E11.7176
G1 X99.479 Y150.028 E11.7253
G1 X96.658 Y150.397 E11.8755
G1 X96.514 Y150.410 E11.8831
G1 X93.675 Y150.585 E12.0333
G1 X93.530 Y150.589 E12.0409
G1 X90.686 Y150.571 E12.1911
G1 X90.541 Y150.565 E12.1988
G1 X87.704 Y150.352 E12.3490
G1 X87.560 Y150.336 E12.3567
G1 X84.723 Y149.927 E12.5080
G1 X84.581 Y149.901 E12.5156
G1 X81.821 Y149.309 E12.6647
G1 X81.681 Y149.274 E12.6723
G1 X78.947 Y148.489 E12.8225
G1 X78.810 Y148.445 E12.8301
G1 X76.135 Y147.476 E12.9803
G1 X76.001 Y147.422 E12.9880
G1 X73.399 Y146.273 E13.1382
G1 X73.268 Y146.210 E13.1458
G1 X70.751 Y144.886 E13.2960
G1 X70.625 Y144.815 E13.3037
G1 X68.203 Y143.323 E13.4539
G1 X68.082 Y143.242 E13.4616
G1 X65.750 Y141.575 E13.6129
G1 X65.636 Y141.487 E13.6205
G1 X63.457 Y139.693 E13.7696
G1 X63.348 Y139.598 E13.7772
G1 X61.280 Y137.645 E13.9274
G1 X61.179 Y137.542 E13.9350
G1 X59.248 Y135.453 E14.0852
G1 X59.154 Y135.343 E14.0929
G1 X57.371 Y133.127 E14.2431
G1 X57.284 Y133.011 E14.2507
G1 X55.656 Y130.679 E14.4009
G1 X55.577 Y130.558 E14.4085
G1 X54.111 Y128.119 E14.5588
G1 X54.041 Y127.992 E14.5664
G1 X52.736 Y125.440 E14.7178
G1 X52.674 Y125.310 E14.7254
G1 X51.563 Y122.715 E14.8745
G1 X51.511 Y122.580 E14.8821
G1 X50.571 Y119.896 E15.0323
G1 X50.528 Y119.758 E15.0399
G1 X49.774 Y117.015 E15.1901
G1 X49.740 Y116.874 E15.1977
G1 X49.174 Y114.087 E15.3479
G1 X49.150 Y113.944 E15.3556
G1 X48.776 Y111.124 E15.5058
G1 X48.762 Y110.980 E15.5134
G1 X48.580 Y108.141 E15.6636
G1 X48.576 Y107.996 E15.6713
G1 X48.589 Y105.130 E15.8227
G1 X48.595 Y104.986 E15.8303
G1 X48.800 Y102.170 E15.9793
G1 X48.815 Y102.027 E15.9870
G1 X49.214 Y99.210 E16.1371
G1 X49.239 Y99.068 E16.1448
G1 X49.829 Y96.285 E16.2950
G1 X49.864 Y96.145 E16.3026
G1 X50.644 Y93.403 E16.4532
G1 X50.688 Y93.265 E16.4608
G1 X51.652 Y90.588 E16.6110
G1 X51.705 Y90.454 E16.6187
G1 X52.844 Y87.859 E16.7683
G1 X52.907 Y87.728 E16.7760
G1 X53.540 Y86.517 E16.8481
G1 X53.540 Y52.024 E18.6695
G92 E0.0000
G1 E-0.7000 F1500
; feature inner perimeter
G1 X71.473 Y54.944 F4800
G1 E0.0000 F1500
G92 E0.0000
G1 X138.388 Y54.404 E3.5335 F1350
G1 X138.477 Y54.723 E3.5510
G1 X132.453 Y58.266 E3.9200
G1 X132.513 Y65.697 E4.3124
G1 X138.979 Y69.361 E4.7048
G1 X145.384 Y65.594 E5.0972
G1 X145.324 Y58.162 E5.4896
G1 X139.244 Y54.717 E5.8586
G1 X139.327 Y54.396 E5.8761
G1 X142.672 Y54.369 E6.0528
G1 X143.426 Y54.437 E6.0927
G1 X144.117 Y54.641 E6.1308
G1 X144.755 Y54.976 E6.1688
G1 X145.316 Y55.428 E6.2069
G1 X145.778 Y55.982 E6.2449
G1 X146.123 Y56.615 E6.2830
G1 X146.337 Y57.303 E6.3210
G1 X146.418 Y58.055 E6.3610
G1 X146.479 Y65.685 E6.7639
G1 X146.417 Y66.408 E6.8022
