; G-Code generated by Simplify3D(R) Version 4.1.1
; Apr 28, 2021 at 7:27:03 PM
; Settings Summary
;   processName,Trideo BOX
;   applyToModels,bicepelbow
;   profileName,Trideo BOX
;   profileVersion,2021-04-15 09:48:16
;   baseProfile,Default
;   printMaterial,PLA
;   printQuality,Fast
;   printExtruders,
;   extruderName,Primary Extruder
;   extruderToolheadNumber,0
;   extruderDiameter,0.4
;   extruderAutoWidth,1
;   extruderWidth,0.48
;   extrusionMultiplier,0.98
;   extruderUseRetract,1
;   extruderRetractionDistance,0.7
;   extruderExtraRestartDistance,0
;   extruderRetractionZLift,0
;   extruderRetractionSpeed,1500
;   extruderUseCoasting,0
;   extruderCoastingDistance,0.2
;   extruderUseWipe,0
;   extruderWipeDistance,5
;   primaryExtruder,0
;   layerHeight,0.3
;   topSolidLayers,3
;   bottomSolidLayers,3
;   perimeterOutlines,2
;   printPerimetersInsideOut,1
;   startPointOption,2
;   startPointOriginX,0
;   startPointOriginY,0
;   sequentialIslands,0
;   spiralVaseMode,0
;   firstLayerHeightPercentage,90
;   firstLayerWidthPercentage,100
;   firstLayerUnderspeed,0.5
;   useRaft,0
;   raftExtruder,0
;   raftTopLayers,3
;   raftBaseLayers,2
;   raftOffset,3
;   raftSeparationDistance,0.14
;   raftTopInfill,100
;   aboveRaftSpeedMultiplier,0.3
;   useSkirt,1
;   skirtExtruder,0
;   skirtLayers,1
;   skirtOutlines,2
;   skirtOffset,4
;   usePrimePillar,0
;   primePillarExtruder,999
;   primePillarWidth,12
;   primePillarLocation,7
;   primePillarSpeedMultiplier,1
;   useOozeShield,0
;   oozeShieldExtruder,999
;   oozeShieldOffset,2
;   oozeShieldOutlines,1
;   oozeShieldSidewallShape,1
;   oozeShieldSidewallAngle,30
;   oozeShieldSpeedMultiplier,1
;   infillExtruder,0
;   internalInfillPattern,Rectilinear
;   externalInfillPattern,Rectilinear
;   infillPercentage,15
;   outlineOverlapPercentage,15
;   infillExtrusionWidthPercentage,100
;   minInfillLength,5
;   infillLayerInterval,1
;   internalInfillAngles,45,-45
;   overlapInternalInfillAngles,0
;   externalInfillAngles,45,-45
;   generateSupport,1
;   supportExtruder,0
;   supportInfillPercentage,25
;   supportExtraInflation,0
;   supportBaseLayers,0
;   denseSupportExtruder,0
;   denseSupportLayers,0
;   denseSupportInfillPercentage,70
;   supportLayerInterval,1
;   supportHorizontalPartOffset,0.3
;   supportUpperSeparationLayers,1
;   supportLowerSeparationLayers,1
;   supportType,0
;   supportGridSpacing,4
;   maxOverhangAngle,45
;   supportAngles,0
;   temperatureName,Primary Extruder,Heated bed
;   temperatureNumber,0,0
;   temperatureSetpointCount,1,1
;   temperatureSetpointLayers,1,1
;   temperatureSetpointTemperatures,190,60
;   temperatureStabilizeAtStartup,1,1
;   temperatureHeatedBed,0,1
;   fanLayers,1,2
;   fanSpeeds,0,100
;   blipFanToFullPower,0
;   adjustSpeedForCooling,1
;   minSpeedLayerTime,15
;   minCoolingSpeedSlowdown,20
;   increaseFanForCooling,0
;   minFanLayerTime,45
;   maxCoolingFanSpeed,100
;   increaseFanForBridging,0
;   bridgingFanSpeed,100
;   use5D,1
;   relativeEdistances,0
;   allowEaxisZeroing,1
;   independentExtruderAxes,0
;   includeM10123,0
;   stickySupport,1
;   applyToolheadOffsets,0
;   gcodeXoffset,0
;   gcodeYoffset,0
;   gcodeZoffset,0
;   overrideMachineDefinition,1
;   machineTypeOverride,0
;   strokeXoverride,200
;   strokeYoverride,200
;   strokeZoverride,200
;   originOffsetXoverride,0
;   originOffsetYoverride,0
;   originOffsetZoverride,0
;   homeXdirOverride,-1
;   homeYdirOverride,-1
;   homeZdirOverride,-1
;   flipXoverride,1
;   flipYoverride,-1
;   flipZoverride,1
;   toolheadOffsets,0,0|0,0|0,0|0,0|0,0|0,0
;   overrideFirmwareConfiguration,0
;   firmwareTypeOverride,RepRap (Marlin/Repetier/Sprinter)
;   GPXconfigOverride,r2
;   baudRateOverride,115200
;   overridePrinterModels,0
;   printerModelsOverride
;   startingGcode,G28 X0 Y0; home XY,G1 X20 Y20,G28 Z0,G1 Z5 F5000; Lift NZ
;   layerChangeGcode,
;   retractionGcode,
;   toolChangeGcode,
;   endingGcode,M104 S0 ; turn off extruder,G28 X0 ; home x,M140 S0 ; turn off bed,M84 ; disable motors,M107 ;
;   exportFileFormat,gcode
;   celebration,0
;   celebrationSong,Looney Toons
;   postProcessing,
;   defaultSpeed,3600
;   outlineUnderspeed,0.5
;   solidInfillUnderspeed,0.8
;   supportUnderspeed,0.8
;   rapidXYspeed,4800
;   rapidZspeed,1002
;   minBridgingArea,50
;   bridgingExtraInflation,0
;   bridgingExtrusionMultiplier,1
;   bridgingSpeedMultiplier,1
;   useFixedBridgingAngle,0
;   fixedBridgingAngle,0
;   applyBridgingToPerimeters,0
;   filamentDiameters,1.75|1.75|1.75|1.75|1.75|1.75
;   filamentPricesPerKg,46|46|46|46|46|46
;   filamentDensities,1.25|1.25|1.25|1.25|1.25|1.25
;   useMinPrintHeight,0
;   minPrintHeight,0
;   useMaxPrintHeight,0
;   maxPrintHeight,0
;   useDiaphragm,0
;   diaphragmLayerInterval,20
;   robustSlicing,1
;   mergeAllIntoSolid,0
;   onlyRetractWhenCrossingOutline,1
;   retractBetweenLayers,1
;   useRetractionMinTravel,0
;   retractionMinTravel,3
;   retractWhileWiping,0
;   onlyWipeOutlines,1
;   avoidCrossingOutline,0
;   maxMovementDetourFactor,3
;   toolChangeRetractionDistance,12
;   toolChangeExtraRestartDistance,-0.5
;   toolChangeRetractionSpeed,600
;   externalThinWallType,0
;   internalThinWallType,2
;   thinWallAllowedOverlapPercentage,10
;   singleExtrusionMinLength,1
;   singleExtrusionMinPrintingWidthPercentage,50
;   singleExtrusionMaxPrintingWidthPercentage,200
;   singleExtrusionEndpointExtension,0.2
;   horizontalSizeCompensation,0
G90
M82
M106 S0
M140 S60
M190 S60
M104 S190 T0
M109 S190 T0
G28 X0 Y0; home XY
G1 X20 Y20
G28 Z0
G1 Z5 F5000; Lift NZ
; process Trideo BOX
; layer 1, Z = 0.270
T0
G92 E0.0000
G1 E-0.7000 F1500
; feature skirt
; tool H0.270 W0.480
G1 Z0.270 F1002
G1 X61.060 Y61.825 F4800
G1 E0.0000 F1500
G92 E0.0000
G1 X63.825 Y59.060 E0.2065 F1800
G1 X72.716 Y59.060 E0.6760
G1 X73.913 Y57.849 E0.7659
G1 X135.016 Y57.356 E3.9924
G1 X135.247 Y57.365 E4.0047
G1 X136.296 Y57.460 E4.0603
G1 X136.752 Y57.547 E4.0848
G1 X137.874 Y57.877 E4.1465
G1 X138.304 Y58.051 E4.1710
G1 X139.339 Y58.594 E4.2328
G1 X139.727 Y58.849 E4.2573
G1 X140.637 Y59.583 E4.3190
G1 X140.968 Y59.909 E4.3435
G1 X141.717 Y60.807 E4.4052
G1 X141.978 Y61.190 E4.4297
G1 X142.537 Y62.217 E4.4915
G1 X142.718 Y62.644 E4.5160
G1 X143.067 Y63.760 E4.5777
G1 X143.161 Y64.214 E4.6022
G1 X143.273 Y65.262 E4.6578
G1 X143.286 Y65.493 E4.6701
G1 X143.339 Y72.020 E5.0147
G1 X143.330 Y72.242 E5.0265
G1 X143.243 Y73.249 E5.0798
G1 X143.163 Y73.686 E5.1033
G1 X142.859 Y74.766 E5.1625
G1 X142.699 Y75.181 E5.1860
G1 X142.199 Y76.185 E5.2452
G1 X141.964 Y76.562 E5.2687
G1 X141.284 Y77.454 E5.3279
G1 X140.982 Y77.781 E5.3514
G1 X140.148 Y78.530 E5.4107
G1 X139.790 Y78.795 E5.4341
G1 X138.830 Y79.375 E5.4934
G1 X138.429 Y79.568 E5.5168
G1 X137.538 Y79.898 E5.5670
G1 X137.441 Y79.932 E5.5724
G1 X136.231 Y80.321 E5.6396
G1 X135.333 Y80.715 E5.6913
G1 X134.479 Y81.197 E5.7431
G1 X133.679 Y81.763 E5.7949
G1 X132.940 Y82.407 E5.8467
G1 X132.270 Y83.123 E5.8984
G1 X131.676 Y83.903 E5.9502
G1 X131.164 Y84.739 E6.0020
G1 X130.739 Y85.623 E6.0537
G1 X130.406 Y86.545 E6.1055
G1 X130.167 Y87.496 E6.1573
G1 X130.027 Y88.466 E6.2091
G1 X129.980 Y89.566 E6.2672
G1 X130.045 Y97.675 E6.6954
G1 X130.407 Y99.507 E6.7940
G1 X130.433 Y99.664 E6.8024
G1 X130.731 Y101.993 E6.9264
G1 X130.746 Y102.153 E6.9349
G1 X130.887 Y104.519 E7.0600
G1 X130.891 Y104.680 E7.0685
G1 X130.870 Y107.050 E7.1937
G1 X130.863 Y107.211 E7.2022
G1 X130.680 Y109.574 E7.3273
G1 X130.662 Y109.734 E7.3358
G1 X130.319 Y112.080 E7.4610
G1 X130.290 Y112.239 E7.4696
G1 X129.782 Y114.576 E7.5958
G1 X129.743 Y114.731 E7.6043
G1 X129.090 Y116.986 E7.7283
G1 X129.040 Y117.139 E7.7368
G1 X128.227 Y119.366 E7.8619
G1 X128.167 Y119.515 E7.8704
G1 X127.204 Y121.681 E7.9956
G1 X127.134 Y121.827 E8.0042
G1 X126.015 Y123.941 E8.1304
G1 X125.935 Y124.079 E8.1389
G1 X124.699 Y126.076 E8.2628
G1 X124.610 Y126.209 E8.2713
G1 X123.227 Y128.135 E8.3965
G1 X123.128 Y128.264 E8.4051
G1 X121.603 Y130.106 E8.5314
G1 X121.497 Y130.225 E8.5398
G1 X119.881 Y131.929 E8.6638
G1 X119.766 Y132.041 E8.6723
G1 X118.021 Y133.646 E8.7974
G1 X117.898 Y133.752 E8.8060
G1 X116.031 Y135.246 E8.9323
G1 X115.903 Y135.341 E8.9407
G1 X113.974 Y136.681 E9.0647
G1 X113.839 Y136.768 E9.0732
G1 X111.805 Y137.984 E9.1983
G1 X111.664 Y138.062 E9.2068
G1 X109.552 Y139.137 E9.3320
G1 X109.406 Y139.205 E9.3405
G1 X107.225 Y140.134 E9.4657
G1 X107.074 Y140.192 E9.4742
G1 X104.814 Y140.976 E9.6005
G1 X104.662 Y141.023 E9.6090
G1 X102.396 Y141.641 E9.7329
G1 X102.240 Y141.677 E9.7414
G1 X99.916 Y142.144 E9.8666
G1 X99.757 Y142.170 E9.8751
G1 X97.407 Y142.477 E10.0002
G1 X97.247 Y142.492 E10.0087
G1 X94.882 Y142.638 E10.1339
G1 X94.721 Y142.642 E10.1424
G1 X92.351 Y142.627 E10.2675
G1 X92.190 Y142.620 E10.2760
G1 X89.826 Y142.443 E10.4012
G1 X89.665 Y142.425 E10.4097
G1 X87.298 Y142.083 E10.5360
G1 X87.140 Y142.055 E10.5445
G1 X84.844 Y141.563 E10.6685
G1 X84.688 Y141.524 E10.6769
G1 X82.410 Y140.870 E10.8021
G1 X82.257 Y140.820 E10.8106
G1 X80.029 Y140.013 E10.9357
G1 X79.880 Y139.953 E10.9442
G1 X77.712 Y138.996 E11.0694
G1 X77.567 Y138.926 E11.0779
G1 X75.469 Y137.823 E11.2030
G1 X75.329 Y137.744 E11.2115
G1 X73.311 Y136.500 E11.3367
G1 X73.176 Y136.410 E11.3453
G1 X71.231 Y135.019 E11.4715
G1 X71.103 Y134.922 E11.4800
G1 X69.290 Y133.429 E11.6040
G1 X69.170 Y133.323 E11.6125
G1 X67.447 Y131.696 E11.7376
G1 X67.334 Y131.582 E11.7461
G1 X65.725 Y129.841 E11.8712
G1 X65.620 Y129.719 E11.8797
G1 X64.134 Y127.873 E12.0049
G1 X64.038 Y127.744 E12.0134
G1 X62.681 Y125.801 E12.1385
G1 X62.593 Y125.666 E12.1470
G1 X61.372 Y123.634 E12.2722
G1 X61.293 Y123.492 E12.2808
G1 X60.205 Y121.363 E12.4070
G1 X60.137 Y121.218 E12.4155
G1 X59.212 Y119.059 E12.5395
G1 X59.154 Y118.910 E12.5480
G1 X58.371 Y116.673 E12.6731
G1 X58.323 Y116.519 E12.6816
G1 X57.694 Y114.234 E12.8068
G1 X57.657 Y114.078 E12.8153
G1 X57.185 Y111.755 E12.9404
G1 X57.159 Y111.596 E12.9489
G1 X56.847 Y109.247 E13.0741
G1 X56.831 Y109.087 E13.0826
G1 X56.679 Y106.721 E13.2077
G1 X56.675 Y106.559 E13.2163
G1 X56.686 Y104.168 E13.3426
G1 X56.692 Y104.007 E13.3510
G1 X56.863 Y101.665 E13.4750
G1 X56.880 Y101.506 E13.4835
G1 X57.212 Y99.159 E13.6086
G1 X57.240 Y99.001 E13.6171
G1 X57.731 Y96.682 E13.7423
G1 X57.770 Y96.526 E13.7508
G1 X58.420 Y94.240 E13.8763
G1 X58.470 Y94.087 E13.8848
G1 X59.272 Y91.856 E14.0100
G1 X59.332 Y91.707 E14.0184
G1 X60.280 Y89.546 E14.1430
G1 X60.350 Y89.401 E14.1515
G1 X61.459 Y87.279 E14.2780
G1 X61.541 Y87.135 E14.2867
G1 X61.724 Y86.839 E14.3051
G1 X61.060 Y86.175 E14.3547
G1 X61.060 Y61.825 E15.6404
G92 E0.0000
G1 E-0.7000 F1500
G1 X61.540 Y62.024 F4800
G1 E0.0000 F1500
G92 E0.0000
G1 X64.024 Y59.540 E0.1855 F1800
G1 X72.917 Y59.540 E0.6550
G1 X74.115 Y58.328 E0.7451
G1 X135.008 Y57.836 E3.9605
G1 X135.216 Y57.844 E3.9715
G1 X136.230 Y57.936 E4.0253
G1 X136.639 Y58.014 E4.0473
G1 X137.716 Y58.331 E4.1065
G1 X138.102 Y58.487 E4.1285
G1 X139.096 Y59.008 E4.1878
G1 X139.444 Y59.237 E4.2098
G1 X140.317 Y59.942 E4.2691
G1 X140.614 Y60.234 E4.2911
G1 X141.333 Y61.096 E4.3503
G1 X141.567 Y61.440 E4.3723
G1 X142.104 Y62.426 E4.4316
G1 X142.267 Y62.810 E4.4536
G1 X142.601 Y63.881 E4.5129
G1 X142.686 Y64.289 E4.5349
G1 X142.794 Y65.301 E4.5886
G1 X142.806 Y65.509 E4.5996
G1 X142.858 Y72.013 E4.9430
G1 X142.851 Y72.212 E4.9536
G1 X142.767 Y73.185 E5.0051
G1 X142.695 Y73.578 E5.0262
G1 X142.403 Y74.614 E5.0831
G1 X142.260 Y74.987 E5.1042
G1 X141.779 Y75.950 E5.1610
G1 X141.568 Y76.289 E5.1821
G1 X140.916 Y77.145 E5.2389
G1 X140.645 Y77.439 E5.2600
G1 X139.844 Y78.158 E5.3169
G1 X139.523 Y78.396 E5.3380
G1 X138.601 Y78.952 E5.3948
G1 X138.241 Y79.126 E5.4159
G1 X137.376 Y79.446 E5.4646
G1 X137.289 Y79.476 E5.4695
G1 X136.061 Y79.872 E5.5376
G1 X135.118 Y80.285 E5.5920
G1 X134.222 Y80.791 E5.6463
G1 X133.382 Y81.385 E5.7006
G1 X132.606 Y82.062 E5.7550
G1 X131.903 Y82.813 E5.8093
G1 X131.279 Y83.632 E5.8637
G1 X130.742 Y84.509 E5.9180
G1 X130.296 Y85.437 E5.9724
G1 X129.946 Y86.405 E6.0267
G1 X129.696 Y87.403 E6.0811
G1 X129.548 Y88.421 E6.1354
G1 X129.500 Y89.557 E6.1954
G1 X129.566 Y97.724 E6.6266
G1 X129.935 Y99.592 E6.7272
G1 X129.958 Y99.733 E6.7348
G1 X130.254 Y102.046 E6.8579
G1 X130.268 Y102.190 E6.8655
G1 X130.407 Y104.540 E6.9898
G1 X130.411 Y104.684 E6.9974
G1 X130.390 Y107.038 E7.1217
G1 X130.383 Y107.182 E7.1294
G1 X130.202 Y109.529 E7.2536
G1 X130.186 Y109.672 E7.2613
G1 X129.845 Y112.002 E7.3856
G1 X129.819 Y112.145 E7.3933
G1 X129.314 Y114.466 E7.5187
G1 X129.279 Y114.605 E7.5263
G1 X128.631 Y116.845 E7.6494
G1 X128.586 Y116.982 E7.6570
G1 X127.779 Y119.193 E7.7813
G1 X127.725 Y119.327 E7.7889
G1 X126.769 Y121.479 E7.9133
G1 X126.705 Y121.610 E7.9210
G1 X125.594 Y123.709 E8.0464
G1 X125.523 Y123.833 E8.0539
G1 X124.295 Y125.816 E8.1771
G1 X124.215 Y125.936 E8.1847
G1 X122.842 Y127.848 E8.3090
G1 X122.753 Y127.964 E8.3167
G1 X121.239 Y129.793 E8.4421
G1 X121.143 Y129.901 E8.4497
G1 X119.538 Y131.592 E8.5728
G1 X119.435 Y131.694 E8.5804
G1 X117.703 Y133.287 E8.7048
G1 X117.592 Y133.382 E8.7125
G1 X115.737 Y134.866 E8.8379
G1 X115.622 Y134.952 E8.8454
G1 X113.707 Y136.282 E8.9686
G1 X113.586 Y136.360 E8.9762
G1 X111.566 Y137.568 E9.1005
G1 X111.439 Y137.638 E9.1081
G1 X109.342 Y138.706 E9.2324
G1 X109.211 Y138.767 E9.2400
G1 X107.045 Y139.689 E9.3643
G1 X106.909 Y139.741 E9.3720
G1 X104.665 Y140.520 E9.4974
G1 X104.528 Y140.562 E9.5050
G1 X102.278 Y141.175 E9.6282
G1 X102.137 Y141.208 E9.6358
G1 X99.830 Y141.671 E9.7601
G1 X99.687 Y141.695 E9.7677
G1 X97.353 Y142.000 E9.8920
G1 X97.209 Y142.013 E9.8996
G1 X94.860 Y142.158 E10.0239
G1 X94.716 Y142.162 E10.0315
G1 X92.362 Y142.147 E10.1558
G1 X92.218 Y142.141 E10.1634
G1 X89.870 Y141.965 E10.2878
G1 X89.725 Y141.949 E10.2954
G1 X87.375 Y141.610 E10.4208
G1 X87.233 Y141.584 E10.4284
G1 X84.953 Y141.095 E10.5516
G1 X84.813 Y141.060 E10.5592
G1 X82.551 Y140.411 E10.6835
G1 X82.413 Y140.366 E10.6911
G1 X80.200 Y139.565 E10.8154
G1 X80.066 Y139.511 E10.8230
G1 X77.913 Y138.560 E10.9473
G1 X77.783 Y138.497 E10.9549
G1 X75.699 Y137.402 E11.0792
G1 X75.574 Y137.331 E11.0869
G1 X73.569 Y136.096 E11.2112
G1 X73.448 Y136.015 E11.2188
G1 X71.516 Y134.634 E11.3443
G1 X71.402 Y134.546 E11.3519
G1 X69.602 Y133.064 E11.4750
G1 X69.494 Y132.968 E11.4826
G1 X67.782 Y131.353 E11.6069
G1 X67.681 Y131.250 E11.6145
G1 X66.084 Y129.521 E11.7388
G1 X65.989 Y129.412 E11.7464
G1 X64.513 Y127.578 E11.8707
G1 X64.427 Y127.462 E11.8784
G1 X63.079 Y125.533 E12.0026
G1 X63.001 Y125.411 E12.0103
G1 X61.788 Y123.394 E12.1346
G1 X61.717 Y123.266 E12.1423
G1 X60.636 Y121.152 E12.2677
G1 X60.575 Y121.021 E12.2753
G1 X59.656 Y118.878 E12.3984
G1 X59.604 Y118.743 E12.4060
G1 X58.827 Y116.522 E12.5303
G1 X58.784 Y116.384 E12.5379
G1 X58.159 Y114.115 E12.6622
G1 X58.126 Y113.974 E12.6699
G1 X57.657 Y111.667 E12.7941
G1 X57.633 Y111.525 E12.8018
G1 X57.323 Y109.192 E12.9261
G1 X57.309 Y109.048 E12.9337
G1 X57.159 Y106.699 E13.0580
G1 X57.155 Y106.553 E13.0657
G1 X57.166 Y104.178 E13.1911
G1 X57.171 Y104.034 E13.1987
G1 X57.341 Y101.708 E13.3218
G1 X57.356 Y101.565 E13.3295
G1 X57.686 Y99.235 E13.4537
G1 X57.711 Y99.092 E13.4614
G1 X58.199 Y96.790 E13.5856
G1 X58.234 Y96.649 E13.5933
G1 X58.880 Y94.379 E13.7179
G1 X58.924 Y94.241 E13.7256
G1 X59.721 Y92.026 E13.8498
G1 X59.775 Y91.892 E13.8575
G1 X60.716 Y89.747 E13.9812
G1 X60.779 Y89.616 E13.9888
G1 X61.881 Y87.509 E14.1144
G1 X61.954 Y87.380 E14.1223
G1 X62.331 Y86.767 E14.1602
G1 X61.540 Y85.976 E14.2193
G1 X61.540 Y62.024 E15.4841
G92 E0.0000
G1 E-0.7000 F1500
; feature inner perimeter
G1 X76.620 Y63.267 F4800
G1 E0.0000 F1500
G92 E0.0000
G1 X130.805 Y62.830 E2.8612 F1350
G1 X130.893 Y63.149 E2.8787
G1 X126.421 Y65.780 E3.1527
G1 X126.471 Y72.011 E3.4817
G1 X131.893 Y75.083 E3.8108
G1 X137.264 Y71.924 E4.1398
G1 X137.214 Y65.693 E4.4688
G1 X132.700 Y63.135 E4.7428
G1 X132.783 Y62.814 E4.7603
G1 X134.908 Y62.797 E4.8725
G1 X135.505 Y62.851 E4.9042
G1 X136.046 Y63.010 E4.9340
G1 X136.546 Y63.272 E4.9637
G1 X136.984 Y63.626 E4.9935
G1 X137.346 Y64.059 E5.0233
