; G-Code generated by Simplify3D(R) Version 4.1.1
; Apr 27, 2021 at 8:36:22 AM
; Settings Summary
;   processName,Trideo BOX
;   applyToModels,Left Fingers
;   profileName,Trideo BOX
;   profileVersion,2021-04-15 09:48:16
;   baseProfile,Default
;   printMaterial,PLA
;   printQuality,Fast
;   printExtruders,
;   extruderName,Primary Extruder
;   extruderToolheadNumber,0
;   extruderDiameter,0.4
;   extruderAutoWidth,1
;   extruderWidth,0.48
;   extrusionMultiplier,0.98
;   extruderUseRetract,1
;   extruderRetractionDistance,0.7
;   extruderExtraRestartDistance,0
;   extruderRetractionZLift,0
;   extruderRetractionSpeed,1500
;   extruderUseCoasting,0
;   extruderCoastingDistance,0.2
;   extruderUseWipe,0
;   extruderWipeDistance,5
;   primaryExtruder,0
;   layerHeight,0.3
;   topSolidLayers,3
;   bottomSolidLayers,3
;   perimeterOutlines,2
;   printPerimetersInsideOut,1
;   startPointOption,2
;   startPointOriginX,0
;   startPointOriginY,0
;   sequentialIslands,0
;   spiralVaseMode,0
;   firstLayerHeightPercentage,90
;   firstLayerWidthPercentage,100
;   firstLayerUnderspeed,0.5
;   useRaft,0
;   raftExtruder,0
;   raftTopLayers,3
;   raftBaseLayers,2
;   raftOffset,3
;   raftSeparationDistance,0.14
;   raftTopInfill,100
;   aboveRaftSpeedMultiplier,0.3
;   useSkirt,1
;   skirtExtruder,0
;   skirtLayers,1
;   skirtOutlines,2
;   skirtOffset,4
;   usePrimePillar,0
;   primePillarExtruder,999
;   primePillarWidth,12
;   primePillarLocation,7
;   primePillarSpeedMultiplier,1
;   useOozeShield,0
;   oozeShieldExtruder,999
;   oozeShieldOffset,2
;   oozeShieldOutlines,1
;   oozeShieldSidewallShape,1
;   oozeShieldSidewallAngle,30
;   oozeShieldSpeedMultiplier,1
;   infillExtruder,0
;   internalInfillPattern,Rectilinear
;   externalInfillPattern,Rectilinear
;   infillPercentage,15
;   outlineOverlapPercentage,15
;   infillExtrusionWidthPercentage,100
;   minInfillLength,5
;   infillLayerInterval,1
;   internalInfillAngles,45,-45
;   overlapInternalInfillAngles,0
;   externalInfillAngles,45,-45
;   generateSupport,1
;   supportExtruder,0
;   supportInfillPercentage,25
;   supportExtraInflation,0
;   supportBaseLayers,0
;   denseSupportExtruder,0
;   denseSupportLayers,0
;   denseSupportInfillPercentage,70
;   supportLayerInterval,1
;   supportHorizontalPartOffset,0.3
;   supportUpperSeparationLayers,1
;   supportLowerSeparationLayers,1
;   supportType,0
;   supportGridSpacing,4
;   maxOverhangAngle,45
;   supportAngles,0
;   temperatureName,Primary Extruder,Heated bed
;   temperatureNumber,0,0
;   temperatureSetpointCount,1,1
;   temperatureSetpointLayers,1,1
;   temperatureSetpointTemperatures,190,60
;   temperatureStabilizeAtStartup,1,1
;   temperatureHeatedBed,0,1
;   fanLayers,1,2
;   fanSpeeds,0,100
;   blipFanToFullPower,0
;   adjustSpeedForCooling,1
;   minSpeedLayerTime,15
;   minCoolingSpeedSlowdown,20
;   increaseFanForCooling,0
;   minFanLayerTime,45
;   maxCoolingFanSpeed,100
;   increaseFanForBridging,0
;   bridgingFanSpeed,100
;   use5D,1
;   relativeEdistances,0
;   allowEaxisZeroing,1
;   independentExtruderAxes,0
;   includeM10123,0
;   stickySupport,1
;   applyToolheadOffsets,0
;   gcodeXoffset,0
;   gcodeYoffset,0
;   gcodeZoffset,0
;   overrideMachineDefinition,1
;   machineTypeOverride,0
;   strokeXoverride,200
;   strokeYoverride,200
;   strokeZoverride,200
;   originOffsetXoverride,0
;   originOffsetYoverride,0
;   originOffsetZoverride,0
;   homeXdirOverride,-1
;   homeYdirOverride,-1
;   homeZdirOverride,-1
;   flipXoverride,1
;   flipYoverride,-1
;   flipZoverride,1
;   toolheadOffsets,0,0|0,0|0,0|0,0|0,0|0,0
;   overrideFirmwareConfiguration,0
;   firmwareTypeOverride,RepRap (Marlin/Repetier/Sprinter)
;   GPXconfigOverride,r2
;   baudRateOverride,115200
;   overridePrinterModels,0
;   printerModelsOverride
;   startingGcode,G28 X0 Y0; home XY,G1 X20 Y20,G28 Z0,G1 Z5 F5000; Lift NZ
;   layerChangeGcode,
;   retractionGcode,
;   toolChangeGcode,
;   endingGcode,M104 S0 ; turn off extruder,G28 X0 ; home x,M140 S0 ; turn off bed,M84 ; disable motors,M107 ;
;   exportFileFormat,gcode
;   celebration,0
;   celebrationSong,Looney Toons
;   postProcessing,
;   defaultSpeed,3600
;   outlineUnderspeed,0.5
;   solidInfillUnderspeed,0.8
;   supportUnderspeed,0.8
;   rapidXYspeed,4800
;   rapidZspeed,1002
;   minBridgingArea,50
;   bridgingExtraInflation,0
;   bridgingExtrusionMultiplier,1
;   bridgingSpeedMultiplier,1
;   useFixedBridgingAngle,0
;   fixedBridgingAngle,0
;   applyBridgingToPerimeters,0
;   filamentDiameters,1.75|1.75|1.75|1.75|1.75|1.75
;   filamentPricesPerKg,46|46|46|46|46|46
;   filamentDensities,1.25|1.25|1.25|1.25|1.25|1.25
;   useMinPrintHeight,0
;   minPrintHeight,0
;   useMaxPrintHeight,0
;   maxPrintHeight,0
;   useDiaphragm,0
;   diaphragmLayerInterval,20
;   robustSlicing,1
;   mergeAllIntoSolid,0
;   onlyRetractWhenCrossingOutline,1
;   retractBetweenLayers,1
;   useRetractionMinTravel,0
;   retractionMinTravel,3
;   retractWhileWiping,0
;   onlyWipeOutlines,1
;   avoidCrossingOutline,0
;   maxMovementDetourFactor,3
;   toolChangeRetractionDistance,12
;   toolChangeExtraRestartDistance,-0.5
;   toolChangeRetractionSpeed,600
;   externalThinWallType,0
;   internalThinWallType,2
;   thinWallAllowedOverlapPercentage,10
;   singleExtrusionMinLength,1
;   singleExtrusionMinPrintingWidthPercentage,50
;   singleExtrusionMaxPrintingWidthPercentage,200
;   singleExtrusionEndpointExtension,0.2
;   horizontalSizeCompensation,0
G90
M82
M106 S0
M140 S60
M190 S60
M104 S190 T0
M109 S190 T0
G28 X0 Y0; home XY
G1 X20 Y20
G28 Z0
G1 Z5 F5000; Lift NZ
; process Trideo BOX
; layer 1, Z = 0.270
T0
G92 E0.0000
G1 E-0.7000 F1500
; feature skirt
; tool H0.270 W0.480
G1 Z0.270 F1002
G1 X61.825 Y61.060 F4800
G1 E0.0000 F1500
G92 E0.0000
G1 X63.060 Y61.060 E0.0652 F1800
G1 X63.060 Y59.825 E0.1304
G1 X65.825 Y57.060 E0.3369
G1 X78.175 Y57.060 E0.9890
G1 X80.000 Y58.885 E1.1253
G1 X81.825 Y57.060 E1.2616
G1 X122.175 Y57.060 E3.3922
G1 X124.940 Y59.825 E3.5987
G1 X124.940 Y76.175 E4.4621
G1 X124.055 Y77.060 E4.5281
G1 X126.175 Y77.060 E4.6401
G1 X128.940 Y79.825 E4.8466
G1 X128.940 Y96.175 E5.7099
G1 X126.175 Y98.940 E5.9164
G1 X100.940 Y98.940 E7.2489
G1 X100.940 Y101.060 E7.3608
G1 X126.175 Y101.060 E8.6933
G1 X127.323 Y102.208 E8.7790
G1 X127.572 Y102.051 E8.7946
G1 X129.473 Y101.412 E8.9005
G1 X129.825 Y101.060 E8.9268
G1 X138.175 Y101.060 E9.3677
G1 X140.940 Y103.825 E9.5742
G1 X140.940 Y116.175 E10.2263
G1 X138.175 Y118.940 E10.4328
G1 X133.555 Y118.940 E10.6767
G1 X133.000 Y119.567 E10.7209
G1 X132.940 Y119.583 E10.7242
G1 X132.940 Y120.175 E10.7555
G1 X130.175 Y122.940 E10.9620
G1 X128.055 Y122.940 E11.0739
G1 X128.940 Y123.825 E11.1400
G1 X128.940 Y140.175 E12.0033
G1 X126.175 Y142.940 E12.2098
G1 X61.825 Y142.940 E15.6077
G1 X59.060 Y140.175 E15.8142
G1 X59.060 Y131.825 E16.2551
G1 X61.825 Y129.060 E16.4616
G1 X63.060 Y129.060 E16.5268
G1 X63.060 Y123.825 E16.8032
G1 X65.825 Y121.060 E17.0097
G1 X78.175 Y121.060 E17.6619
G1 X79.060 Y121.945 E17.7279
G1 X79.060 Y118.055 E17.9333
G1 X78.175 Y118.940 E17.9994
G1 X65.825 Y118.940 E18.6516
G1 X63.060 Y116.175 E18.8580
G1 X63.060 Y103.825 E19.5102
G1 X65.825 Y101.060 E19.7166
G1 X78.175 Y101.060 E20.3688
G1 X79.060 Y101.945 E20.4348
G1 X79.060 Y98.055 E20.6402
G1 X78.175 Y98.940 E20.7063
G1 X65.825 Y98.940 E21.3585
G1 X63.060 Y96.175 E21.5649
G1 X63.060 Y83.825 E22.2171
G1 X65.825 Y81.060 E22.4235
G1 X78.175 Y81.060 E23.0757
G1 X79.060 Y81.945 E23.1418
G1 X79.060 Y78.055 E23.3472
G1 X78.175 Y78.940 E23.4132
G1 X65.825 Y78.940 E24.0654
G1 X63.060 Y76.175 E24.2718
G1 X63.060 Y74.940 E24.3371
G1 X61.825 Y74.940 E24.4023
G1 X59.060 Y72.175 E24.6088
G1 X59.060 Y63.825 E25.0497
G1 X61.825 Y61.060 E25.2561
G92 E0.0000
G1 E-0.7000 F1500
G1 X62.024 Y61.540 F4800
G1 E0.0000 F1500
G92 E0.0000
G1 X63.540 Y61.540 E0.0801 F1800
G1 X63.540 Y60.024 E0.1601
G1 X66.024 Y57.540 E0.3456
G1 X77.976 Y57.540 E0.9767
G1 X80.000 Y59.564 E1.1279
G1 X82.024 Y57.540 E1.2790
G1 X121.976 Y57.540 E3.3886
G1 X124.460 Y60.024 E3.5741
G1 X124.460 Y75.976 E4.4165
G1 X122.896 Y77.540 E4.5332
G1 X125.976 Y77.540 E4.6959
G1 X128.460 Y80.024 E4.8813
G1 X128.460 Y95.976 E5.7237
G1 X125.976 Y98.460 E5.9092
G1 X100.460 Y98.460 E7.2565
G1 X100.460 Y101.540 E7.4192
G1 X125.976 Y101.540 E8.7665
G1 X127.254 Y102.818 E8.8619
G1 X127.779 Y102.488 E8.8947
G1 X129.733 Y101.831 E9.0035
G1 X130.024 Y101.540 E9.0253
G1 X137.976 Y101.540 E9.4452
G1 X140.460 Y104.024 E9.6306
G1 X140.460 Y115.976 E10.2618
G1 X137.976 Y118.460 E10.4473
G1 X133.339 Y118.460 E10.6921
G1 X132.737 Y119.140 E10.7401
G1 X132.460 Y119.214 E10.7552
G1 X132.460 Y119.976 E10.7955
G1 X129.976 Y122.460 E10.9809
G1 X126.896 Y122.460 E11.1436
G1 X128.460 Y124.024 E11.2603
G1 X128.460 Y139.976 E12.1027
G1 X125.976 Y142.460 E12.2882
G1 X62.024 Y142.460 E15.6651
G1 X59.540 Y139.976 E15.8506
G1 X59.540 Y132.024 E16.2705
G1 X62.024 Y129.540 E16.4560
G1 X63.540 Y129.540 E16.5361
G1 X63.540 Y124.024 E16.8273
G1 X66.024 Y121.540 E17.0128
G1 X77.976 Y121.540 E17.6439
G1 X79.540 Y123.104 E17.7607
G1 X79.540 Y116.896 E18.0885
G1 X77.976 Y118.460 E18.2053
G1 X66.024 Y118.460 E18.8364
G1 X63.540 Y115.976 E19.0219
G1 X63.540 Y104.024 E19.6530
G1 X66.024 Y101.540 E19.8385
G1 X77.976 Y101.540 E20.4696
G1 X79.540 Y103.104 E20.5864
G1 X79.540 Y96.896 E20.9142
G1 X77.976 Y98.460 E21.0310
G1 X66.024 Y98.460 E21.6621
G1 X63.540 Y95.976 E21.8476
G1 X63.540 Y84.024 E22.4787
G1 X66.024 Y81.540 E22.6642
G1 X77.976 Y81.540 E23.2953
G1 X79.540 Y83.104 E23.4121
G1 X79.540 Y76.896 E23.7399
G1 X77.976 Y78.460 E23.8566
G1 X66.024 Y78.460 E24.4878
G1 X63.540 Y75.976 E24.6733
G1 X63.540 Y74.460 E24.7533
G1 X62.024 Y74.460 E24.8334
G1 X59.540 Y71.976 E25.0189
G1 X59.540 Y64.024 E25.4388
G1 X62.024 Y61.540 E25.6243
G92 E0.0000
G1 E-0.7000 F1500
; feature outer perimeter
G1 X129.332 Y106.973 F4800
G1 E0.0000 F1500
G92 E0.0000
G1 X129.739 Y106.555 E0.0308 F900
G1 X130.335 Y106.355 E0.0640
G1 X130.384 Y106.410 E0.0679
G1 X130.499 Y106.903 E0.0946
G1 X130.499 Y114.547 E0.4983
G1 X130.384 Y115.040 E0.5250
G1 X130.335 Y115.095 E0.5289
G1 X129.739 Y114.895 E0.5620
G1 X129.332 Y114.477 E0.5928
G1 X129.332 Y106.973 E0.9891
; feature gap fill
G1 X129.984 Y106.904 F4800
G92 E0.0000
G1 X130.091 Y107.011 E0.0080 F1800
G1 X130.091 Y107.690 E0.0439
G1 X129.740 Y107.339 E0.0701
G1 X129.740 Y108.018 E0.1059
G1 X130.091 Y108.369 E0.1322
G1 X130.091 Y109.048 E0.1680
G1 X129.740 Y108.696 E0.1942
G1 X129.740 Y109.375 E0.2301
G1 X130.091 Y109.726 E0.2563
G1 X130.091 Y110.405 E0.2921
G1 X129.740 Y110.054 E0.3184
G1 X129.740 Y110.733 E0.3542
G1 X130.091 Y111.084 E0.3804
G1 X130.091 Y111.763 E0.4163
G1 X129.740 Y111.412 E0.4425
G1 X129.740 Y112.091 E0.4784
G1 X130.091 Y112.442 E0.5046
G1 X130.091 Y113.121 E0.5404
G1 X129.740 Y112.769 E0.5667
G1 X129.740 Y113.448 E0.6025
G1 X130.091 Y113.799 E0.6287
G1 X130.091 Y114.478 E0.6646
G1 X129.740 Y114.127 E0.6908
G92 E0.0000
G1 E-0.7000 F1500
; feature support
G1 X132.030 Y113.440 F4800
G1 E0.0000 F1500
G92 E0.0000
G1 X135.970 Y113.440 E0.2080 F1440
G1 X135.970 Y111.520 E0.3094
G1 X132.030 Y111.520 E0.5175
G1 X132.030 Y109.600 E0.6189
G1 X135.970 Y109.600 E0.8269
G1 X135.970 Y107.680 E0.9283
G1 X132.030 Y107.680 E1.1363
G92 E0.0000
G1 E-0.7000 F1500
G1 X92.030 Y103.840 F4800
G1 E0.0000 F1500
G92 E0.0000
G1 X95.970 Y103.840 E0.2080 F1440
G1 X95.970 Y101.920 E0.3094
G1 X92.030 Y101.920 E0.5175
G1 X92.030 Y100.000 E0.6189
G1 X95.970 Y100.000 E0.8269
G1 X95.970 Y98.080 E0.9283
G1 X92.030 Y98.080 E1.1363
G1 X92.030 Y96.160 E1.2377
G1 X95.970 Y96.160 E1.4458
G1 X95.970 Y94.240 E1.5472
G1 X92.030 Y94.240 E1.7552
G92 E0.0000
G1 E-0.7000 F1500
G1 X84.030 Y80.800 F4800
G1 E0.0000 F1500
G92 E0.0000
G1 X87.970 Y80.800 E0.2080 F1440
G1 X87.970 Y78.880 E0.3094
G1 X84.030 Y78.880 E0.5175
G1 X84.030 Y76.960 E0.6189
G1 X87.970 Y76.960 E0.8269
G1 X87.970 Y75.040 E0.9283
G1 X84.030 Y75.040 E1.1363
G1 X84.030 Y73.120 E1.2377
G1 X119.970 Y73.120 E3.1355
G1 X119.970 Y71.200 E3.2369
G1 X84.030 Y71.200 E5.1346
G1 X84.030 Y69.970 E5.1996
G1 X79.476 Y69.970 E5.4400
G1 X79.476 Y69.280 E5.4765
G1 X119.970 Y69.280 E7.6147
G1 X119.970 Y67.360 E7.7161
G1 X79.476 Y67.360 E9.8543
G92 E0.0000
G1 E-0.7000 F1500
G1 X84.030 Y65.440 F4800
G1 E0.0000 F1500
G92 E0.0000
G1 X119.970 Y65.440 E1.8978 F1440
G1 X119.970 Y63.520 E1.9992
G1 X84.030 Y63.520 E3.8969
G92 E0.0000
G1 E-0.7000 F1500
G1 X92.030 Y75.040 F4800
G1 E0.0000 F1500
G92 E0.0000
G1 X95.970 Y75.040 E0.2080 F1440
G1 X95.970 Y76.960 E0.3094
G1 X92.030 Y76.960 E0.5175
G1 X92.030 Y78.880 E0.6189
G1 X95.970 Y78.880 E0.8269
G1 X95.970 Y80.800 E0.9283
G1 X92.030 Y80.800 E1.1363
G1 X92.030 Y82.030 E1.2013
G1 X88.030 Y82.030 E1.4125
G1 X88.030 Y82.720 E1.4489
G1 X123.970 Y82.720 E3.3467
G1 X123.970 Y84.640 E3.4481
G1 X88.030 Y84.640 E5.3459
G1 X88.030 Y86.030 E5.4193
G1 X84.030 Y86.030 E5.6305
G1 X84.030 Y86.560 E5.6585
G1 X123.970 Y86.560 E7.7674
G1 X123.970 Y88.480 E7.8688
G1 X84.030 Y88.480 E9.9778
G1 X84.030 Y90.400 E10.0792
G1 X123.970 Y90.400 E12.1882
G1 X123.970 Y92.320 E12.2896
G1 X84.030 Y92.320 E14.3985
G1 X84.030 Y94.240 E14.4999
G1 X87.970 Y94.240 E14.7080
G1 X87.970 Y96.160 E14.8094
G1 X84.030 Y96.160 E15.0174
G1 X84.030 Y98.080 E15.1188
G1 X87.970 Y98.080 E15.3268
G1 X87.970 Y100.000 E15.4282
G1 X84.030 Y100.000 E15.6363
G1 X84.030 Y101.920 E15.7376
G1 X87.970 Y101.920 E15.9457
G1 X87.970 Y103.840 E16.0471
G1 X84.030 Y103.840 E16.2551
G1 X84.030 Y105.760 E16.3565
G1 X87.970 Y105.760 E16.5645
G1 X87.970 Y106.030 E16.5788
G1 X92.030 Y106.030 E16.7932
G1 X92.030 Y105.760 E16.8074
G1 X95.970 Y105.760 E17.0155
G1 X95.970 Y106.030 E17.0297
G1 X123.970 Y106.030 E18.5083
G1 X123.970 Y107.680 E18.5954
G1 X84.030 Y107.680 E20.7044
G1 X84.030 Y109.600 E20.8057
G1 X123.970 Y109.600 E22.9147
G1 X123.970 Y111.520 E23.0161
G1 X84.030 Y111.520 E25.1251
G1 X84.030 Y113.440 E25.2265
G1 X123.970 Y113.440 E27.3355
G1 X123.970 Y114.030 E27.3666
G1 X125.735 Y114.030 E27.4598
G1 X125.735 Y114.716 E27.4960
G1 X125.895 Y115.003 E27.5134
G1 X126.253 Y115.360 E27.5401
G1 X88.030 Y115.360 E29.5584
G1 X88.030 Y117.280 E29.6598
G1 X127.970 Y117.280 E31.7688
G1 X127.970 Y117.970 E31.8052
G1 X95.970 Y117.970 E33.4950
G1 X95.970 Y119.200 E33.5599
G1 X92.030 Y119.200 E33.7680
G1 X92.030 Y121.120 E33.8693
G1 X95.970 Y121.120 E34.0774
G1 X95.970 Y123.040 E34.1788
G1 X92.030 Y123.040 E34.3868
G1 X92.030 Y124.960 E34.4882
G1 X95.970 Y124.960 E34.6962
G1 X95.970 Y126.030 E34.7527
G1 X123.970 Y126.030 E36.2313
G1 X123.970 Y126.880 E36.2761
G1 X84.030 Y126.880 E38.3851
G1 X84.030 Y124.960 E38.4865
G1 X87.970 Y124.960 E38.6945
G1 X87.970 Y123.040 E38.7959
G1 X84.030 Y123.040 E39.0040
G1 X84.030 Y121.120 E39.1054
G1 X87.970 Y121.120 E39.3134
G1 X87.970 Y119.200 E39.4148
G1 X84.030 Y119.200 E39.6228
G92 E0.0000
G1 E-0.7000 F1500
G1 X84.030 Y128.800 F4800
G1 E0.0000 F1500
G92 E0.0000
G1 X123.970 Y128.800 E2.1090 F1440
G1 X123.970 Y130.720 E2.2104
G1 X79.476 Y130.720 E4.5598
G1 X79.476 Y132.640 E4.6612
G1 X123.970 Y132.640 E7.0106
G1 X123.970 Y134.560 E7.1120
G1 X79.476 Y134.560 E9.4615
G1 X79.476 Y136.480 E9.5628
G1 X123.970 Y136.480 E11.9123
G1 X123.970 Y137.970 E11.9910
G1 X64.030 Y137.970 E15.1560
G1 X64.030 Y136.480 E15.2347
G1 X78.084 Y136.480 E15.9768
G1 X78.084 Y134.560 E16.0782
G1 X64.030 Y134.560 E16.8203
G1 X64.030 Y134.030 E16.8483
G1 X68.030 Y134.030 E17.0595
G1 X68.030 Y132.640 E17.1329
G1 X78.085 Y132.640 E17.6638
G1 X78.085 Y130.720 E17.7652
G1 X68.030 Y130.720 E18.2961
G1 X68.030 Y128.800 E18.3975
G1 X75.970 Y128.800 E18.8168
G1 X75.970 Y126.880 E18.9181
G1 X68.030 Y126.880 E19.3374
G92 E0.0000
G1 E-0.7000 F1500
G1 X68.030 Y113.440 F4800
G1 E0.0000 F1500
G92 E0.0000
G1 X75.970 Y113.440 E0.4193 F1440
G1 X75.970 Y111.520 E0.5206
G1 X68.030 Y111.520 E0.9399
G1 X68.030 Y109.600 E1.0413
G1 X75.970 Y109.600 E1.4606
G1 X75.970 Y107.680 E1.5619
G1 X68.030 Y107.680 E1.9812
G92 E0.0000
G1 E-0.7000 F1500
G1 X68.030 Y92.320 F4800
G1 E0.0000 F1500
G92 E0.0000
G1 X75.970 Y92.320 E0.4193 F1440
G1 X75.970 Y90.400 E0.5206
G1 X68.030 Y90.400 E0.9399
