; G-Code generated by Simplify3D(R) Version 4.1.1
; Apr 27, 2021 at 8:30:48 AM
; Settings Summary
;   processName,Trideo BOX
;   applyToModels,Left Fingers
;   profileName,Trideo BOX
;   profileVersion,2021-04-15 09:48:16
;   baseProfile,Default
;   printMaterial,PLA
;   printQuality,Fast
;   printExtruders,
;   extruderName,Primary Extruder
;   extruderToolheadNumber,0
;   extruderDiameter,0.4
;   extruderAutoWidth,1
;   extruderWidth,0.48
;   extrusionMultiplier,0.98
;   extruderUseRetract,1
;   extruderRetractionDistance,0.7
;   extruderExtraRestartDistance,0
;   extruderRetractionZLift,0
;   extruderRetractionSpeed,1500
;   extruderUseCoasting,0
;   extruderCoastingDistance,0.2
;   extruderUseWipe,0
;   extruderWipeDistance,5
;   primaryExtruder,0
;   layerHeight,0.3
;   topSolidLayers,3
;   bottomSolidLayers,3
;   perimeterOutlines,2
;   printPerimetersInsideOut,1
;   startPointOption,2
;   startPointOriginX,0
;   startPointOriginY,0
;   sequentialIslands,0
;   spiralVaseMode,0
;   firstLayerHeightPercentage,90
;   firstLayerWidthPercentage,100
;   firstLayerUnderspeed,0.5
;   useRaft,0
;   raftExtruder,0
;   raftTopLayers,3
;   raftBaseLayers,2
;   raftOffset,3
;   raftSeparationDistance,0.14
;   raftTopInfill,100
;   aboveRaftSpeedMultiplier,0.3
;   useSkirt,1
;   skirtExtruder,0
;   skirtLayers,1
;   skirtOutlines,2
;   skirtOffset,4
;   usePrimePillar,0
;   primePillarExtruder,999
;   primePillarWidth,12
;   primePillarLocation,7
;   primePillarSpeedMultiplier,1
;   useOozeShield,0
;   oozeShieldExtruder,999
;   oozeShieldOffset,2
;   oozeShieldOutlines,1
;   oozeShieldSidewallShape,1
;   oozeShieldSidewallAngle,30
;   oozeShieldSpeedMultiplier,1
;   infillExtruder,0
;   internalInfillPattern,Rectilinear
;   externalInfillPattern,Rectilinear
;   infillPercentage,15
;   outlineOverlapPercentage,15
;   infillExtrusionWidthPercentage,100
;   minInfillLength,5
;   infillLayerInterval,1
;   internalInfillAngles,45,-45
;   overlapInternalInfillAngles,0
;   externalInfillAngles,45,-45
;   generateSupport,1
;   supportExtruder,0
;   supportInfillPercentage,25
;   supportExtraInflation,0
;   supportBaseLayers,0
;   denseSupportExtruder,0
;   denseSupportLayers,0
;   denseSupportInfillPercentage,70
;   supportLayerInterval,1
;   supportHorizontalPartOffset,0.3
;   supportUpperSeparationLayers,1
;   supportLowerSeparationLayers,1
;   supportType,0
;   supportGridSpacing,4
;   maxOverhangAngle,45
;   supportAngles,0
;   temperatureName,Primary Extruder,Heated bed
;   temperatureNumber,0,0
;   temperatureSetpointCount,1,1
;   temperatureSetpointLayers,1,1
;   temperatureSetpointTemperatures,190,60
;   temperatureStabilizeAtStartup,1,1
;   temperatureHeatedBed,0,1
;   fanLayers,1,2
;   fanSpeeds,0,100
;   blipFanToFullPower,0
;   adjustSpeedForCooling,1
;   minSpeedLayerTime,15
;   minCoolingSpeedSlowdown,20
;   increaseFanForCooling,0
;   minFanLayerTime,45
;   maxCoolingFanSpeed,100
;   increaseFanForBridging,0
;   bridgingFanSpeed,100
;   use5D,1
;   relativeEdistances,0
;   allowEaxisZeroing,1
;   independentExtruderAxes,0
;   includeM10123,0
;   stickySupport,1
;   applyToolheadOffsets,0
;   gcodeXoffset,0
;   gcodeYoffset,0
;   gcodeZoffset,0
;   overrideMachineDefinition,1
;   machineTypeOverride,0
;   strokeXoverride,200
;   strokeYoverride,200
;   strokeZoverride,200
;   originOffsetXoverride,0
;   originOffsetYoverride,0
;   originOffsetZoverride,0
;   homeXdirOverride,-1
;   homeYdirOverride,-1
;   homeZdirOverride,-1
;   flipXoverride,1
;   flipYoverride,-1
;   flipZoverride,1
;   toolheadOffsets,0,0|0,0|0,0|0,0|0,0|0,0
;   overrideFirmwareConfiguration,0
;   firmwareTypeOverride,RepRap (Marlin/Repetier/Sprinter)
;   GPXconfigOverride,r2
;   baudRateOverride,115200
;   overridePrinterModels,0
;   printerModelsOverride
;   startingGcode,G28 X0 Y0; home XY,G1 X20 Y20,G28 Z0,G1 Z5 F5000; Lift NZ
;   layerChangeGcode,
;   retractionGcode,
;   toolChangeGcode,
;   endingGcode,M104 S0 ; turn off extruder,G28 X0 ; home x,M140 S0 ; turn off bed,M84 ; disable motors,M107 ;
;   exportFileFormat,gcode
;   celebration,0
;   celebrationSong,Looney Toons
;   postProcessing,
;   defaultSpeed,3600
;   outlineUnderspeed,0.5
;   solidInfillUnderspeed,0.8
;   supportUnderspeed,0.8
;   rapidXYspeed,4800
;   rapidZspeed,1002
;   minBridgingArea,50
;   bridgingExtraInflation,0
;   bridgingExtrusionMultiplier,1
;   bridgingSpeedMultiplier,1
;   useFixedBridgingAngle,0
;   fixedBridgingAngle,0
;   applyBridgingToPerimeters,0
;   filamentDiameters,1.75|1.75|1.75|1.75|1.75|1.75
;   filamentPricesPerKg,46|46|46|46|46|46
;   filamentDensities,1.25|1.25|1.25|1.25|1.25|1.25
;   useMinPrintHeight,0
;   minPrintHeight,0
;   useMaxPrintHeight,0
;   maxPrintHeight,0
;   useDiaphragm,0
;   diaphragmLayerInterval,20
;   robustSlicing,1
;   mergeAllIntoSolid,0
;   onlyRetractWhenCrossingOutline,1
;   retractBetweenLayers,1
;   useRetractionMinTravel,0
;   retractionMinTravel,3
;   retractWhileWiping,0
;   onlyWipeOutlines,1
;   avoidCrossingOutline,0
;   maxMovementDetourFactor,3
;   toolChangeRetractionDistance,12
;   toolChangeExtraRestartDistance,-0.5
;   toolChangeRetractionSpeed,600
;   externalThinWallType,0
;   internalThinWallType,2
;   thinWallAllowedOverlapPercentage,10
;   singleExtrusionMinLength,1
;   singleExtrusionMinPrintingWidthPercentage,50
;   singleExtrusionMaxPrintingWidthPercentage,200
;   singleExtrusionEndpointExtension,0.2
;   horizontalSizeCompensation,0
G90
M82
M106 S0
M140 S60
M190 S60
M104 S190 T0
M109 S190 T0
G28 X0 Y0; home XY
G1 X20 Y20
G28 Z0
G1 Z5 F5000; Lift NZ
; process Trideo BOX
; layer 1, Z = 0.270
T0
G92 E0.0000
G1 E-0.7000 F1500
; feature skirt
; tool H0.270 W0.480
G1 Z0.270 F1002
G1 X59.060 Y59.825 F4800
G1 E0.0000 F1500
G92 E0.0000
G1 X61.825 Y57.060 E0.2065 F1800
G1 X63.060 Y57.060 E0.2717
G1 X63.060 Y55.825 E0.3369
G1 X65.825 Y53.060 E0.5434
G1 X78.175 Y53.060 E1.1955
G1 X80.000 Y54.885 E1.3318
G1 X81.825 Y53.060 E1.4681
G1 X122.175 Y53.060 E3.5987
G1 X124.940 Y55.825 E3.8052
G1 X124.940 Y72.175 E4.6685
G1 X122.175 Y74.940 E4.8750
G1 X100.940 Y74.940 E5.9963
G1 X100.940 Y77.060 E6.1082
G1 X130.175 Y77.060 E7.6520
G1 X132.940 Y79.825 E7.8584
G1 X132.940 Y96.175 E8.7218
G1 X130.175 Y98.940 E8.9283
G1 X100.940 Y98.940 E10.4720
G1 X100.940 Y101.060 E10.5839
G1 X130.175 Y101.060 E12.1277
G1 X131.401 Y102.285 E12.2192
G1 X133.018 Y101.741 E12.3093
G1 X135.766 Y102.475 E12.4595
G1 X137.279 Y104.183 E12.5800
G1 X137.817 Y105.221 E12.6417
G1 X138.162 Y106.683 E12.7210
G1 X138.225 Y107.226 E12.7499
G1 X138.225 Y116.174 E13.2224
G1 X138.162 Y116.717 E13.2513
G1 X137.817 Y118.179 E13.3305
G1 X137.279 Y119.217 E13.3923
G1 X135.766 Y120.925 E13.5128
G1 X133.018 Y121.659 E13.6630
G1 X131.849 Y121.266 E13.7281
G1 X130.175 Y122.940 E13.8531
G1 X104.055 Y122.940 E15.2324
G1 X104.940 Y123.825 E15.2984
G1 X104.940 Y125.060 E15.3637
G1 X130.175 Y125.060 E16.6962
G1 X132.940 Y127.825 E16.9026
G1 X132.940 Y144.175 E17.7660
G1 X130.175 Y146.940 E17.9725
G1 X81.825 Y146.940 E20.5255
G1 X79.060 Y144.175 E20.7320
G1 X79.060 Y142.940 E20.7972
G1 X76.940 Y142.940 E20.9092
G1 X76.940 Y144.175 E20.9744
G1 X74.175 Y146.940 E21.1809
G1 X65.825 Y146.940 E21.6218
G1 X63.060 Y144.175 E21.8282
G1 X63.060 Y142.940 E21.8935
G1 X61.825 Y142.940 E21.9587
G1 X59.060 Y140.175 E22.1652
G1 X59.060 Y131.825 E22.6061
G1 X61.825 Y129.060 E22.8125
G1 X63.060 Y129.060 E22.8778
G1 X63.060 Y127.825 E22.9430
G1 X65.825 Y125.060 E23.1495
G1 X75.060 Y125.060 E23.6371
G1 X75.060 Y122.940 E23.7490
G1 X65.825 Y122.940 E24.2367
G1 X63.060 Y120.175 E24.4432
G1 X63.060 Y103.825 E25.3065
G1 X65.825 Y101.060 E25.5130
G1 X78.175 Y101.060 E26.1651
G1 X79.060 Y101.945 E26.2312
G1 X79.060 Y98.055 E26.4366
G1 X78.175 Y98.940 E26.5027
G1 X65.825 Y98.940 E27.1548
G1 X63.060 Y96.175 E27.3613
G1 X63.060 Y79.825 E28.2246
G1 X65.825 Y77.060 E28.4311
G1 X75.060 Y77.060 E28.9188
G1 X75.060 Y74.940 E29.0307
G1 X61.825 Y74.940 E29.7296
G1 X59.060 Y72.175 E29.9360
G1 X59.060 Y59.825 E30.5882
G92 E0.0000
G1 E-0.7000 F1500
G1 X59.540 Y60.024 F4800
G1 E0.0000 F1500
G92 E0.0000
G1 X62.024 Y57.540 E0.1855 F1800
G1 X63.540 Y57.540 E0.2655
G1 X63.540 Y56.024 E0.3456
G1 X66.024 Y53.540 E0.5311
G1 X77.976 Y53.540 E1.1622
G1 X80.000 Y55.564 E1.3133
G1 X82.024 Y53.540 E1.4645
G1 X121.976 Y53.540 E3.5741
G1 X124.460 Y56.024 E3.7596
G1 X124.460 Y71.976 E4.6019
G1 X121.976 Y74.460 E4.7874
G1 X100.460 Y74.460 E5.9236
G1 X100.460 Y77.540 E6.0862
G1 X129.976 Y77.540 E7.6448
G1 X132.460 Y80.024 E7.8302
G1 X132.460 Y95.976 E8.6726
G1 X129.976 Y98.460 E8.8581
G1 X100.460 Y98.460 E10.4166
G1 X100.460 Y101.540 E10.5793
G1 X129.976 Y101.540 E12.1378
G1 X131.272 Y102.835 E12.2346
G1 X133.034 Y102.242 E12.3328
G1 X135.503 Y102.901 E12.4677
G1 X136.880 Y104.457 E12.5774
G1 X137.364 Y105.389 E12.6329
G1 X137.688 Y106.766 E12.7075
G1 X137.745 Y107.254 E12.7335
G1 X137.745 Y116.146 E13.2030
G1 X137.688 Y116.634 E13.2290
G1 X137.364 Y118.011 E13.3037
G1 X136.880 Y118.943 E13.3591
G1 X135.503 Y120.499 E13.4688
G1 X133.034 Y121.158 E13.6037
G1 X131.720 Y120.716 E13.6769
G1 X129.976 Y122.460 E13.8072
G1 X102.896 Y122.460 E15.2371
G1 X104.460 Y124.024 E15.3539
G1 X104.460 Y125.540 E15.4340
G1 X129.976 Y125.540 E16.7813
G1 X132.460 Y128.024 E16.9668
G1 X132.460 Y143.976 E17.8091
G1 X129.976 Y146.460 E17.9946
G1 X82.024 Y146.460 E20.5267
G1 X79.540 Y143.976 E20.7122
G1 X79.540 Y142.460 E20.7922
G1 X76.460 Y142.460 E20.9549
G1 X76.460 Y143.976 E21.0349
G1 X73.976 Y146.460 E21.2204
G1 X66.024 Y146.460 E21.6403
G1 X63.540 Y143.976 E21.8258
G1 X63.540 Y142.460 E21.9059
G1 X62.024 Y142.460 E21.9859
G1 X59.540 Y139.976 E22.1714
G1 X59.540 Y132.024 E22.5913
G1 X62.024 Y129.540 E22.7768
G1 X63.540 Y129.540 E22.8569
G1 X63.540 Y128.024 E22.9369
G1 X66.024 Y125.540 E23.1224
G1 X75.540 Y125.540 E23.6249
G1 X75.540 Y122.460 E23.7875
G1 X66.024 Y122.460 E24.2900
G1 X63.540 Y119.976 E24.4755
G1 X63.540 Y104.024 E25.3179
G1 X66.024 Y101.540 E25.5033
G1 X77.976 Y101.540 E26.1345
G1 X79.540 Y103.104 E26.2513
G1 X79.540 Y96.896 E26.5790
G1 X77.976 Y98.460 E26.6958
G1 X66.024 Y98.460 E27.3269
G1 X63.540 Y95.976 E27.5124
G1 X63.540 Y80.024 E28.3548
G1 X66.024 Y77.540 E28.5402
G1 X75.540 Y77.540 E29.0427
G1 X75.540 Y74.460 E29.2054
G1 X62.024 Y74.460 E29.9191
G1 X59.540 Y71.976 E30.1046
G1 X59.540 Y60.024 E30.7357
G92 E0.0000
G1 E-0.7000 F1500
; feature outer perimeter
G1 X132.098 Y107.598 F4800
G1 E0.0000 F1500
G92 E0.0000
G1 X132.556 Y107.130 E0.0346 F900
G1 X133.101 Y106.947 E0.0649
G1 X133.138 Y106.988 E0.0679
G1 X133.265 Y107.528 E0.0972
G1 X133.265 Y115.872 E0.5378
G1 X133.138 Y116.412 E0.5671
G1 X133.101 Y116.453 E0.5700
G1 X132.556 Y116.270 E0.6004
G1 X132.098 Y115.802 E0.6349
G1 X132.098 Y107.598 E1.0681
; feature gap fill
G1 X132.691 Y107.575 F4800
G92 E0.0000
G1 X132.857 Y107.741 E0.0124 F1800
G1 X132.857 Y108.420 E0.0482
G1 X132.506 Y108.068 E0.0745
G1 X132.506 Y108.747 E0.1103
G1 X132.857 Y109.098 E0.1365
G1 X132.857 Y109.777 E0.1724
G1 X132.506 Y109.426 E0.1986
G1 X132.506 Y110.105 E0.2344
G1 X132.857 Y110.456 E0.2607
G1 X132.857 Y111.135 E0.2965
G1 X132.506 Y110.784 E0.3227
G1 X132.506 Y111.462 E0.3586
G1 X132.857 Y111.814 E0.3848
G1 X132.857 Y112.492 E0.4206
G1 X132.506 Y112.141 E0.4469
G1 X132.506 Y112.820 E0.4827
G1 X132.857 Y113.171 E0.5089
G1 X132.857 Y113.850 E0.5448
G1 X132.506 Y113.499 E0.5710
G1 X132.506 Y114.178 E0.6068
G1 X132.857 Y114.529 E0.6331
G1 X132.857 Y115.208 E0.6689
G1 X132.506 Y114.857 E0.6951
G1 X132.506 Y115.535 E0.7310
G1 X132.845 Y115.875 E0.7563
G92 E0.0000
G1 E-0.7000 F1500
; feature support
G1 X127.970 Y140.320 F4800
G1 E0.0000 F1500
G92 E0.0000
G1 X84.030 Y140.320 E2.3202 F1440
G1 X84.030 Y138.400 E2.4216
G1 X127.970 Y138.400 E4.7418
G1 X127.970 Y136.480 E4.8432
G1 X77.505 Y136.480 E7.5079
G1 X77.505 Y134.560 E7.6093
G1 X127.970 Y134.560 E10.2741
G1 X127.970 Y132.640 E10.3754
G1 X84.030 Y132.640 E12.6956
G1 X84.030 Y130.720 E12.7970
G1 X127.970 Y130.720 E15.1172
G1 X127.970 Y130.030 E15.1537
G1 X99.970 Y130.030 E16.6322
G1 X99.970 Y128.800 E16.6971
G1 X88.030 Y128.800 E17.3276
G1 X88.030 Y126.880 E17.4290
G1 X99.970 Y126.880 E18.0594
G1 X99.970 Y126.030 E18.1043
G1 X95.970 Y126.030 E18.3155
G1 X95.970 Y124.960 E18.3720
G1 X92.030 Y124.960 E18.5801
G1 X92.030 Y123.040 E18.6815
G1 X95.970 Y123.040 E18.8895
G1 X95.970 Y121.120 E18.9909
G1 X92.030 Y121.120 E19.1990
G92 E0.0000
G1 E-0.7000 F1500
G1 X87.970 Y124.960 F4800
G1 E0.0000 F1500
G92 E0.0000
G1 X80.030 Y124.960 E0.4193 F1440
G1 X80.030 Y123.040 E0.5206
G1 X87.970 Y123.040 E0.9399
G1 X87.970 Y121.120 E1.0413
G1 X80.030 Y121.120 E1.4606
G1 X80.030 Y119.200 E1.5619
G1 X87.970 Y119.200 E1.9812
G1 X87.970 Y117.970 E2.0461
G1 X92.030 Y117.970 E2.2605
G1 X92.030 Y119.200 E2.3255
G1 X95.970 Y119.200 E2.5335
G1 X95.970 Y117.970 E2.5985
G1 X127.970 Y117.970 E4.2882
G1 X127.970 Y117.280 E4.3246
G1 X84.030 Y117.280 E6.6448
G1 X84.030 Y115.360 E6.7462
G1 X127.970 Y115.360 E9.0664
G1 X127.970 Y113.440 E9.1678
G1 X84.030 Y113.440 E11.4880
G1 X84.030 Y111.520 E11.5894
G1 X127.970 Y111.520 E13.9096
G1 X127.970 Y109.600 E14.0110
G1 X84.030 Y109.600 E16.3312
G1 X84.030 Y107.680 E16.4325
G1 X127.970 Y107.680 E18.7527
G1 X127.970 Y106.030 E18.8399
G1 X95.970 Y106.030 E20.5296
G1 X95.970 Y105.760 E20.5438
G1 X92.030 Y105.760 E20.7519
G1 X92.030 Y106.030 E20.7661
G1 X87.970 Y106.030 E20.9805
G1 X87.970 Y105.760 E20.9948
G1 X84.030 Y105.760 E21.2028
G1 X84.030 Y103.840 E21.3042
G1 X87.970 Y103.840 E21.5123
G1 X87.970 Y101.920 E21.6136
G1 X84.030 Y101.920 E21.8217
G1 X84.030 Y100.000 E21.9231
G1 X87.970 Y100.000 E22.1311
G1 X87.970 Y98.080 E22.2325
G1 X84.030 Y98.080 E22.4406
G1 X84.030 Y96.160 E22.5419
G1 X87.970 Y96.160 E22.7500
G1 X87.970 Y94.240 E22.8514
G1 X84.030 Y94.240 E23.0594
G1 X84.030 Y92.320 E23.1608
G1 X127.970 Y92.320 E25.4810
G1 X127.970 Y90.400 E25.5824
G1 X84.030 Y90.400 E27.9026
G1 X84.030 Y88.480 E28.0040
G1 X127.970 Y88.480 E30.3242
G1 X127.970 Y86.560 E30.4255
G1 X84.030 Y86.560 E32.7457
G1 X84.030 Y84.640 E32.8471
G1 X127.970 Y84.640 E35.1673
G1 X127.970 Y82.720 E35.2687
G1 X84.030 Y82.720 E37.5889
G92 E0.0000
G1 E-0.7000 F1500
G1 X87.970 Y75.040 F4800
G1 E0.0000 F1500
G92 E0.0000
G1 X80.030 Y75.040 E0.4193 F1440
G1 X80.030 Y76.960 E0.5206
G1 X87.970 Y76.960 E0.9399
G1 X87.970 Y78.880 E1.0413
G1 X80.030 Y78.880 E1.4606
G1 X80.030 Y80.800 E1.5619
G1 X87.970 Y80.800 E1.9812
G1 X87.970 Y82.030 E2.0461
G1 X92.030 Y82.030 E2.2605
G1 X92.030 Y80.800 E2.3255
G1 X95.970 Y80.800 E2.5335
G1 X95.970 Y78.880 E2.6349
G1 X92.030 Y78.880 E2.8430
G1 X92.030 Y76.960 E2.9443
G1 X95.970 Y76.960 E3.1524
G1 X95.970 Y75.040 E3.2538
G1 X92.030 Y75.040 E3.4618
G1 X92.030 Y73.970 E3.5183
G1 X88.030 Y73.970 E3.7295
G1 X88.030 Y73.120 E3.7744
G1 X95.970 Y73.120 E4.1937
G1 X95.970 Y71.200 E4.2951
G1 X88.030 Y71.200 E4.7143
G1 X88.030 Y69.970 E4.7793
G1 X64.030 Y69.970 E6.0466
G1 X64.030 Y69.280 E6.0830
G1 X76.209 Y69.280 E6.7261
G1 X76.209 Y67.360 E6.8275
G1 X64.030 Y67.360 E7.4706
G1 X64.030 Y65.440 E7.5719
G1 X76.208 Y65.440 E8.2150
G1 X76.208 Y63.520 E8.3164
G1 X64.030 Y63.520 E8.9594
G1 X64.030 Y62.030 E9.0381
G1 X68.030 Y62.030 E9.2493
G1 X68.030 Y61.600 E9.2720
G1 X75.970 Y61.600 E9.6913
G1 X75.970 Y59.680 E9.7927
G1 X68.030 Y59.680 E10.2119
G92 E0.0000
G1 E-0.7000 F1500
G1 X77.505 Y63.520 F4800
G1 E0.0000 F1500
G92 E0.0000
G1 X119.970 Y63.520 E2.2423 F1440
G1 X119.970 Y65.440 E2.3437
G1 X77.505 Y65.440 E4.5860
G1 X77.505 Y67.360 E4.6874
G1 X119.970 Y67.360 E6.9297
G1 X119.970 Y69.280 E7.0311
G1 X77.505 Y69.280 E9.2734
G92 E0.0000
G1 E-0.7000 F1500
G1 X84.030 Y61.600 F4800
G1 E0.0000 F1500
G92 E0.0000
G1 X119.970 Y61.600 E1.8978 F1440
G1 X119.970 Y59.680 E1.9992
G1 X84.030 Y59.680 E3.8969
G92 E0.0000
G1 E-0.7000 F1500
G1 X68.030 Y82.720 F4800
G1 E0.0000 F1500
G92 E0.0000
G1 X75.970 Y82.720 E0.4193 F1440
G1 X75.970 Y84.640 E0.5206
G1 X68.030 Y84.640 E0.9399
G1 X68.030 Y86.560 E1.0413
G1 X75.970 Y86.560 E1.4606
G1 X75.970 Y88.480 E1.5619
G1 X68.030 Y88.480 E1.9812
G1 X68.030 Y90.400 E2.0826
G1 X75.970 Y90.400 E2.5018
