; G-Code generated by Simplify3D(R) Version 4.1.1
; Apr 27, 2021 at 8:37:25 AM
; Settings Summary
;   processName,Trideo BOX
;   applyToModels,Left Fingers
;   profileName,Trideo BOX
;   profileVersion,2021-04-15 09:48:16
;   baseProfile,Default
;   printMaterial,PLA
;   printQuality,Fast
;   printExtruders,
;   extruderName,Primary Extruder
;   extruderToolheadNumber,0
;   extruderDiameter,0.4
;   extruderAutoWidth,1
;   extruderWidth,0.48
;   extrusionMultiplier,0.98
;   extruderUseRetract,1
;   extruderRetractionDistance,0.7
;   extruderExtraRestartDistance,0
;   extruderRetractionZLift,0
;   extruderRetractionSpeed,1500
;   extruderUseCoasting,0
;   extruderCoastingDistance,0.2
;   extruderUseWipe,0
;   extruderWipeDistance,5
;   primaryExtruder,0
;   layerHeight,0.3
;   topSolidLayers,3
;   bottomSolidLayers,3
;   perimeterOutlines,2
;   printPerimetersInsideOut,1
;   startPointOption,2
;   startPointOriginX,0
;   startPointOriginY,0
;   sequentialIslands,0
;   spiralVaseMode,0
;   firstLayerHeightPercentage,90
;   firstLayerWidthPercentage,100
;   firstLayerUnderspeed,0.5
;   useRaft,0
;   raftExtruder,0
;   raftTopLayers,3
;   raftBaseLayers,2
;   raftOffset,3
;   raftSeparationDistance,0.14
;   raftTopInfill,100
;   aboveRaftSpeedMultiplier,0.3
;   useSkirt,1
;   skirtExtruder,0
;   skirtLayers,1
;   skirtOutlines,2
;   skirtOffset,4
;   usePrimePillar,0
;   primePillarExtruder,999
;   primePillarWidth,12
;   primePillarLocation,7
;   primePillarSpeedMultiplier,1
;   useOozeShield,0
;   oozeShieldExtruder,999
;   oozeShieldOffset,2
;   oozeShieldOutlines,1
;   oozeShieldSidewallShape,1
;   oozeShieldSidewallAngle,30
;   oozeShieldSpeedMultiplier,1
;   infillExtruder,0
;   internalInfillPattern,Rectilinear
;   externalInfillPattern,Rectilinear
;   infillPercentage,15
;   outlineOverlapPercentage,15
;   infillExtrusionWidthPercentage,100
;   minInfillLength,5
;   infillLayerInterval,1
;   internalInfillAngles,45,-45
;   overlapInternalInfillAngles,0
;   externalInfillAngles,45,-45
;   generateSupport,1
;   supportExtruder,0
;   supportInfillPercentage,25
;   supportExtraInflation,0
;   supportBaseLayers,0
;   denseSupportExtruder,0
;   denseSupportLayers,0
;   denseSupportInfillPercentage,70
;   supportLayerInterval,1
;   supportHorizontalPartOffset,0.3
;   supportUpperSeparationLayers,1
;   supportLowerSeparationLayers,1
;   supportType,0
;   supportGridSpacing,4
;   maxOverhangAngle,45
;   supportAngles,0
;   temperatureName,Primary Extruder,Heated bed
;   temperatureNumber,0,0
;   temperatureSetpointCount,1,1
;   temperatureSetpointLayers,1,1
;   temperatureSetpointTemperatures,190,60
;   temperatureStabilizeAtStartup,1,1
;   temperatureHeatedBed,0,1
;   fanLayers,1,2
;   fanSpeeds,0,100
;   blipFanToFullPower,0
;   adjustSpeedForCooling,1
;   minSpeedLayerTime,15
;   minCoolingSpeedSlowdown,20
;   increaseFanForCooling,0
;   minFanLayerTime,45
;   maxCoolingFanSpeed,100
;   increaseFanForBridging,0
;   bridgingFanSpeed,100
;   use5D,1
;   relativeEdistances,0
;   allowEaxisZeroing,1
;   independentExtruderAxes,0
;   includeM10123,0
;   stickySupport,1
;   applyToolheadOffsets,0
;   gcodeXoffset,0
;   gcodeYoffset,0
;   gcodeZoffset,0
;   overrideMachineDefinition,1
;   machineTypeOverride,0
;   strokeXoverride,200
;   strokeYoverride,200
;   strokeZoverride,200
;   originOffsetXoverride,0
;   originOffsetYoverride,0
;   originOffsetZoverride,0
;   homeXdirOverride,-1
;   homeYdirOverride,-1
;   homeZdirOverride,-1
;   flipXoverride,1
;   flipYoverride,-1
;   flipZoverride,1
;   toolheadOffsets,0,0|0,0|0,0|0,0|0,0|0,0
;   overrideFirmwareConfiguration,0
;   firmwareTypeOverride,RepRap (Marlin/Repetier/Sprinter)
;   GPXconfigOverride,r2
;   baudRateOverride,115200
;   overridePrinterModels,0
;   printerModelsOverride
;   startingGcode,G28 X0 Y0; home XY,G1 X20 Y20,G28 Z0,G1 Z5 F5000; Lift NZ
;   layerChangeGcode,
;   retractionGcode,
;   toolChangeGcode,
;   endingGcode,M104 S0 ; turn off extruder,G28 X0 ; home x,M140 S0 ; turn off bed,M84 ; disable motors,M107 ;
;   exportFileFormat,gcode
;   celebration,0
;   celebrationSong,Looney Toons
;   postProcessing,
;   defaultSpeed,3600
;   outlineUnderspeed,0.5
;   solidInfillUnderspeed,0.8
;   supportUnderspeed,0.8
;   rapidXYspeed,4800
;   rapidZspeed,1002
;   minBridgingArea,50
;   bridgingExtraInflation,0
;   bridgingExtrusionMultiplier,1
;   bridgingSpeedMultiplier,1
;   useFixedBridgingAngle,0
;   fixedBridgingAngle,0
;   applyBridgingToPerimeters,0
;   filamentDiameters,1.75|1.75|1.75|1.75|1.75|1.75
;   filamentPricesPerKg,46|46|46|46|46|46
;   filamentDensities,1.25|1.25|1.25|1.25|1.25|1.25
;   useMinPrintHeight,0
;   minPrintHeight,0
;   useMaxPrintHeight,0
;   maxPrintHeight,0
;   useDiaphragm,0
;   diaphragmLayerInterval,20
;   robustSlicing,1
;   mergeAllIntoSolid,0
;   onlyRetractWhenCrossingOutline,1
;   retractBetweenLayers,1
;   useRetractionMinTravel,0
;   retractionMinTravel,3
;   retractWhileWiping,0
;   onlyWipeOutlines,1
;   avoidCrossingOutline,0
;   maxMovementDetourFactor,3
;   toolChangeRetractionDistance,12
;   toolChangeExtraRestartDistance,-0.5
;   toolChangeRetractionSpeed,600
;   externalThinWallType,0
;   internalThinWallType,2
;   thinWallAllowedOverlapPercentage,10
;   singleExtrusionMinLength,1
;   singleExtrusionMinPrintingWidthPercentage,50
;   singleExtrusionMaxPrintingWidthPercentage,200
;   singleExtrusionEndpointExtension,0.2
;   horizontalSizeCompensation,0
G90
M82
M106 S0
M140 S60
M190 S60
M104 S190 T0
M109 S190 T0
G28 X0 Y0; home XY
G1 X20 Y20
G28 Z0
G1 Z5 F5000; Lift NZ
; process Trideo BOX
; layer 1, Z = 0.270
T0
G92 E0.0000
G1 E-0.7000 F1500
; feature skirt
; tool H0.270 W0.480
G1 Z0.270 F1002
G1 X69.060 Y67.825 F4800
G1 E0.0000 F1500
G92 E0.0000
G1 X71.825 Y65.060 E0.2065 F1800
G1 X84.175 Y65.060 E0.8586
G1 X86.000 Y66.885 E0.9949
G1 X87.825 Y65.060 E1.1312
G1 X116.175 Y65.060 E2.6282
G1 X118.940 Y67.825 E2.8346
G1 X118.940 Y80.175 E3.4868
G1 X118.055 Y81.060 E3.5528
G1 X124.175 Y81.060 E3.8760
G1 X126.940 Y83.825 E4.0825
G1 X126.940 Y96.175 E4.7346
G1 X124.175 Y98.940 E4.9411
G1 X106.940 Y98.940 E5.8512
G1 X106.940 Y101.060 E5.9631
G1 X120.175 Y101.060 E6.6620
G1 X120.803 Y101.688 E6.7089
G1 X120.980 Y101.506 E6.7223
G1 X121.935 Y100.903 E6.7819
G1 X124.720 Y99.966 E6.9371
G1 X127.468 Y100.700 E7.0873
G1 X127.787 Y101.060 E7.1127
G1 X132.175 Y101.060 E7.3444
G1 X134.940 Y103.825 E7.5508
G1 X134.940 Y116.175 E8.2030
G1 X132.175 Y118.940 E8.4094
G1 X126.055 Y118.940 E8.7326
G1 X126.940 Y119.825 E8.7987
G1 X126.940 Y132.175 E9.4508
G1 X124.175 Y134.940 E9.6573
G1 X71.825 Y134.940 E12.4216
G1 X69.060 Y132.175 E12.6280
G1 X69.060 Y119.825 E13.2802
G1 X70.885 Y118.000 E13.4165
G1 X69.060 Y116.175 E13.5527
G1 X69.060 Y103.825 E14.2049
G1 X71.825 Y101.060 E14.4113
G1 X81.060 Y101.060 E14.8990
G1 X81.060 Y98.940 E15.0109
G1 X71.825 Y98.940 E15.4986
G1 X69.060 Y96.175 E15.7051
G1 X69.060 Y83.825 E16.3572
G1 X70.885 Y82.000 E16.4935
G1 X69.060 Y80.175 E16.6297
G1 X69.060 Y67.825 E17.2819
G92 E0.0000
G1 E-0.7000 F1500
G1 X69.540 Y68.024 F4800
G1 E0.0000 F1500
G92 E0.0000
G1 X72.024 Y65.540 E0.1855 F1800
G1 X83.976 Y65.540 E0.8166
G1 X86.000 Y67.564 E0.9677
G1 X88.024 Y65.540 E1.1189
G1 X115.976 Y65.540 E2.5949
G1 X118.460 Y68.024 E2.7803
G1 X118.460 Y79.976 E3.4115
G1 X116.896 Y81.540 E3.5282
G1 X123.976 Y81.540 E3.9021
G1 X126.460 Y84.024 E4.0876
G1 X126.460 Y95.976 E4.7187
G1 X123.976 Y98.460 E4.9042
G1 X106.460 Y98.460 E5.8291
G1 X106.460 Y99.976 E5.9092
G1 X106.436 Y100.000 E5.9110
G1 X106.460 Y100.024 E5.9127
G1 X106.460 Y101.540 E5.9928
G1 X119.976 Y101.540 E6.7065
G1 X120.808 Y102.372 E6.7686
G1 X121.284 Y101.881 E6.8047
G1 X122.142 Y101.340 E6.8583
G1 X124.736 Y100.467 E7.0028
G1 X127.205 Y101.126 E7.1377
G1 X127.571 Y101.540 E7.1669
G1 X131.976 Y101.540 E7.3995
G1 X134.460 Y104.024 E7.5850
G1 X134.460 Y115.976 E8.2161
G1 X131.976 Y118.460 E8.4016
G1 X124.896 Y118.460 E8.7754
G1 X126.460 Y120.024 E8.8922
G1 X126.460 Y131.976 E9.5234
G1 X123.976 Y134.460 E9.7088
G1 X72.024 Y134.460 E12.4521
G1 X69.540 Y131.976 E12.6376
G1 X69.540 Y120.024 E13.2687
G1 X71.564 Y118.000 E13.4199
G1 X69.540 Y115.976 E13.5710
G1 X69.540 Y104.024 E14.2021
G1 X72.024 Y101.540 E14.3876
G1 X81.540 Y101.540 E14.8901
G1 X81.540 Y98.460 E15.0527
G1 X72.024 Y98.460 E15.5552
G1 X69.540 Y95.976 E15.7407
G1 X69.540 Y84.024 E16.3718
G1 X71.564 Y82.000 E16.5230
G1 X69.540 Y79.976 E16.6741
G1 X69.540 Y68.024 E17.3052
G92 E0.0000
G1 E-0.7000 F1500
; feature outer perimeter
G1 X123.800 Y105.722 F4800
G1 E0.0000 F1500
G92 E0.0000
G1 X124.107 Y105.406 E0.0233 F900
G1 X124.803 Y105.172 E0.0621
G1 X124.876 Y105.254 E0.0679
G1 X124.967 Y105.652 E0.0894
G1 X124.967 Y111.898 E0.4192
G1 X124.876 Y112.296 E0.4408
G1 X124.803 Y112.378 E0.4466
G1 X124.107 Y112.144 E0.4854
G1 X123.800 Y111.828 E0.5087
G1 X123.800 Y105.722 E0.8311
; feature gap fill
G1 X124.212 Y105.884 F4800
G92 E0.0000
G1 X124.559 Y106.231 E0.0259 F1800
G1 X124.559 Y106.910 E0.0618
G1 X124.208 Y106.558 E0.0880
G1 X124.208 Y107.237 E0.1238
G1 X124.559 Y107.588 E0.1501
G1 X124.559 Y108.267 E0.1859
G1 X124.208 Y107.916 E0.2121
G1 X124.208 Y108.595 E0.2480
G1 X124.559 Y108.946 E0.2742
G1 X124.559 Y109.625 E0.3100
G1 X124.208 Y109.274 E0.3363
G1 X124.208 Y109.953 E0.3721
G1 X124.559 Y110.304 E0.3983
G1 X124.559 Y110.983 E0.4342
G1 X124.208 Y110.631 E0.4604
G1 X124.208 Y111.310 E0.4963
G1 X124.559 Y111.661 E0.5225
G92 E0.0000
G1 E-0.7000 F1500
; feature support
G1 X126.030 Y113.440 F4800
G1 E0.0000 F1500
G92 E0.0000
G1 X129.970 Y113.440 E0.2080 F1440
G1 X129.970 Y111.520 E0.3094
G1 X126.386 Y111.520 E0.4987
G1 X126.386 Y109.600 E0.6001
G1 X129.970 Y109.600 E0.7893
G1 X129.970 Y107.680 E0.8907
G1 X126.386 Y107.680 E1.0800
G92 E0.0000
G1 E-0.7000 F1500
G1 X121.970 Y128.800 F4800
G1 E0.0000 F1500
G92 E0.0000
G1 X83.419 Y128.800 E2.0356 F1440
G1 X83.419 Y126.880 E2.1370
G1 X121.970 Y126.880 E4.1727
G1 X121.970 Y124.960 E4.2741
G1 X90.030 Y124.960 E5.9606
G1 X90.030 Y123.040 E6.0620
G1 X121.970 Y123.040 E7.7485
G1 X121.970 Y122.030 E7.8019
G1 X97.970 Y122.030 E9.0692
G1 X97.970 Y121.120 E9.1172
G1 X94.030 Y121.120 E9.3253
G1 X94.030 Y119.200 E9.4267
G1 X97.970 Y119.200 E9.6347
G1 X97.970 Y117.280 E9.7361
G1 X94.030 Y117.280 E9.9441
G1 X94.030 Y115.360 E10.0455
G1 X97.970 Y115.360 E10.2536
G1 X97.970 Y113.970 E10.3270
G1 X117.970 Y113.970 E11.3830
G1 X117.970 Y113.440 E11.4110
G1 X90.030 Y113.440 E12.8864
G1 X90.030 Y111.520 E12.9877
G1 X117.970 Y111.520 E14.4631
G1 X117.970 Y109.600 E14.5645
G1 X90.030 Y109.600 E16.0398
G1 X90.030 Y107.680 E16.1412
G1 X117.970 Y107.680 E17.6165
G1 X117.970 Y106.030 E17.7036
G1 X101.970 Y106.030 E18.5485
G1 X101.970 Y105.760 E18.5628
G1 X90.030 Y105.760 E19.1932
G1 X90.030 Y103.840 E19.2946
G1 X101.970 Y103.840 E19.9251
G1 X101.970 Y102.030 E20.0207
G1 X97.970 Y102.030 E20.2319
G1 X97.970 Y101.920 E20.2377
G1 X94.030 Y101.920 E20.4457
G1 X94.030 Y100.000 E20.5471
G1 X97.970 Y100.000 E20.7552
G1 X97.970 Y98.080 E20.8566
G1 X94.030 Y98.080 E21.0646
G1 X94.030 Y97.970 E21.0704
G1 X90.030 Y97.970 E21.2816
G1 X90.030 Y96.160 E21.3772
G1 X101.970 Y96.160 E22.0077
G1 X101.970 Y94.240 E22.1091
G1 X90.030 Y94.240 E22.7395
G1 X90.030 Y92.320 E22.8409
G1 X121.970 Y92.320 E24.5275
G1 X121.970 Y90.400 E24.6289
G1 X90.030 Y90.400 E26.3154
G1 X90.030 Y88.480 E26.4168
G1 X121.970 Y88.480 E28.1034
G1 X121.970 Y86.560 E28.2047
G1 X90.030 Y86.560 E29.8913
G1 X90.030 Y86.030 E29.9193
G1 X94.030 Y86.030 E30.1305
G1 X94.030 Y84.640 E30.2039
G1 X97.970 Y84.640 E30.4119
G1 X97.970 Y82.720 E30.5133
G1 X94.030 Y82.720 E30.7214
G1 X94.030 Y80.800 E30.8227
G1 X97.970 Y80.800 E31.0308
G1 X97.970 Y78.880 E31.1322
G1 X94.030 Y78.880 E31.3402
G92 E0.0000
G1 E-0.7000 F1500
G1 X90.030 Y71.200 F4800
G1 E0.0000 F1500
G92 E0.0000
G1 X113.970 Y71.200 E1.2641 F1440
G1 X113.970 Y73.120 E1.3655
G1 X90.030 Y73.120 E2.6296
G1 X90.030 Y74.030 E2.6777
G1 X83.419 Y74.030 E3.0268
G1 X83.419 Y75.040 E3.0801
G1 X113.970 Y75.040 E4.6933
G1 X113.970 Y76.960 E4.7947
G1 X83.419 Y76.960 E6.4079
G92 E0.0000
G1 E-0.7000 F1500
G1 X86.030 Y84.640 F4800
G1 E0.0000 F1500
G92 E0.0000
G1 X89.970 Y84.640 E0.2080 F1440
G1 X89.970 Y82.720 E0.3094
G1 X86.030 Y82.720 E0.5175
G1 X86.030 Y80.800 E0.6189
G1 X89.970 Y80.800 E0.8269
G1 X89.970 Y78.880 E0.9283
G1 X86.030 Y78.880 E1.1363
G1 X86.030 Y77.970 E1.1844
G1 X74.030 Y77.970 E1.8180
G1 X74.030 Y76.960 E1.8714
G1 X81.837 Y76.960 E2.2836
G1 X81.836 Y75.040 E2.3850
G1 X74.030 Y75.040 E2.7972
G1 X74.030 Y73.120 E2.8985
G1 X81.835 Y73.120 E3.3107
G1 X81.834 Y72.235 E3.3574
G1 X81.970 Y72.235 E3.3646
G1 X81.970 Y71.200 E3.4192
G1 X74.030 Y71.200 E3.8385
G92 E0.0000
G1 E-0.7000 F1500
G1 X74.030 Y86.560 F4800
G1 E0.0000 F1500
G92 E0.0000
G1 X81.970 Y86.560 E0.4193 F1440
G1 X81.970 Y88.480 E0.5206
G1 X74.030 Y88.480 E0.9399
G1 X74.030 Y90.400 E1.0413
G1 X81.970 Y90.400 E1.4606
G1 X81.970 Y92.320 E1.5619
G1 X74.030 Y92.320 E1.9812
G92 E0.0000
G1 E-0.7000 F1500
G1 X86.030 Y98.080 F4800
G1 E0.0000 F1500
G92 E0.0000
G1 X89.970 Y98.080 E0.2080 F1440
G1 X89.970 Y100.000 E0.3094
G1 X86.030 Y100.000 E0.5175
G1 X86.030 Y101.920 E0.6189
G1 X89.970 Y101.920 E0.8269
G92 E0.0000
G1 E-0.7000 F1500
G1 X86.030 Y115.360 F4800
G1 E0.0000 F1500
G92 E0.0000
G1 X89.970 Y115.360 E0.2080 F1440
G1 X89.970 Y117.280 E0.3094
G1 X86.030 Y117.280 E0.5175
G1 X86.030 Y119.200 E0.6189
G1 X89.970 Y119.200 E0.8269
G1 X89.970 Y121.120 E0.9283
G1 X86.030 Y121.120 E1.1363
G92 E0.0000
G1 E-0.7000 F1500
G1 X74.030 Y123.040 F4800
G1 E0.0000 F1500
G92 E0.0000
G1 X81.970 Y123.040 E0.4193 F1440
G1 X81.970 Y124.885 E0.5167
G1 X81.837 Y124.885 E0.5237
G1 X81.837 Y124.960 E0.5277
G1 X74.030 Y124.960 E0.9399
G1 X74.030 Y126.880 E1.0413
G1 X81.836 Y126.880 E1.4535
G1 X81.835 Y128.800 E1.5549
G1 X74.030 Y128.800 E1.9670
G92 E0.0000
G1 E-0.7000 F1500
G1 X74.030 Y113.440 F4800
G1 E0.0000 F1500
G92 E0.0000
G1 X81.970 Y113.440 E0.4193 F1440
G1 X81.970 Y111.520 E0.5206
G1 X74.030 Y111.520 E0.9399
G1 X74.030 Y109.600 E1.0413
G1 X81.970 Y109.600 E1.4606
G1 X81.970 Y107.680 E1.5619
G1 X74.030 Y107.680 E1.9812
G92 E0.0000
G1 E-0.7000 F1500
; layer 2, Z = 0.570
M106 S255
; feature outer perimeter
; tool H0.300 W0.480
G1 Z0.570 F1002
G1 X82.617 Y125.665 F4800
G1 E0.0000 F1500
G92 E0.0000
G1 X82.639 Y125.665 E0.0013 F1800
G1 X82.639 Y129.235 E0.2108
G1 X82.615 Y129.235 E0.2122
G1 X82.617 Y125.665 E0.4216
G92 E0.0000
G1 E-0.7000 F1500
; feature inner perimeter
G1 X121.463 Y111.684 F4800
G1 E0.0000 F1500
G92 E0.0000
G1 X121.463 Y105.866 E0.3414 F2700
G1 X121.710 Y105.755 E0.3573
G1 X122.550 Y105.483 E0.4091
G1 X124.665 Y105.081 E0.5354
G1 X124.823 Y105.187 E0.5465
G1 X125.053 Y105.472 E0.5681
G1 X125.126 Y105.698 E0.5820
G1 X125.126 Y111.852 E0.9430
G1 X125.053 Y112.078 E0.9570
G1 X124.820 Y112.367 E0.9788
G1 X124.671 Y112.470 E0.9894
G1 X122.550 Y112.067 E1.1161
G1 X121.710 Y111.795 E1.1679
G1 X121.463 Y111.684 E1.1837
; feature outer perimeter
G1 X121.213 Y112.098 F4800
G92 E0.0000
G1 X120.991 Y111.877 E0.0184 F1800
G1 X120.983 Y111.863 E0.0194
G1 X120.983 Y105.687 E0.3817
G1 X120.991 Y105.673 E0.3827
G1 X121.213 Y105.452 E0.4010
G1 X121.538 Y105.306 E0.4219
G1 X122.430 Y105.017 E0.4770
G1 X124.619 Y104.602 E0.6077
G1 X124.781 Y104.582 E0.6173
G1 X125.151 Y104.828 E0.6433
G1 X125.483 Y105.240 E0.6744
G1 X125.597 Y105.596 E0.6963
G1 X125.606 Y105.646 E0.6993
G1 X125.606 Y111.904 E1.0664
G1 X125.597 Y111.954 E1.0694
G1 X125.483 Y112.310 E1.0913
G1 X125.150 Y112.723 E1.1225
G1 X124.791 Y112.969 E1.1480
G1 X124.619 Y112.948 E1.1582
G1 X122.430 Y112.533 E1.2889
G1 X121.537 Y112.244 E1.3440
G1 X121.213 Y112.098 E1.3648
; feature solid layer
G1 X124.042 Y111.935 F4800
G92 E0.0000
G1 X124.718 Y111.260 E0.0560 F2880
G1 X124.718 Y110.581 E0.0959
G1 X123.472 Y111.827 E0.1993
G1 X122.902 Y111.718 E0.2333
G1 X124.718 Y109.902 E0.3840
G1 X124.718 Y109.223 E0.4239
G1 X122.363 Y111.578 E0.6192
G1 X121.871 Y111.418 E0.6496
G1 X121.871 Y111.392 E0.6512
G1 X124.718 Y108.544 E0.8874
G1 X124.718 Y107.866 E0.9272
G1 X121.871 Y110.713 E1.1635
