; G-Code generated by Simplify3D(R) Version 4.1.1
; Apr 27, 2021 at 8:36:55 AM
; Settings Summary
;   processName,Trideo BOX
;   applyToModels,Left Fingers
;   profileName,Trideo BOX
;   profileVersion,2021-04-15 09:48:16
;   baseProfile,Default
;   printMaterial,PLA
;   printQuality,Fast
;   printExtruders,
;   extruderName,Primary Extruder
;   extruderToolheadNumber,0
;   extruderDiameter,0.4
;   extruderAutoWidth,1
;   extruderWidth,0.48
;   extrusionMultiplier,0.98
;   extruderUseRetract,1
;   extruderRetractionDistance,0.7
;   extruderExtraRestartDistance,0
;   extruderRetractionZLift,0
;   extruderRetractionSpeed,1500
;   extruderUseCoasting,0
;   extruderCoastingDistance,0.2
;   extruderUseWipe,0
;   extruderWipeDistance,5
;   primaryExtruder,0
;   layerHeight,0.3
;   topSolidLayers,3
;   bottomSolidLayers,3
;   perimeterOutlines,2
;   printPerimetersInsideOut,1
;   startPointOption,2
;   startPointOriginX,0
;   startPointOriginY,0
;   sequentialIslands,0
;   spiralVaseMode,0
;   firstLayerHeightPercentage,90
;   firstLayerWidthPercentage,100
;   firstLayerUnderspeed,0.5
;   useRaft,0
;   raftExtruder,0
;   raftTopLayers,3
;   raftBaseLayers,2
;   raftOffset,3
;   raftSeparationDistance,0.14
;   raftTopInfill,100
;   aboveRaftSpeedMultiplier,0.3
;   useSkirt,1
;   skirtExtruder,0
;   skirtLayers,1
;   skirtOutlines,2
;   skirtOffset,4
;   usePrimePillar,0
;   primePillarExtruder,999
;   primePillarWidth,12
;   primePillarLocation,7
;   primePillarSpeedMultiplier,1
;   useOozeShield,0
;   oozeShieldExtruder,999
;   oozeShieldOffset,2
;   oozeShieldOutlines,1
;   oozeShieldSidewallShape,1
;   oozeShieldSidewallAngle,30
;   oozeShieldSpeedMultiplier,1
;   infillExtruder,0
;   internalInfillPattern,Rectilinear
;   externalInfillPattern,Rectilinear
;   infillPercentage,15
;   outlineOverlapPercentage,15
;   infillExtrusionWidthPercentage,100
;   minInfillLength,5
;   infillLayerInterval,1
;   internalInfillAngles,45,-45
;   overlapInternalInfillAngles,0
;   externalInfillAngles,45,-45
;   generateSupport,1
;   supportExtruder,0
;   supportInfillPercentage,25
;   supportExtraInflation,0
;   supportBaseLayers,0
;   denseSupportExtruder,0
;   denseSupportLayers,0
;   denseSupportInfillPercentage,70
;   supportLayerInterval,1
;   supportHorizontalPartOffset,0.3
;   supportUpperSeparationLayers,1
;   supportLowerSeparationLayers,1
;   supportType,0
;   supportGridSpacing,4
;   maxOverhangAngle,45
;   supportAngles,0
;   temperatureName,Primary Extruder,Heated bed
;   temperatureNumber,0,0
;   temperatureSetpointCount,1,1
;   temperatureSetpointLayers,1,1
;   temperatureSetpointTemperatures,190,60
;   temperatureStabilizeAtStartup,1,1
;   temperatureHeatedBed,0,1
;   fanLayers,1,2
;   fanSpeeds,0,100
;   blipFanToFullPower,0
;   adjustSpeedForCooling,1
;   minSpeedLayerTime,15
;   minCoolingSpeedSlowdown,20
;   increaseFanForCooling,0
;   minFanLayerTime,45
;   maxCoolingFanSpeed,100
;   increaseFanForBridging,0
;   bridgingFanSpeed,100
;   use5D,1
;   relativeEdistances,0
;   allowEaxisZeroing,1
;   independentExtruderAxes,0
;   includeM10123,0
;   stickySupport,1
;   applyToolheadOffsets,0
;   gcodeXoffset,0
;   gcodeYoffset,0
;   gcodeZoffset,0
;   overrideMachineDefinition,1
;   machineTypeOverride,0
;   strokeXoverride,200
;   strokeYoverride,200
;   strokeZoverride,200
;   originOffsetXoverride,0
;   originOffsetYoverride,0
;   originOffsetZoverride,0
;   homeXdirOverride,-1
;   homeYdirOverride,-1
;   homeZdirOverride,-1
;   flipXoverride,1
;   flipYoverride,-1
;   flipZoverride,1
;   toolheadOffsets,0,0|0,0|0,0|0,0|0,0|0,0
;   overrideFirmwareConfiguration,0
;   firmwareTypeOverride,RepRap (Marlin/Repetier/Sprinter)
;   GPXconfigOverride,r2
;   baudRateOverride,115200
;   overridePrinterModels,0
;   printerModelsOverride
;   startingGcode,G28 X0 Y0; home XY,G1 X20 Y20,G28 Z0,G1 Z5 F5000; Lift NZ
;   layerChangeGcode,
;   retractionGcode,
;   toolChangeGcode,
;   endingGcode,M104 S0 ; turn off extruder,G28 X0 ; home x,M140 S0 ; turn off bed,M84 ; disable motors,M107 ;
;   exportFileFormat,gcode
;   celebration,0
;   celebrationSong,Looney Toons
;   postProcessing,
;   defaultSpeed,3600
;   outlineUnderspeed,0.5
;   solidInfillUnderspeed,0.8
;   supportUnderspeed,0.8
;   rapidXYspeed,4800
;   rapidZspeed,1002
;   minBridgingArea,50
;   bridgingExtraInflation,0
;   bridgingExtrusionMultiplier,1
;   bridgingSpeedMultiplier,1
;   useFixedBridgingAngle,0
;   fixedBridgingAngle,0
;   applyBridgingToPerimeters,0
;   filamentDiameters,1.75|1.75|1.75|1.75|1.75|1.75
;   filamentPricesPerKg,46|46|46|46|46|46
;   filamentDensities,1.25|1.25|1.25|1.25|1.25|1.25
;   useMinPrintHeight,0
;   minPrintHeight,0
;   useMaxPrintHeight,0
;   maxPrintHeight,0
;   useDiaphragm,0
;   diaphragmLayerInterval,20
;   robustSlicing,1
;   mergeAllIntoSolid,0
;   onlyRetractWhenCrossingOutline,1
;   retractBetweenLayers,1
;   useRetractionMinTravel,0
;   retractionMinTravel,3
;   retractWhileWiping,0
;   onlyWipeOutlines,1
;   avoidCrossingOutline,0
;   maxMovementDetourFactor,3
;   toolChangeRetractionDistance,12
;   toolChangeExtraRestartDistance,-0.5
;   toolChangeRetractionSpeed,600
;   externalThinWallType,0
;   internalThinWallType,2
;   thinWallAllowedOverlapPercentage,10
;   singleExtrusionMinLength,1
;   singleExtrusionMinPrintingWidthPercentage,50
;   singleExtrusionMaxPrintingWidthPercentage,200
;   singleExtrusionEndpointExtension,0.2
;   horizontalSizeCompensation,0
G90
M82
M106 S0
M140 S60
M190 S60
M104 S190 T0
M109 S190 T0
G28 X0 Y0; home XY
G1 X20 Y20
G28 Z0
G1 Z5 F5000; Lift NZ
; process Trideo BOX
; layer 1, Z = 0.270
T0
G92 E0.0000
G1 E-0.7000 F1500
; feature skirt
; tool H0.270 W0.480
G1 Z0.270 F1002
G1 X65.825 Y65.060 F4800
G1 E0.0000 F1500
G92 E0.0000
G1 X67.060 Y65.060 E0.0652 F1800
G1 X67.060 Y63.825 E0.1304
G1 X69.825 Y61.060 E0.3369
G1 X82.175 Y61.060 E0.9890
G1 X84.000 Y62.885 E1.1253
G1 X85.825 Y61.060 E1.2616
G1 X118.175 Y61.060 E2.9698
G1 X120.940 Y63.825 E3.1763
G1 X120.940 Y76.175 E3.8284
G1 X118.175 Y78.940 E4.0349
G1 X104.940 Y78.940 E4.7338
G1 X104.940 Y80.175 E4.7990
G1 X104.055 Y81.060 E4.8651
G1 X126.175 Y81.060 E6.0331
G1 X128.940 Y83.825 E6.2395
G1 X128.940 Y96.175 E6.8917
G1 X126.175 Y98.940 E7.0982
G1 X104.940 Y98.940 E8.2194
G1 X104.940 Y101.060 E8.3314
G1 X125.994 Y101.060 E9.4431
G1 X127.486 Y100.558 E9.5263
G1 X129.367 Y101.060 E9.6290
G1 X134.175 Y101.060 E9.8829
G1 X136.940 Y103.825 E10.0894
G1 X136.940 Y116.175 E10.7415
G1 X134.175 Y118.940 E10.9480
G1 X124.055 Y118.940 E11.4824
G1 X124.940 Y119.825 E11.5485
G1 X124.940 Y121.060 E11.6137
G1 X126.175 Y121.060 E11.6789
G1 X128.940 Y123.825 E11.8854
G1 X128.940 Y136.175 E12.5375
G1 X126.175 Y138.940 E12.7440
G1 X65.825 Y138.940 E15.9307
G1 X63.060 Y136.175 E16.1372
G1 X63.060 Y127.825 E16.5781
G1 X65.825 Y125.060 E16.7846
G1 X67.060 Y125.060 E16.8498
G1 X67.060 Y123.825 E16.9150
G1 X69.825 Y121.060 E17.1215
G1 X79.060 Y121.060 E17.6091
G1 X79.060 Y118.940 E17.7211
G1 X69.825 Y118.940 E18.2087
G1 X67.060 Y116.175 E18.4152
G1 X67.060 Y103.825 E19.0673
G1 X69.825 Y101.060 E19.2738
G1 X79.060 Y101.060 E19.7614
G1 X79.060 Y98.940 E19.8734
G1 X69.825 Y98.940 E20.3610
G1 X67.060 Y96.175 E20.5675
G1 X67.060 Y83.825 E21.2196
G1 X69.825 Y81.060 E21.4261
G1 X79.060 Y81.060 E21.9138
G1 X79.060 Y78.940 E22.0257
G1 X65.825 Y78.940 E22.7246
G1 X63.060 Y76.175 E22.9310
G1 X63.060 Y67.825 E23.3720
G1 X65.825 Y65.060 E23.5784
G92 E0.0000
G1 E-0.7000 F1500
G1 X66.024 Y65.540 F4800
G1 E0.0000 F1500
G92 E0.0000
G1 X67.540 Y65.540 E0.0801 F1800
G1 X67.540 Y64.024 E0.1601
G1 X70.024 Y61.540 E0.3456
G1 X81.976 Y61.540 E0.9767
G1 X84.000 Y63.564 E1.1279
G1 X86.024 Y61.540 E1.2790
G1 X117.976 Y61.540 E2.9662
G1 X120.460 Y64.024 E3.1517
G1 X120.460 Y75.976 E3.7828
G1 X117.976 Y78.460 E3.9683
G1 X104.460 Y78.460 E4.6820
G1 X104.460 Y79.976 E4.7621
G1 X102.896 Y81.540 E4.8788
G1 X125.976 Y81.540 E6.0976
G1 X128.460 Y84.024 E6.2830
G1 X128.460 Y95.976 E6.9142
G1 X125.976 Y98.460 E7.0996
G1 X104.460 Y98.460 E8.2358
G1 X104.460 Y99.976 E8.3158
G1 X104.436 Y100.000 E8.3176
G1 X104.460 Y100.024 E8.3194
G1 X104.460 Y101.540 E8.3995
G1 X125.976 Y101.540 E9.5356
G1 X126.001 Y101.564 E9.5374
G1 X127.502 Y101.059 E9.6211
G1 X129.304 Y101.540 E9.7196
G1 X133.976 Y101.540 E9.9663
G1 X136.460 Y104.024 E10.1517
G1 X136.460 Y115.976 E10.7829
G1 X133.976 Y118.460 E10.9683
G1 X122.896 Y118.460 E11.5534
G1 X124.460 Y120.024 E11.6702
G1 X124.460 Y121.540 E11.7502
G1 X125.976 Y121.540 E11.8303
G1 X128.460 Y124.024 E12.0158
G1 X128.460 Y135.976 E12.6469
G1 X125.976 Y138.460 E12.8324
G1 X66.024 Y138.460 E15.9981
G1 X63.540 Y135.976 E16.1836
G1 X63.540 Y128.024 E16.6035
G1 X66.024 Y125.540 E16.7890
G1 X67.540 Y125.540 E16.8691
G1 X67.540 Y124.024 E16.9491
G1 X70.024 Y121.540 E17.1346
G1 X79.540 Y121.540 E17.6371
G1 X79.540 Y118.460 E17.7997
G1 X70.024 Y118.460 E18.3022
G1 X67.540 Y115.976 E18.4877
G1 X67.540 Y104.024 E19.1188
G1 X70.024 Y101.540 E19.3043
G1 X79.540 Y101.540 E19.8068
G1 X79.540 Y98.460 E19.9694
G1 X70.024 Y98.460 E20.4719
G1 X67.540 Y95.976 E20.6574
G1 X67.540 Y84.024 E21.2886
G1 X70.024 Y81.540 E21.4740
G1 X79.540 Y81.540 E21.9765
G1 X79.540 Y78.460 E22.1392
G1 X66.024 Y78.460 E22.8529
G1 X63.540 Y75.976 E23.0383
G1 X63.540 Y68.024 E23.4583
G1 X66.024 Y65.540 E23.6437
G92 E0.0000
G1 E-0.7000 F1500
; feature outer perimeter
G1 X126.566 Y106.347 F4800
G1 E0.0000 F1500
G92 E0.0000
G1 X126.923 Y105.981 E0.0270 F900
G1 X127.569 Y105.763 E0.0630
G1 X127.630 Y105.832 E0.0679
G1 X127.733 Y106.277 E0.0920
G1 X127.733 Y113.223 E0.4587
G1 X127.630 Y113.668 E0.4829
G1 X127.569 Y113.737 E0.4877
G1 X126.923 Y113.519 E0.5237
G1 X126.566 Y113.152 E0.5508
G1 X126.566 Y106.347 E0.9101
; feature gap fill
G1 X126.974 Y106.609 F4800
G92 E0.0000
G1 X127.325 Y106.960 E0.0262 F1800
G1 X127.325 Y107.639 E0.0621
G1 X126.974 Y107.288 E0.0883
G1 X126.974 Y107.967 E0.1241
G1 X127.325 Y108.318 E0.1504
G1 X127.325 Y108.997 E0.1862
G1 X126.974 Y108.646 E0.2124
G1 X126.974 Y109.325 E0.2483
G1 X127.325 Y109.676 E0.2745
G1 X127.325 Y110.355 E0.3103
G1 X126.974 Y110.003 E0.3366
G1 X126.974 Y110.682 E0.3724
G1 X127.325 Y111.033 E0.3986
G1 X127.325 Y111.712 E0.4345
G1 X126.974 Y111.361 E0.4607
G1 X126.974 Y112.040 E0.4965
G1 X127.325 Y112.391 E0.5228
G1 X127.325 Y113.070 E0.5586
G1 X126.974 Y112.719 E0.5848
G92 E0.0000
G1 E-0.7000 F1500
; feature support
G1 X129.140 Y113.440 F4800
G1 E0.0000 F1500
G92 E0.0000
G1 X131.970 Y113.440 E0.1495 F1440
G1 X131.970 Y111.520 E0.2508
G1 X129.173 Y111.520 E0.3985
G1 X129.173 Y109.600 E0.4999
G1 X131.970 Y109.600 E0.6476
G1 X131.970 Y107.680 E0.7490
G1 X129.173 Y107.680 E0.8966
G92 E0.0000
G1 E-0.7000 F1500
G1 X119.970 Y123.040 F4800
G1 E0.0000 F1500
G92 E0.0000
G1 X108.030 Y123.040 E0.6305 F1440
G92 E0.0000
G1 E-0.7000 F1500
G1 X72.030 Y126.880 F4800
G1 E0.0000 F1500
G92 E0.0000
G1 X79.970 Y126.880 E0.4193 F1440
G1 X79.970 Y127.710 E0.4631
G1 X79.961 Y127.710 E0.4636
G1 X79.961 Y128.800 E0.5211
G1 X72.030 Y128.800 E0.9399
G1 X72.030 Y130.030 E1.0048
G1 X68.030 Y130.030 E1.2160
G1 X68.030 Y130.720 E1.2525
G1 X79.960 Y130.720 E1.8824
G1 X79.959 Y132.640 E1.9838
G1 X68.030 Y132.640 E2.6137
G1 X68.030 Y133.970 E2.6840
G1 X123.970 Y133.970 E5.6378
G1 X123.970 Y132.640 E5.7080
G1 X81.448 Y132.640 E7.9534
G1 X81.448 Y130.720 E8.0548
G1 X123.970 Y130.720 E10.3001
G1 X123.970 Y128.800 E10.4015
G1 X88.030 Y128.800 E12.2993
G1 X88.030 Y126.880 E12.4006
G1 X123.970 Y126.880 E14.2984
G1 X123.970 Y126.030 E14.3433
G1 X119.970 Y126.030 E14.5545
G1 X119.970 Y124.960 E14.6110
G1 X108.030 Y124.960 E15.2415
G1 X108.030 Y126.030 E15.2980
G1 X103.970 Y126.030 E15.5124
G1 X103.970 Y124.960 E15.5689
G1 X88.030 Y124.960 E16.4106
G1 X88.030 Y123.040 E16.5119
G1 X103.970 Y123.040 E17.3536
G1 X103.970 Y122.030 E17.4070
G1 X95.970 Y122.030 E17.8294
G1 X95.970 Y121.120 E17.8774
G1 X84.030 Y121.120 E18.5079
G1 X84.030 Y119.200 E18.6093
G1 X95.970 Y119.200 E19.2398
G1 X95.970 Y117.280 E19.3412
G1 X84.030 Y117.280 E19.9716
G1 X84.030 Y115.360 E20.0730
G1 X95.970 Y115.360 E20.7035
G1 X95.970 Y113.970 E20.7769
G1 X123.422 Y113.970 E22.2265
G1 X123.129 Y113.678 E22.2483
G1 X122.996 Y113.440 E22.2627
G1 X88.030 Y113.440 E24.1091
G1 X88.030 Y111.520 E24.2105
G1 X122.969 Y111.520 E26.0554
G1 X122.969 Y109.600 E26.1567
G1 X88.030 Y109.600 E28.0016
G1 X88.030 Y107.680 E28.1030
G1 X122.969 Y107.680 E29.9479
G1 X122.969 Y106.109 E30.0309
G1 X123.013 Y106.030 E30.0357
G1 X99.970 Y106.030 E31.2524
G1 X99.970 Y105.760 E31.2667
G1 X88.030 Y105.760 E31.8972
G1 X88.030 Y103.840 E31.9986
G1 X99.970 Y103.840 E32.6290
G1 X99.970 Y102.030 E32.7246
G1 X95.970 Y102.030 E32.9358
G1 X95.970 Y101.920 E32.9416
G1 X84.030 Y101.920 E33.5721
G1 X84.030 Y100.000 E33.6735
G1 X95.970 Y100.000 E34.3040
G1 X95.970 Y98.080 E34.4053
G1 X84.030 Y98.080 E35.0358
G1 X84.030 Y98.030 E35.0385
G1 X88.030 Y98.030 E35.2497
G1 X88.030 Y96.160 E35.3484
G1 X99.970 Y96.160 E35.9789
G1 X99.970 Y94.240 E36.0803
G1 X88.030 Y94.240 E36.7108
G1 X88.030 Y92.320 E36.8121
G1 X123.970 Y92.320 E38.7099
G1 X123.970 Y90.400 E38.8113
G1 X88.030 Y90.400 E40.7091
G1 X88.030 Y88.480 E40.8104
G1 X123.970 Y88.480 E42.7082
G1 X123.970 Y86.560 E42.8096
G1 X88.030 Y86.560 E44.7074
G1 X88.030 Y85.970 E44.7385
G1 X84.030 Y85.970 E44.9497
G1 X84.030 Y84.640 E45.0200
G1 X95.970 Y84.640 E45.6504
G1 X95.970 Y82.720 E45.7518
G1 X84.030 Y82.720 E46.3823
G1 X84.030 Y80.800 E46.4837
G1 X95.970 Y80.800 E47.1142
G1 X95.970 Y78.880 E47.2155
G1 X84.030 Y78.880 E47.8460
G1 X84.030 Y78.030 E47.8909
G1 X88.030 Y78.030 E48.1021
G1 X88.030 Y76.960 E48.1586
G1 X99.970 Y76.960 E48.7891
G1 X99.970 Y75.040 E48.8905
G1 X88.030 Y75.040 E49.5210
G1 X88.030 Y73.970 E49.5775
G1 X81.448 Y73.970 E49.9250
G1 X81.448 Y73.120 E49.9699
G1 X115.970 Y73.120 E51.7928
G1 X115.970 Y71.200 E51.8942
G1 X81.448 Y71.200 E53.7171
G1 X81.448 Y70.030 E53.7789
G1 X88.030 Y70.030 E54.1265
G1 X88.030 Y69.280 E54.1661
G1 X115.970 Y69.280 E55.6414
G1 X115.970 Y67.360 E55.7428
G1 X88.030 Y67.360 E57.2182
G92 E0.0000
G1 E-0.7000 F1500
G1 X72.030 Y67.360 F4800
G1 E0.0000 F1500
G92 E0.0000
G1 X79.970 Y67.360 E0.4193 F1440
G1 X79.970 Y69.210 E0.5169
G1 X79.959 Y69.210 E0.5175
G1 X79.959 Y69.280 E0.5212
G1 X72.030 Y69.280 E0.9399
G1 X72.030 Y70.030 E0.9795
G1 X68.030 Y70.030 E1.1907
G1 X68.030 Y71.200 E1.2525
G1 X79.960 Y71.200 E1.8824
G1 X79.960 Y73.120 E1.9838
G1 X68.030 Y73.120 E2.6138
G92 E0.0000
G1 E-0.7000 F1500
G1 X72.030 Y86.560 F4800
G1 E0.0000 F1500
G92 E0.0000
G1 X79.970 Y86.560 E0.4193 F1440
G1 X79.970 Y88.480 E0.5206
G1 X72.030 Y88.480 E0.9399
G1 X72.030 Y90.400 E1.0413
G1 X79.970 Y90.400 E1.4606
G1 X79.970 Y92.320 E1.5619
G1 X72.030 Y92.320 E1.9812
G92 E0.0000
G1 E-0.7000 F1500
G1 X72.030 Y107.680 F4800
G1 E0.0000 F1500
G92 E0.0000
G1 X79.970 Y107.680 E0.4193 F1440
G1 X79.970 Y109.600 E0.5206
G1 X72.030 Y109.600 E0.9399
G1 X72.030 Y111.520 E1.0413
G1 X79.970 Y111.520 E1.4606
G1 X79.970 Y113.440 E1.5619
G1 X72.030 Y113.440 E1.9812
G92 E0.0000
G1 E-0.7000 F1500
; layer 2, Z = 0.570
M106 S255
; feature inner perimeter
; tool H0.300 W0.480
G1 Z0.570 F1002
G1 X124.229 Y113.037 F4800
G1 E0.0000 F1500
G92 E0.0000
G1 X124.229 Y106.463 E0.3857 F2700
G1 X124.521 Y106.332 E0.4045
G1 X125.519 Y106.009 E0.4661
G1 X127.485 Y105.637 E0.5835
G1 X127.811 Y106.041 E0.6139
G1 X127.913 Y106.362 E0.6337
G1 X127.913 Y113.138 E1.0313
G1 X127.811 Y113.459 E1.0510
G1 X127.485 Y113.863 E1.0815
G1 X125.519 Y113.491 E1.1989
G1 X124.521 Y113.168 E1.2604
G1 X124.229 Y113.037 E1.2792
; feature outer perimeter
G1 X124.029 Y113.474 F4800
G92 E0.0000
G1 X123.757 Y113.202 E0.0226 F1800
G1 X123.749 Y113.188 E0.0236
G1 X123.749 Y106.312 E0.4269
G1 X123.757 Y106.298 E0.4279
G1 X124.029 Y106.026 E0.4505
G1 X124.349 Y105.883 E0.4710
G1 X125.400 Y105.543 E0.5358
G1 X127.554 Y105.135 E0.6645
G1 X127.866 Y105.344 E0.6865
G1 X128.241 Y105.809 E0.7216
G1 X128.393 Y106.287 E0.7510
G1 X128.393 Y113.213 E1.1573
G1 X128.241 Y113.691 E1.1867
G1 X127.866 Y114.156 E1.2218
G1 X127.554 Y114.365 E1.2438
G1 X125.400 Y113.957 E1.3725
