; G-Code generated by Simplify3D(R) Version 4.1.1
; Apr 28, 2021 at 7:23:10 PM
; Settings Summary
;   processName,Trideo BOX
;   applyToModels,leftbicepelbow left
;   profileName,Trideo BOX
;   profileVersion,2021-04-15 09:48:16
;   baseProfile,Default
;   printMaterial,PLA
;   printQuality,Fast
;   printExtruders,
;   extruderName,Primary Extruder
;   extruderToolheadNumber,0
;   extruderDiameter,0.4
;   extruderAutoWidth,1
;   extruderWidth,0.48
;   extrusionMultiplier,0.98
;   extruderUseRetract,1
;   extruderRetractionDistance,0.7
;   extruderExtraRestartDistance,0
;   extruderRetractionZLift,0
;   extruderRetractionSpeed,1500
;   extruderUseCoasting,0
;   extruderCoastingDistance,0.2
;   extruderUseWipe,0
;   extruderWipeDistance,5
;   primaryExtruder,0
;   layerHeight,0.3
;   topSolidLayers,3
;   bottomSolidLayers,3
;   perimeterOutlines,2
;   printPerimetersInsideOut,1
;   startPointOption,2
;   startPointOriginX,0
;   startPointOriginY,0
;   sequentialIslands,0
;   spiralVaseMode,0
;   firstLayerHeightPercentage,90
;   firstLayerWidthPercentage,100
;   firstLayerUnderspeed,0.5
;   useRaft,0
;   raftExtruder,0
;   raftTopLayers,3
;   raftBaseLayers,2
;   raftOffset,3
;   raftSeparationDistance,0.14
;   raftTopInfill,100
;   aboveRaftSpeedMultiplier,0.3
;   useSkirt,1
;   skirtExtruder,0
;   skirtLayers,1
;   skirtOutlines,2
;   skirtOffset,4
;   usePrimePillar,0
;   primePillarExtruder,999
;   primePillarWidth,12
;   primePillarLocation,7
;   primePillarSpeedMultiplier,1
;   useOozeShield,0
;   oozeShieldExtruder,999
;   oozeShieldOffset,2
;   oozeShieldOutlines,1
;   oozeShieldSidewallShape,1
;   oozeShieldSidewallAngle,30
;   oozeShieldSpeedMultiplier,1
;   infillExtruder,0
;   internalInfillPattern,Rectilinear
;   externalInfillPattern,Rectilinear
;   infillPercentage,15
;   outlineOverlapPercentage,15
;   infillExtrusionWidthPercentage,100
;   minInfillLength,5
;   infillLayerInterval,1
;   internalInfillAngles,45,-45
;   overlapInternalInfillAngles,0
;   externalInfillAngles,45,-45
;   generateSupport,1
;   supportExtruder,0
;   supportInfillPercentage,25
;   supportExtraInflation,0
;   supportBaseLayers,0
;   denseSupportExtruder,0
;   denseSupportLayers,0
;   denseSupportInfillPercentage,70
;   supportLayerInterval,1
;   supportHorizontalPartOffset,0.3
;   supportUpperSeparationLayers,1
;   supportLowerSeparationLayers,1
;   supportType,0
;   supportGridSpacing,4
;   maxOverhangAngle,45
;   supportAngles,0
;   temperatureName,Primary Extruder,Heated bed
;   temperatureNumber,0,0
;   temperatureSetpointCount,1,1
;   temperatureSetpointLayers,1,1
;   temperatureSetpointTemperatures,190,60
;   temperatureStabilizeAtStartup,1,1
;   temperatureHeatedBed,0,1
;   fanLayers,1,2
;   fanSpeeds,0,100
;   blipFanToFullPower,0
;   adjustSpeedForCooling,1
;   minSpeedLayerTime,15
;   minCoolingSpeedSlowdown,20
;   increaseFanForCooling,0
;   minFanLayerTime,45
;   maxCoolingFanSpeed,100
;   increaseFanForBridging,0
;   bridgingFanSpeed,100
;   use5D,1
;   relativeEdistances,0
;   allowEaxisZeroing,1
;   independentExtruderAxes,0
;   includeM10123,0
;   stickySupport,1
;   applyToolheadOffsets,0
;   gcodeXoffset,0
;   gcodeYoffset,0
;   gcodeZoffset,0
;   overrideMachineDefinition,1
;   machineTypeOverride,0
;   strokeXoverride,200
;   strokeYoverride,200
;   strokeZoverride,200
;   originOffsetXoverride,0
;   originOffsetYoverride,0
;   originOffsetZoverride,0
;   homeXdirOverride,-1
;   homeYdirOverride,-1
;   homeZdirOverride,-1
;   flipXoverride,1
;   flipYoverride,-1
;   flipZoverride,1
;   toolheadOffsets,0,0|0,0|0,0|0,0|0,0|0,0
;   overrideFirmwareConfiguration,0
;   firmwareTypeOverride,RepRap (Marlin/Repetier/Sprinter)
;   GPXconfigOverride,r2
;   baudRateOverride,115200
;   overridePrinterModels,0
;   printerModelsOverride
;   startingGcode,G28 X0 Y0; home XY,G1 X20 Y20,G28 Z0,G1 Z5 F5000; Lift NZ
;   layerChangeGcode,
;   retractionGcode,
;   toolChangeGcode,
;   endingGcode,M104 S0 ; turn off extruder,G28 X0 ; home x,M140 S0 ; turn off bed,M84 ; disable motors,M107 ;
;   exportFileFormat,gcode
;   celebration,0
;   celebrationSong,Looney Toons
;   postProcessing,
;   defaultSpeed,3600
;   outlineUnderspeed,0.5
;   solidInfillUnderspeed,0.8
;   supportUnderspeed,0.8
;   rapidXYspeed,4800
;   rapidZspeed,1002
;   minBridgingArea,50
;   bridgingExtraInflation,0
;   bridgingExtrusionMultiplier,1
;   bridgingSpeedMultiplier,1
;   useFixedBridgingAngle,0
;   fixedBridgingAngle,0
;   applyBridgingToPerimeters,0
;   filamentDiameters,1.75|1.75|1.75|1.75|1.75|1.75
;   filamentPricesPerKg,46|46|46|46|46|46
;   filamentDensities,1.25|1.25|1.25|1.25|1.25|1.25
;   useMinPrintHeight,0
;   minPrintHeight,0
;   useMaxPrintHeight,0
;   maxPrintHeight,0
;   useDiaphragm,0
;   diaphragmLayerInterval,20
;   robustSlicing,1
;   mergeAllIntoSolid,0
;   onlyRetractWhenCrossingOutline,1
;   retractBetweenLayers,1
;   useRetractionMinTravel,0
;   retractionMinTravel,3
;   retractWhileWiping,0
;   onlyWipeOutlines,1
;   avoidCrossingOutline,0
;   maxMovementDetourFactor,3
;   toolChangeRetractionDistance,12
;   toolChangeExtraRestartDistance,-0.5
;   toolChangeRetractionSpeed,600
;   externalThinWallType,0
;   internalThinWallType,2
;   thinWallAllowedOverlapPercentage,10
;   singleExtrusionMinLength,1
;   singleExtrusionMinPrintingWidthPercentage,50
;   singleExtrusionMaxPrintingWidthPercentage,200
;   singleExtrusionEndpointExtension,0.2
;   horizontalSizeCompensation,0
G90
M82
M106 S0
M140 S60
M190 S60
M104 S190 T0
M109 S190 T0
G28 X0 Y0; home XY
G1 X20 Y20
G28 Z0
G1 Z5 F5000; Lift NZ
; process Trideo BOX
; layer 1, Z = 0.270
T0
G92 E0.0000
G1 E-0.7000 F1500
; feature skirt
; tool H0.270 W0.480
G1 Z0.270 F1002
G1 X54.866 Y55.810 F4800
G1 E0.0000 F1500
G92 E0.0000
G1 X55.197 Y55.485 E0.0245 F1800
G1 X56.168 Y54.701 E0.0904
G1 X56.556 Y54.446 E0.1149
G1 X57.661 Y53.867 E0.1808
G1 X58.091 Y53.693 E0.2053
G1 X59.288 Y53.340 E0.2711
G1 X59.743 Y53.253 E0.2956
G1 X60.871 Y53.152 E0.3554
G1 X61.102 Y53.142 E0.3676
G1 X127.209 Y53.676 E3.8584
G1 X127.825 Y53.060 E3.9044
G1 X140.175 Y53.060 E4.5566
G1 X142.940 Y55.825 E4.7630
G1 X142.940 Y87.221 E6.4209
G1 X143.586 Y88.457 E6.4945
G1 X143.656 Y88.602 E6.5030
G1 X144.703 Y90.987 E6.6406
G1 X144.762 Y91.137 E6.6491
G1 X145.645 Y93.588 E6.7867
G1 X145.694 Y93.741 E6.7951
G1 X146.411 Y96.256 E6.9332
G1 X146.450 Y96.413 E6.9417
G1 X146.996 Y98.988 E7.0807
G1 X147.024 Y99.147 E7.0893
G1 X147.391 Y101.737 E7.2274
G1 X147.408 Y101.897 E7.2359
G1 X147.597 Y104.506 E7.3740
G1 X147.604 Y104.666 E7.3825
G1 X147.615 Y107.282 E7.5206
G1 X147.610 Y107.443 E7.5291
G1 X147.443 Y110.053 E7.6672
G1 X147.427 Y110.213 E7.6757
G1 X147.083 Y112.806 E7.8138
G1 X147.056 Y112.964 E7.8223
G1 X146.536 Y115.528 E7.9604
G1 X146.499 Y115.684 E7.9689
G1 X145.805 Y118.206 E8.1070
G1 X145.757 Y118.359 E8.1155
G1 X144.901 Y120.807 E8.2525
G1 X144.843 Y120.957 E8.2609
G1 X143.805 Y123.381 E8.4002
G1 X143.736 Y123.528 E8.4087
G1 X142.544 Y125.856 E8.5468
G1 X142.466 Y125.997 E8.5553
G1 X141.119 Y128.238 E8.6934
G1 X141.031 Y128.373 E8.7019
G1 X139.547 Y130.500 E8.8389
G1 X139.451 Y130.629 E8.8474
G1 X137.798 Y132.684 E8.9866
G1 X137.692 Y132.806 E8.9951
G1 X135.917 Y134.728 E9.1333
G1 X135.805 Y134.842 E9.1417
G1 X133.919 Y136.623 E9.2787
G1 X133.799 Y136.729 E9.2872
G1 X131.763 Y138.405 E9.4264
G1 X131.635 Y138.504 E9.4350
G1 X129.506 Y140.025 E9.5731
G1 X129.373 Y140.113 E9.5816
G1 X127.165 Y141.474 E9.7185
G1 X127.025 Y141.554 E9.7270
G1 X124.692 Y142.782 E9.8662
G1 X124.546 Y142.852 E9.8748
G1 X122.153 Y143.909 E10.0129
G1 X122.004 Y143.969 E10.0214
G1 X119.565 Y144.852 E10.1583
G1 X119.413 Y144.902 E10.1668
G1 X116.879 Y145.630 E10.3060
G1 X116.722 Y145.670 E10.3146
G1 X114.164 Y146.218 E10.4527
G1 X114.006 Y146.246 E10.4612
G1 X111.439 Y146.616 E10.5982
G1 X111.279 Y146.634 E10.6066
G1 X108.650 Y146.832 E10.7459
G1 X108.488 Y146.839 E10.7544
G1 X105.872 Y146.856 E10.8926
G1 X105.712 Y146.851 E10.9010
G1 X103.123 Y146.692 E11.0380
G1 X102.963 Y146.677 E11.0464
G1 X100.349 Y146.337 E11.1857
G1 X100.189 Y146.310 E11.1942
G1 X97.624 Y145.796 E11.3324
G1 X97.467 Y145.759 E11.3409
G1 X94.965 Y145.077 E11.4778
G1 X94.812 Y145.030 E11.4863
G1 X92.321 Y144.166 E11.6255
G1 X92.170 Y144.107 E11.6341
G1 X89.763 Y143.082 E11.7722
G1 X89.617 Y143.014 E11.7807
G1 X87.305 Y141.838 E11.9176
G1 X87.165 Y141.761 E11.9261
G1 X84.902 Y140.409 E12.0653
G1 X84.765 Y140.321 E12.0739
G1 X82.617 Y138.828 E12.2120
G1 X82.488 Y138.732 E12.2205
G1 X80.447 Y137.097 E12.3586
G1 X80.325 Y136.992 E12.3671
G1 X78.415 Y135.237 E12.5041
G1 X78.301 Y135.125 E12.5125
G1 X76.486 Y133.213 E12.6517
G1 X76.378 Y133.091 E12.6603
G1 X74.711 Y131.075 E12.7984
G1 X74.613 Y130.948 E12.8069
G1 X73.087 Y128.823 E12.9451
G1 X72.998 Y128.689 E12.9535
G1 X71.632 Y126.484 E13.0905
G1 X71.553 Y126.346 E13.0989
G1 X70.319 Y124.015 E13.2382
G1 X70.248 Y123.869 E13.2467
G1 X69.186 Y121.479 E13.3849
G1 X69.126 Y121.329 E13.3934
G1 X68.229 Y118.872 E13.5315
G1 X68.179 Y118.719 E13.5400
G1 X67.458 Y116.228 E13.6769
G1 X67.419 Y116.073 E13.6854
G1 X66.859 Y113.497 E13.8246
G1 X66.830 Y113.337 E13.8332
G1 X66.451 Y110.748 E13.9713
G1 X66.433 Y110.589 E13.9798
G1 X66.232 Y107.981 E14.1179
G1 X66.225 Y107.820 E14.1264
G1 X66.202 Y105.205 E14.2645
G1 X66.206 Y105.044 E14.2730
G1 X66.361 Y102.433 E14.4111
G1 X66.376 Y102.272 E14.4196
G1 X66.705 Y99.700 E14.5566
G1 X66.731 Y99.542 E14.5650
G1 X67.140 Y97.470 E14.6766
G1 X67.214 Y88.397 E15.1556
G1 X67.160 Y87.136 E15.2223
G1 X66.996 Y86.005 E15.2826
G1 X66.718 Y84.897 E15.3430
G1 X66.330 Y83.822 E15.4033
G1 X65.835 Y82.792 E15.4636
G1 X65.238 Y81.818 E15.5240
G1 X64.546 Y80.909 E15.5843
G1 X63.765 Y80.075 E15.6447
G1 X62.904 Y79.324 E15.7050
G1 X61.971 Y78.664 E15.7653
G1 X60.976 Y78.102 E15.8257
G1 X59.929 Y77.644 E15.8860
G1 X58.565 Y77.204 E15.9617
G1 X58.468 Y77.171 E15.9671
G1 X57.506 Y76.814 E16.0213
G1 X57.105 Y76.621 E16.0447
G1 X56.081 Y76.003 E16.1079
G1 X55.724 Y75.738 E16.1314
G1 X54.833 Y74.939 E16.1946
G1 X54.531 Y74.612 E16.2181
G1 X53.806 Y73.660 E16.2813
G1 X53.571 Y73.282 E16.3048
G1 X53.037 Y72.211 E16.3680
G1 X52.877 Y71.796 E16.3915
G1 X52.552 Y70.644 E16.4546
G1 X52.473 Y70.207 E16.4781
G1 X52.379 Y69.125 E16.5355
G1 X52.371 Y68.903 E16.5472
G1 X52.429 Y61.676 E16.9288
G1 X52.442 Y61.445 E16.9410
G1 X52.562 Y60.320 E17.0008
G1 X52.656 Y59.865 E17.0253
G1 X53.028 Y58.674 E17.0912
G1 X53.209 Y58.247 E17.1157
G1 X53.806 Y57.151 E17.1816
G1 X54.067 Y56.768 E17.2061
G1 X54.866 Y55.810 E17.2720
G92 E0.0000
G1 E-0.7000 F1500
G1 X55.220 Y56.135 F4800
G1 E0.0000 F1500
G92 E0.0000
G1 X55.517 Y55.843 E0.0220 F1800
G1 X56.451 Y55.089 E0.0854
G1 X56.800 Y54.860 E0.1074
G1 X57.863 Y54.303 E0.1708
G1 X58.249 Y54.147 E0.1928
G1 X59.401 Y53.807 E0.2562
G1 X59.810 Y53.729 E0.2782
G1 X60.902 Y53.631 E0.3361
G1 X61.110 Y53.622 E0.3471
G1 X127.406 Y54.157 E3.8479
G1 X128.024 Y53.540 E3.8940
G1 X139.976 Y53.540 E4.5251
G1 X142.460 Y56.024 E4.7106
G1 X142.460 Y87.339 E6.3642
G1 X143.157 Y88.672 E6.4436
G1 X143.220 Y88.803 E6.4513
G1 X144.260 Y91.173 E6.5879
G1 X144.313 Y91.307 E6.5956
G1 X145.191 Y93.743 E6.7323
G1 X145.235 Y93.881 E6.7399
G1 X145.947 Y96.380 E6.8771
G1 X145.982 Y96.521 E6.8848
G1 X146.525 Y99.080 E7.0229
G1 X146.550 Y99.222 E7.0306
G1 X146.914 Y101.796 E7.1678
G1 X146.930 Y101.940 E7.1755
G1 X147.118 Y104.532 E7.3127
G1 X147.124 Y104.677 E7.3204
G1 X147.135 Y107.276 E7.4576
G1 X147.131 Y107.420 E7.4652
G1 X146.965 Y110.014 E7.6025
G1 X146.950 Y110.158 E7.6101
G1 X146.608 Y112.734 E7.7474
G1 X146.584 Y112.877 E7.7550
G1 X146.067 Y115.424 E7.8922
G1 X146.034 Y115.565 E7.8999
G1 X145.344 Y118.071 E8.0371
G1 X145.301 Y118.208 E8.0447
G1 X144.450 Y120.641 E8.1808
G1 X144.398 Y120.776 E8.1884
G1 X143.367 Y123.185 E8.3268
G1 X143.305 Y123.316 E8.3345
G1 X142.121 Y125.630 E8.4717
G1 X142.050 Y125.757 E8.4794
G1 X140.711 Y127.984 E8.6166
G1 X140.633 Y128.105 E8.6242
G1 X139.158 Y130.219 E8.7603
G1 X139.071 Y130.334 E8.7679
G1 X137.429 Y132.376 E8.9063
G1 X137.334 Y132.487 E8.9140
G1 X135.570 Y134.396 E9.0513
G1 X135.469 Y134.498 E9.0589
G1 X133.595 Y136.268 E9.1950
G1 X133.487 Y136.364 E9.2026
G1 X131.464 Y138.030 E9.3409
G1 X131.349 Y138.118 E9.3486
G1 X129.234 Y139.629 E9.4859
G1 X129.114 Y139.709 E9.4935
G1 X126.920 Y141.061 E9.6296
G1 X126.795 Y141.133 E9.6372
G1 X124.476 Y142.353 E9.7756
G1 X124.345 Y142.416 E9.7833
G1 X121.967 Y143.466 E9.9205
G1 X121.833 Y143.520 E9.9281
G1 X119.410 Y144.398 E10.0642
G1 X119.273 Y144.443 E10.0718
G1 X116.754 Y145.167 E10.2102
G1 X116.613 Y145.202 E10.2179
G1 X114.071 Y145.747 E10.3552
G1 X113.929 Y145.772 E10.3628
G1 X111.378 Y146.140 E10.4989
G1 X111.235 Y146.156 E10.5065
G1 X108.622 Y146.353 E10.6448
G1 X108.477 Y146.359 E10.6525
G1 X105.877 Y146.376 E10.7898
G1 X105.733 Y146.372 E10.7974
G1 X103.160 Y146.214 E10.9335
G1 X103.017 Y146.200 E10.9411
G1 X100.419 Y145.862 E11.0795
G1 X100.275 Y145.838 E11.0872
G1 X97.726 Y145.327 E11.2244
G1 X97.586 Y145.294 E11.2320
G1 X95.099 Y144.616 E11.3681
G1 X94.962 Y144.574 E11.3757
G1 X92.486 Y143.715 E11.5141
G1 X92.350 Y143.662 E11.5218
G1 X89.958 Y142.644 E11.6591
G1 X89.827 Y142.583 E11.6667
G1 X87.530 Y141.414 E11.8028
G1 X87.405 Y141.345 E11.8104
G1 X85.155 Y140.001 E11.9487
G1 X85.032 Y139.922 E11.9564
G1 X82.897 Y138.439 E12.0937
G1 X82.782 Y138.352 E12.1013
G1 X80.753 Y136.727 E12.2386
G1 X80.643 Y136.633 E12.2462
G1 X78.746 Y134.889 E12.3823
G1 X78.644 Y134.788 E12.3899
G1 X76.839 Y132.888 E12.5282
G1 X76.743 Y132.779 E12.5359
G1 X75.086 Y130.776 E12.6732
G1 X74.998 Y130.661 E12.6808
G1 X73.482 Y128.550 E12.8181
G1 X73.402 Y128.430 E12.8257
G1 X72.045 Y126.238 E12.9618
G1 X71.973 Y126.114 E12.9694
G1 X70.747 Y123.798 E13.1078
G1 X70.684 Y123.667 E13.1155
G1 X69.628 Y121.291 E13.2527
G1 X69.574 Y121.157 E13.2604
G1 X68.683 Y118.715 E13.3976
G1 X68.638 Y118.578 E13.4052
G1 X67.922 Y116.102 E13.5413
G1 X67.886 Y115.963 E13.5489
G1 X67.330 Y113.403 E13.6873
G1 X67.304 Y113.259 E13.6950
G1 X66.927 Y110.687 E13.8322
G1 X66.911 Y110.543 E13.8399
G1 X66.711 Y107.952 E13.9771
G1 X66.705 Y107.808 E13.9848
G1 X66.682 Y105.208 E14.1220
G1 X66.685 Y105.064 E14.1296
G1 X66.839 Y102.469 E14.2669
G1 X66.853 Y102.325 E14.2745
G1 X67.180 Y99.769 E14.4106
G1 X67.203 Y99.627 E14.4182
G1 X67.620 Y97.519 E14.5317
G1 X67.694 Y88.389 E15.0138
G1 X67.638 Y87.091 E15.0824
G1 X67.467 Y85.912 E15.1453
G1 X67.178 Y84.756 E15.2082
G1 X66.773 Y83.636 E15.2711
G1 X66.257 Y82.562 E15.3340
G1 X65.635 Y81.546 E15.3969
G1 X64.913 Y80.599 E15.4598
G1 X64.099 Y79.729 E15.5227
G1 X63.201 Y78.946 E15.5856
G1 X62.228 Y78.258 E15.6485
G1 X61.191 Y77.672 E15.7114
G1 X60.099 Y77.194 E15.7743
G1 X58.717 Y76.749 E15.8510
G1 X58.630 Y76.719 E15.8559
G1 X57.694 Y76.372 E15.9086
G1 X57.334 Y76.199 E15.9297
G1 X56.348 Y75.603 E15.9905
G1 X56.027 Y75.366 E16.0116
G1 X55.170 Y74.597 E16.0724
G1 X54.899 Y74.303 E16.0935
G1 X54.202 Y73.387 E16.1543
G1 X53.990 Y73.048 E16.1754
G1 X53.476 Y72.017 E16.2362
G1 X53.333 Y71.645 E16.2573
G1 X53.020 Y70.536 E16.3181
G1 X52.949 Y70.143 E16.3392
G1 X52.858 Y69.095 E16.3947
G1 X52.851 Y68.896 E16.4053
G1 X52.909 Y61.692 E16.7857
G1 X52.921 Y61.484 E16.7967
G1 X53.037 Y60.394 E16.8546
G1 X53.122 Y59.986 E16.8766
G1 X53.479 Y58.840 E16.9400
G1 X53.642 Y58.456 E16.9620
G1 X54.217 Y57.402 E17.0254
G1 X54.451 Y57.057 E17.0474
G1 X55.220 Y56.135 E17.1108
G92 E0.0000
G1 E-0.7000 F1500
; feature inner perimeter
G1 X58.850 Y59.527 F4800
G1 E0.0000 F1500
G92 E0.0000
G1 X59.349 Y59.124 E0.0339 F1350
G1 X59.918 Y58.826 E0.0678
G1 X60.535 Y58.644 E0.1017
G1 X61.210 Y58.583 E0.1375
G1 X63.945 Y58.605 E0.2820
G1 X64.028 Y58.926 E0.2995
G1 X58.731 Y61.928 E0.6210
G1 X58.676 Y68.759 E0.9817
G1 X64.564 Y72.222 E1.3424
G1 X70.508 Y68.854 E1.7031
G1 X70.563 Y62.023 E2.0638
G1 X65.315 Y58.936 E2.3853
G1 X65.404 Y58.617 E2.4028
G1 X125.953 Y59.106 E5.6002
G1 X125.948 Y65.165 E5.9201
G1 X125.883 Y76.405 E6.5137
G1 X126.583 Y76.866 E6.5579
G1 X128.002 Y77.869 E6.6497
G1 X129.924 Y79.410 E6.7797
G1 X131.779 Y81.125 E6.9131
