; G-Code generated by Simplify3D(R) Version 4.1.1
; Apr 28, 2021 at 7:23:57 PM
; Settings Summary
;   processName,Trideo BOX
;   applyToModels,leftbicepelbow left
;   profileName,Trideo BOX
;   profileVersion,2021-04-15 09:48:16
;   baseProfile,Default
;   printMaterial,PLA
;   printQuality,Fast
;   printExtruders,
;   extruderName,Primary Extruder
;   extruderToolheadNumber,0
;   extruderDiameter,0.4
;   extruderAutoWidth,1
;   extruderWidth,0.48
;   extrusionMultiplier,0.98
;   extruderUseRetract,1
;   extruderRetractionDistance,0.7
;   extruderExtraRestartDistance,0
;   extruderRetractionZLift,0
;   extruderRetractionSpeed,1500
;   extruderUseCoasting,0
;   extruderCoastingDistance,0.2
;   extruderUseWipe,0
;   extruderWipeDistance,5
;   primaryExtruder,0
;   layerHeight,0.3
;   topSolidLayers,3
;   bottomSolidLayers,3
;   perimeterOutlines,2
;   printPerimetersInsideOut,1
;   startPointOption,2
;   startPointOriginX,0
;   startPointOriginY,0
;   sequentialIslands,0
;   spiralVaseMode,0
;   firstLayerHeightPercentage,90
;   firstLayerWidthPercentage,100
;   firstLayerUnderspeed,0.5
;   useRaft,0
;   raftExtruder,0
;   raftTopLayers,3
;   raftBaseLayers,2
;   raftOffset,3
;   raftSeparationDistance,0.14
;   raftTopInfill,100
;   aboveRaftSpeedMultiplier,0.3
;   useSkirt,1
;   skirtExtruder,0
;   skirtLayers,1
;   skirtOutlines,2
;   skirtOffset,4
;   usePrimePillar,0
;   primePillarExtruder,999
;   primePillarWidth,12
;   primePillarLocation,7
;   primePillarSpeedMultiplier,1
;   useOozeShield,0
;   oozeShieldExtruder,999
;   oozeShieldOffset,2
;   oozeShieldOutlines,1
;   oozeShieldSidewallShape,1
;   oozeShieldSidewallAngle,30
;   oozeShieldSpeedMultiplier,1
;   infillExtruder,0
;   internalInfillPattern,Rectilinear
;   externalInfillPattern,Rectilinear
;   infillPercentage,15
;   outlineOverlapPercentage,15
;   infillExtrusionWidthPercentage,100
;   minInfillLength,5
;   infillLayerInterval,1
;   internalInfillAngles,45,-45
;   overlapInternalInfillAngles,0
;   externalInfillAngles,45,-45
;   generateSupport,1
;   supportExtruder,0
;   supportInfillPercentage,25
;   supportExtraInflation,0
;   supportBaseLayers,0
;   denseSupportExtruder,0
;   denseSupportLayers,0
;   denseSupportInfillPercentage,70
;   supportLayerInterval,1
;   supportHorizontalPartOffset,0.3
;   supportUpperSeparationLayers,1
;   supportLowerSeparationLayers,1
;   supportType,0
;   supportGridSpacing,4
;   maxOverhangAngle,45
;   supportAngles,0
;   temperatureName,Primary Extruder,Heated bed
;   temperatureNumber,0,0
;   temperatureSetpointCount,1,1
;   temperatureSetpointLayers,1,1
;   temperatureSetpointTemperatures,190,60
;   temperatureStabilizeAtStartup,1,1
;   temperatureHeatedBed,0,1
;   fanLayers,1,2
;   fanSpeeds,0,100
;   blipFanToFullPower,0
;   adjustSpeedForCooling,1
;   minSpeedLayerTime,15
;   minCoolingSpeedSlowdown,20
;   increaseFanForCooling,0
;   minFanLayerTime,45
;   maxCoolingFanSpeed,100
;   increaseFanForBridging,0
;   bridgingFanSpeed,100
;   use5D,1
;   relativeEdistances,0
;   allowEaxisZeroing,1
;   independentExtruderAxes,0
;   includeM10123,0
;   stickySupport,1
;   applyToolheadOffsets,0
;   gcodeXoffset,0
;   gcodeYoffset,0
;   gcodeZoffset,0
;   overrideMachineDefinition,1
;   machineTypeOverride,0
;   strokeXoverride,200
;   strokeYoverride,200
;   strokeZoverride,200
;   originOffsetXoverride,0
;   originOffsetYoverride,0
;   originOffsetZoverride,0
;   homeXdirOverride,-1
;   homeYdirOverride,-1
;   homeZdirOverride,-1
;   flipXoverride,1
;   flipYoverride,-1
;   flipZoverride,1
;   toolheadOffsets,0,0|0,0|0,0|0,0|0,0|0,0
;   overrideFirmwareConfiguration,0
;   firmwareTypeOverride,RepRap (Marlin/Repetier/Sprinter)
;   GPXconfigOverride,r2
;   baudRateOverride,115200
;   overridePrinterModels,0
;   printerModelsOverride
;   startingGcode,G28 X0 Y0; home XY,G1 X20 Y20,G28 Z0,G1 Z5 F5000; Lift NZ
;   layerChangeGcode,
;   retractionGcode,
;   toolChangeGcode,
;   endingGcode,M104 S0 ; turn off extruder,G28 X0 ; home x,M140 S0 ; turn off bed,M84 ; disable motors,M107 ;
;   exportFileFormat,gcode
;   celebration,0
;   celebrationSong,Looney Toons
;   postProcessing,
;   defaultSpeed,3600
;   outlineUnderspeed,0.5
;   solidInfillUnderspeed,0.8
;   supportUnderspeed,0.8
;   rapidXYspeed,4800
;   rapidZspeed,1002
;   minBridgingArea,50
;   bridgingExtraInflation,0
;   bridgingExtrusionMultiplier,1
;   bridgingSpeedMultiplier,1
;   useFixedBridgingAngle,0
;   fixedBridgingAngle,0
;   applyBridgingToPerimeters,0
;   filamentDiameters,1.75|1.75|1.75|1.75|1.75|1.75
;   filamentPricesPerKg,46|46|46|46|46|46
;   filamentDensities,1.25|1.25|1.25|1.25|1.25|1.25
;   useMinPrintHeight,0
;   minPrintHeight,0
;   useMaxPrintHeight,0
;   maxPrintHeight,0
;   useDiaphragm,0
;   diaphragmLayerInterval,20
;   robustSlicing,1
;   mergeAllIntoSolid,0
;   onlyRetractWhenCrossingOutline,1
;   retractBetweenLayers,1
;   useRetractionMinTravel,0
;   retractionMinTravel,3
;   retractWhileWiping,0
;   onlyWipeOutlines,1
;   avoidCrossingOutline,0
;   maxMovementDetourFactor,3
;   toolChangeRetractionDistance,12
;   toolChangeExtraRestartDistance,-0.5
;   toolChangeRetractionSpeed,600
;   externalThinWallType,0
;   internalThinWallType,2
;   thinWallAllowedOverlapPercentage,10
;   singleExtrusionMinLength,1
;   singleExtrusionMinPrintingWidthPercentage,50
;   singleExtrusionMaxPrintingWidthPercentage,200
;   singleExtrusionEndpointExtension,0.2
;   horizontalSizeCompensation,0
G90
M82
M106 S0
M140 S60
M190 S60
M104 S190 T0
M109 S190 T0
G28 X0 Y0; home XY
G1 X20 Y20
G28 Z0
G1 Z5 F5000; Lift NZ
; process Trideo BOX
; layer 1, Z = 0.270
T0
G92 E0.0000
G1 E-0.7000 F1500
; feature skirt
; tool H0.270 W0.480
G1 Z0.270 F1002
G1 X50.701 Y51.711 F4800
G1 E0.0000 F1500
G92 E0.0000
G1 X51.031 Y51.386 E0.0245 F1800
G1 X52.063 Y50.553 E0.0945
G1 X52.451 Y50.298 E0.1190
G1 X53.626 Y49.682 E0.1891
G1 X54.056 Y49.508 E0.2135
G1 X55.328 Y49.134 E0.2836
G1 X55.783 Y49.047 E0.3081
G1 X56.989 Y48.938 E0.3720
G1 X57.220 Y48.928 E0.3842
G1 X127.390 Y49.495 E4.0895
G1 X127.825 Y49.060 E4.1220
G1 X144.175 Y49.060 E4.9854
G1 X146.940 Y51.825 E5.1919
G1 X146.940 Y86.400 E7.0175
G1 X147.522 Y87.513 E7.0839
G1 X147.592 Y87.658 E7.0924
G1 X148.738 Y90.268 E7.2429
G1 X148.797 Y90.417 E7.2514
G1 X149.763 Y93.100 E7.4019
G1 X149.812 Y93.253 E7.4104
G1 X150.596 Y96.004 E7.5615
G1 X150.635 Y96.161 E7.5700
G1 X151.232 Y98.976 E7.7219
G1 X151.260 Y99.135 E7.7305
G1 X151.661 Y101.968 E7.8815
G1 X151.679 Y102.128 E7.8900
G1 X151.886 Y104.981 E8.0411
G1 X151.892 Y105.142 E8.0496
G1 X151.904 Y108.003 E8.2007
G1 X151.900 Y108.164 E8.2092
G1 X151.717 Y111.019 E8.3602
G1 X151.701 Y111.179 E8.3687
G1 X151.325 Y114.015 E8.5198
G1 X151.298 Y114.174 E8.5283
G1 X150.729 Y116.978 E8.6794
G1 X150.691 Y117.134 E8.6879
G1 X149.933 Y119.893 E8.8389
G1 X149.885 Y120.046 E8.8474
G1 X148.947 Y122.726 E8.9973
G1 X148.889 Y122.876 E9.0058
G1 X147.755 Y125.525 E9.1580
G1 X147.686 Y125.672 E9.1666
G1 X146.382 Y128.219 E9.3177
G1 X146.304 Y128.360 E9.3262
G1 X144.830 Y130.812 E9.4772
G1 X144.743 Y130.946 E9.4857
G1 X143.118 Y133.275 E9.6356
G1 X143.022 Y133.403 E9.6441
G1 X141.216 Y135.649 E9.7963
G1 X141.110 Y135.772 E9.8048
G1 X139.168 Y137.874 E9.9559
G1 X139.055 Y137.988 E9.9644
G1 X136.991 Y139.938 E10.1143
G1 X136.871 Y140.044 E10.1228
G1 X134.646 Y141.876 E10.2750
G1 X134.518 Y141.975 E10.2835
G1 X132.190 Y143.638 E10.4346
G1 X132.056 Y143.727 E10.4431
G1 X129.639 Y145.217 E10.5930
G1 X129.500 Y145.296 E10.6015
G1 X126.949 Y146.638 E10.7537
G1 X126.803 Y146.709 E10.7623
G1 X124.186 Y147.864 E10.9133
G1 X124.037 Y147.924 E10.9218
G1 X121.367 Y148.892 E11.0717
G1 X121.215 Y148.941 E11.0802
G1 X118.444 Y149.737 E11.2324
G1 X118.287 Y149.777 E11.2410
G1 X115.490 Y150.376 E11.3920
G1 X115.332 Y150.405 E11.4005
G1 X112.521 Y150.810 E11.5505
G1 X112.362 Y150.827 E11.5589
G1 X109.488 Y151.044 E11.7111
G1 X109.326 Y151.051 E11.7197
G1 X106.465 Y151.069 E11.8708
G1 X106.304 Y151.065 E11.8792
G1 X103.470 Y150.891 E12.0292
G1 X103.311 Y150.875 E12.0376
G1 X100.453 Y150.504 E12.1898
G1 X100.293 Y150.477 E12.1984
G1 X97.487 Y149.915 E12.3495
G1 X97.331 Y149.878 E12.3579
G1 X94.592 Y149.131 E12.5079
G1 X94.439 Y149.084 E12.5163
G1 X91.715 Y148.139 E12.6685
G1 X91.564 Y148.081 E12.6771
G1 X88.932 Y146.960 E12.8282
G1 X88.786 Y146.892 E12.8367
G1 X86.256 Y145.604 E12.9866
G1 X86.115 Y145.527 E12.9950
G1 X83.641 Y144.049 E13.1472
G1 X83.505 Y143.961 E13.1558
G1 X81.155 Y142.328 E13.3069
G1 X81.026 Y142.232 E13.3154
G1 X78.793 Y140.444 E13.4664
G1 X78.671 Y140.339 E13.4749
G1 X76.581 Y138.417 E13.6249
G1 X76.467 Y138.305 E13.6333
G1 X74.482 Y136.215 E13.7855
G1 X74.375 Y136.094 E13.7941
G1 X72.551 Y133.888 E13.9452
G1 X72.453 Y133.761 E13.9537
G1 X70.784 Y131.437 E14.1047
G1 X70.695 Y131.303 E14.1132
G1 X69.200 Y128.889 E14.2631
G1 X69.121 Y128.751 E14.2716
G1 X67.772 Y126.203 E14.4238
G1 X67.701 Y126.057 E14.4323
G1 X66.540 Y123.442 E14.5834
G1 X66.479 Y123.293 E14.5919
G1 X65.499 Y120.605 E14.7430
G1 X65.449 Y120.453 E14.7515
G1 X64.659 Y117.725 E14.9014
G1 X64.620 Y117.570 E14.9099
G1 X64.008 Y114.754 E15.0620
G1 X63.979 Y114.594 E15.0706
G1 X63.564 Y111.763 E15.2217
G1 X63.547 Y111.603 E15.2302
G1 X63.326 Y108.751 E15.3813
G1 X63.319 Y108.590 E15.3898
G1 X63.294 Y105.729 E15.5408
G1 X63.298 Y105.568 E15.5493
G1 X63.467 Y102.712 E15.7004
G1 X63.482 Y102.552 E15.7089
G1 X63.843 Y99.736 E15.8588
G1 X63.869 Y99.578 E15.8673
G1 X64.326 Y97.265 E15.9918
G1 X64.407 Y87.229 E16.5217
G1 X64.346 Y85.805 E16.5970
G1 X64.159 Y84.514 E16.6659
G1 X63.842 Y83.248 E16.7348
G1 X63.399 Y82.021 E16.8037
G1 X62.833 Y80.846 E16.8725
G1 X62.152 Y79.733 E16.9415
G1 X61.361 Y78.695 E17.0103
G1 X60.469 Y77.742 E17.0792
G1 X59.486 Y76.885 E17.1481
G1 X58.421 Y76.131 E17.2170
G1 X57.285 Y75.490 E17.2859
G1 X56.089 Y74.966 E17.3548
G1 X54.571 Y74.477 E17.4391
G1 X54.474 Y74.444 E17.4445
G1 X53.442 Y74.061 E17.5026
G1 X53.041 Y73.868 E17.5261
G1 X51.952 Y73.210 E17.5933
G1 X51.595 Y72.946 E17.6168
G1 X50.648 Y72.096 E17.6839
G1 X50.346 Y71.769 E17.7074
G1 X49.576 Y70.757 E17.7746
G1 X49.341 Y70.380 E17.7981
G1 X48.773 Y69.242 E17.8652
G1 X48.613 Y68.827 E17.8887
G1 X48.268 Y67.602 E17.9559
G1 X48.188 Y67.165 E17.9794
G1 X48.088 Y66.008 E18.0407
G1 X48.080 Y65.786 E18.0524
G1 X48.144 Y57.859 E18.4710
G1 X48.157 Y57.628 E18.4832
G1 X48.285 Y56.425 E18.5471
G1 X48.380 Y55.970 E18.5716
G1 X48.775 Y54.704 E18.6416
G1 X48.956 Y54.277 E18.6661
G1 X49.590 Y53.113 E18.7362
G1 X49.851 Y52.729 E18.7606
G1 X50.701 Y51.711 E18.8307
G92 E0.0000
G1 E-0.7000 F1500
G1 X51.054 Y52.037 F4800
G1 E0.0000 F1500
G92 E0.0000
G1 X51.351 Y51.744 E0.0220 F1800
G1 X52.346 Y50.941 E0.0895
G1 X52.695 Y50.712 E0.1115
G1 X53.828 Y50.118 E0.1791
G1 X54.214 Y49.962 E0.2011
G1 X55.441 Y49.601 E0.2686
G1 X55.850 Y49.523 E0.2906
G1 X57.020 Y49.417 E0.3527
G1 X57.228 Y49.408 E0.3637
G1 X127.587 Y49.977 E4.0790
G1 X128.024 Y49.540 E4.1116
G1 X143.976 Y49.540 E4.9540
G1 X146.460 Y52.024 E5.1394
G1 X146.460 Y86.517 E6.9608
G1 X147.093 Y87.728 E7.0330
G1 X147.156 Y87.859 E7.0406
G1 X148.295 Y90.454 E7.1903
G1 X148.348 Y90.588 E7.1979
G1 X149.309 Y93.255 E7.3476
G1 X149.353 Y93.393 E7.3552
G1 X150.132 Y96.128 E7.5054
G1 X150.167 Y96.268 E7.5130
G1 X150.761 Y99.067 E7.6641
G1 X150.786 Y99.210 E7.6718
G1 X151.185 Y102.027 E7.8220
G1 X151.200 Y102.171 E7.8296
G1 X151.406 Y105.008 E7.9798
G1 X151.412 Y105.152 E7.9875
G1 X151.424 Y107.997 E8.1377
G1 X151.420 Y108.141 E8.1453
G1 X151.238 Y110.980 E8.2955
G1 X151.224 Y111.124 E8.3032
G1 X150.850 Y113.944 E8.4534
G1 X150.826 Y114.087 E8.4610
G1 X150.260 Y116.874 E8.6112
G1 X150.226 Y117.015 E8.6188
G1 X149.472 Y119.757 E8.7690
G1 X149.429 Y119.895 E8.7766
G1 X148.497 Y122.560 E8.9257
G1 X148.445 Y122.694 E8.9333
G1 X147.317 Y125.329 E9.0847
G1 X147.255 Y125.460 E9.0923
G1 X145.959 Y127.993 E9.2426
G1 X145.889 Y128.120 E9.2502
G1 X144.423 Y130.557 E9.4004
G1 X144.345 Y130.678 E9.4080
G1 X142.729 Y132.993 E9.5571
G1 X142.643 Y133.109 E9.5647
G1 X140.847 Y135.342 E9.7160
G1 X140.752 Y135.452 E9.7237
G1 X138.821 Y137.542 E9.8739
G1 X138.720 Y137.644 E9.8815
G1 X136.668 Y139.583 E10.0306
G1 X136.560 Y139.678 E10.0382
G1 X134.347 Y141.500 E10.1895
G1 X134.232 Y141.589 E10.1972
G1 X131.917 Y143.243 E10.3474
G1 X131.797 Y143.322 E10.3550
G1 X129.394 Y144.804 E10.5041
G1 X129.269 Y144.875 E10.5117
G1 X126.733 Y146.210 E10.6631
G1 X126.602 Y146.273 E10.6707
G1 X123.999 Y147.422 E10.8210
G1 X123.865 Y147.476 E10.8286
G1 X121.211 Y148.438 E10.9776
G1 X121.074 Y148.482 E10.9852
G1 X118.320 Y149.274 E11.1366
G1 X118.179 Y149.309 E11.1443
G1 X115.397 Y149.905 E11.2945
G1 X115.255 Y149.931 E11.3021
G1 X112.461 Y150.334 E11.4512
G1 X112.318 Y150.349 E11.4588
G1 X109.460 Y150.565 E11.6101
G1 X109.315 Y150.571 E11.6178
G1 X106.470 Y150.589 E11.7680
G1 X106.325 Y150.585 E11.7756
G1 X103.508 Y150.412 E11.9247
G1 X103.365 Y150.398 E11.9323
G1 X100.523 Y150.029 E12.0836
G1 X100.379 Y150.005 E12.0913
G1 X97.590 Y149.445 E12.2415
G1 X97.449 Y149.412 E12.2491
G1 X94.726 Y148.670 E12.3982
G1 X94.588 Y148.628 E12.4058
G1 X91.881 Y147.688 E12.5571
G1 X91.745 Y147.636 E12.5648
G1 X89.127 Y146.521 E12.7150
G1 X88.996 Y146.460 E12.7227
G1 X86.480 Y145.180 E12.8717
G1 X86.355 Y145.111 E12.8793
G1 X83.894 Y143.641 E13.0306
G1 X83.772 Y143.562 E13.0383
G1 X81.435 Y141.939 E13.1886
G1 X81.319 Y141.852 E13.1962
G1 X79.099 Y140.074 E13.3464
G1 X78.990 Y139.980 E13.3540
G1 X76.912 Y138.069 E13.5031
G1 X76.809 Y137.968 E13.5107
G1 X74.836 Y135.890 E13.6620
G1 X74.739 Y135.781 E13.6697
G1 X72.926 Y133.589 E13.8199
G1 X72.838 Y133.474 E13.8276
G1 X71.179 Y131.164 E13.9778
G1 X71.099 Y131.043 E13.9854
G1 X69.612 Y128.643 E14.1344
G1 X69.541 Y128.519 E14.1420
G1 X68.200 Y125.986 E14.2934
G1 X68.137 Y125.855 E14.3010
G1 X66.982 Y123.255 E14.4513
G1 X66.927 Y123.121 E14.4589
G1 X65.952 Y120.449 E14.6091
G1 X65.907 Y120.311 E14.6168
G1 X65.123 Y117.600 E14.7658
G1 X65.087 Y117.460 E14.7734
G1 X64.479 Y114.660 E14.9247
G1 X64.453 Y114.517 E14.9324
G1 X64.041 Y111.702 E15.0826
G1 X64.025 Y111.558 E15.0903
G1 X63.805 Y108.722 E15.2405
G1 X63.799 Y108.577 E15.2481
G1 X63.774 Y105.733 E15.3983
G1 X63.777 Y105.588 E15.4060
G1 X63.946 Y102.749 E15.5562
G1 X63.959 Y102.605 E15.5638
G1 X64.318 Y99.805 E15.7129
G1 X64.341 Y99.663 E15.7204
G1 X64.806 Y97.313 E15.8469
G1 X64.887 Y87.220 E16.3799
G1 X64.825 Y85.761 E16.4570
G1 X64.631 Y84.421 E16.5285
G1 X64.302 Y83.108 E16.6000
G1 X63.842 Y81.835 E16.6714
G1 X63.255 Y80.616 E16.7429
G1 X62.548 Y79.461 E16.8144
G1 X61.728 Y78.385 E16.8858
G1 X60.803 Y77.396 E16.9573
G1 X59.783 Y76.507 E17.0288
G1 X58.678 Y75.725 E17.1002
G1 X57.500 Y75.060 E17.1717
G1 X56.260 Y74.517 E17.2432
G1 X54.723 Y74.022 E17.3285
G1 X54.636 Y73.992 E17.3333
G1 X53.630 Y73.619 E17.3900
G1 X53.270 Y73.445 E17.4111
G1 X52.219 Y72.811 E17.4759
G1 X51.898 Y72.574 E17.4969
G1 X50.985 Y71.754 E17.5617
G1 X50.715 Y71.460 E17.5828
G1 X49.971 Y70.484 E17.6476
G1 X49.760 Y70.145 E17.6687
G1 X49.212 Y69.048 E17.7335
G1 X49.069 Y68.675 E17.7546
G1 X48.736 Y67.494 E17.8194
G1 X48.664 Y67.101 E17.8404
G1 X48.568 Y65.978 E17.9000
G1 X48.560 Y65.779 E17.9105
G1 X48.624 Y57.875 E18.3279
G1 X48.636 Y57.667 E18.3388
G1 X48.760 Y56.499 E18.4009
G1 X48.845 Y56.091 E18.4229
G1 X49.226 Y54.870 E18.4904
G1 X49.388 Y54.486 E18.5124
G1 X50.001 Y53.363 E18.5800
G1 X50.235 Y53.019 E18.6020
G1 X51.054 Y52.037 E18.6695
G92 E0.0000
G1 E-0.7000 F1500
; feature inner perimeter
G1 X54.684 Y55.428 F4800
G1 E0.0000 F1500
G92 E0.0000
G1 X55.245 Y54.976 E0.0381 F1350
G1 X55.883 Y54.641 E0.0761
G1 X56.574 Y54.437 E0.1142
G1 X57.328 Y54.369 E0.1541
G1 X60.673 Y54.396 E0.3307
G1 X60.756 Y54.717 E0.3482
G1 X54.676 Y58.162 E0.7172
G1 X54.616 Y65.594 E1.1096
G1 X61.021 Y69.361 E1.5020
G1 X67.487 Y65.697 E1.8945
G1 X67.547 Y58.266 E2.2869
G1 X61.523 Y54.723 E2.6559
G1 X61.612 Y54.404 E2.6734
G1 X128.527 Y54.944 E6.2069
G1 X128.522 Y59.958 E6.4716
G1 X128.442 Y73.940 E7.2099
G1 X129.241 Y74.466 E7.2604
G1 X130.224 Y75.155 E7.3238
G1 X131.099 Y75.789 E7.3808
G1 X133.155 Y77.465 E7.5209
