; G-Code generated by Simplify3D(R) Version 4.1.1
; Apr 28, 2021 at 7:22:52 PM
; Settings Summary
;   processName,Trideo BOX
;   applyToModels,leftbicepelbow left
;   profileName,Trideo BOX
;   profileVersion,2021-04-15 09:48:16
;   baseProfile,Default
;   printMaterial,PLA
;   printQuality,Fast
;   printExtruders,
;   extruderName,Primary Extruder
;   extruderToolheadNumber,0
;   extruderDiameter,0.4
;   extruderAutoWidth,1
;   extruderWidth,0.48
;   extrusionMultiplier,0.98
;   extruderUseRetract,1
;   extruderRetractionDistance,0.7
;   extruderExtraRestartDistance,0
;   extruderRetractionZLift,0
;   extruderRetractionSpeed,1500
;   extruderUseCoasting,0
;   extruderCoastingDistance,0.2
;   extruderUseWipe,0
;   extruderWipeDistance,5
;   primaryExtruder,0
;   layerHeight,0.3
;   topSolidLayers,3
;   bottomSolidLayers,3
;   perimeterOutlines,2
;   printPerimetersInsideOut,1
;   startPointOption,2
;   startPointOriginX,0
;   startPointOriginY,0
;   sequentialIslands,0
;   spiralVaseMode,0
;   firstLayerHeightPercentage,90
;   firstLayerWidthPercentage,100
;   firstLayerUnderspeed,0.5
;   useRaft,0
;   raftExtruder,0
;   raftTopLayers,3
;   raftBaseLayers,2
;   raftOffset,3
;   raftSeparationDistance,0.14
;   raftTopInfill,100
;   aboveRaftSpeedMultiplier,0.3
;   useSkirt,1
;   skirtExtruder,0
;   skirtLayers,1
;   skirtOutlines,2
;   skirtOffset,4
;   usePrimePillar,0
;   primePillarExtruder,999
;   primePillarWidth,12
;   primePillarLocation,7
;   primePillarSpeedMultiplier,1
;   useOozeShield,0
;   oozeShieldExtruder,999
;   oozeShieldOffset,2
;   oozeShieldOutlines,1
;   oozeShieldSidewallShape,1
;   oozeShieldSidewallAngle,30
;   oozeShieldSpeedMultiplier,1
;   infillExtruder,0
;   internalInfillPattern,Rectilinear
;   externalInfillPattern,Rectilinear
;   infillPercentage,15
;   outlineOverlapPercentage,15
;   infillExtrusionWidthPercentage,100
;   minInfillLength,5
;   infillLayerInterval,1
;   internalInfillAngles,45,-45
;   overlapInternalInfillAngles,0
;   externalInfillAngles,45,-45
;   generateSupport,1
;   supportExtruder,0
;   supportInfillPercentage,25
;   supportExtraInflation,0
;   supportBaseLayers,0
;   denseSupportExtruder,0
;   denseSupportLayers,0
;   denseSupportInfillPercentage,70
;   supportLayerInterval,1
;   supportHorizontalPartOffset,0.3
;   supportUpperSeparationLayers,1
;   supportLowerSeparationLayers,1
;   supportType,0
;   supportGridSpacing,4
;   maxOverhangAngle,45
;   supportAngles,0
;   temperatureName,Primary Extruder,Heated bed
;   temperatureNumber,0,0
;   temperatureSetpointCount,1,1
;   temperatureSetpointLayers,1,1
;   temperatureSetpointTemperatures,190,60
;   temperatureStabilizeAtStartup,1,1
;   temperatureHeatedBed,0,1
;   fanLayers,1,2
;   fanSpeeds,0,100
;   blipFanToFullPower,0
;   adjustSpeedForCooling,1
;   minSpeedLayerTime,15
;   minCoolingSpeedSlowdown,20
;   increaseFanForCooling,0
;   minFanLayerTime,45
;   maxCoolingFanSpeed,100
;   increaseFanForBridging,0
;   bridgingFanSpeed,100
;   use5D,1
;   relativeEdistances,0
;   allowEaxisZeroing,1
;   independentExtruderAxes,0
;   includeM10123,0
;   stickySupport,1
;   applyToolheadOffsets,0
;   gcodeXoffset,0
;   gcodeYoffset,0
;   gcodeZoffset,0
;   overrideMachineDefinition,1
;   machineTypeOverride,0
;   strokeXoverride,200
;   strokeYoverride,200
;   strokeZoverride,200
;   originOffsetXoverride,0
;   originOffsetYoverride,0
;   originOffsetZoverride,0
;   homeXdirOverride,-1
;   homeYdirOverride,-1
;   homeZdirOverride,-1
;   flipXoverride,1
;   flipYoverride,-1
;   flipZoverride,1
;   toolheadOffsets,0,0|0,0|0,0|0,0|0,0|0,0
;   overrideFirmwareConfiguration,0
;   firmwareTypeOverride,RepRap (Marlin/Repetier/Sprinter)
;   GPXconfigOverride,r2
;   baudRateOverride,115200
;   overridePrinterModels,0
;   printerModelsOverride
;   startingGcode,G28 X0 Y0; home XY,G1 X20 Y20,G28 Z0,G1 Z5 F5000; Lift NZ
;   layerChangeGcode,
;   retractionGcode,
;   toolChangeGcode,
;   endingGcode,M104 S0 ; turn off extruder,G28 X0 ; home x,M140 S0 ; turn off bed,M84 ; disable motors,M107 ;
;   exportFileFormat,gcode
;   celebration,0
;   celebrationSong,Looney Toons
;   postProcessing,
;   defaultSpeed,3600
;   outlineUnderspeed,0.5
;   solidInfillUnderspeed,0.8
;   supportUnderspeed,0.8
;   rapidXYspeed,4800
;   rapidZspeed,1002
;   minBridgingArea,50
;   bridgingExtraInflation,0
;   bridgingExtrusionMultiplier,1
;   bridgingSpeedMultiplier,1
;   useFixedBridgingAngle,0
;   fixedBridgingAngle,0
;   applyBridgingToPerimeters,0
;   filamentDiameters,1.75|1.75|1.75|1.75|1.75|1.75
;   filamentPricesPerKg,46|46|46|46|46|46
;   filamentDensities,1.25|1.25|1.25|1.25|1.25|1.25
;   useMinPrintHeight,0
;   minPrintHeight,0
;   useMaxPrintHeight,0
;   maxPrintHeight,0
;   useDiaphragm,0
;   diaphragmLayerInterval,20
;   robustSlicing,1
;   mergeAllIntoSolid,0
;   onlyRetractWhenCrossingOutline,1
;   retractBetweenLayers,1
;   useRetractionMinTravel,0
;   retractionMinTravel,3
;   retractWhileWiping,0
;   onlyWipeOutlines,1
;   avoidCrossingOutline,0
;   maxMovementDetourFactor,3
;   toolChangeRetractionDistance,12
;   toolChangeExtraRestartDistance,-0.5
;   toolChangeRetractionSpeed,600
;   externalThinWallType,0
;   internalThinWallType,2
;   thinWallAllowedOverlapPercentage,10
;   singleExtrusionMinLength,1
;   singleExtrusionMinPrintingWidthPercentage,50
;   singleExtrusionMaxPrintingWidthPercentage,200
;   singleExtrusionEndpointExtension,0.2
;   horizontalSizeCompensation,0
G90
M82
M106 S0
M140 S60
M190 S60
M104 S190 T0
M109 S190 T0
G28 X0 Y0; home XY
G1 X20 Y20
G28 Z0
G1 Z5 F5000; Lift NZ
; process Trideo BOX
; layer 1, Z = 0.270
T0
G92 E0.0000
G1 E-0.7000 F1500
; feature skirt
; tool H0.270 W0.480
G1 Z0.270 F1002
G1 X59.032 Y59.909 F4800
G1 E0.0000 F1500
G92 E0.0000
G1 X59.363 Y59.583 E0.0245 F1800
G1 X60.273 Y58.849 E0.0862
G1 X60.661 Y58.594 E0.1107
G1 X61.696 Y58.051 E0.1725
G1 X62.126 Y57.877 E0.1970
G1 X63.248 Y57.547 E0.2587
G1 X63.704 Y57.460 E0.2832
G1 X64.753 Y57.365 E0.3388
G1 X64.984 Y57.356 E0.3511
G1 X126.087 Y57.849 E3.5776
G1 X127.284 Y59.060 E3.6675
G1 X136.175 Y59.060 E4.1370
G1 X138.940 Y61.825 E4.3435
G1 X138.940 Y86.175 E5.6293
G1 X138.276 Y86.839 E5.6788
G1 X138.459 Y87.135 E5.6972
G1 X138.541 Y87.279 E5.7060
G1 X139.650 Y89.401 E5.8324
G1 X139.720 Y89.546 E5.8409
G1 X140.668 Y91.707 E5.9655
G1 X140.728 Y91.856 E5.9740
G1 X141.527 Y94.077 E6.0986
G1 X141.576 Y94.230 E6.1071
G1 X142.226 Y96.508 E6.2322
G1 X142.264 Y96.665 E6.2407
G1 X142.760 Y99.000 E6.3668
G1 X142.788 Y99.159 E6.3753
G1 X143.120 Y101.506 E6.5005
G1 X143.137 Y101.666 E6.5090
G1 X143.309 Y104.030 E6.6341
G1 X143.315 Y104.191 E6.6426
G1 X143.325 Y106.561 E6.7677
G1 X143.321 Y106.721 E6.7762
G1 X143.169 Y109.087 E6.9014
G1 X143.153 Y109.247 E6.9099
G1 X142.841 Y111.596 E7.0350
G1 X142.815 Y111.755 E7.0435
G1 X142.343 Y114.078 E7.1687
G1 X142.306 Y114.234 E7.1772
G1 X141.677 Y116.519 E7.3023
G1 X141.629 Y116.672 E7.3108
G1 X140.854 Y118.889 E7.4348
G1 X140.796 Y119.038 E7.4433
G1 X139.855 Y121.237 E7.5695
G1 X139.786 Y121.383 E7.5781
G1 X138.706 Y123.494 E7.7033
G1 X138.628 Y123.634 E7.7118
G1 X137.407 Y125.665 E7.8369
G1 X137.319 Y125.800 E7.8454
G1 X135.975 Y127.726 E7.9694
G1 X135.879 Y127.854 E7.9778
G1 X134.381 Y129.718 E8.1041
G1 X134.275 Y129.840 E8.1127
G1 X132.666 Y131.582 E8.2378
G1 X132.554 Y131.696 E8.2463
G1 X130.846 Y133.308 E8.3703
G1 X130.726 Y133.414 E8.3788
G1 X128.880 Y134.935 E8.5050
G1 X128.752 Y135.033 E8.5136
G1 X126.823 Y136.411 E8.6388
G1 X126.689 Y136.500 E8.6472
G1 X124.690 Y137.732 E8.7712
G1 X124.551 Y137.812 E8.7797
G1 X122.435 Y138.925 E8.9060
G1 X122.289 Y138.996 E8.9145
G1 X120.121 Y139.953 E9.0397
G1 X119.971 Y140.013 E9.0482
G1 X117.764 Y140.813 E9.1722
G1 X117.611 Y140.863 E9.1806
G1 X115.313 Y141.523 E9.3069
G1 X115.156 Y141.563 E9.3155
G1 X112.838 Y142.059 E9.4406
G1 X112.680 Y142.088 E9.4491
G1 X110.356 Y142.423 E9.5731
G1 X110.197 Y142.440 E9.5816
G1 X107.812 Y142.620 E9.7078
G1 X107.650 Y142.627 E9.7164
G1 X105.280 Y142.642 E9.8416
G1 X105.119 Y142.638 E9.8501
G1 X102.775 Y142.494 E9.9741
G1 X102.616 Y142.478 E9.9825
G1 X100.244 Y142.170 E10.1088
G1 X100.084 Y142.144 E10.1173
G1 X97.760 Y141.677 E10.2425
G1 X97.604 Y141.641 E10.2510
G1 X95.338 Y141.023 E10.3750
G1 X95.186 Y140.976 E10.3834
G1 X92.926 Y140.192 E10.5097
G1 X92.775 Y140.134 E10.5183
G1 X90.594 Y139.205 E10.6434
G1 X90.448 Y139.137 E10.6519
G1 X88.355 Y138.072 E10.7759
G1 X88.215 Y137.995 E10.7844
G1 X86.162 Y136.769 E10.9106
G1 X86.026 Y136.681 E10.9192
G1 X84.079 Y135.328 E11.0444
G1 X83.950 Y135.232 E11.0529
G1 X82.100 Y133.750 E11.1780
G1 X81.978 Y133.646 E11.1865
G1 X80.250 Y132.056 E11.3105
G1 X80.136 Y131.944 E11.3189
G1 X78.489 Y130.210 E11.4452
G1 X78.381 Y130.089 E11.4538
G1 X76.871 Y128.262 E11.5790
G1 X76.773 Y128.134 E11.5875
G1 X75.390 Y126.209 E11.7126
G1 X75.301 Y126.076 E11.7211
G1 X74.065 Y124.079 E11.8451
G1 X73.985 Y123.941 E11.8535
G1 X72.866 Y121.827 E11.9798
G1 X72.796 Y121.681 E11.9884
G1 X71.833 Y119.515 E12.1135
G1 X71.773 Y119.366 E12.1220
G1 X70.960 Y117.139 E12.2472
G1 X70.910 Y116.986 E12.2557
G1 X70.257 Y114.731 E12.3797
G1 X70.218 Y114.576 E12.3881
G1 X69.710 Y112.239 E12.5144
G1 X69.681 Y112.080 E12.5229
G1 X69.338 Y109.734 E12.6481
G1 X69.320 Y109.574 E12.6566
G1 X69.137 Y107.211 E12.7818
G1 X69.130 Y107.050 E12.7903
G1 X69.109 Y104.680 E12.9154
G1 X69.113 Y104.519 E12.9239
G1 X69.254 Y102.153 E13.0491
G1 X69.269 Y101.993 E13.0576
G1 X69.567 Y99.664 E13.1815
G1 X69.593 Y99.507 E13.1900
G1 X69.955 Y97.675 E13.2886
G1 X70.020 Y89.566 E13.7168
G1 X69.973 Y88.466 E13.7749
G1 X69.833 Y87.496 E13.8267
G1 X69.594 Y86.545 E13.8784
G1 X69.261 Y85.623 E13.9302
G1 X68.836 Y84.739 E13.9820
G1 X68.324 Y83.903 E14.0337
G1 X67.730 Y83.123 E14.0855
G1 X67.060 Y82.407 E14.1373
G1 X66.321 Y81.763 E14.1891
G1 X65.521 Y81.197 E14.2408
G1 X64.667 Y80.715 E14.2926
G1 X63.769 Y80.321 E14.3444
G1 X62.559 Y79.932 E14.4115
G1 X62.462 Y79.898 E14.4169
G1 X61.571 Y79.568 E14.4671
G1 X61.170 Y79.375 E14.4906
G1 X60.210 Y78.795 E14.5498
G1 X59.852 Y78.530 E14.5733
G1 X59.018 Y77.781 E14.6325
G1 X58.716 Y77.454 E14.6560
G1 X58.036 Y76.562 E14.7152
G1 X57.801 Y76.185 E14.7387
G1 X57.301 Y75.181 E14.7979
G1 X57.141 Y74.766 E14.8214
G1 X56.837 Y73.686 E14.8806
G1 X56.757 Y73.249 E14.9041
G1 X56.670 Y72.242 E14.9575
G1 X56.661 Y72.020 E14.9692
G1 X56.714 Y65.493 E15.3139
G1 X56.727 Y65.262 E15.3261
G1 X56.839 Y64.214 E15.3817
G1 X56.933 Y63.760 E15.4062
G1 X57.282 Y62.644 E15.4680
G1 X57.463 Y62.217 E15.4925
G1 X58.022 Y61.190 E15.5542
G1 X58.283 Y60.807 E15.5787
G1 X59.032 Y59.909 E15.6404
G92 E0.0000
G1 E-0.7000 F1500
G1 X59.386 Y60.234 F4800
G1 E0.0000 F1500
G92 E0.0000
G1 X59.683 Y59.942 E0.0220 F1800
G1 X60.556 Y59.237 E0.0813
G1 X60.904 Y59.008 E0.1033
G1 X61.898 Y58.487 E0.1625
G1 X62.284 Y58.331 E0.1845
G1 X63.361 Y58.014 E0.2438
G1 X63.770 Y57.936 E0.2658
G1 X64.784 Y57.844 E0.3195
G1 X64.992 Y57.836 E0.3305
G1 X125.885 Y58.328 E3.5460
G1 X127.083 Y59.540 E3.6360
G1 X135.976 Y59.540 E4.1056
G1 X138.460 Y62.024 E4.2911
G1 X138.460 Y85.976 E5.5559
G1 X137.669 Y86.767 E5.6149
G1 X138.046 Y87.380 E5.6529
G1 X138.119 Y87.509 E5.6608
G1 X139.221 Y89.616 E5.7863
G1 X139.284 Y89.747 E5.7940
G1 X140.225 Y91.892 E5.9177
G1 X140.279 Y92.026 E5.9253
G1 X141.073 Y94.232 E6.0491
G1 X141.117 Y94.369 E6.0567
G1 X141.762 Y96.632 E6.1809
G1 X141.797 Y96.773 E6.1886
G1 X142.289 Y99.092 E6.3138
G1 X142.314 Y99.234 E6.3214
G1 X142.644 Y101.565 E6.4457
G1 X142.659 Y101.709 E6.4534
G1 X142.830 Y104.056 E6.5777
G1 X142.835 Y104.201 E6.5853
G1 X142.845 Y106.554 E6.7096
G1 X142.841 Y106.699 E6.7172
G1 X142.691 Y109.048 E6.8415
G1 X142.677 Y109.192 E6.8491
G1 X142.367 Y111.525 E6.9734
G1 X142.343 Y111.667 E6.9810
G1 X141.874 Y113.974 E7.1053
G1 X141.841 Y114.115 E7.1130
G1 X141.216 Y116.384 E7.2372
G1 X141.173 Y116.521 E7.2448
G1 X140.404 Y118.723 E7.3680
G1 X140.351 Y118.857 E7.3756
G1 X139.417 Y121.040 E7.5010
G1 X139.355 Y121.172 E7.5087
G1 X138.282 Y123.268 E7.6330
G1 X138.212 Y123.394 E7.6406
G1 X136.999 Y125.411 E7.7649
G1 X136.921 Y125.532 E7.7725
G1 X135.587 Y127.444 E7.8956
G1 X135.500 Y127.560 E7.9032
G1 X134.012 Y129.411 E8.0287
G1 X133.917 Y129.521 E8.0363
G1 X132.319 Y131.250 E8.1606
G1 X132.218 Y131.352 E8.1682
G1 X130.523 Y132.954 E8.2914
G1 X130.415 Y133.049 E8.2990
G1 X128.582 Y134.559 E8.4244
G1 X128.466 Y134.648 E8.4321
G1 X126.551 Y136.016 E8.5564
G1 X126.431 Y136.096 E8.5640
G1 X124.445 Y137.319 E8.6871
G1 X124.320 Y137.391 E8.6947
G1 X122.219 Y138.497 E8.8201
G1 X122.088 Y138.560 E8.8278
G1 X119.934 Y139.511 E8.9521
G1 X119.800 Y139.564 E8.9598
G1 X117.608 Y140.359 E9.0829
G1 X117.471 Y140.404 E9.0905
G1 X115.188 Y141.060 E9.2159
G1 X115.047 Y141.095 E9.2236
G1 X112.745 Y141.588 E9.3479
G1 X112.603 Y141.614 E9.3555
G1 X110.295 Y141.946 E9.4786
G1 X110.152 Y141.962 E9.4862
G1 X107.784 Y142.141 E9.6116
G1 X107.639 Y142.147 E9.6193
G1 X105.285 Y142.162 E9.7436
G1 X105.140 Y142.158 E9.7513
G1 X102.813 Y142.015 E9.8744
G1 X102.670 Y142.001 E9.8820
G1 X100.315 Y141.695 E10.0074
G1 X100.171 Y141.672 E10.0151
G1 X97.863 Y141.208 E10.1394
G1 X97.722 Y141.175 E10.1470
G1 X95.472 Y140.562 E10.2701
G1 X95.335 Y140.520 E10.2777
G1 X93.091 Y139.741 E10.4031
G1 X92.955 Y139.689 E10.4108
G1 X90.789 Y138.767 E10.5351
G1 X90.659 Y138.706 E10.5428
G1 X88.580 Y137.648 E10.6659
G1 X88.455 Y137.579 E10.6735
G1 X86.416 Y136.361 E10.7989
G1 X86.293 Y136.282 E10.8066
G1 X84.360 Y134.939 E10.9309
G1 X84.244 Y134.852 E10.9385
G1 X82.407 Y133.381 E11.0628
G1 X82.297 Y133.287 E11.0704
G1 X80.581 Y131.709 E11.1936
G1 X80.478 Y131.608 E11.2011
G1 X78.843 Y129.886 E11.3265
G1 X78.746 Y129.777 E11.3342
G1 X77.246 Y127.962 E11.4586
G1 X77.158 Y127.848 E11.4662
G1 X75.785 Y125.936 E11.5905
G1 X75.705 Y125.816 E11.5981
G1 X74.477 Y123.833 E11.7212
G1 X74.406 Y123.709 E11.7288
G1 X73.295 Y121.610 E11.8542
G1 X73.231 Y121.479 E11.8619
G1 X72.275 Y119.327 E11.9862
G1 X72.221 Y119.193 E11.9939
G1 X71.414 Y116.982 E12.1181
G1 X71.369 Y116.845 E12.1258
G1 X70.721 Y114.605 E12.2489
G1 X70.686 Y114.466 E12.2565
G1 X70.181 Y112.145 E12.3819
G1 X70.155 Y112.002 E12.3896
G1 X69.814 Y109.672 E12.5139
G1 X69.798 Y109.529 E12.5215
G1 X69.617 Y107.182 E12.6458
G1 X69.610 Y107.038 E12.6534
G1 X69.589 Y104.684 E12.7777
G1 X69.593 Y104.540 E12.7854
G1 X69.732 Y102.190 E12.9096
G1 X69.746 Y102.046 E12.9173
G1 X70.042 Y99.733 E13.0404
G1 X70.065 Y99.592 E13.0480
G1 X70.434 Y97.724 E13.1485
G1 X70.500 Y89.557 E13.5797
G1 X70.452 Y88.421 E13.6398
G1 X70.304 Y87.403 E13.6941
G1 X70.054 Y86.405 E13.7485
G1 X69.704 Y85.437 E13.8028
G1 X69.258 Y84.509 E13.8571
G1 X68.721 Y83.632 E13.9115
G1 X68.097 Y82.813 E13.9658
G1 X67.394 Y82.062 E14.0202
G1 X66.618 Y81.385 E14.0745
G1 X65.778 Y80.791 E14.1289
G1 X64.882 Y80.285 E14.1832
G1 X63.939 Y79.872 E14.2375
G1 X62.711 Y79.476 E14.3057
G1 X62.624 Y79.446 E14.3106
G1 X61.759 Y79.126 E14.3593
G1 X61.399 Y78.952 E14.3804
G1 X60.477 Y78.396 E14.4372
G1 X60.156 Y78.158 E14.4583
G1 X59.355 Y77.439 E14.5151
G1 X59.084 Y77.145 E14.5362
G1 X58.432 Y76.289 E14.5931
G1 X58.221 Y75.950 E14.6142
G1 X57.740 Y74.987 E14.6710
G1 X57.597 Y74.614 E14.6921
G1 X57.305 Y73.578 E14.7489
G1 X57.233 Y73.185 E14.7700
G1 X57.149 Y72.212 E14.8216
G1 X57.142 Y72.013 E14.8321
G1 X57.194 Y65.509 E15.1756
G1 X57.206 Y65.301 E15.1866
G1 X57.314 Y64.289 E15.2403
G1 X57.399 Y63.881 E15.2623
G1 X57.733 Y62.810 E15.3216
G1 X57.896 Y62.426 E15.3436
G1 X58.433 Y61.440 E15.4028
G1 X58.667 Y61.096 E15.4248
G1 X59.386 Y60.234 E15.4841
G92 E0.0000
G1 E-0.7000 F1500
; feature inner perimeter
G1 X63.016 Y63.626 F4800
G1 E0.0000 F1500
G92 E0.0000
G1 X63.454 Y63.272 E0.0298 F1350
G1 X63.954 Y63.010 E0.0595
G1 X64.495 Y62.851 E0.0893
G1 X65.092 Y62.797 E0.1210
G1 X67.217 Y62.814 E0.2332
G1 X67.300 Y63.135 E0.2507
G1 X62.786 Y65.693 E0.5247
G1 X62.736 Y71.924 E0.8537
G1 X68.107 Y75.083 E1.1828
G1 X73.529 Y72.011 E1.5118
G1 X73.579 Y65.780 E1.8408
G1 X69.107 Y63.149 E2.1148
G1 X69.195 Y62.830 E2.1323
G1 X123.379 Y63.267 E4.9935
G1 X123.373 Y70.372 E5.3686
