;FLAVOR:Marlin
;TIME:1376
;Filament used: 4.14078m
;Layer height: 0.3
;MINX:33.4
;MINY:24.901
;MINZ:0.3
;MAXX:220.167
;MAXY:192.099
;MAXZ:7.8
;Generated with Cura_SteamEngine 4.2.1
M140 S60
M105
M190 S60
M104 S210
M105
M109 S210
M82 ;absolute extrusion mode
;posicionamiento absoluto
G90
;establecer el extrusor en modo absoluto
M82
;Apaga el fan de capa 
M107
;lleva el eje al inicio
G28
;Se mueve a esa posición
G1 X5 Y5 Z15 F3000
G1 Z15.0 F9000
;El eje E esta en cero
G92 E0
;extruye 10mm
G1 F200 E30
G92 E0
;Guardad esa velocidad
G1 F9000
;imprime en el LCD
M117 Imprimiendo...
G92 E0
G92 E0
G1 F3600 E-3
;LAYER_COUNT:26
;LAYER:0
M107
G0 F1028.6 X43.442 Y54.007 Z0.3
;TYPE:SKIRT
G1 F3600 E0
G1 F1200 X43.451 Y54 E0.00085
G1 X44.467 Y53.26 E0.09492
G1 X44.471 Y53.257 E0.09529
G1 X46.549 Y51.81 E0.28479
G1 X48.863 Y50.062 E0.50181
G1 X48.863 Y50.063 E0.50188
G1 X51.145 Y48.263 E0.71939
G1 X51.15 Y48.259 E0.71987
G1 X52.626 Y47.157 E0.85772
G1 X52.635 Y47.151 E0.85853
G1 X54.149 Y46.116 E0.99577
G1 X54.158 Y46.11 E0.99658
G1 X55.894 Y45.038 E1.14927
G1 X55.904 Y45.032 E1.15014
G1 X57.719 Y44.029 E1.30533
G1 X57.731 Y44.023 E1.30633
G1 X60.393 Y42.747 E1.52725
G1 X60.407 Y42.741 E1.52839
G1 X63.14 Y41.631 E1.74914
G1 X63.152 Y41.626 E1.75011
G1 X65.852 Y40.698 E1.96377
G1 X65.863 Y40.695 E1.96462
G1 X68.744 Y39.852 E2.18926
G1 X68.755 Y39.849 E2.19011
G1 X72.545 Y38.935 E2.48187
G1 X72.551 Y38.933 E2.48234
G1 X73.754 Y38.677 E2.57439
G1 X73.756 Y38.677 E2.57454
G1 X74.985 Y38.428 E2.66838
G1 X74.987 Y38.427 E2.66854
G1 X76.354 Y38.161 E2.77276
G1 X76.356 Y38.161 E2.77291
G1 X78.044 Y37.844 E2.90144
G1 X79.782 Y37.523 E3.03371
G1 X79.783 Y37.523 E3.03378
G1 X84.297 Y36.71 E3.37702
G1 X86.864 Y36.253 E3.57215
G1 X86.866 Y36.253 E3.57229
G1 X89.79 Y35.745 E3.79439
G1 X89.791 Y35.744 E3.7945
G1 X91.511 Y35.455 E3.92502
G1 X91.513 Y35.455 E3.92517
G1 X93.905 Y35.073 E4.10644
G1 X93.908 Y35.073 E4.10667
G1 X96.464 Y34.692 E4.30006
G1 X96.465 Y34.691 E4.30016
G1 X97.48 Y34.546 E4.37689
G1 X99.225 Y33.544 E4.52748
G1 X99.231 Y33.541 E4.52798
G1 X100.967 Y32.607 E4.6755
G1 X100.973 Y32.604 E4.67601
G1 X103.075 Y31.546 E4.85211
G1 X103.083 Y31.542 E4.85278
G1 X105.313 Y30.518 E5.03642
G1 X105.321 Y30.514 E5.03709
G1 X107.378 Y29.664 E5.20365
G1 X107.387 Y29.661 E5.20436
G1 X109.761 Y28.785 E5.39373
G1 X109.77 Y28.782 E5.39444
G1 X112.175 Y28.005 E5.58357
G1 X112.185 Y28.002 E5.58436
G1 X114.584 Y27.333 E5.77074
G1 X114.592 Y27.331 E5.77135
G1 X116.948 Y26.766 E5.95266
G1 X116.956 Y26.764 E5.95328
G1 X118.987 Y26.348 E6.10843
G1 X118.993 Y26.347 E6.10888
G1 X121.227 Y25.954 E6.27863
G1 X121.234 Y25.953 E6.27916
G1 X123.38 Y25.635 E6.44151
G1 X123.386 Y25.634 E6.44197
G1 X125.434 Y25.387 E6.59634
G1 X125.44 Y25.386 E6.59679
G1 X127.158 Y25.221 E6.72595
G1 X127.163 Y25.221 E6.72633
G1 X129.01 Y25.079 E6.86496
G1 X129.015 Y25.078 E6.86534
G1 X130.757 Y24.985 E6.99589
G1 X130.762 Y24.985 E6.99626
G1 X132.396 Y24.929 E7.11861
G1 X132.4 Y24.929 E7.11891
G1 X133.93 Y24.902 E7.23343
G1 X133.934 Y24.902 E7.23373
G1 X135.195 Y24.901 E7.3281
G1 X135.196 Y24.901 E7.32817
G1 X136.537 Y24.908 E7.42853
G1 X136.539 Y24.908 E7.42868
G1 X138.835 Y24.94 E7.60051
G1 X140.986 Y24.955 E7.76149
G1 X143.117 Y24.949 E7.92096
G1 X145.589 Y24.928 E8.10596
G1 X145.591 Y24.928 E8.10611
G1 X148.129 Y24.923 E8.29604
G1 X148.132 Y24.923 E8.29627
G1 X150.935 Y24.962 E8.50605
G1 X150.939 Y24.962 E8.50635
G1 X153.928 Y25.053 E8.73014
G1 X153.932 Y25.053 E8.73044
G1 X156.986 Y25.198 E8.95924
G1 X156.99 Y25.198 E8.95954
G1 X160.003 Y25.392 E9.18549
G1 X160.008 Y25.393 E9.18587
G1 X162.818 Y25.632 E9.39692
G1 X162.825 Y25.632 E9.39744
G1 X165.358 Y25.915 E9.58818
G1 X165.366 Y25.917 E9.58879
G1 X167.614 Y26.248 E9.75884
G1 X167.625 Y26.249 E9.75966
G1 X169.617 Y26.636 E9.91152
G1 X169.629 Y26.639 E9.91245
G1 X171.595 Y27.128 E10.06406
G1 X171.61 Y27.132 E10.06522
G1 X174.868 Y28.165 E10.32099
G1 X174.875 Y28.168 E10.32156
G1 X176.761 Y28.835 E10.47127
G1 X176.763 Y28.836 E10.47144
G1 X180.545 Y30.216 E10.77272
G1 X180.546 Y30.216 E10.77279
G1 X182.667 Y31 E10.94201
G1 X182.669 Y31 E10.94216
G1 X184.927 Y31.85 E11.12272
G1 X184.929 Y31.851 E11.12289
G1 X187.057 Y32.678 E11.29374
G1 X187.06 Y32.679 E11.29398
G1 X187.584 Y32.89 E11.33625
G1 X187.587 Y32.892 E11.33652
G1 X191.922 Y34.705 E11.68816
G1 X191.928 Y34.707 E11.68863
G1 X194.273 Y35.769 E11.88128
G1 X194.278 Y35.772 E11.88171
G1 X196.468 Y36.825 E12.06356
G1 X196.47 Y36.826 E12.06373
G1 X198.4 Y37.78 E12.22485
G1 X200.096 Y38.606 E12.36602
G1 X203.972 Y40.31 E12.68287
G1 X204.916 Y40.782 E12.76186
G1 X204.934 Y40.792 E12.7634
G1 X205.931 Y41.4 E12.85079
G1 X205.952 Y41.414 E12.85268
G1 X206.916 Y42.152 E12.94353
G1 X206.937 Y42.17 E12.9456
G1 X207.878 Y43.08 E13.04356
G1 X207.896 Y43.1 E13.04558
G1 X208.858 Y44.259 E13.1583
G1 X208.872 Y44.278 E13.16006
G1 X209.725 Y45.552 E13.2748
G1 X209.736 Y45.569 E13.27631
G1 X210.595 Y47.113 E13.40854
G1 X210.602 Y47.128 E13.40978
G1 X211.372 Y48.766 E13.54523
G1 X211.377 Y48.777 E13.54613
G1 X212.12 Y50.592 E13.6929
G1 X212.124 Y50.601 E13.69363
G1 X212.909 Y52.766 E13.86597
G1 X212.911 Y52.774 E13.86659
G1 X213.624 Y54.972 E14.03952
G1 X213.626 Y54.978 E14.03999
G1 X214.315 Y57.302 E14.22139
G1 X214.317 Y57.307 E14.22179
G1 X214.977 Y59.726 E14.40943
G1 X214.978 Y59.732 E14.40989
G1 X216.2 Y64.691 E14.7921
G1 X216.201 Y64.695 E14.79241
G1 X216.704 Y66.936 E14.96429
G1 X216.705 Y66.939 E14.96452
G1 X217.266 Y69.551 E15.16445
G1 X217.266 Y69.553 E15.1646
G1 X217.755 Y71.95 E15.34768
G1 X217.756 Y71.953 E15.34791
G1 X218.159 Y74.056 E15.50815
G1 X218.159 Y74.058 E15.5083
G1 X218.516 Y76.004 E15.65636
G1 X218.516 Y76.006 E15.65651
G1 X218.824 Y77.777 E15.79104
G1 X218.825 Y77.779 E15.7912
G1 X219.104 Y79.487 E15.92072
G1 X219.104 Y79.49 E15.92094
G1 X219.317 Y80.899 E16.02758
G1 X219.318 Y80.903 E16.02789
G1 X219.496 Y82.209 E16.12653
G1 X219.496 Y82.212 E16.12675
G1 X219.635 Y83.369 E16.21396
G1 X219.636 Y83.375 E16.21442
G1 X219.725 Y84.296 E16.28366
G1 X219.725 Y84.3 E16.28396
G1 X219.802 Y85.261 E16.35611
G1 X219.803 Y85.271 E16.35686
G1 X219.928 Y88.5 E16.59868
G1 X219.928 Y88.504 E16.59898
G1 X219.971 Y90.519 E16.74981
G1 X220.093 Y97.15 E17.24613
G1 X220.093 Y97.152 E17.24628
G1 X220.127 Y99.613 E17.43046
G1 X220.127 Y99.614 E17.43054
G1 X220.146 Y101.865 E17.599
G1 X220.161 Y104.593 E17.80315
G1 X220.161 Y104.595 E17.8033
G1 X220.167 Y109.451 E18.1667
G1 X220.163 Y112.226 E18.37437
G1 X220.163 Y112.227 E18.37445
G1 X220.151 Y114.802 E18.56715
G1 X220.151 Y114.803 E18.56722
G1 X220.127 Y117.386 E18.76053
G1 X220.099 Y119.538 E18.92159
G1 X220.099 Y119.54 E18.92174
G1 X220.06 Y121.937 E19.10114
G1 X219.94 Y128.181 E19.5685
G1 X219.94 Y128.186 E19.56888
G1 X219.812 Y131.623 E19.82626
G1 X219.811 Y131.632 E19.82694
G1 X219.738 Y132.582 E19.89824
G1 X219.738 Y132.587 E19.89862
G1 X219.636 Y133.625 E19.97667
G1 X219.635 Y133.63 E19.97705
G1 X219.513 Y134.654 E20.05423
G1 X219.513 Y134.658 E20.05453
G1 X219.341 Y135.942 E20.15147
G1 X219.34 Y135.946 E20.15178
G1 X219.121 Y137.407 E20.26234
G1 X219.121 Y137.409 E20.26249
G1 X218.865 Y138.988 E20.38219
G1 X218.865 Y138.991 E20.38242
G1 X218.542 Y140.864 E20.52465
G1 X218.541 Y140.866 E20.52482
G1 X218.186 Y142.803 E20.67219
G1 X218.186 Y142.805 E20.67234
G1 X217.783 Y144.901 E20.83207
G1 X217.782 Y144.903 E20.83224
G1 X217.332 Y147.134 E21.00256
G1 X217.332 Y147.137 E21.00278
G1 X216.804 Y149.625 E21.19312
G1 X216.803 Y149.628 E21.19336
G1 X216.201 Y152.305 E21.39869
G1 X216.2 Y152.309 E21.399
G1 X215.089 Y156.829 E21.74732
G1 X215.088 Y156.834 E21.74771
G1 X214.378 Y159.477 E21.95251
G1 X214.376 Y159.483 E21.95298
G1 X213.689 Y161.816 E22.13498
G1 X213.688 Y161.821 E22.13537
G1 X212.979 Y164.03 E22.30898
G1 X212.976 Y164.038 E22.30962
G1 X212.24 Y166.099 E22.4734
G1 X212.237 Y166.108 E22.47411
G1 X211.429 Y168.111 E22.63574
G1 X211.423 Y168.122 E22.63668
G1 X210.656 Y169.766 E22.77244
G1 X210.649 Y169.78 E22.77361
G1 X209.844 Y171.248 E22.8989
G1 X209.835 Y171.265 E22.90034
G1 X208.933 Y172.638 E23.02328
G1 X208.918 Y172.658 E23.02515
G1 X208.017 Y173.765 E23.13196
G1 X208 Y173.783 E23.13382
G1 X207.002 Y174.772 E23.23896
G1 X206.98 Y174.792 E23.24119
G1 X206.018 Y175.536 E23.3322
G1 X205.998 Y175.55 E23.33402
G1 X205.059 Y176.133 E23.41674
G1 X205.042 Y176.142 E23.41818
G1 X204.095 Y176.631 E23.49794
G1 X204.083 Y176.637 E23.49894
G1 X203.22 Y177.024 E23.56972
G1 X203.218 Y177.025 E23.56989
G1 X200.349 Y178.278 E23.80417
G1 X198.547 Y179.146 E23.95385
G1 X196.635 Y180.092 E24.11349
G1 X196.633 Y180.093 E24.11366
G1 X194.522 Y181.111 E24.28905
G1 X194.518 Y181.113 E24.28938
G1 X192.189 Y182.177 E24.481
G1 X192.182 Y182.18 E24.48157
G1 X187.588 Y184.107 E24.85439
G1 X187.585 Y184.109 E24.85465
G1 X187.061 Y184.32 E24.89693
G1 X187.058 Y184.321 E24.89717
G1 X184.929 Y185.15 E25.06814
G1 X184.926 Y185.151 E25.06838
G1 X182.892 Y185.915 E25.23098
G1 X182.891 Y185.915 E25.23105
G1 X180.755 Y186.705 E25.40148
G1 X176.928 Y188.103 E25.70639
G1 X176.926 Y188.104 E25.70656
G1 X175.185 Y188.725 E25.84488
G1 X175.177 Y188.728 E25.84552
G1 X171.752 Y189.825 E26.11466
G1 X171.739 Y189.829 E26.11568
G1 X169.938 Y190.29 E26.2548
G1 X169.925 Y190.292 E26.25579
G1 X167.803 Y190.72 E26.41778
G1 X167.792 Y190.722 E26.41862
G1 X165.588 Y191.054 E26.58542
G1 X165.579 Y191.055 E26.5861
G1 X163.07 Y191.342 E26.77508
G1 X163.064 Y191.343 E26.77554
G1 X160.275 Y191.586 E26.98504
G1 X160.27 Y191.586 E26.98542
G1 X157.268 Y191.785 E27.21057
G1 X157.264 Y191.786 E27.21088
G1 X154.179 Y191.936 E27.44202
G1 X154.175 Y191.936 E27.44231
G1 X151.177 Y192.031 E27.66678
G1 X151.173 Y192.031 E27.66708
G1 X148.355 Y192.073 E27.87799
G1 X148.351 Y192.073 E27.87829
G1 X145.792 Y192.074 E28.06979
G1 X145.79 Y192.074 E28.06994
G1 X143.474 Y192.056 E28.24327
G1 X141.158 Y192.043 E28.41659
G1 X139.019 Y192.056 E28.57667
G1 X136.687 Y192.088 E28.7512
G1 X136.686 Y192.088 E28.75127
G1 X135.359 Y192.099 E28.85058
G1 X135.357 Y192.099 E28.85073
G1 X133.933 Y192.098 E28.9573
G1 X133.929 Y192.098 E28.9576
G1 X132.578 Y192.076 E29.05871
G1 X132.574 Y192.076 E29.05901
G1 X130.955 Y192.025 E29.18023
G1 X130.951 Y192.025 E29.18053
G1 X129.224 Y191.937 E29.30994
G1 X129.219 Y191.936 E29.31032
G1 X127.388 Y191.803 E29.4477
G1 X127.382 Y191.803 E29.44815
G1 X125.441 Y191.614 E29.5941
G1 X125.436 Y191.613 E29.59448
G1 X123.626 Y191.398 E29.73088
G1 X123.62 Y191.398 E29.73133
G1 X121.487 Y191.091 E29.8926
G1 X121.48 Y191.09 E29.89313
G1 X119.258 Y190.707 E30.06186
G1 X119.251 Y190.705 E30.06241
G1 X116.955 Y190.236 E30.23778
G1 X116.947 Y190.234 E30.2384
G1 X114.862 Y189.736 E30.39882
G1 X114.855 Y189.734 E30.39936
G1 X112.464 Y189.08 E30.58487
G1 X112.455 Y189.078 E30.58556
G1 X110.048 Y188.317 E30.77447
G1 X110.038 Y188.314 E30.77525
G1 X107.654 Y187.451 E30.96499
G1 X107.644 Y187.447 E30.9658
G1 X105.32 Y186.487 E31.15397
G1 X105.312 Y186.483 E31.15464
G1 X103.337 Y185.578 E31.31722
G1 X103.33 Y185.575 E31.31779
G1 X101.208 Y184.52 E31.49513
G1 X101.202 Y184.516 E31.49567
G1 X99.232 Y183.459 E31.66297
G1 X99.226 Y183.456 E31.66348
G1 X97.48 Y182.454 E31.81413
G1 X96.531 Y182.32 E31.88585
G1 X96.529 Y182.319 E31.88602
G1 X93.992 Y181.941 E32.07797
G1 X93.989 Y181.941 E32.07819
G1 X91.586 Y181.558 E32.26029
G1 X91.584 Y181.558 E32.26044
G1 X89.293 Y181.173 E32.43429
G1 X89.292 Y181.172 E32.4344
G1 X87.081 Y180.786 E32.60236
G1 X82.052 Y179.89 E32.98464
G1 X82.05 Y179.89 E32.98479
G1 X80.016 Y179.521 E33.13949
G1 X78.228 Y179.191 E33.27555
G1 X78.227 Y179.191 E33.27563
G1 X76.524 Y178.871 E33.4053
G1 X76.522 Y178.871 E33.40545
G1 X75.06 Y178.588 E33.51689
G1 X75.059 Y178.587 E33.517
G1 X73.802 Y178.334 E33.61295
G1 X73.799 Y178.334 E33.61318
G1 X72.699 Y178.101 E33.69732
G1 X72.693 Y178.099 E33.6978
G1 X68.96 Y177.205 E33.98505
G1 X68.95 Y177.203 E33.98582
G1 X66.115 Y176.388 E34.20657
G1 X66.104 Y176.384 E34.20744
G1 X63.318 Y175.437 E34.42765
G1 X63.305 Y175.433 E34.42867
G1 X60.561 Y174.329 E34.65001
G1 X60.548 Y174.323 E34.65109
G1 X57.861 Y173.044 E34.87379
G1 X57.849 Y173.038 E34.87479
G1 X56.036 Y172.046 E35.02945
G1 X56.025 Y172.04 E35.03039
G1 X54.268 Y170.962 E35.18465
G1 X54.259 Y170.955 E35.1855
G1 X52.686 Y169.886 E35.32783
G1 X52.678 Y169.881 E35.32853
G1 X51.286 Y168.847 E35.4583
G1 X51.28 Y168.842 E35.45888
G1 X49.007 Y167.05 E35.67549
G1 X46.623 Y165.245 E35.89926
G1 X45.522 Y164.474 E35.99985
G1 X44.51 Y163.772 E36.09202
G1 X44.506 Y163.769 E36.0924
G1 X43.492 Y163.032 E36.18621
G1 X43.483 Y163.025 E36.18706
G1 X42.42 Y162.175 E36.28891
G1 X42.407 Y162.164 E36.29019
G1 X41.227 Y161.07 E36.41061
G1 X41.209 Y161.052 E36.41251
G1 X40.074 Y159.749 E36.54183
G1 X40.055 Y159.724 E36.54418
G1 X39.019 Y158.172 E36.68382
G1 X39.003 Y158.144 E36.68623
G1 X38.211 Y156.51 E36.82212
G1 X38.2 Y156.482 E36.82437
G1 X37.65 Y154.847 E36.95347
G1 X37.643 Y154.823 E36.95534
G1 X37.238 Y153.029 E37.09297
G1 X37.234 Y153.008 E37.09457
G1 X36.986 Y151.147 E37.23507
G1 X36.984 Y151.129 E37.23643
G1 X36.87 Y149.227 E37.37902
G1 X36.87 Y149.212 E37.38014
G1 X36.885 Y146.67 E37.57037
G1 X36.885 Y146.657 E37.57135
G1 X37.038 Y144.102 E37.76289
G1 X37.039 Y144.093 E37.76357
G1 X37.532 Y139.023 E38.14478
G1 X37.672 Y137.508 E38.25864
G1 X37.765 Y136.205 E38.35639
G1 X37.796 Y135.076 E38.44091
G1 X37.742 Y134.171 E38.50876
G1 X37.665 Y133.883 E38.53107
G1 X37.623 Y133.902 E38.53452
G1 X37.389 Y134.064 E38.55582
G1 X36.807 Y134.574 E38.61373
G1 X36.274 Y135.155 E38.67273
G1 X35.842 Y135.71 E38.72537
G1 X35.534 Y136.167 E38.76661
G1 X35.195 Y136.819 E38.8216
G1 X35.124 Y137.052 E38.83983
G1 X35.185 Y137.267 E38.85655
G1 X35.348 Y137.432 E38.87391
G1 X35.564 Y137.499 E38.89083
G1 X35.792 Y137.454 E38.90823
G1 X35.971 Y137.308 E38.92551
G1 X36.148 Y136.9 E38.9588
G1 X36.225 Y136.803 E38.96806
G1 X36.355 Y136.707 E38.98016
G1 X36.47 Y136.662 E38.9894
G1 X36.633 Y136.643 E39.00168
G1 X36.756 Y136.661 E39.01098
G1 X36.904 Y136.725 E39.02305
G1 X37 Y136.8 E39.03217
G1 X37.098 Y136.929 E39.04429
G1 X37.145 Y137.041 E39.05338
G1 X37.167 Y137.201 E39.06546
G1 X37.144 Y137.34 E39.07601
G1 X36.951 Y137.733 E39.10877
G1 X36.913 Y137.789 E39.11384
G1 X36.672 Y138.053 E39.14059
G1 X36.629 Y138.09 E39.14483
G1 X36.328 Y138.292 E39.17196
G1 X36.276 Y138.318 E39.17631
G1 X35.939 Y138.441 E39.20316
G1 X35.883 Y138.455 E39.20748
G1 X35.526 Y138.494 E39.23435
G1 X35.469 Y138.493 E39.23862
G1 X35.112 Y138.447 E39.26556
G1 X35.056 Y138.433 E39.26988
G1 X34.719 Y138.302 E39.29694
G1 X34.668 Y138.275 E39.30125
G1 X34.377 Y138.071 E39.32785
G1 X34.335 Y138.033 E39.33209
G1 X34.096 Y137.762 E39.35913
G1 X34.056 Y137.699 E39.36471
G1 X33.858 Y137.247 E39.40164
G1 X33.839 Y137.128 E39.41066
G1 X33.879 Y136.715 E39.44171
G1 X33.894 Y136.653 E39.44648
G1 X34.096 Y136.122 E39.489
G1 X34.115 Y136.083 E39.49225
G1 X34.725 Y135.072 E39.58061
G1 X34.743 Y135.046 E39.58298
G1 X35.568 Y134.021 E39.68144
G1 X35.59 Y133.997 E39.68388
G1 X36.499 Y133.132 E39.77778
G1 X36.527 Y133.109 E39.78049
G1 X36.997 Y132.783 E39.8233
G1 X37.041 Y132.759 E39.82705
G1 X37.562 Y132.541 E39.86931
G1 X37.635 Y132.523 E39.87494
G1 X37.916 Y132.499 E39.89605
G1 X38.003 Y132.507 E39.90258
G1 X38.263 Y132.582 E39.92284
G1 X38.349 Y132.628 E39.93013
G1 X38.556 Y132.8 E39.95027
G1 X38.605 Y132.856 E39.95584
G1 X38.755 Y133.091 E39.97671
G1 X38.782 Y133.147 E39.98136
G1 X38.957 Y133.693 E40.02427
G1 X38.966 Y133.734 E40.02741
G1 X39.053 Y134.39 E40.07693
G1 X39.055 Y134.42 E40.07918
