; G-Code generated by Simplify3D(R) Version 4.1.1
; Apr 28, 2021 at 7:49:39 PM
; Settings Summary
;   processName,Trideo BOX
;   applyToModels,forearmjoinerA,forearmjoinerB
;   profileName,Trideo BOX
;   profileVersion,2021-04-15 09:48:16
;   baseProfile,Default
;   printMaterial,PLA
;   printQuality,Fast
;   printExtruders,
;   extruderName,Primary Extruder
;   extruderToolheadNumber,0
;   extruderDiameter,0.4
;   extruderAutoWidth,1
;   extruderWidth,0.48
;   extrusionMultiplier,0.98
;   extruderUseRetract,1
;   extruderRetractionDistance,0.7
;   extruderExtraRestartDistance,0
;   extruderRetractionZLift,0
;   extruderRetractionSpeed,1500
;   extruderUseCoasting,0
;   extruderCoastingDistance,0.2
;   extruderUseWipe,0
;   extruderWipeDistance,5
;   primaryExtruder,0
;   layerHeight,0.3
;   topSolidLayers,3
;   bottomSolidLayers,3
;   perimeterOutlines,2
;   printPerimetersInsideOut,1
;   startPointOption,2
;   startPointOriginX,0
;   startPointOriginY,0
;   sequentialIslands,0
;   spiralVaseMode,0
;   firstLayerHeightPercentage,90
;   firstLayerWidthPercentage,100
;   firstLayerUnderspeed,0.5
;   useRaft,0
;   raftExtruder,0
;   raftTopLayers,3
;   raftBaseLayers,2
;   raftOffset,3
;   raftSeparationDistance,0.14
;   raftTopInfill,100
;   aboveRaftSpeedMultiplier,0.3
;   useSkirt,1
;   skirtExtruder,0
;   skirtLayers,1
;   skirtOutlines,2
;   skirtOffset,4
;   usePrimePillar,0
;   primePillarExtruder,999
;   primePillarWidth,12
;   primePillarLocation,7
;   primePillarSpeedMultiplier,1
;   useOozeShield,0
;   oozeShieldExtruder,999
;   oozeShieldOffset,2
;   oozeShieldOutlines,1
;   oozeShieldSidewallShape,1
;   oozeShieldSidewallAngle,30
;   oozeShieldSpeedMultiplier,1
;   infillExtruder,0
;   internalInfillPattern,Rectilinear
;   externalInfillPattern,Rectilinear
;   infillPercentage,15
;   outlineOverlapPercentage,15
;   infillExtrusionWidthPercentage,100
;   minInfillLength,5
;   infillLayerInterval,1
;   internalInfillAngles,45,-45
;   overlapInternalInfillAngles,0
;   externalInfillAngles,45,-45
;   generateSupport,1
;   supportExtruder,0
;   supportInfillPercentage,25
;   supportExtraInflation,0
;   supportBaseLayers,0
;   denseSupportExtruder,0
;   denseSupportLayers,0
;   denseSupportInfillPercentage,70
;   supportLayerInterval,1
;   supportHorizontalPartOffset,0.3
;   supportUpperSeparationLayers,1
;   supportLowerSeparationLayers,1
;   supportType,0
;   supportGridSpacing,4
;   maxOverhangAngle,45
;   supportAngles,0
;   temperatureName,Primary Extruder,Heated bed
;   temperatureNumber,0,0
;   temperatureSetpointCount,1,1
;   temperatureSetpointLayers,1,1
;   temperatureSetpointTemperatures,190,60
;   temperatureStabilizeAtStartup,1,1
;   temperatureHeatedBed,0,1
;   fanLayers,1,2
;   fanSpeeds,0,100
;   blipFanToFullPower,0
;   adjustSpeedForCooling,1
;   minSpeedLayerTime,15
;   minCoolingSpeedSlowdown,20
;   increaseFanForCooling,0
;   minFanLayerTime,45
;   maxCoolingFanSpeed,100
;   increaseFanForBridging,0
;   bridgingFanSpeed,100
;   use5D,1
;   relativeEdistances,0
;   allowEaxisZeroing,1
;   independentExtruderAxes,0
;   includeM10123,0
;   stickySupport,1
;   applyToolheadOffsets,0
;   gcodeXoffset,0
;   gcodeYoffset,0
;   gcodeZoffset,0
;   overrideMachineDefinition,1
;   machineTypeOverride,0
;   strokeXoverride,200
;   strokeYoverride,200
;   strokeZoverride,200
;   originOffsetXoverride,0
;   originOffsetYoverride,0
;   originOffsetZoverride,0
;   homeXdirOverride,-1
;   homeYdirOverride,-1
;   homeZdirOverride,-1
;   flipXoverride,1
;   flipYoverride,-1
;   flipZoverride,1
;   toolheadOffsets,0,0|0,0|0,0|0,0|0,0|0,0
;   overrideFirmwareConfiguration,0
;   firmwareTypeOverride,RepRap (Marlin/Repetier/Sprinter)
;   GPXconfigOverride,r2
;   baudRateOverride,115200
;   overridePrinterModels,0
;   printerModelsOverride
;   startingGcode,G28 X0 Y0; home XY,G1 X20 Y20,G28 Z0,G1 Z5 F5000; Lift NZ
;   layerChangeGcode,
;   retractionGcode,
;   toolChangeGcode,
;   endingGcode,M104 S0 ; turn off extruder,G28 X0 ; home x,M140 S0 ; turn off bed,M84 ; disable motors,M107 ;
;   exportFileFormat,gcode
;   celebration,0
;   celebrationSong,Looney Toons
;   postProcessing,
;   defaultSpeed,3600
;   outlineUnderspeed,0.5
;   solidInfillUnderspeed,0.8
;   supportUnderspeed,0.8
;   rapidXYspeed,4800
;   rapidZspeed,1002
;   minBridgingArea,50
;   bridgingExtraInflation,0
;   bridgingExtrusionMultiplier,1
;   bridgingSpeedMultiplier,1
;   useFixedBridgingAngle,0
;   fixedBridgingAngle,0
;   applyBridgingToPerimeters,0
;   filamentDiameters,1.75|1.75|1.75|1.75|1.75|1.75
;   filamentPricesPerKg,46|46|46|46|46|46
;   filamentDensities,1.25|1.25|1.25|1.25|1.25|1.25
;   useMinPrintHeight,0
;   minPrintHeight,0
;   useMaxPrintHeight,0
;   maxPrintHeight,0
;   useDiaphragm,0
;   diaphragmLayerInterval,20
;   robustSlicing,1
;   mergeAllIntoSolid,0
;   onlyRetractWhenCrossingOutline,1
;   retractBetweenLayers,1
;   useRetractionMinTravel,0
;   retractionMinTravel,3
;   retractWhileWiping,0
;   onlyWipeOutlines,1
;   avoidCrossingOutline,0
;   maxMovementDetourFactor,3
;   toolChangeRetractionDistance,12
;   toolChangeExtraRestartDistance,-0.5
;   toolChangeRetractionSpeed,600
;   externalThinWallType,0
;   internalThinWallType,2
;   thinWallAllowedOverlapPercentage,10
;   singleExtrusionMinLength,1
;   singleExtrusionMinPrintingWidthPercentage,50
;   singleExtrusionMaxPrintingWidthPercentage,200
;   singleExtrusionEndpointExtension,0.2
;   horizontalSizeCompensation,0
G90
M82
M106 S0
M140 S60
M190 S60
M104 S190 T0
M109 S190 T0
G28 X0 Y0; home XY
G1 X20 Y20
G28 Z0
G1 Z5 F5000; Lift NZ
; process Trideo BOX
; layer 1, Z = 0.270
T0
G92 E0.0000
G1 E-0.7000 F1500
; feature skirt
; tool H0.270 W0.480
G1 Z0.270 F1002
G1 X36.828 Y28.268 F4800
G1 E0.0000 F1500
G92 E0.0000
G1 X39.593 Y25.503 E0.2065 F1800
G1 X67.943 Y25.503 E1.7035
G1 X70.708 Y28.268 E1.9099
G1 X70.708 Y44.618 E2.7733
G1 X70.227 Y45.099 E2.8092
G1 X70.324 Y45.200 E2.8165
G1 X70.324 Y55.884 E3.3807
G1 X70.708 Y56.268 E3.4094
G1 X70.708 Y77.503 E4.5307
G1 X183.943 Y77.503 E10.5099
G1 X186.708 Y80.268 E10.7164
G1 X186.708 Y85.503 E10.9928
G1 X187.943 Y85.503 E11.0580
G1 X190.708 Y88.268 E11.2645
G1 X190.708 Y96.618 E11.7054
G1 X187.943 Y99.383 E11.9119
G1 X38.708 Y99.383 E19.7921
G1 X38.708 Y100.618 E19.8573
G1 X35.943 Y103.383 E20.0638
G1 X23.593 Y103.383 E20.7159
G1 X20.828 Y100.618 E20.9224
G1 X20.828 Y99.383 E20.9876
G1 X11.592 Y99.383 E21.4752
G1 X8.828 Y96.618 E21.6817
G1 X8.828 Y80.268 E22.5451
G1 X11.592 Y77.503 E22.7515
G1 X36.828 Y77.503 E24.0840
G1 X36.828 Y58.581 E25.0832
G1 X35.884 Y57.612 E25.1546
G1 X35.884 Y45.452 E25.7967
G1 X36.828 Y44.429 E25.8702
G1 X36.828 Y28.268 E26.7236
G92 E0.0000
G1 E-0.7000 F1500
G1 X37.308 Y28.467 F4800
G1 E0.0000 F1500
G92 E0.0000
G1 X39.791 Y25.983 E0.1855 F1800
G1 X67.744 Y25.983 E1.6615
G1 X70.228 Y28.467 E1.8469
G1 X70.228 Y44.419 E2.6893
G1 X69.557 Y45.090 E2.7394
G1 X69.844 Y45.391 E2.7614
G1 X69.844 Y56.083 E3.3259
G1 X70.228 Y56.467 E3.3546
G1 X70.228 Y77.983 E4.4907
G1 X183.744 Y77.983 E10.4848
G1 X186.228 Y80.467 E10.6703
G1 X186.228 Y85.983 E10.9616
G1 X187.744 Y85.983 E11.0416
G1 X190.228 Y88.467 E11.2271
G1 X190.228 Y96.419 E11.6470
G1 X187.744 Y98.903 E11.8325
G1 X179.791 Y98.903 E12.2524
G1 X179.768 Y98.879 E12.2542
G1 X179.744 Y98.903 E12.2560
G1 X38.228 Y98.903 E19.7286
G1 X38.228 Y100.419 E19.8086
G1 X35.744 Y102.903 E19.9941
G1 X23.791 Y102.903 E20.6252
G1 X21.308 Y100.419 E20.8107
G1 X21.308 Y98.903 E20.8908
G1 X11.791 Y98.903 E21.3933
G1 X9.308 Y96.419 E21.5788
G1 X9.308 Y80.467 E22.4211
G1 X11.791 Y77.983 E22.6066
G1 X37.308 Y77.983 E23.9539
G1 X37.308 Y58.386 E24.9888
G1 X36.364 Y57.417 E25.0602
G1 X36.364 Y45.640 E25.6821
G1 X37.402 Y44.514 E25.7629
G1 X37.308 Y44.419 E25.7700
G1 X37.308 Y28.467 E26.6124
G92 E0.0000
G1 E-0.7000 F1500
G1 X34.806 Y105.384 F4800
G1 E0.0000 F1500
G92 E0.0000
G1 X37.571 Y108.149 E0.2065 F1800
G1 X37.571 Y109.384 E0.2717
G1 X186.806 Y109.384 E8.1519
G1 X189.571 Y112.149 E8.3583
G1 X189.571 Y120.499 E8.7993
G1 X186.806 Y123.264 E9.0057
G1 X185.571 Y123.264 E9.0710
G1 X185.571 Y128.499 E9.3474
G1 X182.806 Y131.264 E9.5539
G1 X69.571 Y131.264 E15.5331
G1 X69.571 Y144.499 E16.2320
G1 X68.557 Y145.513 E16.3077
G1 X69.237 Y146.223 E16.3596
G1 X69.237 Y162.061 E17.1959
G1 X68.376 Y162.954 E17.2614
G1 X69.571 Y164.149 E17.3507
G1 X69.571 Y184.499 E18.4252
G1 X66.806 Y187.264 E18.6317
G1 X38.456 Y187.264 E20.1287
G1 X35.691 Y184.499 E20.3352
G1 X35.691 Y164.149 E21.4097
G1 X36.261 Y163.579 E21.4523
G1 X34.797 Y162.061 E21.5637
G1 X34.797 Y146.223 E22.4000
G1 X36.078 Y144.886 E22.4977
G1 X35.691 Y144.499 E22.5266
G1 X35.691 Y131.264 E23.2255
G1 X10.456 Y131.264 E24.5580
G1 X7.691 Y128.499 E24.7645
G1 X7.691 Y112.149 E25.6278
G1 X10.456 Y109.384 E25.8343
G1 X19.691 Y109.384 E26.3220
G1 X19.691 Y108.149 E26.3872
G1 X22.456 Y105.384 E26.5937
G1 X34.806 Y105.384 E27.2458
G92 E0.0000
G1 E-0.7000 F1500
G1 X34.607 Y105.864 F4800
G1 E0.0000 F1500
G92 E0.0000
G1 X37.091 Y108.348 E0.1855 F1800
G1 X37.091 Y109.864 E0.2655
G1 X178.607 Y109.864 E7.7381
G1 X178.631 Y109.888 E7.7399
G1 X178.654 Y109.864 E7.7417
G1 X186.607 Y109.864 E8.1616
G1 X189.091 Y112.348 E8.3471
G1 X189.091 Y120.300 E8.7670
G1 X186.607 Y122.784 E8.9525
G1 X185.091 Y122.784 E9.0325
G1 X185.091 Y128.300 E9.3238
G1 X182.607 Y130.784 E9.5093
G1 X69.091 Y130.784 E15.5034
G1 X69.091 Y144.300 E16.2171
G1 X67.885 Y145.506 E16.3072
G1 X68.757 Y146.416 E16.3737
G1 X68.757 Y161.867 E17.1896
G1 X67.703 Y162.960 E17.2697
G1 X69.091 Y164.348 E17.3734
G1 X69.091 Y184.300 E18.4269
G1 X66.607 Y186.784 E18.6124
G1 X38.654 Y186.784 E20.0884
G1 X36.171 Y184.300 E20.2739
G1 X36.171 Y164.348 E21.3275
G1 X36.933 Y163.585 E21.3844
G1 X35.277 Y161.867 E21.5104
G1 X35.277 Y146.416 E22.3263
G1 X36.750 Y144.879 E22.4387
G1 X36.171 Y144.300 E22.4820
G1 X36.171 Y130.784 E23.1957
G1 X10.654 Y130.784 E24.5430
G1 X8.171 Y128.300 E24.7285
G1 X8.171 Y112.348 E25.5709
G1 X10.654 Y109.864 E25.7563
G1 X20.171 Y109.864 E26.2588
G1 X20.171 Y108.348 E26.3389
G1 X22.654 Y105.864 E26.5244
G1 X34.607 Y105.864 E27.1555
G92 E0.0000
G1 E-0.7000 F1500
; feature inner perimeter
G1 X41.324 Y54.991 F4800
G1 E0.0000 F1500
G92 E0.0000
G1 X41.324 Y47.961 E0.3712 F1350
G1 X44.354 Y47.718 E0.5317
G1 X44.884 Y47.722 E0.5597
G1 X44.884 Y50.121 E0.6864
G1 X61.324 Y50.121 E1.5545
G1 X61.324 Y47.722 E1.6811
G1 X63.527 Y47.705 E1.7974
G1 X64.884 Y47.772 E1.8692
G1 X64.884 Y55.089 E2.2555
G1 X54.619 Y55.018 E2.7975
G1 X46.429 Y55.124 E3.2300
G1 X41.324 Y54.991 E3.4997
; feature outer perimeter
G1 X40.844 Y55.459 F4800
G92 E0.0000
G1 X40.844 Y47.518 E0.4193 F900
G1 X44.337 Y47.237 E0.6043
G1 X45.364 Y47.246 E0.6586
G1 X45.364 Y49.641 E0.7850
G1 X60.844 Y49.641 E1.6024
G1 X60.844 Y47.246 E1.7288
G1 X63.537 Y47.225 E1.8711
G1 X65.364 Y47.315 E1.9676
G1 X65.364 Y55.572 E2.4036
G1 X54.621 Y55.498 E2.9709
G1 X46.426 Y55.604 E3.4036
G1 X40.844 Y55.459 E3.6985
; feature solid layer
G1 X42.055 Y54.602 F4800
G92 E0.0000
G1 X41.732 Y54.279 E0.0241 F1440
G1 X41.732 Y53.600 E0.0600
G1 X42.752 Y54.620 E0.1362
G1 X43.449 Y54.638 E0.1730
G1 X41.732 Y52.921 E0.3012
G1 X41.732 Y52.243 E0.3370
G1 X44.145 Y54.657 E0.5173
G1 X44.842 Y54.675 E0.5541
G1 X41.732 Y51.564 E0.7864
G1 X41.732 Y50.885 E0.8222
G1 X45.539 Y54.693 E1.1066
G1 X46.236 Y54.711 E1.1434
G1 X41.732 Y50.206 E1.4798
G1 X41.732 Y49.527 E1.5156
G1 X46.914 Y54.710 E1.9026
G1 X47.584 Y54.701 E1.9380
G1 X41.732 Y48.849 E2.3750
G1 X44.403 Y48.126 F4800
G92 E0.0000
G1 X44.476 Y48.198 E0.0054 F1440
G1 X44.476 Y48.877 E0.0413
G1 X43.772 Y48.174 E0.0938
G1 X43.144 Y48.224 E0.1271
G1 X44.476 Y49.556 E0.2265
G1 X44.476 Y50.235 E0.2624
G1 X42.516 Y48.275 E0.4087
G1 X41.887 Y48.325 E0.4420
G1 X48.254 Y54.692 E0.9175
G1 X48.924 Y54.684 E0.9529
G1 X44.769 Y50.529 E1.2631
G1 X45.448 Y50.529 E1.2990
G1 X49.594 Y54.675 E1.6086
G1 X50.265 Y54.666 E1.6440
G1 X46.127 Y50.529 E1.9530
G1 X46.806 Y50.529 E1.9888
G1 X50.935 Y54.658 E2.2972
G1 X51.605 Y54.649 E2.3326
G1 X47.485 Y50.529 E2.6403
G1 X48.163 Y50.529 E2.6761
G1 X52.275 Y54.640 E2.9831
G1 X52.945 Y54.632 E3.0185
G1 X48.842 Y50.529 E3.3249
G1 X49.521 Y50.529 E3.3608
G1 X53.615 Y54.623 E3.6665
G1 X54.285 Y54.614 E3.7019
G1 X50.200 Y50.529 E4.0070
G1 X50.879 Y50.529 E4.0428
G1 X54.962 Y54.612 E4.3478
G1 X55.646 Y54.617 E4.3839
G1 X51.557 Y50.529 E4.6892
G1 X52.236 Y50.529 E4.7250
G1 X56.329 Y54.622 E5.0307
G1 X57.013 Y54.626 E5.0668
G1 X52.915 Y50.529 E5.3728
G1 X53.594 Y50.529 E5.4086
G1 X57.696 Y54.631 E5.7150
G1 X58.380 Y54.636 E5.7511
G1 X54.273 Y50.529 E6.0578
G1 X54.952 Y50.529 E6.0936
G1 X59.064 Y54.640 E6.4007
G1 X59.747 Y54.645 E6.4368
G1 X55.630 Y50.529 E6.7442
G1 X56.309 Y50.529 E6.7800
G1 X60.431 Y54.650 E7.0878
G1 X61.114 Y54.655 E7.1239
G1 X56.988 Y50.529 E7.4320
G1 X57.667 Y50.529 E7.4679
G1 X61.798 Y54.659 E7.7763
G1 X62.481 Y54.664 E7.8124
G1 X58.346 Y50.529 E8.1212
G1 X59.025 Y50.529 E8.1571
G1 X63.165 Y54.669 E8.4663
G1 X63.848 Y54.673 E8.5023
G1 X59.703 Y50.529 E8.8119
G1 X60.382 Y50.529 E8.8477
G1 X64.476 Y54.622 E9.1534
G1 X64.476 Y53.943 E9.1892
G1 X61.061 Y50.529 E9.4442
G1 X61.732 Y50.529 E9.4796
G1 X61.732 Y50.520 E9.4801
G1 X64.476 Y53.264 E9.6850
G1 X64.476 Y52.585 E9.7208
G1 X61.732 Y49.841 E9.9257
G1 X61.732 Y49.163 E9.9616
G1 X64.476 Y51.907 E10.1665
G1 X64.476 Y51.228 E10.2023
G1 X61.732 Y48.484 E10.4072
G1 X61.732 Y48.127 E10.4261
G1 X62.051 Y48.125 E10.4430
G1 X64.476 Y50.549 E10.6240
G1 X64.476 Y49.870 E10.6598
G1 X62.725 Y48.120 E10.7906
G1 X63.399 Y48.114 E10.8261
G1 X64.476 Y49.191 E10.9065
G1 X64.476 Y48.513 E10.9424
G1 X64.105 Y48.142 E10.9700
G92 E0.0000
G1 E-0.7000 F1500
; feature inner perimeter
G1 X63.238 Y148.787 F4800
G1 E0.0000 F1500
G92 E0.0000
G1 X63.797 Y148.810 E0.0295 F1350
G1 X63.797 Y159.462 E0.5919
G1 X63.032 Y159.489 E0.6323
G1 X60.237 Y159.413 E0.7800
G1 X60.237 Y158.340 E0.8366
G1 X43.797 Y158.340 E1.7047
G1 X43.797 Y159.413 E1.7614
G1 X41.002 Y159.489 E1.9090
G1 X40.237 Y159.462 E1.9494
G1 X40.237 Y148.810 E2.5119
G1 X40.795 Y148.787 E2.5414
G1 X43.797 Y148.882 E2.7000
G1 X43.797 Y149.958 E2.7568
G1 X60.237 Y149.958 E3.6249
G1 X60.237 Y148.882 E3.6817
G1 X63.238 Y148.787 E3.8403
; feature outer perimeter
G1 X63.241 Y148.307 F4800
G92 E0.0000
G1 X64.277 Y148.350 E0.0547 F900
G1 X64.277 Y159.924 E0.6659
G1 X63.034 Y159.970 E0.7316
G1 X59.757 Y159.880 E0.9047
G1 X59.757 Y158.820 E0.9607
G1 X44.277 Y158.820 E1.7781
G1 X44.277 Y159.880 E1.8340
G1 X40.999 Y159.970 E2.0071
G1 X39.757 Y159.924 E2.0728
G1 X39.757 Y148.350 E2.6840
G1 X40.792 Y148.307 E2.7387
G1 X44.277 Y148.417 E2.9228
G1 X44.277 Y149.478 E2.9788
G1 X59.757 Y149.478 E3.7962
G1 X59.757 Y148.417 E3.8522
G1 X63.241 Y148.307 E4.0363
; feature solid layer
G1 X63.339 Y149.200 F4800
G92 E0.0000
G1 X63.389 Y149.249 E0.0037 F1440
G1 X63.389 Y149.928 E0.0395
G1 X62.674 Y149.213 E0.0929
G1 X62.016 Y149.234 E0.1277
G1 X63.389 Y150.607 E0.2302
G1 X63.389 Y151.285 E0.2660
G1 X61.358 Y149.255 E0.4176
G1 X60.700 Y149.276 E0.4524
G1 X63.389 Y151.964 E0.6532
G1 X63.389 Y152.643 E0.6890
G1 X60.645 Y149.899 E0.8939
G1 X60.645 Y150.366 E0.9186
G1 X60.433 Y150.366 E0.9298
G1 X63.389 Y153.322 E1.1505
G1 X63.389 Y154.001 E1.1863
G1 X59.754 Y150.366 E1.4577
G1 X59.075 Y150.366 E1.4936
G1 X63.389 Y154.680 E1.8157
G1 X63.389 Y155.358 E1.8515
G1 X58.397 Y150.366 E2.2243
G1 X57.718 Y150.366 E2.2602
G1 X63.389 Y156.037 E2.6836
G1 X63.389 Y156.716 E2.7195
G1 X57.039 Y150.366 E3.1937
G1 X56.360 Y150.366 E3.2295
G1 X63.389 Y157.395 E3.7544
G1 X63.389 Y158.074 E3.7902
G1 X55.681 Y150.366 E4.3658
G1 X55.002 Y150.366 E4.4016
G1 X63.389 Y158.753 E5.0279
G1 X63.389 Y159.068 E5.0445
G1 X63.038 Y159.081 E5.0631
G1 X54.324 Y150.366 E5.7138
G1 X53.645 Y150.366 E5.7497
G1 X62.341 Y159.062 E6.3990
G1 X61.643 Y159.043 E6.4359
G1 X60.645 Y158.045 E6.5105
G1 X60.645 Y157.932 E6.5164
G1 X60.532 Y157.932 E6.5224
G1 X52.966 Y150.366 E7.0874
G1 X52.287 Y150.366 E7.1232
G1 X59.853 Y157.932 E7.6882
G1 X59.174 Y157.932 E7.7240
G1 X51.608 Y150.366 E8.2890
G1 X50.929 Y150.366 E8.3249
G1 X58.495 Y157.932 E8.8898
