; G-Code generated by Simplify3D(R) Version 4.1.1
; Apr 28, 2021 at 7:53:10 PM
; Settings Summary
;   processName,Trideo BOX
;   applyToModels,forearmjoinerA,forearmjoinerB
;   profileName,Trideo BOX
;   profileVersion,2021-04-15 09:48:16
;   baseProfile,Default
;   printMaterial,PLA
;   printQuality,Fast
;   printExtruders,
;   extruderName,Primary Extruder
;   extruderToolheadNumber,0
;   extruderDiameter,0.4
;   extruderAutoWidth,1
;   extruderWidth,0.48
;   extrusionMultiplier,0.98
;   extruderUseRetract,1
;   extruderRetractionDistance,0.7
;   extruderExtraRestartDistance,0
;   extruderRetractionZLift,0
;   extruderRetractionSpeed,1500
;   extruderUseCoasting,0
;   extruderCoastingDistance,0.2
;   extruderUseWipe,0
;   extruderWipeDistance,5
;   primaryExtruder,0
;   layerHeight,0.3
;   topSolidLayers,3
;   bottomSolidLayers,3
;   perimeterOutlines,2
;   printPerimetersInsideOut,1
;   startPointOption,2
;   startPointOriginX,0
;   startPointOriginY,0
;   sequentialIslands,0
;   spiralVaseMode,0
;   firstLayerHeightPercentage,90
;   firstLayerWidthPercentage,100
;   firstLayerUnderspeed,0.5
;   useRaft,0
;   raftExtruder,0
;   raftTopLayers,3
;   raftBaseLayers,2
;   raftOffset,3
;   raftSeparationDistance,0.14
;   raftTopInfill,100
;   aboveRaftSpeedMultiplier,0.3
;   useSkirt,1
;   skirtExtruder,0
;   skirtLayers,1
;   skirtOutlines,2
;   skirtOffset,4
;   usePrimePillar,0
;   primePillarExtruder,999
;   primePillarWidth,12
;   primePillarLocation,7
;   primePillarSpeedMultiplier,1
;   useOozeShield,0
;   oozeShieldExtruder,999
;   oozeShieldOffset,2
;   oozeShieldOutlines,1
;   oozeShieldSidewallShape,1
;   oozeShieldSidewallAngle,30
;   oozeShieldSpeedMultiplier,1
;   infillExtruder,0
;   internalInfillPattern,Rectilinear
;   externalInfillPattern,Rectilinear
;   infillPercentage,15
;   outlineOverlapPercentage,15
;   infillExtrusionWidthPercentage,100
;   minInfillLength,5
;   infillLayerInterval,1
;   internalInfillAngles,45,-45
;   overlapInternalInfillAngles,0
;   externalInfillAngles,45,-45
;   generateSupport,1
;   supportExtruder,0
;   supportInfillPercentage,25
;   supportExtraInflation,0
;   supportBaseLayers,0
;   denseSupportExtruder,0
;   denseSupportLayers,0
;   denseSupportInfillPercentage,70
;   supportLayerInterval,1
;   supportHorizontalPartOffset,0.3
;   supportUpperSeparationLayers,1
;   supportLowerSeparationLayers,1
;   supportType,0
;   supportGridSpacing,4
;   maxOverhangAngle,45
;   supportAngles,0
;   temperatureName,Primary Extruder,Heated bed
;   temperatureNumber,0,0
;   temperatureSetpointCount,1,1
;   temperatureSetpointLayers,1,1
;   temperatureSetpointTemperatures,190,60
;   temperatureStabilizeAtStartup,1,1
;   temperatureHeatedBed,0,1
;   fanLayers,1,2
;   fanSpeeds,0,100
;   blipFanToFullPower,0
;   adjustSpeedForCooling,1
;   minSpeedLayerTime,15
;   minCoolingSpeedSlowdown,20
;   increaseFanForCooling,0
;   minFanLayerTime,45
;   maxCoolingFanSpeed,100
;   increaseFanForBridging,0
;   bridgingFanSpeed,100
;   use5D,1
;   relativeEdistances,0
;   allowEaxisZeroing,1
;   independentExtruderAxes,0
;   includeM10123,0
;   stickySupport,1
;   applyToolheadOffsets,0
;   gcodeXoffset,0
;   gcodeYoffset,0
;   gcodeZoffset,0
;   overrideMachineDefinition,1
;   machineTypeOverride,0
;   strokeXoverride,200
;   strokeYoverride,200
;   strokeZoverride,200
;   originOffsetXoverride,0
;   originOffsetYoverride,0
;   originOffsetZoverride,0
;   homeXdirOverride,-1
;   homeYdirOverride,-1
;   homeZdirOverride,-1
;   flipXoverride,1
;   flipYoverride,-1
;   flipZoverride,1
;   toolheadOffsets,0,0|0,0|0,0|0,0|0,0|0,0
;   overrideFirmwareConfiguration,0
;   firmwareTypeOverride,RepRap (Marlin/Repetier/Sprinter)
;   GPXconfigOverride,r2
;   baudRateOverride,115200
;   overridePrinterModels,0
;   printerModelsOverride
;   startingGcode,G28 X0 Y0; home XY,G1 X20 Y20,G28 Z0,G1 Z5 F5000; Lift NZ
;   layerChangeGcode,
;   retractionGcode,
;   toolChangeGcode,
;   endingGcode,M104 S0 ; turn off extruder,G28 X0 ; home x,M140 S0 ; turn off bed,M84 ; disable motors,M107 ;
;   exportFileFormat,gcode
;   celebration,0
;   celebrationSong,Looney Toons
;   postProcessing,
;   defaultSpeed,3600
;   outlineUnderspeed,0.5
;   solidInfillUnderspeed,0.8
;   supportUnderspeed,0.8
;   rapidXYspeed,4800
;   rapidZspeed,1002
;   minBridgingArea,50
;   bridgingExtraInflation,0
;   bridgingExtrusionMultiplier,1
;   bridgingSpeedMultiplier,1
;   useFixedBridgingAngle,0
;   fixedBridgingAngle,0
;   applyBridgingToPerimeters,0
;   filamentDiameters,1.75|1.75|1.75|1.75|1.75|1.75
;   filamentPricesPerKg,46|46|46|46|46|46
;   filamentDensities,1.25|1.25|1.25|1.25|1.25|1.25
;   useMinPrintHeight,0
;   minPrintHeight,0
;   useMaxPrintHeight,0
;   maxPrintHeight,0
;   useDiaphragm,0
;   diaphragmLayerInterval,20
;   robustSlicing,1
;   mergeAllIntoSolid,0
;   onlyRetractWhenCrossingOutline,1
;   retractBetweenLayers,1
;   useRetractionMinTravel,0
;   retractionMinTravel,3
;   retractWhileWiping,0
;   onlyWipeOutlines,1
;   avoidCrossingOutline,0
;   maxMovementDetourFactor,3
;   toolChangeRetractionDistance,12
;   toolChangeExtraRestartDistance,-0.5
;   toolChangeRetractionSpeed,600
;   externalThinWallType,0
;   internalThinWallType,2
;   thinWallAllowedOverlapPercentage,10
;   singleExtrusionMinLength,1
;   singleExtrusionMinPrintingWidthPercentage,50
;   singleExtrusionMaxPrintingWidthPercentage,200
;   singleExtrusionEndpointExtension,0.2
;   horizontalSizeCompensation,0
G90
M82
M106 S0
M140 S60
M190 S60
M104 S190 T0
M109 S190 T0
G28 X0 Y0; home XY
G1 X20 Y20
G28 Z0
G1 Z5 F5000; Lift NZ
; process Trideo BOX
; layer 1, Z = 0.270
T0
G92 E0.0000
G1 E-0.7000 F1500
; feature skirt
; tool H0.270 W0.480
G1 Z0.270 F1002
G1 X46.928 Y27.306 F4800
G1 E0.0000 F1500
G92 E0.0000
G1 X48.163 Y27.306 E0.0652 F1800
G1 X48.163 Y26.071 E0.1304
G1 X50.928 Y23.306 E0.3369
G1 X63.278 Y23.306 E0.9890
G1 X66.043 Y26.071 E1.1955
G1 X66.043 Y27.306 E1.2607
G1 X67.278 Y27.306 E1.3259
G1 X70.043 Y30.071 E1.5324
G1 X70.043 Y31.306 E1.5976
G1 X75.278 Y31.306 E1.8741
G1 X78.043 Y34.071 E2.0805
G1 X78.043 Y35.306 E2.1458
G1 X79.278 Y35.306 E2.2110
G1 X81.103 Y37.131 E2.3473
G1 X82.928 Y35.306 E2.4835
G1 X84.163 Y35.306 E2.5488
G1 X84.163 Y34.071 E2.6140
G1 X86.928 Y31.306 E2.8204
G1 X88.163 Y31.306 E2.8857
G1 X88.163 Y30.071 E2.9509
G1 X90.928 Y27.306 E3.1573
G1 X96.446 Y27.306 E3.4488
G1 X96.487 Y24.146 E3.6157
G1 X105.273 Y15.360 E4.2717
G1 X108.163 Y15.244 E4.4244
G1 X108.163 Y10.071 E4.6976
G1 X110.928 Y7.306 E4.9041
G1 X112.163 Y7.306 E4.9693
G1 X112.163 Y6.071 E5.0345
G1 X114.928 Y3.306 E5.2410
G1 X127.278 Y3.306 E5.8931
G1 X130.043 Y6.071 E6.0996
G1 X130.043 Y7.306 E6.1648
G1 X131.278 Y7.306 E6.2300
G1 X134.043 Y10.071 E6.4365
G1 X134.043 Y11.306 E6.5017
G1 X135.278 Y11.306 E6.5669
G1 X138.043 Y14.071 E6.7734
G1 X138.043 Y15.306 E6.8386
G1 X139.278 Y15.306 E6.9038
G1 X142.043 Y18.071 E7.1103
G1 X142.043 Y34.421 E7.9737
G1 X139.278 Y37.186 E8.1801
G1 X138.043 Y37.186 E8.2454
G1 X138.043 Y38.421 E8.3106
G1 X135.278 Y41.186 E8.5170
G1 X131.564 Y41.186 E8.7131
G1 X131.561 Y41.313 E8.7198
G1 X122.389 Y50.485 E9.4047
G1 X122.043 Y50.483 E9.4231
G1 X122.043 Y54.421 E9.6310
G1 X119.278 Y57.186 E9.8374
G1 X118.043 Y57.186 E9.9027
G1 X118.043 Y58.421 E9.9679
G1 X115.278 Y61.186 E10.1744
G1 X114.043 Y61.186 E10.2396
G1 X114.043 Y62.421 E10.3048
G1 X111.278 Y65.186 E10.5113
G1 X110.043 Y65.186 E10.5765
G1 X110.043 Y66.421 E10.6417
G1 X108.218 Y68.246 E10.7780
G1 X110.043 Y70.071 E10.9143
G1 X110.043 Y71.306 E10.9795
G1 X111.278 Y71.306 E11.0447
G1 X114.043 Y74.071 E11.2512
G1 X114.043 Y75.306 E11.3164
G1 X115.278 Y75.306 E11.3816
G1 X118.043 Y78.071 E11.5881
G1 X118.043 Y79.306 E11.6533
G1 X119.278 Y79.306 E11.7185
G1 X122.043 Y82.071 E11.9250
G1 X122.043 Y83.306 E11.9902
G1 X123.278 Y83.306 E12.0554
G1 X126.043 Y86.071 E12.2619
G1 X126.043 Y87.306 E12.3271
G1 X127.278 Y87.306 E12.3923
G1 X130.043 Y90.071 E12.5988
G1 X130.043 Y91.306 E12.6640
G1 X131.278 Y91.306 E12.7292
G1 X134.043 Y94.071 E12.9357
G1 X134.043 Y95.306 E13.0009
G1 X135.278 Y95.306 E13.0661
G1 X138.043 Y98.071 E13.2726
G1 X138.043 Y99.306 E13.3378
G1 X139.278 Y99.306 E13.4030
G1 X142.043 Y102.071 E13.6095
G1 X142.043 Y103.306 E13.6747
G1 X143.278 Y103.306 E13.7399
G1 X146.043 Y106.071 E13.9464
G1 X146.043 Y107.306 E14.0116
G1 X147.278 Y107.306 E14.0768
G1 X150.043 Y110.071 E14.2833
G1 X150.043 Y111.306 E14.3485
G1 X151.278 Y111.306 E14.4138
G1 X154.043 Y114.071 E14.6202
G1 X154.043 Y115.306 E14.6854
G1 X155.278 Y115.306 E14.7507
G1 X158.043 Y118.071 E14.9571
G1 X158.043 Y119.306 E15.0224
G1 X159.278 Y119.306 E15.0876
G1 X162.043 Y122.071 E15.2940
G1 X162.043 Y123.306 E15.3593
G1 X163.278 Y123.306 E15.4245
G1 X166.043 Y126.071 E15.6309
G1 X166.043 Y127.306 E15.6962
G1 X167.278 Y127.306 E15.7614
G1 X170.043 Y130.071 E15.9679
G1 X170.043 Y131.306 E16.0331
G1 X171.278 Y131.306 E16.0983
G1 X174.043 Y134.071 E16.3048
G1 X174.043 Y135.306 E16.3700
G1 X175.278 Y135.306 E16.4352
G1 X178.043 Y138.071 E16.6417
G1 X178.043 Y139.306 E16.7069
G1 X179.278 Y139.306 E16.7721
G1 X182.043 Y142.071 E16.9786
G1 X182.043 Y143.306 E17.0438
G1 X183.278 Y143.306 E17.1090
G1 X186.043 Y146.071 E17.3155
G1 X186.043 Y147.306 E17.3807
G1 X187.278 Y147.306 E17.4459
G1 X190.043 Y150.071 E17.6524
G1 X190.043 Y151.306 E17.7176
G1 X191.278 Y151.306 E17.7828
G1 X194.043 Y154.071 E17.9893
G1 X194.043 Y170.421 E18.8526
G1 X191.278 Y173.186 E19.0591
G1 X174.928 Y173.186 E19.9225
G1 X172.163 Y170.421 E20.1289
G1 X172.163 Y169.186 E20.1942
G1 X170.928 Y169.186 E20.2594
G1 X168.163 Y166.421 E20.4658
G1 X168.163 Y165.186 E20.5311
G1 X166.928 Y165.186 E20.5963
G1 X164.163 Y162.421 E20.8028
G1 X164.163 Y161.186 E20.8680
G1 X162.928 Y161.186 E20.9332
G1 X160.163 Y158.421 E21.1397
G1 X160.163 Y157.186 E21.2049
G1 X158.928 Y157.186 E21.2701
G1 X156.163 Y154.421 E21.4766
G1 X156.163 Y153.186 E21.5418
G1 X154.928 Y153.186 E21.6070
G1 X152.163 Y150.421 E21.8135
G1 X152.163 Y149.186 E21.8787
G1 X150.928 Y149.186 E21.9439
G1 X148.163 Y146.421 E22.1504
G1 X148.163 Y145.186 E22.2156
G1 X146.928 Y145.186 E22.2808
G1 X144.163 Y142.421 E22.4873
G1 X144.163 Y141.186 E22.5525
G1 X142.928 Y141.186 E22.6177
G1 X140.163 Y138.421 E22.8242
G1 X140.163 Y137.186 E22.8894
G1 X138.928 Y137.186 E22.9546
G1 X136.163 Y134.421 E23.1611
G1 X136.163 Y133.186 E23.2263
G1 X134.928 Y133.186 E23.2915
G1 X132.163 Y130.421 E23.4980
G1 X132.163 Y129.186 E23.5632
G1 X130.928 Y129.186 E23.6284
G1 X128.163 Y126.421 E23.8349
G1 X128.163 Y125.186 E23.9001
G1 X126.928 Y125.186 E23.9653
G1 X124.163 Y122.421 E24.1718
G1 X124.163 Y121.186 E24.2370
G1 X122.928 Y121.186 E24.3023
G1 X120.163 Y118.421 E24.5087
G1 X120.163 Y117.186 E24.5739
G1 X118.928 Y117.186 E24.6392
G1 X116.163 Y114.421 E24.8456
G1 X116.163 Y113.186 E24.9109
G1 X114.928 Y113.186 E24.9761
G1 X112.163 Y110.421 E25.1825
G1 X112.163 Y109.186 E25.2478
G1 X110.928 Y109.186 E25.3130
G1 X108.163 Y106.421 E25.5194
G1 X108.163 Y105.186 E25.5847
G1 X106.928 Y105.186 E25.6499
G1 X104.163 Y102.421 E25.8564
G1 X104.163 Y101.186 E25.9216
G1 X102.928 Y101.186 E25.9868
G1 X100.163 Y98.421 E26.1933
G1 X100.163 Y97.186 E26.2585
G1 X98.928 Y97.186 E26.3237
G1 X96.163 Y94.421 E26.5302
G1 X96.163 Y93.186 E26.5954
G1 X94.928 Y93.186 E26.6606
G1 X92.163 Y90.421 E26.8671
G1 X92.163 Y89.186 E26.9323
G1 X90.928 Y89.186 E26.9975
G1 X88.163 Y86.421 E27.2040
G1 X88.163 Y85.186 E27.2692
G1 X86.928 Y85.186 E27.3344
G1 X84.163 Y82.421 E27.5409
G1 X84.163 Y81.186 E27.6061
G1 X82.928 Y81.186 E27.6713
G1 X80.163 Y78.421 E27.8778
G1 X80.163 Y77.186 E27.9430
G1 X78.928 Y77.186 E28.0082
G1 X76.163 Y74.421 E28.2147
G1 X76.163 Y73.186 E28.2799
G1 X74.928 Y73.186 E28.3451
G1 X72.163 Y70.421 E28.5516
G1 X72.163 Y69.186 E28.6168
G1 X70.928 Y69.186 E28.6820
G1 X68.163 Y66.421 E28.8885
G1 X68.163 Y65.186 E28.9537
G1 X66.928 Y65.186 E29.0190
G1 X64.163 Y62.421 E29.2254
G1 X64.163 Y61.186 E29.2906
G1 X62.928 Y61.186 E29.3559
G1 X62.179 Y60.437 E29.4118
G1 X62.179 Y64.262 E29.6137
G1 X63.414 Y64.262 E29.6789
G1 X66.179 Y67.026 E29.8854
G1 X66.179 Y68.262 E29.9506
G1 X67.414 Y68.262 E30.0158
G1 X70.179 Y71.026 E30.2223
G1 X70.179 Y72.262 E30.2875
G1 X71.414 Y72.262 E30.3528
G1 X74.179 Y75.026 E30.5592
G1 X74.179 Y76.262 E30.6244
G1 X75.414 Y76.262 E30.6897
G1 X78.179 Y79.026 E30.8961
G1 X78.179 Y80.262 E30.9613
G1 X79.414 Y80.262 E31.0266
G1 X82.179 Y83.026 E31.2330
G1 X82.179 Y84.262 E31.2983
G1 X83.414 Y84.262 E31.3635
G1 X86.179 Y87.026 E31.5699
G1 X86.179 Y88.262 E31.6352
G1 X87.414 Y88.262 E31.7004
G1 X90.179 Y91.026 E31.9069
G1 X90.179 Y92.262 E31.9721
G1 X91.414 Y92.262 E32.0373
G1 X94.179 Y95.026 E32.2438
G1 X94.179 Y96.262 E32.3090
G1 X95.414 Y96.262 E32.3742
G1 X98.179 Y99.026 E32.5807
G1 X98.179 Y100.262 E32.6459
G1 X99.414 Y100.262 E32.7111
G1 X102.179 Y103.026 E32.9176
G1 X102.179 Y104.262 E32.9828
G1 X103.414 Y104.262 E33.0480
G1 X106.179 Y107.026 E33.2545
G1 X106.179 Y108.262 E33.3197
G1 X107.414 Y108.262 E33.3849
G1 X110.179 Y111.026 E33.5914
G1 X110.179 Y112.262 E33.6566
G1 X111.414 Y112.262 E33.7218
G1 X114.179 Y115.026 E33.9283
G1 X114.179 Y116.262 E33.9935
G1 X115.414 Y116.262 E34.0587
G1 X118.179 Y119.026 E34.2652
G1 X118.179 Y120.262 E34.3304
G1 X119.414 Y120.262 E34.3956
G1 X122.179 Y123.026 E34.6021
G1 X122.179 Y124.262 E34.6673
G1 X123.414 Y124.262 E34.7325
G1 X126.179 Y127.026 E34.9390
G1 X126.179 Y128.262 E35.0042
G1 X127.414 Y128.262 E35.0694
G1 X130.179 Y131.026 E35.2759
G1 X130.179 Y132.262 E35.3411
G1 X131.414 Y132.262 E35.4064
G1 X134.179 Y135.026 E35.6128
G1 X134.179 Y136.262 E35.6780
G1 X135.414 Y136.262 E35.7433
G1 X138.179 Y139.026 E35.9497
G1 X138.179 Y140.262 E36.0150
G1 X139.414 Y140.262 E36.0802
G1 X142.179 Y143.026 E36.2866
G1 X142.179 Y144.262 E36.3519
G1 X143.414 Y144.262 E36.4171
G1 X146.179 Y147.026 E36.6235
G1 X146.179 Y148.262 E36.6888
G1 X147.414 Y148.262 E36.7540
G1 X150.179 Y151.026 E36.9605
G1 X150.179 Y152.262 E37.0257
G1 X151.414 Y152.262 E37.0909
G1 X154.179 Y155.026 E37.2974
G1 X154.179 Y156.262 E37.3626
G1 X155.414 Y156.262 E37.4278
G1 X158.179 Y159.026 E37.6343
G1 X158.179 Y160.262 E37.6995
G1 X159.414 Y160.262 E37.7647
G1 X162.179 Y163.026 E37.9712
G1 X162.179 Y164.262 E38.0364
G1 X163.414 Y164.262 E38.1016
G1 X166.179 Y167.026 E38.3081
G1 X166.179 Y168.262 E38.3733
G1 X167.414 Y168.262 E38.4385
G1 X170.179 Y171.026 E38.6450
G1 X170.179 Y172.262 E38.7102
G1 X171.414 Y172.262 E38.7754
G1 X174.179 Y175.026 E38.9819
G1 X174.179 Y191.377 E39.8452
G1 X171.414 Y194.142 E40.0517
G1 X155.064 Y194.142 E40.9151
G1 X152.299 Y191.377 E41.1215
G1 X152.299 Y190.142 E41.1868
G1 X151.064 Y190.142 E41.2520
G1 X148.299 Y187.377 E41.4584
G1 X148.299 Y186.142 E41.5237
G1 X147.064 Y186.142 E41.5889
G1 X144.299 Y183.377 E41.7954
G1 X144.299 Y182.142 E41.8606
G1 X143.064 Y182.142 E41.9258
G1 X140.299 Y179.377 E42.1323
G1 X140.299 Y178.142 E42.1975
G1 X139.064 Y178.142 E42.2627
G1 X136.299 Y175.377 E42.4692
G1 X136.299 Y174.142 E42.5344
G1 X135.064 Y174.142 E42.5996
G1 X132.299 Y171.377 E42.8061
G1 X132.299 Y170.142 E42.8713
G1 X131.064 Y170.142 E42.9365
G1 X128.299 Y167.377 E43.1430
G1 X128.299 Y166.142 E43.2082
G1 X127.064 Y166.142 E43.2734
G1 X124.299 Y163.377 E43.4799
G1 X124.299 Y162.142 E43.5451
G1 X123.064 Y162.142 E43.6103
G1 X120.299 Y159.377 E43.8168
G1 X120.299 Y158.142 E43.8820
G1 X119.064 Y158.142 E43.9472
G1 X116.299 Y155.377 E44.1537
G1 X116.299 Y154.142 E44.2189
G1 X115.064 Y154.142 E44.2841
G1 X112.299 Y151.377 E44.4906
G1 X112.299 Y150.142 E44.5558
G1 X111.064 Y150.142 E44.6210
G1 X108.299 Y147.377 E44.8275
G1 X108.299 Y146.142 E44.8927
G1 X107.064 Y146.142 E44.9580
G1 X104.299 Y143.377 E45.1644
G1 X104.299 Y142.142 E45.2296
G1 X103.064 Y142.142 E45.2949
G1 X100.299 Y139.377 E45.5013
G1 X100.299 Y138.142 E45.5665
G1 X99.064 Y138.142 E45.6318
G1 X96.299 Y135.377 E45.8382
G1 X96.299 Y134.142 E45.9035
G1 X95.064 Y134.142 E45.9687
G1 X92.299 Y131.377 E46.1751
G1 X92.299 Y130.142 E46.2404
G1 X91.064 Y130.142 E46.3056
G1 X88.299 Y127.377 E46.5121
G1 X88.299 Y126.142 E46.5773
