; G-Code generated by Simplify3D(R) Version 4.1.1
; Apr 28, 2021 at 7:48:09 PM
; Settings Summary
;   processName,Trideo BOX
;   applyToModels,forearmjoinerA,forearmjoinerB
;   profileName,Trideo BOX
;   profileVersion,2021-04-15 09:48:16
;   baseProfile,Default
;   printMaterial,PLA
;   printQuality,Fast
;   printExtruders,
;   extruderName,Primary Extruder
;   extruderToolheadNumber,0
;   extruderDiameter,0.4
;   extruderAutoWidth,1
;   extruderWidth,0.48
;   extrusionMultiplier,0.98
;   extruderUseRetract,1
;   extruderRetractionDistance,0.7
;   extruderExtraRestartDistance,0
;   extruderRetractionZLift,0
;   extruderRetractionSpeed,1500
;   extruderUseCoasting,0
;   extruderCoastingDistance,0.2
;   extruderUseWipe,0
;   extruderWipeDistance,5
;   primaryExtruder,0
;   layerHeight,0.3
;   topSolidLayers,3
;   bottomSolidLayers,3
;   perimeterOutlines,2
;   printPerimetersInsideOut,1
;   startPointOption,2
;   startPointOriginX,0
;   startPointOriginY,0
;   sequentialIslands,0
;   spiralVaseMode,0
;   firstLayerHeightPercentage,90
;   firstLayerWidthPercentage,100
;   firstLayerUnderspeed,0.5
;   useRaft,0
;   raftExtruder,0
;   raftTopLayers,3
;   raftBaseLayers,2
;   raftOffset,3
;   raftSeparationDistance,0.14
;   raftTopInfill,100
;   aboveRaftSpeedMultiplier,0.3
;   useSkirt,1
;   skirtExtruder,0
;   skirtLayers,1
;   skirtOutlines,2
;   skirtOffset,4
;   usePrimePillar,0
;   primePillarExtruder,999
;   primePillarWidth,12
;   primePillarLocation,7
;   primePillarSpeedMultiplier,1
;   useOozeShield,0
;   oozeShieldExtruder,999
;   oozeShieldOffset,2
;   oozeShieldOutlines,1
;   oozeShieldSidewallShape,1
;   oozeShieldSidewallAngle,30
;   oozeShieldSpeedMultiplier,1
;   infillExtruder,0
;   internalInfillPattern,Rectilinear
;   externalInfillPattern,Rectilinear
;   infillPercentage,15
;   outlineOverlapPercentage,15
;   infillExtrusionWidthPercentage,100
;   minInfillLength,5
;   infillLayerInterval,1
;   internalInfillAngles,45,-45
;   overlapInternalInfillAngles,0
;   externalInfillAngles,45,-45
;   generateSupport,1
;   supportExtruder,0
;   supportInfillPercentage,25
;   supportExtraInflation,0
;   supportBaseLayers,0
;   denseSupportExtruder,0
;   denseSupportLayers,0
;   denseSupportInfillPercentage,70
;   supportLayerInterval,1
;   supportHorizontalPartOffset,0.3
;   supportUpperSeparationLayers,1
;   supportLowerSeparationLayers,1
;   supportType,0
;   supportGridSpacing,4
;   maxOverhangAngle,45
;   supportAngles,0
;   temperatureName,Primary Extruder,Heated bed
;   temperatureNumber,0,0
;   temperatureSetpointCount,1,1
;   temperatureSetpointLayers,1,1
;   temperatureSetpointTemperatures,190,60
;   temperatureStabilizeAtStartup,1,1
;   temperatureHeatedBed,0,1
;   fanLayers,1,2
;   fanSpeeds,0,100
;   blipFanToFullPower,0
;   adjustSpeedForCooling,1
;   minSpeedLayerTime,15
;   minCoolingSpeedSlowdown,20
;   increaseFanForCooling,0
;   minFanLayerTime,45
;   maxCoolingFanSpeed,100
;   increaseFanForBridging,0
;   bridgingFanSpeed,100
;   use5D,1
;   relativeEdistances,0
;   allowEaxisZeroing,1
;   independentExtruderAxes,0
;   includeM10123,0
;   stickySupport,1
;   applyToolheadOffsets,0
;   gcodeXoffset,0
;   gcodeYoffset,0
;   gcodeZoffset,0
;   overrideMachineDefinition,1
;   machineTypeOverride,0
;   strokeXoverride,200
;   strokeYoverride,200
;   strokeZoverride,200
;   originOffsetXoverride,0
;   originOffsetYoverride,0
;   originOffsetZoverride,0
;   homeXdirOverride,-1
;   homeYdirOverride,-1
;   homeZdirOverride,-1
;   flipXoverride,1
;   flipYoverride,-1
;   flipZoverride,1
;   toolheadOffsets,0,0|0,0|0,0|0,0|0,0|0,0
;   overrideFirmwareConfiguration,0
;   firmwareTypeOverride,RepRap (Marlin/Repetier/Sprinter)
;   GPXconfigOverride,r2
;   baudRateOverride,115200
;   overridePrinterModels,0
;   printerModelsOverride
;   startingGcode,G28 X0 Y0; home XY,G1 X20 Y20,G28 Z0,G1 Z5 F5000; Lift NZ
;   layerChangeGcode,
;   retractionGcode,
;   toolChangeGcode,
;   endingGcode,M104 S0 ; turn off extruder,G28 X0 ; home x,M140 S0 ; turn off bed,M84 ; disable motors,M107 ;
;   exportFileFormat,gcode
;   celebration,0
;   celebrationSong,Looney Toons
;   postProcessing,
;   defaultSpeed,3600
;   outlineUnderspeed,0.5
;   solidInfillUnderspeed,0.8
;   supportUnderspeed,0.8
;   rapidXYspeed,4800
;   rapidZspeed,1002
;   minBridgingArea,50
;   bridgingExtraInflation,0
;   bridgingExtrusionMultiplier,1
;   bridgingSpeedMultiplier,1
;   useFixedBridgingAngle,0
;   fixedBridgingAngle,0
;   applyBridgingToPerimeters,0
;   filamentDiameters,1.75|1.75|1.75|1.75|1.75|1.75
;   filamentPricesPerKg,46|46|46|46|46|46
;   filamentDensities,1.25|1.25|1.25|1.25|1.25|1.25
;   useMinPrintHeight,0
;   minPrintHeight,0
;   useMaxPrintHeight,0
;   maxPrintHeight,0
;   useDiaphragm,0
;   diaphragmLayerInterval,20
;   robustSlicing,1
;   mergeAllIntoSolid,0
;   onlyRetractWhenCrossingOutline,1
;   retractBetweenLayers,1
;   useRetractionMinTravel,0
;   retractionMinTravel,3
;   retractWhileWiping,0
;   onlyWipeOutlines,1
;   avoidCrossingOutline,0
;   maxMovementDetourFactor,3
;   toolChangeRetractionDistance,12
;   toolChangeExtraRestartDistance,-0.5
;   toolChangeRetractionSpeed,600
;   externalThinWallType,0
;   internalThinWallType,2
;   thinWallAllowedOverlapPercentage,10
;   singleExtrusionMinLength,1
;   singleExtrusionMinPrintingWidthPercentage,50
;   singleExtrusionMaxPrintingWidthPercentage,200
;   singleExtrusionEndpointExtension,0.2
;   horizontalSizeCompensation,0
G90
M82
M106 S0
M140 S60
M190 S60
M104 S190 T0
M109 S190 T0
G28 X0 Y0; home XY
G1 X20 Y20
G28 Z0
G1 Z5 F5000; Lift NZ
; process Trideo BOX
; layer 1, Z = 0.270
T0
G92 E0.0000
G1 E-0.7000 F1500
; feature skirt
; tool H0.270 W0.480
G1 Z0.270 F1002
G1 X40.773 Y36.458 F4800
G1 E0.0000 F1500
G92 E0.0000
G1 X43.538 Y33.693 E0.2065 F1800
G1 X71.888 Y33.693 E1.7035
G1 X74.653 Y36.458 E1.9099
G1 X74.653 Y52.808 E2.7733
G1 X73.686 Y53.776 E2.8456
G1 X73.686 Y63.013 E3.3333
G1 X73.446 Y63.251 E3.3511
G1 X74.653 Y64.458 E3.4413
G1 X74.653 Y81.693 E4.3513
G1 X179.888 Y81.693 E9.9081
G1 X182.653 Y84.458 E10.1146
G1 X182.653 Y92.808 E10.5555
G1 X179.888 Y95.573 E10.7620
G1 X178.653 Y95.573 E10.8272
G1 X178.653 Y100.808 E11.1037
G1 X175.888 Y103.573 E11.3101
G1 X19.538 Y103.573 E19.5660
G1 X16.773 Y100.808 E19.7725
G1 X16.773 Y84.458 E20.6358
G1 X19.538 Y81.693 E20.8423
G1 X28.773 Y81.693 E21.3300
G1 X28.773 Y80.458 E21.3952
G1 X31.538 Y77.693 E21.6017
G1 X40.773 Y77.693 E22.0893
G1 X40.773 Y64.458 E22.7882
G1 X41.990 Y63.241 E22.8790
G1 X41.746 Y62.991 E22.8975
G1 X41.746 Y53.780 E23.3838
G1 X40.773 Y52.808 E23.4564
G1 X40.773 Y36.458 E24.3198
G92 E0.0000
G1 E-0.7000 F1500
G1 X41.253 Y36.657 F4800
G1 E0.0000 F1500
G92 E0.0000
G1 X43.737 Y34.173 E0.1855 F1800
G1 X71.690 Y34.173 E1.6615
G1 X74.173 Y36.657 E1.8469
G1 X74.173 Y52.609 E2.6893
G1 X73.206 Y53.577 E2.7616
G1 X73.206 Y62.814 E3.2493
G1 X72.767 Y63.250 E3.2820
G1 X74.173 Y64.657 E3.3870
G1 X74.173 Y82.173 E4.3120
G1 X171.690 Y82.173 E9.4612
G1 X171.713 Y82.197 E9.4630
G1 X171.737 Y82.173 E9.4647
G1 X179.690 Y82.173 E9.8846
G1 X182.173 Y84.657 E10.0701
G1 X182.173 Y92.609 E10.4900
G1 X179.690 Y95.093 E10.6755
G1 X178.173 Y95.093 E10.7556
G1 X178.173 Y100.609 E11.0469
G1 X175.690 Y103.093 E11.2323
G1 X19.737 Y103.093 E19.4672
G1 X17.253 Y100.609 E19.6527
G1 X17.253 Y84.657 E20.4951
G1 X19.737 Y82.173 E20.6805
G1 X29.253 Y82.173 E21.1830
G1 X29.253 Y80.657 E21.2631
G1 X31.737 Y78.173 E21.4486
G1 X41.253 Y78.173 E21.9511
G1 X41.253 Y64.657 E22.6648
G1 X42.664 Y63.246 E22.7701
G1 X42.226 Y62.796 E22.8033
G1 X42.226 Y53.582 E23.2899
G1 X41.253 Y52.609 E23.3625
G1 X41.253 Y36.657 E24.2048
G92 E0.0000
G1 E-0.7000 F1500
G1 X42.865 Y105.386 F4800
G1 E0.0000 F1500
G92 E0.0000
G1 X45.630 Y108.151 E0.2065 F1800
G1 X45.630 Y109.386 E0.2717
G1 X178.865 Y109.386 E7.3070
G1 X181.630 Y112.151 E7.5135
G1 X181.630 Y124.501 E8.1656
G1 X178.865 Y127.266 E8.3721
G1 X73.630 Y127.266 E13.9289
G1 X73.630 Y140.501 E14.6278
G1 X72.588 Y141.543 E14.7056
G1 X72.707 Y141.667 E14.7147
G1 X72.707 Y157.048 E15.5268
G1 X71.637 Y158.158 E15.6082
G1 X73.630 Y160.151 E15.7571
G1 X73.630 Y176.501 E16.6204
G1 X70.865 Y179.266 E16.8269
G1 X42.515 Y179.266 E18.3239
G1 X39.750 Y176.501 E18.5304
G1 X39.750 Y160.151 E19.3937
G1 X41.791 Y158.109 E19.5461
G1 X40.767 Y157.048 E19.6240
G1 X40.767 Y141.667 E20.4362
G1 X40.840 Y141.591 E20.4417
G1 X39.750 Y140.501 E20.5232
G1 X39.750 Y131.266 E21.0108
G1 X30.515 Y131.266 E21.4985
G1 X27.750 Y128.501 E21.7049
G1 X27.750 Y127.266 E21.7702
G1 X18.515 Y127.266 E22.2578
G1 X15.750 Y124.501 E22.4643
G1 X15.750 Y108.151 E23.3276
G1 X18.515 Y105.386 E23.5341
G1 X42.865 Y105.386 E24.8199
G92 E0.0000
G1 E-0.7000 F1500
G1 X42.666 Y105.866 F4800
G1 E0.0000 F1500
G92 E0.0000
G1 X45.150 Y108.350 E0.1855 F1800
G1 X45.150 Y109.866 E0.2655
G1 X170.666 Y109.866 E6.8933
G1 X170.690 Y109.890 E6.8950
G1 X170.714 Y109.866 E6.8968
G1 X178.666 Y109.866 E7.3167
G1 X181.150 Y112.350 E7.5022
G1 X181.150 Y124.302 E8.1334
G1 X178.666 Y126.786 E8.3188
G1 X170.714 Y126.786 E8.7388
G1 X170.690 Y126.762 E8.7405
G1 X170.666 Y126.786 E8.7423
G1 X73.150 Y126.786 E13.8915
G1 X73.150 Y140.302 E14.6052
G1 X71.916 Y141.536 E14.6974
G1 X72.227 Y141.860 E14.7211
G1 X72.227 Y156.854 E15.5128
G1 X70.964 Y158.164 E15.6089
G1 X73.150 Y160.350 E15.7721
G1 X73.150 Y176.302 E16.6145
G1 X70.666 Y178.786 E16.8000
G1 X42.714 Y178.786 E18.2760
G1 X40.230 Y176.302 E18.4614
G1 X40.230 Y160.350 E19.3038
G1 X42.464 Y158.116 E19.4706
G1 X41.247 Y156.854 E19.5632
G1 X41.247 Y141.860 E20.3549
G1 X41.512 Y141.584 E20.3751
G1 X40.230 Y140.302 E20.4708
G1 X40.230 Y130.786 E20.9733
G1 X30.714 Y130.786 E21.4758
G1 X28.230 Y128.302 E21.6613
G1 X28.230 Y126.786 E21.7414
G1 X18.714 Y126.786 E22.2439
G1 X16.230 Y124.302 E22.4293
G1 X16.230 Y108.350 E23.2717
G1 X18.714 Y105.866 E23.4572
G1 X42.666 Y105.866 E24.7219
G92 E0.0000
G1 E-0.7000 F1500
; feature inner perimeter
G1 X47.186 Y60.370 F4800
G1 E0.0000 F1500
G92 E0.0000
G1 X47.186 Y53.604 E0.3573 F1350
G1 X48.999 Y53.458 E0.4533
G1 X50.246 Y53.469 E0.5192
G1 X50.246 Y55.754 E0.6399
G1 X65.186 Y55.754 E1.4287
G1 X65.186 Y53.469 E1.5494
G1 X68.246 Y53.447 E1.7110
G1 X68.246 Y60.333 E2.0746
G1 X67.450 Y60.337 E2.1166
G1 X59.080 Y60.271 E2.5586
G1 X48.602 Y60.407 E3.1119
G1 X47.186 Y60.370 E3.1868
; feature outer perimeter
G1 X46.706 Y60.838 F4800
G92 E0.0000
G1 X46.706 Y53.161 E0.4054 F900
G1 X48.981 Y52.978 E0.5259
G1 X50.726 Y52.993 E0.6180
G1 X50.726 Y55.274 E0.7385
G1 X64.706 Y55.274 E1.4767
G1 X64.706 Y52.993 E1.5972
G1 X68.726 Y52.963 E1.8094
G1 X68.726 Y60.811 E2.2239
G1 X67.449 Y60.817 E2.2913
G1 X59.081 Y60.751 E2.7331
G1 X48.599 Y60.887 E3.2867
G1 X46.706 Y60.838 E3.3867
; feature solid layer
G1 X48.117 Y59.986 F4800
G92 E0.0000
G1 X47.594 Y59.462 E0.0391 F1440
G1 X47.594 Y58.784 E0.0750
G1 X48.806 Y59.996 E0.1655
G1 X49.476 Y59.988 E0.2009
G1 X47.594 Y58.105 E0.3415
G1 X47.594 Y57.426 E0.3773
G1 X50.147 Y59.979 E0.5680
G1 X50.817 Y59.970 E0.6034
G1 X47.594 Y56.747 E0.8441
G1 X47.594 Y56.068 E0.8799
G1 X51.487 Y59.961 E1.1706
G1 X52.157 Y59.953 E1.2060
G1 X47.594 Y55.389 E1.5468
G1 X47.594 Y54.711 E1.5827
G1 X52.827 Y59.944 E1.9735
G1 X53.497 Y59.935 E2.0089
G1 X47.594 Y54.032 E2.4497
G1 X49.468 Y53.870 F4800
G92 E0.0000
G1 X49.838 Y54.239 E0.0276 F1440
G1 X49.838 Y54.918 E0.0634
G1 X48.803 Y53.883 E0.1407
G1 X48.174 Y53.934 E0.1740
G1 X49.838 Y55.597 E0.2982
G1 X49.838 Y56.162 E0.3280
G1 X50.403 Y56.162 E0.3579
G1 X54.167 Y59.927 E0.6390
G1 X54.838 Y59.918 E0.6744
G1 X51.082 Y56.162 E0.9549
G1 X51.761 Y56.162 E0.9907
G1 X55.508 Y59.909 E1.2705
G1 X56.178 Y59.901 E1.3059
G1 X52.439 Y56.162 E1.5851
G1 X53.118 Y56.162 E1.6209
G1 X56.848 Y59.892 E1.8995
G1 X57.518 Y59.883 E1.9348
G1 X53.797 Y56.162 E2.2127
G1 X54.476 Y56.162 E2.2486
G1 X58.188 Y59.875 E2.5258
G1 X58.858 Y59.866 E2.5612
G1 X55.155 Y56.162 E2.8378
G1 X55.834 Y56.162 E2.8736
G1 X59.538 Y59.867 E3.1502
G1 X60.222 Y59.872 E3.1864
G1 X56.512 Y56.162 E3.4634
G1 X57.191 Y56.162 E3.4993
G1 X60.906 Y59.877 E3.7767
G1 X61.591 Y59.883 E3.8128
G1 X57.870 Y56.162 E4.0907
G1 X58.549 Y56.162 E4.1265
G1 X62.275 Y59.888 E4.4047
G1 X62.959 Y59.894 E4.4409
G1 X59.228 Y56.162 E4.7195
G1 X59.906 Y56.162 E4.7554
G1 X63.643 Y59.899 E5.0344
G1 X64.327 Y59.904 E5.0705
G1 X60.585 Y56.162 E5.3500
G1 X61.264 Y56.162 E5.3858
G1 X65.012 Y59.910 E5.6657
G1 X65.696 Y59.915 E5.7018
G1 X61.943 Y56.162 E5.9820
G1 X62.622 Y56.162 E6.0179
G1 X66.380 Y59.920 E6.2985
G1 X67.064 Y59.926 E6.3347
G1 X63.301 Y56.162 E6.6157
G1 X63.979 Y56.162 E6.6515
G1 X67.745 Y59.928 E6.9327
G1 X67.838 Y59.927 E6.9376
G1 X67.838 Y59.342 E6.9685
G1 X64.658 Y56.162 E7.2060
G1 X65.337 Y56.162 E7.2418
G1 X67.838 Y58.663 E7.4285
G1 X67.838 Y57.984 E7.4644
G1 X65.594 Y55.740 E7.6320
G1 X65.594 Y55.061 E7.6678
G1 X67.838 Y57.305 E7.8354
G1 X67.838 Y56.626 E7.8712
G1 X65.594 Y54.382 E8.0388
G1 X65.594 Y53.874 E8.0656
G1 X65.763 Y53.873 E8.0746
G1 X67.838 Y55.948 E8.2295
G1 X67.838 Y55.269 E8.2653
G1 X66.437 Y53.868 E8.3699
G1 X67.111 Y53.863 E8.4055
G1 X67.838 Y54.590 E8.4598
G1 X67.838 Y53.911 E8.4956
G1 X67.785 Y53.858 E8.4996
G92 E0.0000
G1 E-0.7000 F1500
; feature inner perimeter
G1 X67.267 Y144.273 F4800
G1 E0.0000 F1500
G92 E0.0000
G1 X67.267 Y154.447 E0.5372 F1350
G1 X64.207 Y154.363 E0.6989
G1 X64.207 Y153.205 E0.7600
G1 X49.267 Y153.204 E1.5489
G1 X49.267 Y154.363 E1.6101
G1 X46.207 Y154.447 E1.7718
G1 X46.207 Y144.273 E2.3090
G1 X49.267 Y144.370 E2.4706
G1 X49.267 Y145.532 E2.5320
G1 X64.207 Y145.532 E3.3209
G1 X64.207 Y144.370 E3.3822
G1 X67.267 Y144.273 E3.5439
; feature outer perimeter
G1 X67.515 Y143.785 F4800
G92 E0.0000
G1 X67.747 Y143.795 E0.0123 F900
G1 X67.747 Y154.911 E0.5993
G1 X67.291 Y154.928 E0.6234
G1 X63.727 Y154.830 E0.8116
G1 X63.727 Y153.685 E0.8721
G1 X49.747 Y153.684 E1.6103
G1 X49.747 Y154.830 E1.6708
G1 X46.184 Y154.928 E1.8591
G1 X45.727 Y154.911 E1.8832
G1 X45.727 Y143.795 E2.4702
G1 X45.960 Y143.785 E2.4824
G1 X49.747 Y143.905 E2.6825
G1 X49.747 Y145.052 E2.7431
G1 X63.727 Y145.052 E3.4813
G1 X63.727 Y143.905 E3.5418
G1 X67.515 Y143.785 E3.7420
; feature solid layer
G1 X66.318 Y144.712 F4800
G92 E0.0000
G1 X66.859 Y145.253 E0.0404 F1440
G1 X66.859 Y145.932 E0.0763
G1 X65.660 Y144.732 E0.1658
G1 X65.002 Y144.753 E0.2006
G1 X66.859 Y146.610 E0.3392
G1 X66.859 Y147.289 E0.3751
G1 X64.615 Y145.045 E0.5427
G1 X64.615 Y145.724 E0.5785
G1 X66.859 Y147.968 E0.7461
G1 X66.859 Y148.647 E0.7819
G1 X64.153 Y145.940 E0.9840
G1 X63.474 Y145.940 E1.0199
G1 X66.859 Y149.326 E1.2727
G1 X66.859 Y150.004 E1.3085
G1 X62.795 Y145.940 E1.6120
G1 X62.116 Y145.940 E1.6479
G1 X66.859 Y150.683 E2.0021
G1 X66.859 Y151.362 E2.0379
G1 X61.437 Y145.940 E2.4428
G1 X60.759 Y145.940 E2.4787
G1 X66.859 Y152.041 E2.9342
G1 X66.859 Y152.720 E2.9701
G1 X60.080 Y145.940 E3.4764
G1 X59.401 Y145.940 E3.5122
G1 X66.859 Y153.399 E4.0692
G1 X66.859 Y154.028 E4.1024
G1 X66.808 Y154.026 E4.1051
G1 X58.722 Y145.940 E4.7089
G1 X58.043 Y145.940 E4.7448
G1 X66.110 Y154.007 E5.3472
G1 X65.412 Y153.988 E5.3840
G1 X64.615 Y153.191 E5.4436
G1 X64.615 Y152.797 E5.4644
G1 X64.221 Y152.797 E5.4852
G1 X57.364 Y145.940 E5.9972
G1 X56.686 Y145.940 E6.0331
G1 X63.542 Y152.797 E6.5451
G1 X62.863 Y152.797 E6.5809
G1 X56.007 Y145.940 E7.0929
G1 X55.328 Y145.940 E7.1288
G1 X62.184 Y152.797 E7.6408
G1 X61.506 Y152.796 E7.6766
G1 X54.649 Y145.940 E8.1886
G1 X53.970 Y145.940 E8.2245
G1 X60.827 Y152.796 E8.7365
G1 X60.148 Y152.796 E8.7723
G1 X53.291 Y145.940 E9.2844
G1 X52.613 Y145.940 E9.3202
G1 X59.469 Y152.796 E9.8322
G1 X58.790 Y152.796 E9.8680
G1 X51.934 Y145.940 E10.3801
G1 X51.255 Y145.940 E10.4159
G1 X58.111 Y152.796 E10.9279
G1 X57.433 Y152.796 E10.9638
G1 X50.576 Y145.940 E11.4758
G1 X49.897 Y145.940 E11.5116
G1 X56.754 Y152.796 E12.0236
G1 X56.075 Y152.796 E12.0595
G1 X49.218 Y145.940 E12.5715
G1 X48.859 Y145.940 E12.5904
G1 X48.859 Y145.581 E12.6094
G1 X48.017 Y144.739 E12.6723
G1 X48.718 Y144.761 E12.7093
G1 X48.859 Y144.902 E12.7198
G1 X47.316 Y144.717 F4800
G92 E0.0000
G1 X55.396 Y152.796 E0.6034 F1440
