; G-Code generated by Simplify3D(R) Version 4.1.1
; Apr 25, 2021 at 7:32:51 PM
; Settings Summary
;   processName,Trideo BOX
;   applyToModels,Left Fingers
;   profileName,Trideo BOX
;   profileVersion,2021-04-15 09:48:16
;   baseProfile,Default
;   printMaterial,PLA
;   printQuality,Fast
;   printExtruders,
;   extruderName,Primary Extruder
;   extruderToolheadNumber,0
;   extruderDiameter,0.4
;   extruderAutoWidth,1
;   extruderWidth,0.48
;   extrusionMultiplier,0.98
;   extruderUseRetract,1
;   extruderRetractionDistance,0.7
;   extruderExtraRestartDistance,0
;   extruderRetractionZLift,0
;   extruderRetractionSpeed,1500
;   extruderUseCoasting,0
;   extruderCoastingDistance,0.2
;   extruderUseWipe,0
;   extruderWipeDistance,5
;   primaryExtruder,0
;   layerHeight,0.3
;   topSolidLayers,3
;   bottomSolidLayers,3
;   perimeterOutlines,2
;   printPerimetersInsideOut,1
;   startPointOption,2
;   startPointOriginX,0
;   startPointOriginY,0
;   sequentialIslands,0
;   spiralVaseMode,0
;   firstLayerHeightPercentage,90
;   firstLayerWidthPercentage,100
;   firstLayerUnderspeed,0.5
;   useRaft,0
;   raftExtruder,0
;   raftTopLayers,3
;   raftBaseLayers,2
;   raftOffset,3
;   raftSeparationDistance,0.14
;   raftTopInfill,100
;   aboveRaftSpeedMultiplier,0.3
;   useSkirt,1
;   skirtExtruder,0
;   skirtLayers,1
;   skirtOutlines,2
;   skirtOffset,4
;   usePrimePillar,0
;   primePillarExtruder,999
;   primePillarWidth,12
;   primePillarLocation,7
;   primePillarSpeedMultiplier,1
;   useOozeShield,0
;   oozeShieldExtruder,999
;   oozeShieldOffset,2
;   oozeShieldOutlines,1
;   oozeShieldSidewallShape,1
;   oozeShieldSidewallAngle,30
;   oozeShieldSpeedMultiplier,1
;   infillExtruder,0
;   internalInfillPattern,Rectilinear
;   externalInfillPattern,Rectilinear
;   infillPercentage,15
;   outlineOverlapPercentage,15
;   infillExtrusionWidthPercentage,100
;   minInfillLength,5
;   infillLayerInterval,1
;   internalInfillAngles,45,-45
;   overlapInternalInfillAngles,0
;   externalInfillAngles,45,-45
;   generateSupport,1
;   supportExtruder,0
;   supportInfillPercentage,25
;   supportExtraInflation,0
;   supportBaseLayers,0
;   denseSupportExtruder,0
;   denseSupportLayers,0
;   denseSupportInfillPercentage,70
;   supportLayerInterval,1
;   supportHorizontalPartOffset,0.3
;   supportUpperSeparationLayers,1
;   supportLowerSeparationLayers,1
;   supportType,0
;   supportGridSpacing,4
;   maxOverhangAngle,45
;   supportAngles,0
;   temperatureName,Primary Extruder,Heated bed
;   temperatureNumber,0,0
;   temperatureSetpointCount,1,1
;   temperatureSetpointLayers,1,1
;   temperatureSetpointTemperatures,190,60
;   temperatureStabilizeAtStartup,1,1
;   temperatureHeatedBed,0,1
;   fanLayers,1,2
;   fanSpeeds,0,100
;   blipFanToFullPower,0
;   adjustSpeedForCooling,1
;   minSpeedLayerTime,15
;   minCoolingSpeedSlowdown,20
;   increaseFanForCooling,0
;   minFanLayerTime,45
;   maxCoolingFanSpeed,100
;   increaseFanForBridging,0
;   bridgingFanSpeed,100
;   use5D,1
;   relativeEdistances,0
;   allowEaxisZeroing,1
;   independentExtruderAxes,0
;   includeM10123,0
;   stickySupport,1
;   applyToolheadOffsets,0
;   gcodeXoffset,0
;   gcodeYoffset,0
;   gcodeZoffset,0
;   overrideMachineDefinition,1
;   machineTypeOverride,0
;   strokeXoverride,200
;   strokeYoverride,200
;   strokeZoverride,200
;   originOffsetXoverride,0
;   originOffsetYoverride,0
;   originOffsetZoverride,0
;   homeXdirOverride,-1
;   homeYdirOverride,-1
;   homeZdirOverride,-1
;   flipXoverride,1
;   flipYoverride,-1
;   flipZoverride,1
;   toolheadOffsets,0,0|0,0|0,0|0,0|0,0|0,0
;   overrideFirmwareConfiguration,0
;   firmwareTypeOverride,RepRap (Marlin/Repetier/Sprinter)
;   GPXconfigOverride,r2
;   baudRateOverride,115200
;   overridePrinterModels,0
;   printerModelsOverride
;   startingGcode,G28 X0 Y0; home XY,G1 X20 Y20,G28 Z0,G1 Z5 F5000; Lift NZ
;   layerChangeGcode,
;   retractionGcode,
;   toolChangeGcode,
;   endingGcode,M104 S0 ; turn off extruder,G28 X0 ; home x,M140 S0 ; turn off bed,M84 ; disable motors,M107 ;
;   exportFileFormat,gcode
;   celebration,0
;   celebrationSong,Looney Toons
;   postProcessing,
;   defaultSpeed,3600
;   outlineUnderspeed,0.5
;   solidInfillUnderspeed,0.8
;   supportUnderspeed,0.8
;   rapidXYspeed,4800
;   rapidZspeed,1002
;   minBridgingArea,50
;   bridgingExtraInflation,0
;   bridgingExtrusionMultiplier,1
;   bridgingSpeedMultiplier,1
;   useFixedBridgingAngle,0
;   fixedBridgingAngle,0
;   applyBridgingToPerimeters,0
;   filamentDiameters,1.75|1.75|1.75|1.75|1.75|1.75
;   filamentPricesPerKg,46|46|46|46|46|46
;   filamentDensities,1.25|1.25|1.25|1.25|1.25|1.25
;   useMinPrintHeight,0
;   minPrintHeight,0
;   useMaxPrintHeight,0
;   maxPrintHeight,0
;   useDiaphragm,0
;   diaphragmLayerInterval,20
;   robustSlicing,1
;   mergeAllIntoSolid,0
;   onlyRetractWhenCrossingOutline,1
;   retractBetweenLayers,1
;   useRetractionMinTravel,0
;   retractionMinTravel,3
;   retractWhileWiping,0
;   onlyWipeOutlines,1
;   avoidCrossingOutline,0
;   maxMovementDetourFactor,3
;   toolChangeRetractionDistance,12
;   toolChangeExtraRestartDistance,-0.5
;   toolChangeRetractionSpeed,600
;   externalThinWallType,0
;   internalThinWallType,2
;   thinWallAllowedOverlapPercentage,10
;   singleExtrusionMinLength,1
;   singleExtrusionMinPrintingWidthPercentage,50
;   singleExtrusionMaxPrintingWidthPercentage,200
;   singleExtrusionEndpointExtension,0.2
;   horizontalSizeCompensation,0
G90
M82
M106 S0
M140 S60
M190 S60
M104 S190 T0
M109 S190 T0
G28 X0 Y0; home XY
G1 X20 Y20
G28 Z0
G1 Z5 F5000; Lift NZ
; process Trideo BOX
; layer 1, Z = 0.270
T0
G92 E0.0000
G1 E-0.7000 F1500
; feature skirt
; tool H0.270 W0.480
G1 Z0.270 F1002
G1 X59.060 Y59.825 F4800
G1 E0.0000 F1500
G92 E0.0000
G1 X61.825 Y57.060 E0.2065 F1800
G1 X63.060 Y57.060 E0.2717
G1 X63.060 Y55.825 E0.3369
G1 X65.825 Y53.060 E0.5434
G1 X74.175 Y53.060 E0.9843
G1 X76.940 Y55.825 E1.1908
G1 X76.940 Y57.060 E1.2560
G1 X79.060 Y57.060 E1.3679
G1 X79.060 Y55.825 E1.4331
G1 X81.825 Y53.060 E1.6396
G1 X130.175 Y53.060 E4.1927
G1 X132.940 Y55.825 E4.3992
G1 X132.940 Y72.175 E5.2625
G1 X130.175 Y74.940 E5.4690
G1 X104.940 Y74.940 E6.8015
G1 X104.940 Y76.175 E6.8667
G1 X104.055 Y77.060 E6.9328
G1 X130.175 Y77.060 E8.3120
G1 X131.850 Y78.734 E8.4371
G1 X133.018 Y78.341 E8.5022
G1 X135.766 Y79.075 E8.6524
G1 X137.279 Y80.783 E8.7729
G1 X137.817 Y81.821 E8.8346
G1 X138.162 Y83.283 E8.9139
G1 X138.225 Y83.826 E8.9428
G1 X138.225 Y92.774 E9.4153
G1 X138.162 Y93.317 E9.4442
G1 X137.817 Y94.779 E9.5234
G1 X137.279 Y95.817 E9.5852
G1 X135.766 Y97.525 E9.7057
G1 X133.018 Y98.259 E9.8559
G1 X131.401 Y97.715 E9.9460
G1 X130.175 Y98.940 E10.0375
G1 X100.940 Y98.940 E11.5812
G1 X100.940 Y101.060 E11.6932
G1 X130.175 Y101.060 E13.2369
G1 X132.940 Y103.825 E13.4434
G1 X132.940 Y120.175 E14.3067
G1 X130.175 Y122.940 E14.5132
G1 X100.940 Y122.940 E16.0569
G1 X100.940 Y125.060 E16.1689
G1 X122.175 Y125.060 E17.2901
G1 X124.940 Y127.825 E17.4966
G1 X124.940 Y144.175 E18.3600
G1 X122.175 Y146.940 E18.5664
G1 X81.825 Y146.940 E20.6971
G1 X80.000 Y145.115 E20.8334
G1 X78.175 Y146.940 E20.9696
G1 X65.825 Y146.940 E21.6218
G1 X63.060 Y144.175 E21.8282
G1 X63.060 Y142.940 E21.8935
G1 X61.825 Y142.940 E21.9587
G1 X59.060 Y140.175 E22.1652
G1 X59.060 Y127.825 E22.8173
G1 X61.825 Y125.060 E23.0238
G1 X75.060 Y125.060 E23.7226
G1 X75.060 Y122.940 E23.8346
G1 X65.825 Y122.940 E24.3222
G1 X63.060 Y120.175 E24.5287
G1 X63.060 Y103.825 E25.3920
G1 X65.825 Y101.060 E25.5985
G1 X78.175 Y101.060 E26.2506
G1 X79.060 Y101.945 E26.3167
G1 X79.060 Y98.055 E26.5221
G1 X78.175 Y98.940 E26.5882
G1 X65.825 Y98.940 E27.2403
G1 X63.060 Y96.175 E27.4468
G1 X63.060 Y79.825 E28.3102
G1 X65.825 Y77.060 E28.5166
G1 X75.060 Y77.060 E29.0043
G1 X75.060 Y74.940 E29.1162
G1 X65.825 Y74.940 E29.6039
G1 X63.060 Y72.175 E29.8103
G1 X63.060 Y70.940 E29.8756
G1 X61.825 Y70.940 E29.9408
G1 X59.060 Y68.175 E30.1473
G1 X59.060 Y59.825 E30.5882
G92 E0.0000
G1 E-0.7000 F1500
G1 X59.540 Y60.024 F4800
G1 E0.0000 F1500
G92 E0.0000
G1 X62.024 Y57.540 E0.1855 F1800
G1 X63.540 Y57.540 E0.2655
G1 X63.540 Y56.024 E0.3456
G1 X66.024 Y53.540 E0.5311
G1 X73.976 Y53.540 E0.9510
G1 X76.460 Y56.024 E1.1365
G1 X76.460 Y57.540 E1.2165
G1 X79.540 Y57.540 E1.3792
G1 X79.540 Y56.024 E1.4592
G1 X82.024 Y53.540 E1.6447
G1 X129.976 Y53.540 E4.1768
G1 X132.460 Y56.024 E4.3623
G1 X132.460 Y71.976 E5.2046
G1 X129.976 Y74.460 E5.3901
G1 X104.460 Y74.460 E6.7375
G1 X104.460 Y75.976 E6.8175
G1 X102.896 Y77.540 E6.9343
G1 X129.976 Y77.540 E8.3642
G1 X131.721 Y79.284 E8.4945
G1 X133.034 Y78.842 E8.5677
G1 X135.503 Y79.501 E8.7026
G1 X136.880 Y81.057 E8.8123
G1 X137.364 Y81.989 E8.8678
G1 X137.688 Y83.366 E8.9424
G1 X137.745 Y83.854 E8.9684
G1 X137.745 Y92.746 E9.4379
G1 X137.688 Y93.234 E9.4639
G1 X137.364 Y94.611 E9.5385
G1 X136.880 Y95.543 E9.5940
G1 X135.503 Y97.099 E9.7037
G1 X133.034 Y97.758 E9.8386
G1 X131.272 Y97.165 E9.9368
G1 X129.976 Y98.460 E10.0336
G1 X100.460 Y98.460 E11.5921
G1 X100.460 Y101.540 E11.7548
G1 X129.976 Y101.540 E13.3133
G1 X132.460 Y104.024 E13.4988
G1 X132.460 Y119.976 E14.3412
G1 X129.976 Y122.460 E14.5266
G1 X100.460 Y122.460 E16.0852
G1 X100.460 Y125.540 E16.2479
G1 X121.976 Y125.540 E17.3840
G1 X124.460 Y128.024 E17.5695
G1 X124.460 Y143.976 E18.4118
G1 X121.976 Y146.460 E18.5973
G1 X82.024 Y146.460 E20.7069
G1 X80.000 Y144.436 E20.8581
G1 X77.976 Y146.460 E21.0092
G1 X66.024 Y146.460 E21.6403
G1 X63.540 Y143.976 E21.8258
G1 X63.540 Y142.460 E21.9059
G1 X62.024 Y142.460 E21.9859
G1 X59.540 Y139.976 E22.1714
G1 X59.540 Y128.024 E22.8026
G1 X62.024 Y125.540 E22.9880
G1 X75.540 Y125.540 E23.7017
G1 X75.540 Y122.460 E23.8644
G1 X66.024 Y122.460 E24.3669
G1 X63.540 Y119.976 E24.5523
G1 X63.540 Y104.024 E25.3947
G1 X66.024 Y101.540 E25.5802
G1 X77.976 Y101.540 E26.2113
G1 X79.540 Y103.104 E26.3281
G1 X79.540 Y96.896 E26.6559
G1 X77.976 Y98.460 E26.7726
G1 X66.024 Y98.460 E27.4038
G1 X63.540 Y95.976 E27.5892
G1 X63.540 Y80.024 E28.4316
G1 X66.024 Y77.540 E28.6171
G1 X75.540 Y77.540 E29.1196
G1 X75.540 Y74.460 E29.2822
G1 X66.024 Y74.460 E29.7847
G1 X63.540 Y71.976 E29.9702
G1 X63.540 Y70.460 E30.0502
G1 X62.024 Y70.460 E30.1303
G1 X59.540 Y67.976 E30.3158
G1 X59.540 Y60.024 E30.7357
G92 E0.0000
G1 E-0.7000 F1500
; feature outer perimeter
G1 X132.098 Y84.198 F4800
G1 E0.0000 F1500
G92 E0.0000
G1 X132.556 Y83.730 E0.0346 F900
G1 X133.101 Y83.546 E0.0649
G1 X133.138 Y83.588 E0.0679
G1 X133.265 Y84.128 E0.0972
G1 X133.265 Y92.472 E0.5378
G1 X133.138 Y93.012 E0.5671
G1 X133.101 Y93.053 E0.5700
G1 X132.556 Y92.870 E0.6004
G1 X132.098 Y92.402 E0.6349
G1 X132.098 Y84.198 E1.0681
; feature gap fill
G1 X132.533 Y84.337 F4800
G92 E0.0000
G1 X132.857 Y84.661 E0.0242 F1800
G1 X132.857 Y85.340 E0.0600
G1 X132.506 Y84.988 E0.0863
G1 X132.506 Y85.667 E0.1221
G1 X132.857 Y86.018 E0.1483
G1 X132.857 Y86.697 E0.1842
G1 X132.506 Y86.346 E0.2104
G1 X132.506 Y87.025 E0.2463
G1 X132.857 Y87.376 E0.2725
G1 X132.857 Y88.055 E0.3083
G1 X132.506 Y87.704 E0.3346
G1 X132.506 Y88.382 E0.3704
G1 X132.857 Y88.734 E0.3966
G1 X132.857 Y89.412 E0.4325
G1 X132.506 Y89.061 E0.4587
G1 X132.506 Y89.740 E0.4945
G1 X132.857 Y90.091 E0.5208
G1 X132.857 Y90.770 E0.5566
G1 X132.506 Y90.419 E0.5828
G1 X132.506 Y91.098 E0.6187
G1 X132.857 Y91.449 E0.6449
G1 X132.857 Y92.128 E0.6807
G1 X132.506 Y91.777 E0.7070
G92 E0.0000
G1 E-0.7000 F1500
; feature support
G1 X92.030 Y94.240 F4800
G1 E0.0000 F1500
G92 E0.0000
G1 X95.970 Y94.240 E0.2080 F1440
G1 X95.970 Y96.160 E0.3094
G1 X92.030 Y96.160 E0.5175
G1 X92.030 Y98.080 E0.6189
G1 X95.970 Y98.080 E0.8269
G1 X95.970 Y100.000 E0.9283
G1 X92.030 Y100.000 E1.1363
G1 X92.030 Y101.920 E1.2377
G1 X95.970 Y101.920 E1.4458
G1 X95.970 Y103.840 E1.5472
G1 X92.030 Y103.840 E1.7552
G92 E0.0000
G1 E-0.7000 F1500
G1 X92.030 Y121.120 F4800
G1 E0.0000 F1500
G92 E0.0000
G1 X95.970 Y121.120 E0.2080 F1440
G1 X95.970 Y123.040 E0.3094
G1 X92.030 Y123.040 E0.5175
G1 X92.030 Y124.960 E0.6189
G1 X95.970 Y124.960 E0.8269
G1 X95.970 Y126.880 E0.9283
G1 X88.030 Y126.880 E1.3476
G1 X88.030 Y128.800 E1.4489
G1 X95.970 Y128.800 E1.8682
G1 X95.970 Y130.030 E1.9331
G1 X119.970 Y130.030 E3.2004
G1 X119.970 Y130.720 E3.2369
G1 X77.505 Y130.720 E5.4792
G1 X77.505 Y130.360 E5.4982
G1 X76.209 Y130.360 E5.5666
G1 X76.209 Y130.720 E5.5856
G1 X64.030 Y130.720 E6.2287
G1 X64.030 Y132.640 E6.3301
G1 X76.209 Y132.640 E6.9732
G1 X76.208 Y134.560 E7.0746
G1 X64.030 Y134.560 E7.7176
G1 X64.030 Y136.480 E7.8190
G1 X76.208 Y136.480 E8.4621
G1 X76.208 Y136.840 E8.4811
G1 X77.505 Y136.840 E8.5496
G1 X77.505 Y136.480 E8.5686
G1 X119.970 Y136.480 E10.8109
G1 X119.970 Y138.400 E10.9123
G1 X84.030 Y138.400 E12.8100
G1 X84.030 Y137.970 E12.8328
G1 X75.970 Y137.970 E13.2584
G1 X75.970 Y138.400 E13.2811
G1 X68.030 Y138.400 E13.7003
G1 X68.030 Y140.320 E13.8017
G1 X75.970 Y140.320 E14.2210
G92 E0.0000
G1 E-0.7000 F1500
G1 X77.505 Y134.560 F4800
G1 E0.0000 F1500
G92 E0.0000
G1 X119.970 Y134.560 E2.2423 F1440
G1 X119.970 Y132.640 E2.3437
G1 X77.505 Y132.640 E4.5860
G92 E0.0000
G1 E-0.7000 F1500
G1 X84.030 Y140.320 F4800
G1 E0.0000 F1500
G92 E0.0000
G1 X119.970 Y140.320 E1.8978 F1440
G92 E0.0000
G1 E-0.7000 F1500
G1 X87.970 Y124.960 F4800
G1 E0.0000 F1500
G92 E0.0000
G1 X80.030 Y124.960 E0.4193 F1440
G1 X80.030 Y123.040 E0.5206
G1 X87.970 Y123.040 E0.9399
G1 X87.970 Y121.120 E1.0413
G1 X80.030 Y121.120 E1.4606
G1 X80.030 Y119.200 E1.5619
G1 X87.970 Y119.200 E1.9812
G1 X87.970 Y117.970 E2.0461
G1 X92.030 Y117.970 E2.2605
G1 X92.030 Y119.200 E2.3255
G1 X95.970 Y119.200 E2.5335
G1 X95.970 Y117.970 E2.5985
G1 X127.970 Y117.970 E4.2882
G1 X127.970 Y117.280 E4.3246
G1 X84.030 Y117.280 E6.6448
G1 X84.030 Y115.360 E6.7462
G1 X127.970 Y115.360 E9.0664
G1 X127.970 Y113.440 E9.1678
G1 X84.030 Y113.440 E11.4880
G1 X84.030 Y111.520 E11.5894
G1 X127.970 Y111.520 E13.9096
G1 X127.970 Y109.600 E14.0110
G1 X84.030 Y109.600 E16.3312
G1 X84.030 Y107.680 E16.4325
G1 X127.970 Y107.680 E18.7527
G1 X127.970 Y106.030 E18.8399
G1 X95.970 Y106.030 E20.5296
G1 X95.970 Y105.760 E20.5438
G1 X92.030 Y105.760 E20.7519
G1 X92.030 Y106.030 E20.7661
G1 X87.970 Y106.030 E20.9805
G1 X87.970 Y105.760 E20.9948
G1 X84.030 Y105.760 E21.2028
G1 X84.030 Y103.840 E21.3042
G1 X87.970 Y103.840 E21.5123
G1 X87.970 Y101.920 E21.6136
G1 X84.030 Y101.920 E21.8217
G1 X84.030 Y100.000 E21.9231
G1 X87.970 Y100.000 E22.1311
G1 X87.970 Y98.080 E22.2325
G1 X84.030 Y98.080 E22.4406
G1 X84.030 Y96.160 E22.5419
G1 X87.970 Y96.160 E22.7500
G1 X87.970 Y94.240 E22.8514
G1 X84.030 Y94.240 E23.0594
G1 X84.030 Y92.320 E23.1608
G1 X127.970 Y92.320 E25.4810
G1 X127.970 Y90.400 E25.5824
G1 X84.030 Y90.400 E27.9026
G1 X84.030 Y88.480 E28.0040
G1 X127.970 Y88.480 E30.3242
G1 X127.970 Y86.560 E30.4255
G1 X84.030 Y86.560 E32.7457
G1 X84.030 Y84.640 E32.8471
G1 X127.970 Y84.640 E35.1673
G1 X127.970 Y82.720 E35.2687
G1 X84.030 Y82.720 E37.5889
G92 E0.0000
G1 E-0.7000 F1500
G1 X87.970 Y75.040 F4800
G1 E0.0000 F1500
G92 E0.0000
G1 X80.030 Y75.040 E0.4193 F1440
G1 X80.030 Y76.960 E0.5206
G1 X87.970 Y76.960 E0.9399
G1 X87.970 Y78.880 E1.0413
G1 X80.030 Y78.880 E1.4606
G1 X80.030 Y80.800 E1.5619
G1 X87.970 Y80.800 E1.9812
G1 X87.970 Y82.030 E2.0461
G1 X92.030 Y82.030 E2.2605
G1 X92.030 Y80.800 E2.3255
G1 X95.970 Y80.800 E2.5335
G1 X95.970 Y78.880 E2.6349
G1 X92.030 Y78.880 E2.8430
G1 X92.030 Y76.960 E2.9443
G1 X95.970 Y76.960 E3.1524
G1 X95.970 Y75.040 E3.2538
G1 X92.030 Y75.040 E3.4618
G1 X92.030 Y73.970 E3.5183
G1 X88.030 Y73.970 E3.7295
G1 X88.030 Y73.120 E3.7744
G1 X99.970 Y73.120 E4.4049
G1 X99.970 Y71.200 E4.5063
G1 X88.030 Y71.200 E5.1368
G1 X88.030 Y69.970 E5.2017
G1 X84.030 Y69.970 E5.4129
G1 X84.030 Y69.280 E5.4493
G1 X127.970 Y69.280 E7.7695
G1 X127.970 Y67.360 E7.8709
G1 X84.030 Y67.360 E10.1911
G1 X84.030 Y65.970 E10.2645
G1 X77.505 Y65.970 E10.6091
G1 X77.505 Y65.440 E10.6371
G1 X127.970 Y65.440 E13.3018
G1 X127.970 Y63.520 E13.4032
G1 X77.505 Y63.520 E16.0680
G1 X77.505 Y62.030 E16.1466
G1 X84.030 Y62.030 E16.4912
G1 X84.030 Y61.600 E16.5139
