; G-Code generated by Simplify3D(R) Version 4.1.1
; Apr 25, 2021 at 7:32:16 PM
; Settings Summary
;   processName,Trideo BOX
;   applyToModels,Left Fingers
;   profileName,Trideo BOX
;   profileVersion,2021-04-15 09:48:16
;   baseProfile,Default
;   printMaterial,PLA
;   printQuality,Fast
;   printExtruders,
;   extruderName,Primary Extruder
;   extruderToolheadNumber,0
;   extruderDiameter,0.4
;   extruderAutoWidth,1
;   extruderWidth,0.48
;   extrusionMultiplier,0.98
;   extruderUseRetract,1
;   extruderRetractionDistance,0.7
;   extruderExtraRestartDistance,0
;   extruderRetractionZLift,0
;   extruderRetractionSpeed,1500
;   extruderUseCoasting,0
;   extruderCoastingDistance,0.2
;   extruderUseWipe,0
;   extruderWipeDistance,5
;   primaryExtruder,0
;   layerHeight,0.3
;   topSolidLayers,3
;   bottomSolidLayers,3
;   perimeterOutlines,2
;   printPerimetersInsideOut,1
;   startPointOption,2
;   startPointOriginX,0
;   startPointOriginY,0
;   sequentialIslands,0
;   spiralVaseMode,0
;   firstLayerHeightPercentage,90
;   firstLayerWidthPercentage,100
;   firstLayerUnderspeed,0.5
;   useRaft,0
;   raftExtruder,0
;   raftTopLayers,3
;   raftBaseLayers,2
;   raftOffset,3
;   raftSeparationDistance,0.14
;   raftTopInfill,100
;   aboveRaftSpeedMultiplier,0.3
;   useSkirt,1
;   skirtExtruder,0
;   skirtLayers,1
;   skirtOutlines,2
;   skirtOffset,4
;   usePrimePillar,0
;   primePillarExtruder,999
;   primePillarWidth,12
;   primePillarLocation,7
;   primePillarSpeedMultiplier,1
;   useOozeShield,0
;   oozeShieldExtruder,999
;   oozeShieldOffset,2
;   oozeShieldOutlines,1
;   oozeShieldSidewallShape,1
;   oozeShieldSidewallAngle,30
;   oozeShieldSpeedMultiplier,1
;   infillExtruder,0
;   internalInfillPattern,Rectilinear
;   externalInfillPattern,Rectilinear
;   infillPercentage,15
;   outlineOverlapPercentage,15
;   infillExtrusionWidthPercentage,100
;   minInfillLength,5
;   infillLayerInterval,1
;   internalInfillAngles,45,-45
;   overlapInternalInfillAngles,0
;   externalInfillAngles,45,-45
;   generateSupport,1
;   supportExtruder,0
;   supportInfillPercentage,25
;   supportExtraInflation,0
;   supportBaseLayers,0
;   denseSupportExtruder,0
;   denseSupportLayers,0
;   denseSupportInfillPercentage,70
;   supportLayerInterval,1
;   supportHorizontalPartOffset,0.3
;   supportUpperSeparationLayers,1
;   supportLowerSeparationLayers,1
;   supportType,0
;   supportGridSpacing,4
;   maxOverhangAngle,45
;   supportAngles,0
;   temperatureName,Primary Extruder,Heated bed
;   temperatureNumber,0,0
;   temperatureSetpointCount,1,1
;   temperatureSetpointLayers,1,1
;   temperatureSetpointTemperatures,190,60
;   temperatureStabilizeAtStartup,1,1
;   temperatureHeatedBed,0,1
;   fanLayers,1,2
;   fanSpeeds,0,100
;   blipFanToFullPower,0
;   adjustSpeedForCooling,1
;   minSpeedLayerTime,15
;   minCoolingSpeedSlowdown,20
;   increaseFanForCooling,0
;   minFanLayerTime,45
;   maxCoolingFanSpeed,100
;   increaseFanForBridging,0
;   bridgingFanSpeed,100
;   use5D,1
;   relativeEdistances,0
;   allowEaxisZeroing,1
;   independentExtruderAxes,0
;   includeM10123,0
;   stickySupport,1
;   applyToolheadOffsets,0
;   gcodeXoffset,0
;   gcodeYoffset,0
;   gcodeZoffset,0
;   overrideMachineDefinition,1
;   machineTypeOverride,0
;   strokeXoverride,200
;   strokeYoverride,200
;   strokeZoverride,200
;   originOffsetXoverride,0
;   originOffsetYoverride,0
;   originOffsetZoverride,0
;   homeXdirOverride,-1
;   homeYdirOverride,-1
;   homeZdirOverride,-1
;   flipXoverride,1
;   flipYoverride,-1
;   flipZoverride,1
;   toolheadOffsets,0,0|0,0|0,0|0,0|0,0|0,0
;   overrideFirmwareConfiguration,0
;   firmwareTypeOverride,RepRap (Marlin/Repetier/Sprinter)
;   GPXconfigOverride,r2
;   baudRateOverride,115200
;   overridePrinterModels,0
;   printerModelsOverride
;   startingGcode,G28 X0 Y0; home XY,G1 X20 Y20,G28 Z0,G1 Z5 F5000; Lift NZ
;   layerChangeGcode,
;   retractionGcode,
;   toolChangeGcode,
;   endingGcode,M104 S0 ; turn off extruder,G28 X0 ; home x,M140 S0 ; turn off bed,M84 ; disable motors,M107 ;
;   exportFileFormat,gcode
;   celebration,0
;   celebrationSong,Looney Toons
;   postProcessing,
;   defaultSpeed,3600
;   outlineUnderspeed,0.5
;   solidInfillUnderspeed,0.8
;   supportUnderspeed,0.8
;   rapidXYspeed,4800
;   rapidZspeed,1002
;   minBridgingArea,50
;   bridgingExtraInflation,0
;   bridgingExtrusionMultiplier,1
;   bridgingSpeedMultiplier,1
;   useFixedBridgingAngle,0
;   fixedBridgingAngle,0
;   applyBridgingToPerimeters,0
;   filamentDiameters,1.75|1.75|1.75|1.75|1.75|1.75
;   filamentPricesPerKg,46|46|46|46|46|46
;   filamentDensities,1.25|1.25|1.25|1.25|1.25|1.25
;   useMinPrintHeight,0
;   minPrintHeight,0
;   useMaxPrintHeight,0
;   maxPrintHeight,0
;   useDiaphragm,0
;   diaphragmLayerInterval,20
;   robustSlicing,1
;   mergeAllIntoSolid,0
;   onlyRetractWhenCrossingOutline,1
;   retractBetweenLayers,1
;   useRetractionMinTravel,0
;   retractionMinTravel,3
;   retractWhileWiping,0
;   onlyWipeOutlines,1
;   avoidCrossingOutline,0
;   maxMovementDetourFactor,3
;   toolChangeRetractionDistance,12
;   toolChangeExtraRestartDistance,-0.5
;   toolChangeRetractionSpeed,600
;   externalThinWallType,0
;   internalThinWallType,2
;   thinWallAllowedOverlapPercentage,10
;   singleExtrusionMinLength,1
;   singleExtrusionMinPrintingWidthPercentage,50
;   singleExtrusionMaxPrintingWidthPercentage,200
;   singleExtrusionEndpointExtension,0.2
;   horizontalSizeCompensation,0
G90
M82
M106 S0
M140 S60
M190 S60
M104 S190 T0
M109 S190 T0
G28 X0 Y0; home XY
G1 X20 Y20
G28 Z0
G1 Z5 F5000; Lift NZ
; process Trideo BOX
; layer 1, Z = 0.270
T0
G92 E0.0000
G1 E-0.7000 F1500
; feature skirt
; tool H0.270 W0.480
G1 Z0.270 F1002
G1 X69.060 Y67.825 F4800
G1 E0.0000 F1500
G92 E0.0000
G1 X71.825 Y65.060 E0.2065 F1800
G1 X124.175 Y65.060 E2.9708
G1 X126.940 Y67.825 E3.1772
G1 X126.940 Y80.175 E3.8294
G1 X126.055 Y81.060 E3.8955
G1 X132.175 Y81.060 E4.2186
G1 X134.940 Y83.825 E4.4251
G1 X134.940 Y96.175 E5.0772
G1 X132.175 Y98.940 E5.2837
G1 X127.787 Y98.940 E5.5154
G1 X127.468 Y99.300 E5.5408
G1 X124.720 Y100.034 E5.6910
G1 X121.935 Y99.097 E5.8461
G1 X120.980 Y98.494 E5.9058
G1 X120.803 Y98.312 E5.9192
G1 X120.175 Y98.940 E5.9661
G1 X106.940 Y98.940 E6.6649
G1 X106.940 Y101.060 E6.7769
G1 X124.175 Y101.060 E7.6870
G1 X126.940 Y103.825 E7.8934
G1 X126.940 Y116.175 E8.5456
G1 X124.175 Y118.940 E8.7520
G1 X118.055 Y118.940 E9.0752
G1 X118.940 Y119.825 E9.1413
G1 X118.940 Y132.175 E9.7934
G1 X116.175 Y134.940 E9.9999
G1 X87.825 Y134.940 E11.4969
G1 X86.000 Y133.115 E11.6332
G1 X84.175 Y134.940 E11.7694
G1 X71.825 Y134.940 E12.4216
G1 X69.060 Y132.175 E12.6280
G1 X69.060 Y119.825 E13.2802
G1 X70.885 Y118.000 E13.4165
G1 X69.060 Y116.175 E13.5527
G1 X69.060 Y103.825 E14.2049
G1 X71.825 Y101.060 E14.4113
G1 X81.060 Y101.060 E14.8990
G1 X81.060 Y98.940 E15.0109
G1 X71.825 Y98.940 E15.4986
G1 X69.060 Y96.175 E15.7051
G1 X69.060 Y83.825 E16.3572
G1 X70.885 Y82.000 E16.4935
G1 X69.060 Y80.175 E16.6297
G1 X69.060 Y67.825 E17.2819
G92 E0.0000
G1 E-0.7000 F1500
G1 X69.540 Y68.024 F4800
G1 E0.0000 F1500
G92 E0.0000
G1 X72.024 Y65.540 E0.1855 F1800
G1 X123.976 Y65.540 E2.9288
G1 X126.460 Y68.024 E3.1142
G1 X126.460 Y79.976 E3.7454
G1 X124.896 Y81.540 E3.8622
G1 X131.976 Y81.540 E4.2360
G1 X134.460 Y84.024 E4.4215
G1 X134.460 Y95.976 E5.0526
G1 X131.976 Y98.460 E5.2381
G1 X127.571 Y98.460 E5.4707
G1 X127.205 Y98.874 E5.4999
G1 X124.736 Y99.533 E5.6348
G1 X122.142 Y98.660 E5.7793
G1 X121.284 Y98.119 E5.8329
G1 X120.808 Y97.628 E5.8690
G1 X119.976 Y98.460 E5.9311
G1 X106.460 Y98.460 E6.6448
G1 X106.460 Y99.976 E6.7249
G1 X106.436 Y100.000 E6.7266
G1 X106.460 Y100.024 E6.7284
G1 X106.460 Y101.540 E6.8085
G1 X123.976 Y101.540 E7.7334
G1 X126.460 Y104.024 E7.9189
G1 X126.460 Y115.976 E8.5500
G1 X123.976 Y118.460 E8.7355
G1 X116.896 Y118.460 E9.1093
G1 X118.460 Y120.024 E9.2261
G1 X118.460 Y131.976 E9.8573
G1 X115.976 Y134.460 E10.0427
G1 X88.024 Y134.460 E11.5187
G1 X86.000 Y132.436 E11.6699
G1 X83.976 Y134.460 E11.8210
G1 X72.024 Y134.460 E12.4521
G1 X69.540 Y131.976 E12.6376
G1 X69.540 Y120.024 E13.2687
G1 X71.564 Y118.000 E13.4199
G1 X69.540 Y115.976 E13.5710
G1 X69.540 Y104.024 E14.2021
G1 X72.024 Y101.540 E14.3876
G1 X81.540 Y101.540 E14.8901
G1 X81.540 Y98.460 E15.0527
G1 X72.024 Y98.460 E15.5552
G1 X69.540 Y95.976 E15.7407
G1 X69.540 Y84.024 E16.3718
G1 X71.564 Y82.000 E16.5230
G1 X69.540 Y79.976 E16.6741
G1 X69.540 Y68.024 E17.3052
G92 E0.0000
G1 E-0.7000 F1500
; feature outer perimeter
G1 X123.800 Y88.172 F4800
G1 E0.0000 F1500
G92 E0.0000
G1 X124.107 Y87.856 E0.0233 F900
G1 X124.803 Y87.622 E0.0621
G1 X124.876 Y87.704 E0.0679
G1 X124.967 Y88.102 E0.0894
G1 X124.967 Y94.348 E0.4192
G1 X124.876 Y94.746 E0.4408
G1 X124.803 Y94.828 E0.4466
G1 X124.107 Y94.594 E0.4854
G1 X123.800 Y94.278 E0.5087
G1 X123.800 Y88.172 E0.8311
; feature gap fill
G1 X124.261 Y88.283 F4800
G92 E0.0000
G1 X124.559 Y88.581 E0.0223 F1800
G1 X124.559 Y89.260 E0.0581
G1 X124.208 Y88.909 E0.0843
G1 X124.208 Y89.588 E0.1202
G1 X124.559 Y89.939 E0.1464
G1 X124.559 Y90.618 E0.1823
G1 X124.208 Y90.267 E0.2085
G1 X124.208 Y90.946 E0.2443
G1 X124.559 Y91.297 E0.2706
G1 X124.559 Y91.976 E0.3064
G1 X124.208 Y91.624 E0.3326
G1 X124.208 Y92.303 E0.3685
G1 X124.559 Y92.654 E0.3947
G1 X124.559 Y93.333 E0.4305
G1 X124.208 Y92.982 E0.4568
G1 X124.208 Y93.661 E0.4926
G1 X124.559 Y94.012 E0.5188
G92 E0.0000
G1 E-0.7000 F1500
; feature support
G1 X126.386 Y92.320 F4800
G1 E0.0000 F1500
G92 E0.0000
G1 X129.970 Y92.320 E0.1893 F1440
G1 X129.970 Y90.400 E0.2906
G1 X126.386 Y90.400 E0.4799
G1 X126.386 Y88.480 E0.5813
G1 X129.970 Y88.480 E0.7705
G1 X129.970 Y86.560 E0.8719
G1 X126.030 Y86.560 E1.0800
G92 E0.0000
G1 E-0.7000 F1500
G1 X89.970 Y101.920 F4800
G1 E0.0000 F1500
G92 E0.0000
G1 X86.030 Y101.920 E0.2080 F1440
G1 X86.030 Y100.000 E0.3094
G1 X89.970 Y100.000 E0.5175
G1 X89.970 Y98.080 E0.6189
G1 X86.030 Y98.080 E0.8269
G92 E0.0000
G1 E-0.7000 F1500
G1 X74.030 Y92.320 F4800
G1 E0.0000 F1500
G92 E0.0000
G1 X81.970 Y92.320 E0.4193 F1440
G1 X81.970 Y90.400 E0.5206
G1 X74.030 Y90.400 E0.9399
G1 X74.030 Y88.480 E1.0413
G1 X81.970 Y88.480 E1.4606
G1 X81.970 Y86.560 E1.5619
G1 X74.030 Y86.560 E1.9812
G92 E0.0000
G1 E-0.7000 F1500
G1 X74.030 Y76.960 F4800
G1 E0.0000 F1500
G92 E0.0000
G1 X81.970 Y76.960 E0.4193 F1440
G1 X81.970 Y75.115 E0.5167
G1 X81.837 Y75.115 E0.5237
G1 X81.837 Y75.040 E0.5277
G1 X74.030 Y75.040 E0.9399
G1 X74.030 Y73.120 E1.0413
G1 X81.836 Y73.120 E1.4535
G1 X81.835 Y71.200 E1.5549
G1 X74.030 Y71.200 E1.9670
G92 E0.0000
G1 E-0.7000 F1500
G1 X83.419 Y71.200 F4800
G1 E0.0000 F1500
G92 E0.0000
G1 X121.970 Y71.200 E2.0356 F1440
G1 X121.970 Y73.120 E2.1370
G1 X83.419 Y73.120 E4.1727
G1 X83.419 Y73.970 E4.2176
G1 X90.030 Y73.970 E4.5666
G1 X90.030 Y75.040 E4.6231
G1 X121.970 Y75.040 E6.3097
G1 X121.970 Y76.960 E6.4111
G1 X90.030 Y76.960 E8.0976
G1 X90.030 Y77.970 E8.1510
G1 X94.030 Y77.970 E8.3622
G1 X94.030 Y78.880 E8.4102
G1 X97.970 Y78.880 E8.6183
G1 X97.970 Y80.800 E8.7197
G1 X94.030 Y80.800 E8.9277
G1 X94.030 Y82.720 E9.0291
G1 X97.970 Y82.720 E9.2371
G1 X97.970 Y84.640 E9.3385
G1 X94.030 Y84.640 E9.5466
G1 X94.030 Y86.030 E9.6200
G1 X90.030 Y86.030 E9.8312
G1 X90.030 Y86.560 E9.8592
G1 X117.970 Y86.560 E11.3345
G1 X117.970 Y88.480 E11.4359
G1 X90.030 Y88.480 E12.9112
G1 X90.030 Y90.400 E13.0126
G1 X117.970 Y90.400 E14.4880
G1 X117.970 Y92.320 E14.5893
G1 X90.030 Y92.320 E16.0647
G1 X90.030 Y94.240 E16.1661
G1 X101.970 Y94.240 E16.7965
G1 X101.970 Y96.160 E16.8979
G1 X90.030 Y96.160 E17.5284
G1 X90.030 Y97.970 E17.6240
G1 X94.030 Y97.970 E17.8352
G1 X94.030 Y98.080 E17.8410
G1 X97.970 Y98.080 E18.0490
G1 X97.970 Y100.000 E18.1504
G1 X94.030 Y100.000 E18.3585
G1 X94.030 Y101.920 E18.4599
G1 X97.970 Y101.920 E18.6679
G1 X97.970 Y102.030 E18.6737
G1 X101.970 Y102.030 E18.8849
G1 X101.970 Y103.840 E18.9805
G1 X90.030 Y103.840 E19.6110
G1 X90.030 Y105.760 E19.7124
G1 X101.970 Y105.760 E20.3428
G1 X101.970 Y106.030 E20.3571
G1 X121.970 Y106.030 E21.4132
G1 X121.970 Y107.680 E21.5003
G1 X90.030 Y107.680 E23.1868
G1 X90.030 Y109.600 E23.2882
G1 X121.970 Y109.600 E24.9748
G1 X121.970 Y111.520 E25.0762
G1 X90.030 Y111.520 E26.7627
G1 X90.030 Y113.440 E26.8641
G1 X121.970 Y113.440 E28.5507
G1 X121.970 Y113.970 E28.5786
G1 X97.970 Y113.970 E29.8459
G1 X97.970 Y115.360 E29.9193
G1 X94.030 Y115.360 E30.1274
G1 X94.030 Y117.280 E30.2288
G1 X97.970 Y117.280 E30.4368
G1 X97.970 Y119.200 E30.5382
G1 X94.030 Y119.200 E30.7462
G1 X94.030 Y121.120 E30.8476
G1 X97.970 Y121.120 E31.0557
G1 X97.970 Y122.030 E31.1037
G1 X113.970 Y122.030 E31.9486
G1 X113.970 Y123.040 E32.0019
G1 X83.419 Y123.040 E33.6151
G1 X83.419 Y122.635 E33.6365
G1 X81.837 Y122.635 E33.7200
G1 X81.837 Y123.040 E33.7414
G1 X74.030 Y123.040 E34.1537
G1 X74.030 Y122.030 E34.2070
G1 X86.030 Y122.030 E34.8406
G1 X86.030 Y121.120 E34.8887
G1 X89.970 Y121.120 E35.0967
G1 X89.970 Y119.200 E35.1981
G1 X86.030 Y119.200 E35.4062
G1 X86.030 Y117.280 E35.5075
G1 X89.970 Y117.280 E35.7156
G1 X89.970 Y115.360 E35.8170
G1 X86.030 Y115.360 E36.0250
G92 E0.0000
G1 E-0.7000 F1500
G1 X83.419 Y124.960 F4800
G1 E0.0000 F1500
G92 E0.0000
G1 X113.970 Y124.960 E1.6132 F1440
G1 X113.970 Y126.880 E1.7146
G1 X90.030 Y126.880 E2.9787
G1 X90.030 Y128.800 E3.0801
G1 X113.970 Y128.800 E4.3442
G92 E0.0000
G1 E-0.7000 F1500
G1 X81.970 Y128.800 F4800
G1 E0.0000 F1500
G92 E0.0000
G1 X74.030 Y128.800 E0.4193 F1440
G1 X74.030 Y126.880 E0.5206
G1 X81.835 Y126.880 E0.9328
G1 X81.836 Y124.960 E1.0342
G1 X74.030 Y124.960 E1.4463
G92 E0.0000
G1 E-0.7000 F1500
G1 X74.030 Y113.440 F4800
G1 E0.0000 F1500
G92 E0.0000
G1 X81.970 Y113.440 E0.4193 F1440
G1 X81.970 Y111.520 E0.5206
G1 X74.030 Y111.520 E0.9399
G1 X74.030 Y109.600 E1.0413
G1 X81.970 Y109.600 E1.4606
G1 X81.970 Y107.680 E1.5619
G1 X74.030 Y107.680 E1.9812
G92 E0.0000
G1 E-0.7000 F1500
G1 X86.030 Y84.640 F4800
G1 E0.0000 F1500
G92 E0.0000
G1 X89.970 Y84.640 E0.2080 F1440
G1 X89.970 Y82.720 E0.3094
G1 X86.030 Y82.720 E0.5175
G1 X86.030 Y80.800 E0.6189
G1 X89.970 Y80.800 E0.8269
G1 X89.970 Y78.880 E0.9283
G1 X86.030 Y78.880 E1.1363
G92 E0.0000
G1 E-0.7000 F1500
; layer 2, Z = 0.570
M106 S255
; feature outer perimeter
; tool H0.300 W0.480
G1 Z0.570 F1002
G1 X82.639 Y74.335 F4800
G1 E0.0000 F1500
G92 E0.0000
G1 X82.617 Y74.335 E0.0013 F1800
G1 X82.615 Y70.765 E0.2108
G1 X82.639 Y70.765 E0.2122
G1 X82.639 Y74.335 E0.4216
G92 E0.0000
G1 E-0.7000 F1500
; feature inner perimeter
G1 X121.463 Y88.316 F4800
G1 E0.0000 F1500
G92 E0.0000
G1 X121.710 Y88.205 E0.0159 F2700
G1 X122.550 Y87.933 E0.0677
G1 X124.671 Y87.530 E0.1943
G1 X124.820 Y87.633 E0.2050
G1 X125.053 Y87.922 E0.2268
G1 X125.126 Y88.148 E0.2407
G1 X125.126 Y94.302 E0.6017
G1 X125.053 Y94.528 E0.6157
G1 X124.823 Y94.813 E0.6372
G1 X124.665 Y94.919 E0.6483
G1 X122.550 Y94.517 E0.7747
G1 X121.710 Y94.245 E0.8265
G1 X121.463 Y94.134 E0.8423
G1 X121.463 Y88.316 E1.1837
; feature outer perimeter
G1 X121.213 Y87.902 F4800
G92 E0.0000
G1 X121.538 Y87.756 E0.0209 F1800
G1 X122.430 Y87.467 E0.0759
G1 X124.619 Y87.052 E0.2066
G1 X124.791 Y87.031 E0.2168
G1 X125.150 Y87.277 E0.2423
G1 X125.483 Y87.690 E0.2735
G1 X125.597 Y88.046 E0.2954
G1 X125.606 Y88.096 E0.2984
G1 X125.606 Y94.354 E0.6656
G1 X125.597 Y94.404 E0.6685
G1 X125.483 Y94.760 E0.6904
G1 X125.151 Y95.172 E0.7215
G1 X124.781 Y95.418 E0.7476
G1 X124.619 Y95.398 E0.7572
G1 X122.430 Y94.983 E0.8879
G1 X121.538 Y94.694 E0.9429
G1 X121.213 Y94.548 E0.9638
G1 X120.991 Y94.327 E0.9822
G1 X120.983 Y94.313 E0.9832
G1 X120.983 Y88.137 E1.3455
G1 X120.991 Y88.123 E1.3464
G1 X121.213 Y87.902 E1.3648
; feature solid layer
G1 X121.871 Y88.990 F4800
G92 E0.0000
G1 X122.475 Y88.386 E0.0501 F2880
G1 X122.651 Y88.329 E0.0610
G1 X123.342 Y88.198 E0.1023
G1 X121.871 Y89.669 E0.2244
G1 X121.871 Y90.348 E0.2642
G1 X124.180 Y88.039 E0.4558
G1 X124.564 Y87.966 E0.4787
G1 X124.688 Y88.119 E0.4903
G1 X124.710 Y88.188 E0.4945
G1 X121.871 Y91.027 E0.7301
G1 X121.871 Y91.706 E0.7699
G1 X124.718 Y88.859 E1.0062
G1 X124.718 Y89.537 E1.0460
