; G-Code generated by Simplify3D(R) Version 4.1.1
; Apr 25, 2021 at 7:32:32 PM
; Settings Summary
;   processName,Trideo BOX
;   applyToModels,Left Fingers
;   profileName,Trideo BOX
;   profileVersion,2021-04-15 09:48:16
;   baseProfile,Default
;   printMaterial,PLA
;   printQuality,Fast
;   printExtruders,
;   extruderName,Primary Extruder
;   extruderToolheadNumber,0
;   extruderDiameter,0.4
;   extruderAutoWidth,1
;   extruderWidth,0.48
;   extrusionMultiplier,0.98
;   extruderUseRetract,1
;   extruderRetractionDistance,0.7
;   extruderExtraRestartDistance,0
;   extruderRetractionZLift,0
;   extruderRetractionSpeed,1500
;   extruderUseCoasting,0
;   extruderCoastingDistance,0.2
;   extruderUseWipe,0
;   extruderWipeDistance,5
;   primaryExtruder,0
;   layerHeight,0.3
;   topSolidLayers,3
;   bottomSolidLayers,3
;   perimeterOutlines,2
;   printPerimetersInsideOut,1
;   startPointOption,2
;   startPointOriginX,0
;   startPointOriginY,0
;   sequentialIslands,0
;   spiralVaseMode,0
;   firstLayerHeightPercentage,90
;   firstLayerWidthPercentage,100
;   firstLayerUnderspeed,0.5
;   useRaft,0
;   raftExtruder,0
;   raftTopLayers,3
;   raftBaseLayers,2
;   raftOffset,3
;   raftSeparationDistance,0.14
;   raftTopInfill,100
;   aboveRaftSpeedMultiplier,0.3
;   useSkirt,1
;   skirtExtruder,0
;   skirtLayers,1
;   skirtOutlines,2
;   skirtOffset,4
;   usePrimePillar,0
;   primePillarExtruder,999
;   primePillarWidth,12
;   primePillarLocation,7
;   primePillarSpeedMultiplier,1
;   useOozeShield,0
;   oozeShieldExtruder,999
;   oozeShieldOffset,2
;   oozeShieldOutlines,1
;   oozeShieldSidewallShape,1
;   oozeShieldSidewallAngle,30
;   oozeShieldSpeedMultiplier,1
;   infillExtruder,0
;   internalInfillPattern,Rectilinear
;   externalInfillPattern,Rectilinear
;   infillPercentage,15
;   outlineOverlapPercentage,15
;   infillExtrusionWidthPercentage,100
;   minInfillLength,5
;   infillLayerInterval,1
;   internalInfillAngles,45,-45
;   overlapInternalInfillAngles,0
;   externalInfillAngles,45,-45
;   generateSupport,1
;   supportExtruder,0
;   supportInfillPercentage,25
;   supportExtraInflation,0
;   supportBaseLayers,0
;   denseSupportExtruder,0
;   denseSupportLayers,0
;   denseSupportInfillPercentage,70
;   supportLayerInterval,1
;   supportHorizontalPartOffset,0.3
;   supportUpperSeparationLayers,1
;   supportLowerSeparationLayers,1
;   supportType,0
;   supportGridSpacing,4
;   maxOverhangAngle,45
;   supportAngles,0
;   temperatureName,Primary Extruder,Heated bed
;   temperatureNumber,0,0
;   temperatureSetpointCount,1,1
;   temperatureSetpointLayers,1,1
;   temperatureSetpointTemperatures,190,60
;   temperatureStabilizeAtStartup,1,1
;   temperatureHeatedBed,0,1
;   fanLayers,1,2
;   fanSpeeds,0,100
;   blipFanToFullPower,0
;   adjustSpeedForCooling,1
;   minSpeedLayerTime,15
;   minCoolingSpeedSlowdown,20
;   increaseFanForCooling,0
;   minFanLayerTime,45
;   maxCoolingFanSpeed,100
;   increaseFanForBridging,0
;   bridgingFanSpeed,100
;   use5D,1
;   relativeEdistances,0
;   allowEaxisZeroing,1
;   independentExtruderAxes,0
;   includeM10123,0
;   stickySupport,1
;   applyToolheadOffsets,0
;   gcodeXoffset,0
;   gcodeYoffset,0
;   gcodeZoffset,0
;   overrideMachineDefinition,1
;   machineTypeOverride,0
;   strokeXoverride,200
;   strokeYoverride,200
;   strokeZoverride,200
;   originOffsetXoverride,0
;   originOffsetYoverride,0
;   originOffsetZoverride,0
;   homeXdirOverride,-1
;   homeYdirOverride,-1
;   homeZdirOverride,-1
;   flipXoverride,1
;   flipYoverride,-1
;   flipZoverride,1
;   toolheadOffsets,0,0|0,0|0,0|0,0|0,0|0,0
;   overrideFirmwareConfiguration,0
;   firmwareTypeOverride,RepRap (Marlin/Repetier/Sprinter)
;   GPXconfigOverride,r2
;   baudRateOverride,115200
;   overridePrinterModels,0
;   printerModelsOverride
;   startingGcode,G28 X0 Y0; home XY,G1 X20 Y20,G28 Z0,G1 Z5 F5000; Lift NZ
;   layerChangeGcode,
;   retractionGcode,
;   toolChangeGcode,
;   endingGcode,M104 S0 ; turn off extruder,G28 X0 ; home x,M140 S0 ; turn off bed,M84 ; disable motors,M107 ;
;   exportFileFormat,gcode
;   celebration,0
;   celebrationSong,Looney Toons
;   postProcessing,
;   defaultSpeed,3600
;   outlineUnderspeed,0.5
;   solidInfillUnderspeed,0.8
;   supportUnderspeed,0.8
;   rapidXYspeed,4800
;   rapidZspeed,1002
;   minBridgingArea,50
;   bridgingExtraInflation,0
;   bridgingExtrusionMultiplier,1
;   bridgingSpeedMultiplier,1
;   useFixedBridgingAngle,0
;   fixedBridgingAngle,0
;   applyBridgingToPerimeters,0
;   filamentDiameters,1.75|1.75|1.75|1.75|1.75|1.75
;   filamentPricesPerKg,46|46|46|46|46|46
;   filamentDensities,1.25|1.25|1.25|1.25|1.25|1.25
;   useMinPrintHeight,0
;   minPrintHeight,0
;   useMaxPrintHeight,0
;   maxPrintHeight,0
;   useDiaphragm,0
;   diaphragmLayerInterval,20
;   robustSlicing,1
;   mergeAllIntoSolid,0
;   onlyRetractWhenCrossingOutline,1
;   retractBetweenLayers,1
;   useRetractionMinTravel,0
;   retractionMinTravel,3
;   retractWhileWiping,0
;   onlyWipeOutlines,1
;   avoidCrossingOutline,0
;   maxMovementDetourFactor,3
;   toolChangeRetractionDistance,12
;   toolChangeExtraRestartDistance,-0.5
;   toolChangeRetractionSpeed,600
;   externalThinWallType,0
;   internalThinWallType,2
;   thinWallAllowedOverlapPercentage,10
;   singleExtrusionMinLength,1
;   singleExtrusionMinPrintingWidthPercentage,50
;   singleExtrusionMaxPrintingWidthPercentage,200
;   singleExtrusionEndpointExtension,0.2
;   horizontalSizeCompensation,0
G90
M82
M106 S0
M140 S60
M190 S60
M104 S190 T0
M109 S190 T0
G28 X0 Y0; home XY
G1 X20 Y20
G28 Z0
G1 Z5 F5000; Lift NZ
; process Trideo BOX
; layer 1, Z = 0.270
T0
G92 E0.0000
G1 E-0.7000 F1500
; feature skirt
; tool H0.270 W0.480
G1 Z0.270 F1002
G1 X59.060 Y59.825 F4800
G1 E0.0000 F1500
G92 E0.0000
G1 X61.825 Y57.060 E0.2065 F1800
G1 X126.175 Y57.060 E3.6044
G1 X128.940 Y59.825 E3.8109
G1 X128.940 Y76.175 E4.6742
G1 X128.055 Y77.060 E4.7403
G1 X130.175 Y77.060 E4.8523
G1 X132.940 Y79.825 E5.0587
G1 X132.940 Y80.417 E5.0900
G1 X133.000 Y80.433 E5.0933
G1 X133.556 Y81.060 E5.1375
G1 X138.175 Y81.060 E5.3814
G1 X140.940 Y83.825 E5.5879
G1 X140.940 Y96.175 E6.2400
G1 X138.175 Y98.940 E6.4465
G1 X129.825 Y98.940 E6.8874
G1 X129.473 Y98.588 E6.9137
G1 X127.572 Y97.949 E7.0196
G1 X127.323 Y97.792 E7.0352
G1 X126.175 Y98.940 E7.1209
G1 X100.940 Y98.940 E8.4534
G1 X100.940 Y101.060 E8.5653
G1 X126.175 Y101.060 E9.8978
G1 X128.940 Y103.825 E10.1043
G1 X128.940 Y120.175 E10.9676
G1 X126.175 Y122.940 E11.1741
G1 X124.055 Y122.940 E11.2861
G1 X124.940 Y123.825 E11.3521
G1 X124.940 Y140.175 E12.2155
G1 X122.175 Y142.940 E12.4220
G1 X81.825 Y142.940 E14.5526
G1 X80.000 Y141.115 E14.6889
G1 X78.175 Y142.940 E14.8252
G1 X65.825 Y142.940 E15.4773
G1 X63.060 Y140.175 E15.6838
G1 X63.060 Y138.940 E15.7490
G1 X61.825 Y138.940 E15.8142
G1 X59.060 Y136.175 E16.0207
G1 X59.060 Y127.825 E16.4616
G1 X61.825 Y125.060 E16.6681
G1 X63.060 Y125.060 E16.7333
G1 X63.060 Y123.825 E16.7985
G1 X65.825 Y121.060 E17.0050
G1 X78.175 Y121.060 E17.6571
G1 X79.060 Y121.945 E17.7232
G1 X79.060 Y118.055 E17.9286
G1 X78.175 Y118.940 E17.9947
G1 X65.825 Y118.940 E18.6468
G1 X63.060 Y116.175 E18.8533
G1 X63.060 Y103.825 E19.5054
G1 X65.825 Y101.060 E19.7119
G1 X78.175 Y101.060 E20.3640
G1 X79.060 Y101.945 E20.4301
G1 X79.060 Y98.055 E20.6355
G1 X78.175 Y98.940 E20.7016
G1 X65.825 Y98.940 E21.3537
G1 X63.060 Y96.175 E21.5602
G1 X63.060 Y83.825 E22.2123
G1 X65.825 Y81.060 E22.4188
G1 X78.175 Y81.060 E23.0709
G1 X79.060 Y81.945 E23.1370
G1 X79.060 Y78.055 E23.3424
G1 X78.175 Y78.940 E23.4085
G1 X65.825 Y78.940 E24.0606
G1 X63.060 Y76.175 E24.2671
G1 X63.060 Y70.940 E24.5435
G1 X61.825 Y70.940 E24.6088
G1 X59.060 Y68.175 E24.8152
G1 X59.060 Y59.825 E25.2561
G92 E0.0000
G1 E-0.7000 F1500
G1 X59.540 Y60.024 F4800
G1 E0.0000 F1500
G92 E0.0000
G1 X62.024 Y57.540 E0.1855 F1800
G1 X125.976 Y57.540 E3.5624
G1 X128.460 Y60.024 E3.7479
G1 X128.460 Y75.976 E4.5902
G1 X126.896 Y77.540 E4.7070
G1 X129.976 Y77.540 E4.8696
G1 X132.460 Y80.024 E5.0551
G1 X132.460 Y80.786 E5.0954
G1 X132.737 Y80.860 E5.1105
G1 X133.339 Y81.540 E5.1585
G1 X137.976 Y81.540 E5.4033
G1 X140.460 Y84.024 E5.5888
G1 X140.460 Y95.976 E6.2199
G1 X137.976 Y98.460 E6.4054
G1 X130.024 Y98.460 E6.8253
G1 X129.733 Y98.169 E6.8470
G1 X127.779 Y97.512 E6.9559
G1 X127.254 Y97.182 E6.9886
G1 X125.976 Y98.460 E7.0841
G1 X100.460 Y98.460 E8.4314
G1 X100.460 Y101.540 E8.5941
G1 X125.976 Y101.540 E9.9414
G1 X128.460 Y104.024 E10.1269
G1 X128.460 Y119.976 E10.9692
G1 X125.976 Y122.460 E11.1547
G1 X122.896 Y122.460 E11.3173
G1 X124.460 Y124.024 E11.4341
G1 X124.460 Y139.976 E12.2765
G1 X121.976 Y142.460 E12.4620
G1 X82.024 Y142.460 E14.5716
G1 X80.000 Y140.436 E14.7227
G1 X77.976 Y142.460 E14.8738
G1 X66.024 Y142.460 E15.5050
G1 X63.540 Y139.976 E15.6905
G1 X63.540 Y138.460 E15.7705
G1 X62.024 Y138.460 E15.8506
G1 X59.540 Y135.976 E16.0361
G1 X59.540 Y128.024 E16.4560
G1 X62.024 Y125.540 E16.6415
G1 X63.540 Y125.540 E16.7215
G1 X63.540 Y124.024 E16.8016
G1 X66.024 Y121.540 E16.9871
G1 X77.976 Y121.540 E17.6182
G1 X79.540 Y123.104 E17.7350
G1 X79.540 Y116.896 E18.0628
G1 X77.976 Y118.460 E18.1795
G1 X66.024 Y118.460 E18.8107
G1 X63.540 Y115.976 E18.9961
G1 X63.540 Y104.024 E19.6273
G1 X66.024 Y101.540 E19.8128
G1 X77.976 Y101.540 E20.4439
G1 X79.540 Y103.104 E20.5607
G1 X79.540 Y96.896 E20.8884
G1 X77.976 Y98.460 E21.0052
G1 X66.024 Y98.460 E21.6364
G1 X63.540 Y95.976 E21.8218
G1 X63.540 Y84.024 E22.4530
G1 X66.024 Y81.540 E22.6384
G1 X77.976 Y81.540 E23.2696
G1 X79.540 Y83.104 E23.3864
G1 X79.540 Y76.896 E23.7141
G1 X77.976 Y78.460 E23.8309
G1 X66.024 Y78.460 E24.4620
G1 X63.540 Y75.976 E24.6475
G1 X63.540 Y70.460 E24.9388
G1 X62.024 Y70.460 E25.0189
G1 X59.540 Y67.976 E25.2043
G1 X59.540 Y60.024 E25.6243
G92 E0.0000
G1 E-0.7000 F1500
; feature outer perimeter
G1 X129.332 Y85.523 F4800
G1 E0.0000 F1500
G92 E0.0000
G1 X129.739 Y85.105 E0.0308 F900
G1 X130.335 Y84.905 E0.0640
G1 X130.384 Y84.960 E0.0679
G1 X130.499 Y85.453 E0.0946
G1 X130.499 Y93.097 E0.4983
G1 X130.384 Y93.590 E0.5250
G1 X130.335 Y93.645 E0.5289
G1 X129.739 Y93.445 E0.5620
G1 X129.332 Y93.027 E0.5928
G1 X129.332 Y85.523 E0.9891
; feature gap fill
G1 X129.776 Y85.652 F4800
G92 E0.0000
G1 X130.091 Y85.968 E0.0236 F1800
G1 X130.091 Y86.646 E0.0594
G1 X129.740 Y86.295 E0.0856
G1 X129.740 Y86.974 E0.1215
G1 X130.091 Y87.325 E0.1477
G1 X130.091 Y88.004 E0.1835
G1 X129.740 Y87.653 E0.2098
G1 X129.740 Y88.332 E0.2456
G1 X130.091 Y88.683 E0.2718
G1 X130.091 Y89.362 E0.3077
G1 X129.740 Y89.011 E0.3339
G1 X129.740 Y89.689 E0.3697
G1 X130.091 Y90.041 E0.3960
G1 X130.091 Y90.719 E0.4318
G1 X129.740 Y90.368 E0.4580
G1 X129.740 Y91.047 E0.4939
G1 X130.091 Y91.398 E0.5201
G1 X130.091 Y92.077 E0.5559
G1 X129.740 Y91.726 E0.5822
G1 X129.740 Y92.405 E0.6180
G1 X130.091 Y92.756 E0.6442
G92 E0.0000
G1 E-0.7000 F1500
; feature support
G1 X132.030 Y92.320 F4800
G1 E0.0000 F1500
G92 E0.0000
G1 X135.970 Y92.320 E0.2080 F1440
G1 X135.970 Y90.400 E0.3094
G1 X132.030 Y90.400 E0.5175
G1 X132.030 Y88.480 E0.6189
G1 X135.970 Y88.480 E0.8269
G1 X135.970 Y86.560 E0.9283
G1 X132.030 Y86.560 E1.1363
G92 E0.0000
G1 E-0.7000 F1500
G1 X92.030 Y94.240 F4800
G1 E0.0000 F1500
G92 E0.0000
G1 X95.970 Y94.240 E0.2080 F1440
G1 X95.970 Y96.160 E0.3094
G1 X92.030 Y96.160 E0.5175
G1 X92.030 Y98.080 E0.6189
G1 X95.970 Y98.080 E0.8269
G1 X95.970 Y100.000 E0.9283
G1 X92.030 Y100.000 E1.1363
G1 X92.030 Y101.920 E1.2377
G1 X95.970 Y101.920 E1.4458
G1 X95.970 Y103.840 E1.5472
G1 X92.030 Y103.840 E1.7552
G92 E0.0000
G1 E-0.7000 F1500
G1 X84.030 Y119.200 F4800
G1 E0.0000 F1500
G92 E0.0000
G1 X87.970 Y119.200 E0.2080 F1440
G1 X87.970 Y121.120 E0.3094
G1 X84.030 Y121.120 E0.5175
G1 X84.030 Y123.040 E0.6189
G1 X87.970 Y123.040 E0.8269
G1 X87.970 Y124.960 E0.9283
G1 X84.030 Y124.960 E1.1363
G1 X84.030 Y126.880 E1.2377
G1 X119.970 Y126.880 E3.1355
G1 X119.970 Y126.030 E3.1804
G1 X95.970 Y126.030 E4.4477
G1 X95.970 Y124.960 E4.5042
G1 X92.030 Y124.960 E4.7122
G1 X92.030 Y123.040 E4.8136
G1 X95.970 Y123.040 E5.0216
G1 X95.970 Y121.120 E5.1230
G1 X92.030 Y121.120 E5.3311
G1 X92.030 Y119.200 E5.4325
G1 X95.970 Y119.200 E5.6405
G1 X95.970 Y117.970 E5.7055
G1 X123.970 Y117.970 E7.1840
G1 X123.970 Y117.280 E7.2204
G1 X88.030 Y117.280 E9.1182
G1 X88.030 Y115.360 E9.2195
G1 X123.970 Y115.360 E11.1173
G1 X123.970 Y113.440 E11.2187
G1 X84.030 Y113.440 E13.3277
G1 X84.030 Y111.520 E13.4291
G1 X123.970 Y111.520 E15.5380
G1 X123.970 Y109.600 E15.6394
G1 X84.030 Y109.600 E17.7484
G1 X84.030 Y107.680 E17.8498
G1 X123.970 Y107.680 E19.9588
G1 X123.970 Y106.030 E20.0459
G1 X95.970 Y106.030 E21.5244
G1 X95.970 Y105.760 E21.5387
G1 X92.030 Y105.760 E21.7467
G1 X92.030 Y106.030 E21.7610
G1 X87.970 Y106.030 E21.9754
G1 X87.970 Y105.760 E21.9896
G1 X84.030 Y105.760 E22.1977
G1 X84.030 Y103.840 E22.2990
G1 X87.970 Y103.840 E22.5071
G1 X87.970 Y101.920 E22.6085
G1 X84.030 Y101.920 E22.8165
G1 X84.030 Y100.000 E22.9179
G1 X87.970 Y100.000 E23.1259
G1 X87.970 Y98.080 E23.2273
G1 X84.030 Y98.080 E23.4354
G1 X84.030 Y96.160 E23.5368
G1 X87.970 Y96.160 E23.7448
G1 X87.970 Y94.240 E23.8462
G1 X84.030 Y94.240 E24.0542
G1 X84.030 Y92.320 E24.1556
G1 X123.970 Y92.320 E26.2646
G1 X123.970 Y90.400 E26.3660
G1 X84.030 Y90.400 E28.4750
G1 X84.030 Y88.480 E28.5764
G1 X123.970 Y88.480 E30.6853
G1 X123.970 Y86.560 E30.7867
G1 X84.030 Y86.560 E32.8957
G1 X84.030 Y86.030 E32.9237
G1 X88.030 Y86.030 E33.1349
G1 X88.030 Y84.640 E33.2083
G1 X126.253 Y84.640 E35.2266
G1 X126.397 Y84.497 E35.2373
G1 X126.880 Y84.281 E35.2653
G1 X127.970 Y83.928 E35.3258
G1 X127.970 Y82.720 E35.3896
G1 X88.030 Y82.720 E37.4985
G1 X88.030 Y82.030 E37.5350
G1 X92.030 Y82.030 E37.7462
G1 X92.030 Y80.800 E37.8111
G1 X95.970 Y80.800 E38.0192
G1 X95.970 Y78.880 E38.1206
G1 X92.030 Y78.880 E38.3286
G1 X92.030 Y76.960 E38.4300
G1 X95.970 Y76.960 E38.6381
G1 X95.970 Y75.040 E38.7394
G1 X92.030 Y75.040 E38.9475
G92 E0.0000
G1 E-0.7000 F1500
G1 X84.030 Y71.200 F4800
G1 E0.0000 F1500
G92 E0.0000
G1 X123.970 Y71.200 E2.1090 F1440
G1 X123.970 Y73.120 E2.2104
G1 X84.030 Y73.120 E4.3194
G1 X84.030 Y75.040 E4.4207
G1 X87.970 Y75.040 E4.6288
G1 X87.970 Y76.960 E4.7302
G1 X84.030 Y76.960 E4.9382
G1 X84.030 Y78.880 E5.0396
G1 X87.970 Y78.880 E5.2476
G1 X87.970 Y80.800 E5.3490
G1 X84.030 Y80.800 E5.5571
G92 E0.0000
G1 E-0.7000 F1500
G1 X79.476 Y69.280 F4800
G1 E0.0000 F1500
G92 E0.0000
G1 X123.970 Y69.280 E2.3494 F1440
G1 X123.970 Y67.360 E2.4508
G1 X79.476 Y67.360 E4.8003
G1 X79.476 Y65.440 E4.9017
G1 X123.970 Y65.440 E7.2511
G1 X123.970 Y63.520 E7.3525
G1 X79.476 Y63.520 E9.7019
G92 E0.0000
G1 E-0.7000 F1500
G1 X68.030 Y73.120 F4800
G1 E0.0000 F1500
G92 E0.0000
G1 X75.970 Y73.120 E0.4193 F1440
G1 X75.970 Y71.200 E0.5206
G1 X68.030 Y71.200 E0.9399
G1 X68.030 Y69.280 E1.0413
G1 X78.085 Y69.280 E1.5722
G1 X78.085 Y67.360 E1.6736
G1 X68.030 Y67.360 E2.2045
G1 X68.030 Y65.970 E2.2779
G1 X64.030 Y65.970 E2.4891
G1 X64.030 Y65.440 E2.5171
G1 X78.084 Y65.440 E3.2592
G1 X78.084 Y63.520 E3.3606
G1 X64.030 Y63.520 E4.1027
G92 E0.0000
G1 E-0.7000 F1500
G1 X68.030 Y86.560 F4800
G1 E0.0000 F1500
G92 E0.0000
G1 X75.970 Y86.560 E0.4193 F1440
G1 X75.970 Y88.480 E0.5206
G1 X68.030 Y88.480 E0.9399
G1 X68.030 Y90.400 E1.0413
G1 X75.970 Y90.400 E1.4606
G1 X75.970 Y92.320 E1.5619
G1 X68.030 Y92.320 E1.9812
G92 E0.0000
G1 E-0.7000 F1500
G1 X68.030 Y107.680 F4800
G1 E0.0000 F1500
G92 E0.0000
G1 X75.970 Y107.680 E0.4193 F1440
G1 X75.970 Y109.600 E0.5206
G1 X68.030 Y109.600 E0.9399
G1 X68.030 Y111.520 E1.0413
G1 X75.970 Y111.520 E1.4606
G1 X75.970 Y113.440 E1.5619
G1 X68.030 Y113.440 E1.9812
G92 E0.0000
G1 E-0.7000 F1500
G1 X68.030 Y126.880 F4800
G1 E0.0000 F1500
G92 E0.0000
G1 X75.970 Y126.880 E0.4193 F1440
G1 X75.970 Y128.800 E0.5206
G1 X68.030 Y128.800 E0.9399
G1 X68.030 Y130.030 E1.0049
G1 X64.030 Y130.030 E1.2161
G1 X64.030 Y130.720 E1.2525
G1 X78.084 Y130.720 E1.9946
G1 X78.084 Y132.640 E2.0960
G1 X64.030 Y132.640 E2.8381
G1 X64.030 Y133.970 E2.9083
G1 X68.030 Y133.970 E3.1195
G1 X68.030 Y134.560 E3.1507
G1 X75.970 Y134.560 E3.5700
