; G-Code generated by Simplify3D(R) Version 4.1.1
; Apr 25, 2021 at 7:31:42 PM
; Settings Summary
;   processName,Trideo BOX
;   applyToModels,Left Fingers
;   profileName,Trideo BOX
;   profileVersion,2021-04-15 09:48:16
;   baseProfile,Default
;   printMaterial,PLA
;   printQuality,Fast
;   printExtruders,
;   extruderName,Primary Extruder
;   extruderToolheadNumber,0
;   extruderDiameter,0.4
;   extruderAutoWidth,1
;   extruderWidth,0.48
;   extrusionMultiplier,0.98
;   extruderUseRetract,1
;   extruderRetractionDistance,0.7
;   extruderExtraRestartDistance,0
;   extruderRetractionZLift,0
;   extruderRetractionSpeed,1500
;   extruderUseCoasting,0
;   extruderCoastingDistance,0.2
;   extruderUseWipe,0
;   extruderWipeDistance,5
;   primaryExtruder,0
;   layerHeight,0.3
;   topSolidLayers,3
;   bottomSolidLayers,3
;   perimeterOutlines,2
;   printPerimetersInsideOut,1
;   startPointOption,2
;   startPointOriginX,0
;   startPointOriginY,0
;   sequentialIslands,0
;   spiralVaseMode,0
;   firstLayerHeightPercentage,90
;   firstLayerWidthPercentage,100
;   firstLayerUnderspeed,0.5
;   useRaft,0
;   raftExtruder,0
;   raftTopLayers,3
;   raftBaseLayers,2
;   raftOffset,3
;   raftSeparationDistance,0.14
;   raftTopInfill,100
;   aboveRaftSpeedMultiplier,0.3
;   useSkirt,1
;   skirtExtruder,0
;   skirtLayers,1
;   skirtOutlines,2
;   skirtOffset,4
;   usePrimePillar,0
;   primePillarExtruder,999
;   primePillarWidth,12
;   primePillarLocation,7
;   primePillarSpeedMultiplier,1
;   useOozeShield,0
;   oozeShieldExtruder,999
;   oozeShieldOffset,2
;   oozeShieldOutlines,1
;   oozeShieldSidewallShape,1
;   oozeShieldSidewallAngle,30
;   oozeShieldSpeedMultiplier,1
;   infillExtruder,0
;   internalInfillPattern,Rectilinear
;   externalInfillPattern,Rectilinear
;   infillPercentage,15
;   outlineOverlapPercentage,15
;   infillExtrusionWidthPercentage,100
;   minInfillLength,5
;   infillLayerInterval,1
;   internalInfillAngles,45,-45
;   overlapInternalInfillAngles,0
;   externalInfillAngles,45,-45
;   generateSupport,1
;   supportExtruder,0
;   supportInfillPercentage,25
;   supportExtraInflation,0
;   supportBaseLayers,0
;   denseSupportExtruder,0
;   denseSupportLayers,0
;   denseSupportInfillPercentage,70
;   supportLayerInterval,1
;   supportHorizontalPartOffset,0.3
;   supportUpperSeparationLayers,1
;   supportLowerSeparationLayers,1
;   supportType,0
;   supportGridSpacing,4
;   maxOverhangAngle,45
;   supportAngles,0
;   temperatureName,Primary Extruder,Heated bed
;   temperatureNumber,0,0
;   temperatureSetpointCount,1,1
;   temperatureSetpointLayers,1,1
;   temperatureSetpointTemperatures,190,60
;   temperatureStabilizeAtStartup,1,1
;   temperatureHeatedBed,0,1
;   fanLayers,1,2
;   fanSpeeds,0,100
;   blipFanToFullPower,0
;   adjustSpeedForCooling,1
;   minSpeedLayerTime,15
;   minCoolingSpeedSlowdown,20
;   increaseFanForCooling,0
;   minFanLayerTime,45
;   maxCoolingFanSpeed,100
;   increaseFanForBridging,0
;   bridgingFanSpeed,100
;   use5D,1
;   relativeEdistances,0
;   allowEaxisZeroing,1
;   independentExtruderAxes,0
;   includeM10123,0
;   stickySupport,1
;   applyToolheadOffsets,0
;   gcodeXoffset,0
;   gcodeYoffset,0
;   gcodeZoffset,0
;   overrideMachineDefinition,1
;   machineTypeOverride,0
;   strokeXoverride,200
;   strokeYoverride,200
;   strokeZoverride,200
;   originOffsetXoverride,0
;   originOffsetYoverride,0
;   originOffsetZoverride,0
;   homeXdirOverride,-1
;   homeYdirOverride,-1
;   homeZdirOverride,-1
;   flipXoverride,1
;   flipYoverride,-1
;   flipZoverride,1
;   toolheadOffsets,0,0|0,0|0,0|0,0|0,0|0,0
;   overrideFirmwareConfiguration,0
;   firmwareTypeOverride,RepRap (Marlin/Repetier/Sprinter)
;   GPXconfigOverride,r2
;   baudRateOverride,115200
;   overridePrinterModels,0
;   printerModelsOverride
;   startingGcode,G28 X0 Y0; home XY,G1 X20 Y20,G28 Z0,G1 Z5 F5000; Lift NZ
;   layerChangeGcode,
;   retractionGcode,
;   toolChangeGcode,
;   endingGcode,M104 S0 ; turn off extruder,G28 X0 ; home x,M140 S0 ; turn off bed,M84 ; disable motors,M107 ;
;   exportFileFormat,gcode
;   celebration,0
;   celebrationSong,Looney Toons
;   postProcessing,
;   defaultSpeed,3600
;   outlineUnderspeed,0.5
;   solidInfillUnderspeed,0.8
;   supportUnderspeed,0.8
;   rapidXYspeed,4800
;   rapidZspeed,1002
;   minBridgingArea,50
;   bridgingExtraInflation,0
;   bridgingExtrusionMultiplier,1
;   bridgingSpeedMultiplier,1
;   useFixedBridgingAngle,0
;   fixedBridgingAngle,0
;   applyBridgingToPerimeters,0
;   filamentDiameters,1.75|1.75|1.75|1.75|1.75|1.75
;   filamentPricesPerKg,46|46|46|46|46|46
;   filamentDensities,1.25|1.25|1.25|1.25|1.25|1.25
;   useMinPrintHeight,0
;   minPrintHeight,0
;   useMaxPrintHeight,0
;   maxPrintHeight,0
;   useDiaphragm,0
;   diaphragmLayerInterval,20
;   robustSlicing,1
;   mergeAllIntoSolid,0
;   onlyRetractWhenCrossingOutline,1
;   retractBetweenLayers,1
;   useRetractionMinTravel,0
;   retractionMinTravel,3
;   retractWhileWiping,0
;   onlyWipeOutlines,1
;   avoidCrossingOutline,0
;   maxMovementDetourFactor,3
;   toolChangeRetractionDistance,12
;   toolChangeExtraRestartDistance,-0.5
;   toolChangeRetractionSpeed,600
;   externalThinWallType,0
;   internalThinWallType,2
;   thinWallAllowedOverlapPercentage,10
;   singleExtrusionMinLength,1
;   singleExtrusionMinPrintingWidthPercentage,50
;   singleExtrusionMaxPrintingWidthPercentage,200
;   singleExtrusionEndpointExtension,0.2
;   horizontalSizeCompensation,0
G90
M82
M106 S0
M140 S60
M190 S60
M104 S190 T0
M109 S190 T0
G28 X0 Y0; home XY
G1 X20 Y20
G28 Z0
G1 Z5 F5000; Lift NZ
; process Trideo BOX
; layer 1, Z = 0.270
T0
G92 E0.0000
G1 E-0.7000 F1500
; feature skirt
; tool H0.270 W0.480
G1 Z0.270 F1002
G1 X63.060 Y63.825 F4800
G1 E0.0000 F1500
G92 E0.0000
G1 X65.825 Y61.060 E0.2065 F1800
G1 X126.175 Y61.060 E3.3932
G1 X128.940 Y63.825 E3.5997
G1 X128.940 Y76.175 E4.2518
G1 X126.175 Y78.940 E4.4583
G1 X124.940 Y78.940 E4.5235
G1 X124.940 Y80.175 E4.5887
G1 X124.055 Y81.060 E4.6548
G1 X134.175 Y81.060 E5.1892
G1 X136.940 Y83.825 E5.3956
G1 X136.940 Y96.175 E6.0478
G1 X134.175 Y98.940 E6.2542
G1 X129.367 Y98.940 E6.5081
G1 X127.486 Y99.442 E6.6109
G1 X125.994 Y98.940 E6.6941
G1 X104.940 Y98.940 E7.8058
G1 X104.940 Y101.060 E7.9177
G1 X126.175 Y101.060 E9.0390
G1 X128.940 Y103.825 E9.2455
G1 X128.940 Y116.175 E9.8976
G1 X126.175 Y118.940 E10.1041
G1 X104.055 Y118.940 E11.2721
G1 X104.940 Y119.825 E11.3382
G1 X104.940 Y121.060 E11.4034
G1 X118.175 Y121.060 E12.1023
G1 X120.940 Y123.825 E12.3087
G1 X120.940 Y136.175 E12.9609
G1 X118.175 Y138.940 E13.1674
G1 X85.825 Y138.940 E14.8756
G1 X84.000 Y137.115 E15.0118
G1 X82.175 Y138.940 E15.1481
G1 X69.825 Y138.940 E15.8003
G1 X67.060 Y136.175 E16.0067
G1 X67.060 Y134.940 E16.0719
G1 X65.825 Y134.940 E16.1372
G1 X63.060 Y132.175 E16.3436
G1 X63.060 Y123.825 E16.7846
G1 X65.825 Y121.060 E16.9910
G1 X79.060 Y121.060 E17.6899
G1 X79.060 Y118.940 E17.8018
G1 X69.825 Y118.940 E18.2895
G1 X67.060 Y116.175 E18.4960
G1 X67.060 Y103.825 E19.1481
G1 X69.825 Y101.060 E19.3546
G1 X79.060 Y101.060 E19.8422
G1 X79.060 Y98.940 E19.9542
G1 X69.825 Y98.940 E20.4418
G1 X67.060 Y96.175 E20.6483
G1 X67.060 Y83.825 E21.3004
G1 X69.825 Y81.060 E21.5069
G1 X79.060 Y81.060 E21.9945
G1 X79.060 Y78.940 E22.1065
G1 X69.825 Y78.940 E22.5941
G1 X67.060 Y76.175 E22.8006
G1 X67.060 Y74.940 E22.8658
G1 X65.825 Y74.940 E22.9310
G1 X63.060 Y72.175 E23.1375
G1 X63.060 Y63.825 E23.5784
G92 E0.0000
G1 E-0.7000 F1500
G1 X63.540 Y64.024 F4800
G1 E0.0000 F1500
G92 E0.0000
G1 X66.024 Y61.540 E0.1855 F1800
G1 X125.976 Y61.540 E3.3512
G1 X128.460 Y64.024 E3.5367
G1 X128.460 Y75.976 E4.1678
G1 X125.976 Y78.460 E4.3533
G1 X124.460 Y78.460 E4.4334
G1 X124.460 Y79.976 E4.5134
G1 X122.896 Y81.540 E4.6302
G1 X133.976 Y81.540 E5.2153
G1 X136.460 Y84.024 E5.4007
G1 X136.460 Y95.976 E6.0319
G1 X133.976 Y98.460 E6.2173
G1 X129.304 Y98.460 E6.4640
G1 X127.502 Y98.941 E6.5625
G1 X126.001 Y98.436 E6.6462
G1 X125.976 Y98.460 E6.6480
G1 X104.460 Y98.460 E7.7841
G1 X104.460 Y99.976 E7.8642
G1 X104.436 Y100.000 E7.8660
G1 X104.460 Y100.024 E7.8677
G1 X104.460 Y101.540 E7.9478
G1 X125.976 Y101.540 E9.0840
G1 X128.460 Y104.024 E9.2694
G1 X128.460 Y115.976 E9.9006
G1 X125.976 Y118.460 E10.0860
G1 X102.896 Y118.460 E11.3048
G1 X104.460 Y120.024 E11.4215
G1 X104.460 Y121.540 E11.5016
G1 X117.976 Y121.540 E12.2153
G1 X120.460 Y124.024 E12.4008
G1 X120.460 Y135.976 E13.0319
G1 X117.976 Y138.460 E13.2174
G1 X86.024 Y138.460 E14.9046
G1 X84.000 Y136.436 E15.0557
G1 X81.976 Y138.460 E15.2069
G1 X70.024 Y138.460 E15.8380
G1 X67.540 Y135.976 E16.0235
G1 X67.540 Y134.460 E16.1035
G1 X66.024 Y134.460 E16.1836
G1 X63.540 Y131.976 E16.3691
G1 X63.540 Y124.024 E16.7890
G1 X66.024 Y121.540 E16.9745
G1 X79.540 Y121.540 E17.6882
G1 X79.540 Y118.460 E17.8508
G1 X70.024 Y118.460 E18.3533
G1 X67.540 Y115.976 E18.5388
G1 X67.540 Y104.024 E19.1699
G1 X70.024 Y101.540 E19.3554
G1 X79.540 Y101.540 E19.8579
G1 X79.540 Y98.460 E20.0205
G1 X70.024 Y98.460 E20.5230
G1 X67.540 Y95.976 E20.7085
G1 X67.540 Y84.024 E21.3396
G1 X70.024 Y81.540 E21.5251
G1 X79.540 Y81.540 E22.0276
G1 X79.540 Y78.460 E22.1902
G1 X70.024 Y78.460 E22.6927
G1 X67.540 Y75.976 E22.8782
G1 X67.540 Y74.460 E22.9583
G1 X66.024 Y74.460 E23.0383
G1 X63.540 Y71.976 E23.2238
G1 X63.540 Y64.024 E23.6437
G92 E0.0000
G1 E-0.7000 F1500
; feature outer perimeter
G1 X126.566 Y86.847 F4800
G1 E0.0000 F1500
G92 E0.0000
G1 X126.923 Y86.481 E0.0270 F900
G1 X127.569 Y86.263 E0.0630
G1 X127.630 Y86.332 E0.0679
G1 X127.733 Y86.777 E0.0920
G1 X127.733 Y93.723 E0.4587
G1 X127.630 Y94.168 E0.4829
G1 X127.569 Y94.237 E0.4877
G1 X126.923 Y94.019 E0.5237
G1 X126.566 Y93.652 E0.5508
G1 X126.566 Y86.847 E0.9101
; feature gap fill
G1 X127.018 Y86.968 F4800
G92 E0.0000
G1 X127.325 Y87.275 E0.0229 F1800
G1 X127.325 Y87.953 E0.0588
G1 X126.974 Y87.602 E0.0850
G1 X126.974 Y88.281 E0.1208
G1 X127.325 Y88.632 E0.1471
G1 X127.325 Y89.311 E0.1829
G1 X126.974 Y88.960 E0.2091
G1 X126.974 Y89.639 E0.2450
G1 X127.325 Y89.990 E0.2712
G1 X127.325 Y90.669 E0.3070
G1 X126.974 Y90.317 E0.3333
G1 X126.974 Y90.996 E0.3691
G1 X127.325 Y91.347 E0.3953
G1 X127.325 Y92.026 E0.4312
G1 X126.974 Y91.675 E0.4574
G1 X126.974 Y92.354 E0.4932
G1 X127.325 Y92.705 E0.5195
G1 X127.325 Y93.384 E0.5553
G1 X126.974 Y93.033 E0.5815
G92 E0.0000
G1 E-0.7000 F1500
; feature support
G1 X129.173 Y92.320 F4800
G1 E0.0000 F1500
G92 E0.0000
G1 X131.970 Y92.320 E0.1477 F1440
G1 X131.970 Y90.400 E0.2491
G1 X129.173 Y90.400 E0.3967
G1 X129.173 Y88.480 E0.4981
G1 X131.970 Y88.480 E0.6458
G1 X131.970 Y86.560 E0.7472
G1 X129.140 Y86.560 E0.8966
G92 E0.0000
G1 E-0.7000 F1500
G1 X108.030 Y76.960 F4800
G1 E0.0000 F1500
G92 E0.0000
G1 X119.970 Y76.960 E0.6305 F1440
G1 X119.970 Y75.040 E0.7319
G1 X108.030 Y75.040 E1.3623
G92 E0.0000
G1 E-0.7000 F1500
G1 X81.448 Y67.360 F4800
G1 E0.0000 F1500
G92 E0.0000
G1 X123.970 Y67.360 E2.2453 F1440
G1 X123.970 Y69.280 E2.3467
G1 X81.448 Y69.280 E4.5921
G1 X81.448 Y69.970 E4.6285
G1 X88.030 Y69.970 E4.9761
G1 X88.030 Y71.200 E5.0410
G1 X123.970 Y71.200 E6.9388
G1 X123.970 Y73.120 E7.0402
G1 X88.030 Y73.120 E8.9380
G1 X88.030 Y75.040 E9.0393
G1 X103.970 Y75.040 E9.8810
G1 X103.970 Y76.960 E9.9824
G1 X88.030 Y76.960 E10.8241
G1 X88.030 Y78.030 E10.8806
G1 X84.030 Y78.030 E11.0918
G1 X84.030 Y78.880 E11.1367
G1 X95.970 Y78.880 E11.7672
G1 X95.970 Y80.800 E11.8686
G1 X84.030 Y80.800 E12.4990
G1 X84.030 Y82.720 E12.6004
G1 X95.970 Y82.720 E13.2309
G1 X95.970 Y84.640 E13.3323
G1 X84.030 Y84.640 E13.9628
G1 X84.030 Y85.970 E14.0330
G1 X88.030 Y85.970 E14.2442
G1 X88.030 Y86.560 E14.2754
G1 X122.996 Y86.560 E16.1217
G1 X122.969 Y86.609 E16.1247
G1 X122.969 Y88.480 E16.2235
G1 X88.030 Y88.480 E18.0684
G1 X88.030 Y90.400 E18.1698
G1 X122.969 Y90.400 E20.0147
G1 X122.969 Y92.320 E20.1161
G1 X88.030 Y92.320 E21.9610
G1 X88.030 Y94.240 E22.0623
G1 X99.970 Y94.240 E22.6928
G1 X99.970 Y96.160 E22.7942
G1 X88.030 Y96.160 E23.4247
G1 X88.030 Y98.030 E23.5234
G1 X84.030 Y98.030 E23.7346
G1 X84.030 Y98.080 E23.7373
G1 X95.970 Y98.080 E24.3678
G1 X95.970 Y100.000 E24.4691
G1 X84.030 Y100.000 E25.0996
G1 X84.030 Y101.920 E25.2010
G1 X95.970 Y101.920 E25.8315
G1 X95.970 Y102.030 E25.8373
G1 X99.970 Y102.030 E26.0485
G1 X99.970 Y103.840 E26.1441
G1 X88.030 Y103.840 E26.7746
G1 X88.030 Y105.760 E26.8759
G1 X99.970 Y105.760 E27.5064
G1 X99.970 Y106.030 E27.5207
G1 X123.970 Y106.030 E28.7880
G1 X123.970 Y107.680 E28.8751
G1 X88.030 Y107.680 E30.7729
G1 X88.030 Y109.600 E30.8742
G1 X123.970 Y109.600 E32.7720
G1 X123.970 Y111.520 E32.8734
G1 X88.030 Y111.520 E34.7712
G1 X88.030 Y113.440 E34.8725
G1 X123.970 Y113.440 E36.7703
G1 X123.970 Y113.970 E36.7983
G1 X95.970 Y113.970 E38.2768
G1 X95.970 Y115.360 E38.3502
G1 X84.030 Y115.360 E38.9807
G1 X84.030 Y117.280 E39.0821
G1 X95.970 Y117.280 E39.7125
G1 X95.970 Y119.200 E39.8139
G1 X84.030 Y119.200 E40.4444
G1 X84.030 Y121.120 E40.5458
G1 X95.970 Y121.120 E41.1763
G1 X95.970 Y122.030 E41.2243
G1 X99.970 Y122.030 E41.4355
G1 X99.970 Y123.040 E41.4889
G1 X88.030 Y123.040 E42.1193
G1 X88.030 Y124.960 E42.2207
G1 X99.970 Y124.960 E42.8512
G1 X99.970 Y126.030 E42.9077
G1 X115.970 Y126.030 E43.7526
G1 X115.970 Y126.880 E43.7974
G1 X81.448 Y126.880 E45.6204
G1 X81.448 Y128.800 E45.7217
G1 X115.970 Y128.800 E47.5447
G1 X115.970 Y130.720 E47.6460
G1 X88.030 Y130.720 E49.1214
G1 X88.030 Y132.640 E49.2228
G1 X115.970 Y132.640 E50.6981
G92 E0.0000
G1 E-0.7000 F1500
G1 X72.030 Y132.640 F4800
G1 E0.0000 F1500
G92 E0.0000
G1 X79.970 Y132.640 E0.4193 F1440
G1 X79.970 Y130.790 E0.5169
G1 X79.959 Y130.790 E0.5175
G1 X79.959 Y130.720 E0.5212
G1 X72.030 Y130.720 E0.9399
G1 X72.030 Y129.970 E0.9795
G1 X68.030 Y129.970 E1.1907
G1 X68.030 Y128.800 E1.2525
G1 X79.960 Y128.800 E1.8824
G1 X79.960 Y126.880 E1.9838
G1 X68.030 Y126.880 E2.6138
G92 E0.0000
G1 E-0.7000 F1500
G1 X72.030 Y113.440 F4800
G1 E0.0000 F1500
G92 E0.0000
G1 X79.970 Y113.440 E0.4193 F1440
G1 X79.970 Y111.520 E0.5206
G1 X72.030 Y111.520 E0.9399
G1 X72.030 Y109.600 E1.0413
G1 X79.970 Y109.600 E1.4606
G1 X79.970 Y107.680 E1.5619
G1 X72.030 Y107.680 E1.9812
G92 E0.0000
G1 E-0.7000 F1500
G1 X72.030 Y92.320 F4800
G1 E0.0000 F1500
G92 E0.0000
G1 X79.970 Y92.320 E0.4193 F1440
G1 X79.970 Y90.400 E0.5206
G1 X72.030 Y90.400 E0.9399
G1 X72.030 Y88.480 E1.0413
G1 X79.970 Y88.480 E1.4606
G1 X79.970 Y86.560 E1.5619
G1 X72.030 Y86.560 E1.9812
G92 E0.0000
G1 E-0.7000 F1500
G1 X72.030 Y73.120 F4800
G1 E0.0000 F1500
G92 E0.0000
G1 X79.970 Y73.120 E0.4193 F1440
G1 X79.970 Y72.290 E0.4631
G1 X79.961 Y72.290 E0.4636
G1 X79.961 Y71.200 E0.5211
G1 X72.030 Y71.200 E0.9399
G1 X72.030 Y69.970 E1.0048
G1 X68.030 Y69.970 E1.2161
G1 X68.030 Y69.280 E1.2525
G1 X79.960 Y69.280 E1.8824
G1 X79.959 Y67.360 E1.9838
G1 X68.030 Y67.360 E2.6137
G92 E0.0000
G1 E-0.7000 F1500
; layer 2, Z = 0.570
M106 S255
; feature inner perimeter
; tool H0.300 W0.480
G1 Z0.570 F1002
G1 X124.229 Y86.963 F4800
G1 E0.0000 F1500
G92 E0.0000
G1 X124.521 Y86.832 E0.0188 F2700
G1 X125.519 Y86.509 E0.0803
G1 X127.485 Y86.137 E0.1977
G1 X127.811 Y86.541 E0.2282
G1 X127.913 Y86.862 E0.2480
G1 X127.913 Y93.638 E0.6455
G1 X127.811 Y93.959 E0.6653
G1 X127.485 Y94.363 E0.6958
G1 X125.519 Y93.991 E0.8132
G1 X124.521 Y93.668 E0.8747
G1 X124.229 Y93.537 E0.8935
G1 X124.229 Y86.963 E1.2792
; feature outer perimeter
G1 X124.029 Y86.526 F4800
G92 E0.0000
G1 X124.349 Y86.383 E0.0205 F1800
G1 X125.400 Y86.043 E0.0854
G1 X127.554 Y85.635 E0.2140
G1 X127.866 Y85.844 E0.2360
G1 X128.241 Y86.309 E0.2711
G1 X128.393 Y86.787 E0.3005
G1 X128.393 Y93.713 E0.7068
G1 X128.241 Y94.191 E0.7363
G1 X127.866 Y94.656 E0.7713
G1 X127.554 Y94.865 E0.7934
G1 X125.400 Y94.457 E0.9220
G1 X124.349 Y94.117 E0.9868
G1 X124.029 Y93.974 E1.0074
G1 X123.757 Y93.702 E1.0299
G1 X123.749 Y93.688 E1.0309
G1 X123.749 Y86.812 E1.4343
G1 X123.757 Y86.798 E1.4353
G1 X124.029 Y86.526 E1.4578
; feature solid layer
G1 X124.637 Y87.582 F4800
G92 E0.0000
G1 X125.167 Y87.052 E0.0440 F2880
G1 X125.620 Y86.905 E0.0719
G1 X126.080 Y86.818 E0.0994
G1 X124.637 Y88.261 E0.2191
